/* XPM */
static const char *Portal_7[] = {
/* columns rows colors chars-per-pixel */
"512 512 256 2 ",
"   c #000204",
".  c #00030B",
"X  c #000A0D",
"o  c #000806",
"O  c #000513",
"+  c #000A14",
"@  c #00051B",
"#  c #000C1B",
"$  c #090D1A",
"%  c #00121C",
"&  c #021017",
"*  c #000623",
"=  c #000C23",
"-  c #000D2B",
";  c #01072B",
":  c #001324",
">  c #00142C",
",  c #001A2D",
"<  c #061727",
"1  c #000D33",
"2  c #000D38",
"3  c #001433",
"4  c #001B34",
"5  c #00153A",
"6  c #001B3A",
"7  c #0A1C37",
"8  c #121B2C",
"9  c #00213C",
"0  c #062338",
"q  c #15263A",
"w  c #001D42",
"e  c #011A47",
"r  c #001D53",
"t  c #002344",
"y  c #012A45",
"u  c #00244B",
"i  c #002B4C",
"p  c #0C2945",
"a  c #152A46",
"s  c #05324D",
"d  c #16334B",
"f  c #002552",
"g  c #002C53",
"h  c #002D5A",
"j  c #052857",
"k  c #013254",
"l  c #00345B",
"z  c #013A5C",
"x  c #0A3858",
"c  c #173A56",
"v  c #122E51",
"b  c #243A52",
"n  c #003562",
"m  c #013B63",
"M  c #003D6B",
"N  c #073A65",
"B  c #003C73",
"V  c #083363",
"C  c #1A435B",
"Z  c #08415D",
"A  c #26445C",
"S  c #37495B",
"D  c #014265",
"F  c #01436C",
"G  c #024A6D",
"H  c #0B4668",
"J  c #164968",
"K  c #19526D",
"L  c #004473",
"P  c #014B74",
"I  c #004C7B",
"U  c #074977",
"Y  c #154C73",
"T  c #01537C",
"R  c #085478",
"E  c #145374",
"W  c #1C5B7C",
"Q  c #185678",
"!  c #07516E",
"~  c #264B66",
"^  c #28536B",
"/  c #36576B",
"(  c #235C7C",
")  c #285875",
"_  c #355C75",
"`  c #324E67",
"'  c #29627C",
"]  c #38647A",
"[  c #1B617D",
"{  c #44667B",
"}  c #42596C",
"|  c #004D82",
" . c #004987",
".. c #015483",
"X. c #015A84",
"o. c #00558B",
"O. c #015B8B",
"+. c #0B5A86",
"@. c #175C85",
"#. c #005C93",
"$. c #025A96",
"%. c #105B91",
"&. c #255D83",
"*. c #345E82",
"=. c #01628C",
"-. c #0A638A",
";. c #196489",
":. c #016393",
">. c #016A95",
",. c #00649B",
"<. c #016B9C",
"1. c #0B6897",
"2. c #176996",
"3. c #03729D",
"4. c #19739A",
"5. c #1C708F",
"6. c #276788",
"7. c #376986",
"8. c #39728C",
"9. c #266C94",
"0. c #297499",
"q. c #377898",
"w. c #326E92",
"e. c #016CA3",
"r. c #026AA6",
"t. c #0173A4",
"y. c #0174AB",
"u. c #017BAC",
"i. c #0A77A7",
"p. c #1877A7",
"a. c #017BB3",
"s. c #007DBA",
"d. c #0477B3",
"f. c #177CB4",
"g. c #156DA3",
"h. c #277AA6",
"j. c #367CA4",
"k. c #267DB3",
"l. c #236EA2",
"z. c #005EA1",
"x. c #446C85",
"c. c #44738B",
"v. c #49748A",
"b. c #477A97",
"n. c #537992",
"m. c #467DA2",
"M. c #017ABD",
"N. c #3A819D",
"B. c #0183BB",
"V. c #0585B8",
"C. c #1886B9",
"Z. c #1585AF",
"A. c #2883AB",
"S. c #3885A9",
"D. c #2887B8",
"F. c #368BB6",
"G. c #3993BA",
"H. c #2992BC",
"J. c #47829C",
"K. c #56839C",
"L. c #4788A7",
"P. c #5589A6",
"I. c #468CB4",
"U. c #4795B9",
"Y. c #5597B9",
"T. c #5191AE",
"R. c #6697B3",
"E. c #6A9DB5",
"W. c #018BC3",
"Q. c #008CCB",
"!. c #0587C4",
"~. c #188BC5",
"^. c #0193CC",
"/. c #0794C8",
"(. c #1994CA",
"). c #0094D3",
"_. c #049AD8",
"`. c #1899D6",
"'. c #048ED1",
"]. c #278CC4",
"[. c #338CC4",
"{. c #2896C9",
"}. c #3797C8",
"|. c #289AD6",
" X c #369BD5",
".X c #05A2DC",
"XX c #19A3DA",
"oX c #1DA0CE",
"OX c #28A4DA",
"+X c #38A5D9",
"@X c #37A3CF",
"#X c #039DE3",
"$X c #189DE2",
"%X c #05A6E8",
"&X c #19A7E7",
"*X c #00ADF5",
"=X c #00ADFD",
"-X c #0BACF7",
";X c #1BACF4",
":X c #16ADF8",
">X c #01B2FD",
",X c #0CB4FD",
"<X c #03B5FA",
"1X c #14B4FD",
"2X c #1CB4FC",
"3X c #1AB6F9",
"4X c #1AB1ED",
"5X c #23ABEC",
"6X c #2CABEC",
"7X c #28A7E5",
"8X c #34ABE4",
"9X c #3BACE3",
"0X c #33ACEC",
"qX c #38A8E7",
"wX c #29B2EB",
"eX c #3CB3EC",
"rX c #37B4EA",
"tX c #23ADF3",
"yX c #29ADF4",
"uX c #36ADF3",
"iX c #24B3F4",
"pX c #2CB3F4",
"aX c #23B4FC",
"sX c #2BB4FB",
"dX c #24BAFE",
"fX c #2BBBFD",
"gX c #2AB9F5",
"hX c #33B3F3",
"jX c #3BB4F3",
"kX c #3BBBF4",
"lX c #33B4FC",
"zX c #33BBFC",
"xX c #3CBCFC",
"cX c #37B8F7",
"vX c #299EE2",
"bX c #479BC5",
"nX c #559CC5",
"mX c #429DD7",
"MX c #49A3C9",
"NX c #55A3C8",
"BX c #46A9D8",
"VX c #54AAD5",
"CX c #4FB2DC",
"ZX c #6BA6C8",
"AX c #45ABE5",
"SX c #46B6E9",
"DX c #53B8E7",
"FX c #45BAF5",
"GX c #50B6F2",
"HX c #659EC2",
"JX c #3BC1F9",
"KX c #3EC0EF",
"LX c #45C2F8",
"PX c #4DC1EE",
"IX c None",
"UX c black",
/* pixels */
"IXIXIXIXIXIXIXIXIXIXIXIXIXIXIXIXIXIXIXIXIXIXIXIXIXIXIXIXIXIXIXIXIXIXIXIXIXIXIXIXIXIXIXIXIXIXIXIXIXIXIXIXIXIXIXIXIXIXIXIXIXIXIXIXIXIXIXIXIXIXIXIXIXIXIXIXIXIXIXIXIXIXIXIXIXIXIXIXIXIXIXIXIXIXIXIXIXIXIXIXIXIXIXIXIXIXIXIXIXIXIXIXIXIXIXIXQ [ 6.9.0.A.F.G.}.@XBXSXSXSXLXLXLXLXJXKXrXrXwXOXOX(.(.C.Z.i.>.=.T ! IXIXIXIXIXIXIXIXIXIXIXIXIXIXIXIXIXIXIXIXIXIXIXIXIXIXIXIXIXIXIXIXIXIXIXIXIXIXIXIXIXIXIXIXIXIXIX_ ' ] ] ] ] ] ' / ^ IXIXIXIXIXIXIXIXIXIXIXIXIXIXIXIXIXIXIXIXIXIXIXIXIXIXIXIXIXIXIXIXIXIXIXIXIXIXIXIXIXIXIXIXIXIXIXIXIXIXIXIXIXIXIXIXIXIXIXIXIXIXIXIXIXIXIXIXIXIXIXIXIXIXIXIXIXIXIXIXIXIXIXIXIXIXIXIXIXIXIXIXIXIXIXIXIXIXIXIXIXIXIXIXIXIXIXIXIXIXIXIXIXIXIXIXIXIXIXIXIXIXIXIXIXIXIXIXIXIXIXIXIXIXIXIXIXIXIXIXIXIXIXIXIXIXIXIXIXIXIXIXIXIXIXIXIXIXIXIXIXIXIXIXIXIXIXIXIXIXIXIXIXIXIXIXIXIXIXIXIXIXIXIXIXIXIXIXIXIXIXIXIXIXIXIXIXIXIXIXIXIXIXIXIXIXIXIXIXIXIXIXIXIXIXIXIXIXIXIXIXIXIXIXIXIXIXIXIXIXIXIXIXIXIXIXIXIXIXIXIXIXIXIXIXIXIXIXIXIXIXIXIXIXIXIXIXIXIXIXIXIXIXIXIXIXIXIXIXIXIXIXIXIXIXIXIXIXIXIXIXIXIXIXIXIXIXIXIXIXIXIXIXIXIXIXIXIXIXIXIXIXIXIXIX",
"IXIXIXIXIXIXIXIXIXIXIXIXIXIXIXIXIXIXIXIXIXIXIXIXIXIXIXIXIXIXIXIXIXIXIXIXIXIXIXIXIXIXIXIXIXIXIXIXIXIXIXIXIXIXIXIXIXIXIXIXIXIXIXIXIXIXIXIXIXIXIXIXIXIXIXIXIXIXIXIXIXIXIXIXIXIXIXIXIXIXIXIXIXIXIXIXIXIXIXIXIXIXIXIXIXIXIXIXIXIXIXIXIXIXIXIXQ ;.6.0.h.A.F.G.}.@XBXSXSXPXLXLXLXLXJXKXrXrXwXOXOXoX(.C.Z.i.3.=.T T IXIXIXIXIXIXIXIXIXIXIXIXIXIXIXIXIXIXIXIXIXIXIXIXIXIXIXIXIXIXIXIXIXIXIXIXIXIXIXIXIXIXIXIXIX/ _ ] ] ] ] ] ] ] ] ' / ^ IXIXIXIXIXIXIXIXIXIXIXIXIXIXIXIXIXIXIXIXIXIXIXIXIXIXIXIXIXIXIXIXIXIXIXIXIXIXIXIXIXIXIXIXIXIXIXIXIXIXIXIXIXIXIXIXIXIXIXIXIXIXIXIXIXIXIXIXIXIXIXIXIXIXIXIXIXIXIXIXIXIXIXIXIXIXIXIXIXIXIXIXIXIXIXIXIXIXIXIXIXIXIXIXIXIXIXIXIXIXIXIXIXIXIXIXIXIXIXIXIXIXIXIXIXIXIXIXIXIXIXIXIXIXIXIXIXIXIXIXIXIXIXIXIXIXIXIXIXIXIXIXIXIXIXIXIXIXIXIXIXIXIXIXIXIXIXIXIXIXIXIXIXIXIXIXIXIXIXIXIXIXIXIXIXIXIXIXIXIXIXIXIXIXIXIXIXIXIXIXIXIXIXIXIXIXIXIXIXIXIXIXIXIXIXIXIXIXIXIXIXIXIXIXIXIXIXIXIXIXIXIXIXIXIXIXIXIXIXIXIXIXIXIXIXIXIXIXIXIXIXIXIXIXIXIXIXIXIXIXIXIXIXIXIXIXIXIXIXIXIXIXIXIXIXIXIXIXIXIXIXIXIXIXIXIXIXIXIXIXIXIXIXIXIXIXIXIXIXIXIXIXIXIX",
"IXIXIXIXIXIXIXIXIXIXIXIXIXIXIXIXIXIXIXIXIXIXIXIXIXIXIXIXIXIXIXIXIXIXIXIXIXIXIXIXIXIXIXIXIXIXIXIXIXIXIXIXIXIXIXIXIXIXIXIXIXIXIXIXIXIXIXIXIXIXIXIXIXIXIXIXIXIXIXIXIXIXIXIXIXIXIXIXIXIXIXIXIXIXIXIXIXIXIXIXIXIXIXIXIXIXIXIXIXIXIXIXIXIXIXK W 6.9.0.A.F.G.}.@X@XBXSXSXPXLXLXLXLXJXKXkXrXrX8XOXoX(.C.Z.i.3.>.=.T ! IXIXIXIXIXIXIXIXIXIXIXIXIXIXIXIXIXIXIXIXIXIXIXIXIXIXIXIXIXIXIXIXIXIXIXIXIXIXIXIXIXIX^ ) ) ' ] 7.7.7.7.7.] ] ] _ ^ ^ IXIXIXIXIXIXIXIXIXIXIXIXIXIXIXIXIXIXIXIXIXIXIXIXIXIXIXIXIXIXIXIXIXIXIXIXIXIXIXIXIXIXIXIXIXIXIXIXIXIXIXIXIXIXIXIXIXIXIXIXIXIXIXIXIXIXIXIXIXIXIXIXIXIXIXIXIXIXIXIXIXIXIXIXIXIXIXIXIXIXIXIXIXIXIXIXIXIXIXIXIXIXIXIXIXIXIXIXIXIXIXIXIXIXIXIXIXIXIXIXIXIXIXIXIXIXIXIXIXIXIXIXIXIXIXIXIXIXIXIXIXIXIXIXIXIXIXIXIXIXIXIXIXIXIXIXIXIXIXIXIXIXIXIXIXIXIXIXIXIXIXIXIXIXIXIXIXIXIXIXIXIXIXIXIXIXIXIXIXIXIXIXIXIXIXIXIXIXIXIXIXIXIXIXIXIXIXIXIXIXIXIXIXIXIXIXIXIXIXIXIXIXIXIXIXIXIXIXIXIXIXIXIXIXIXIXIXIXIXIXIXIXIXIXIXIXIXIXIXIXIXIXIXIXIXIXIXIXIXIXIXIXIXIXIXIXIXIXIXIXIXIXIXIXIXIXIXIXIXIXIXIXIXIXIXIXIXIXIXIXIXIXIXIXIXIXIXIXIXIXIXIXIX",
"IXIXIXIXIXIXIXIXIXIXIXIXIXIXIXIXIXIXIXIXIXIXIXIXIXIXIXIXIXIXIXIXIXIXIXIXIXIXIXIXIXIXIXIXIXIXIXIXIXIXIXIXIXIXIXIXIXIXIXIXIXIXIXIXIXIXIXIXIXIXIXIXIXIXIXIXIXIXIXIXIXIXIXIXIXIXIXIXIXIXIXIXIXIXIXIXIXIXIXIXIXIXIXIXIXIXIXIXIXIXIXIXIXIXIXK ' 6.0.0.S.F.G.}.@X@XBXSXSXPXLXLXLXLXJXKXkXrXrX8XOXOX(.H.Z.Z.3.>.-.T ! IXIXIXIXIXIXIXIXIXIXIXIXIXIXIXIXIXIXIXIXIXIXIXIXIXIXIXIXIXIXIXIXIXIXIXIXIXIXIXIXIX^ ) ) ' ] 7.8.8.8.8.8.7.] ' ' ) ^ IXIXIXIXIXIXIXIXIXIXIXIXIXIXIXIXIXIXIXIXIXIXIXIXIXIXIXIXIXIXIXIXIXIXIXIXIXIXIXIXIXIXIXIXIXIXIXIXIXIXIXIXIXIXIXIXIXIXIXIXIXIXIXIXIXIXIXIXIXIXIXIXIXIXIXIXIXIXIXIXIXIXIXIXIXIXIXIXIXIXIXIXIXIXIXIXIXIXIXIXIXIXIXIXIXIXIXIXIXIXIXIXIXIXIXIXIXIXIXIXIXIXIXIXIXIXIXIXIXIXIXIXIXIXIXIXIXIXIXIXIXIXIXIXIXIXIXIXIXIXIXIXIXIXIXIXIXIXIXIXIXIXIXIXIXIXIXIXIXIXIXIXIXIXIXIXIXIXIXIXIXIXIXIXIXIXIXIXIXIXIXIXIXIXIXIXIXIXIXIXIXIXIXIXIXIXIXIXIXIXIXIXIXIXIXIXIXIXIXIXIXIXIXIXIXIXIXIXIXIXIXIXIXIXIXIXIXIXIXIXIXIXIXIXIXIXIXIXIXIXIXIXIXIXIXIXIXIXIXIXIXIXIXIXIXIXIXIXIXIXIXIXIXIXIXIXIXIXIXIXIXIXIXIXIXIXIXIXIXIXIXIXIXIXIXIXIXIXIXIXIXIXIX",
"IXIXIXIXIXIXIXIXIXIXIXIXIXIXIXIXIXIXIXIXIXIXIXIXIXIXIXIXIXIXIXIXIXIXIXIXIXIXIXIXIXIXIXIXIXIXIXIXIXIXIXIXIXIXIXIXIXIXIXIXIXIXIXIXIXIXIXIXIXIXIXIXIXIXIXIXIXIXIXIXIXIXIXIXIXIXIXIXIXIXIXIXIXIXIXIXIXIXIXIXIXIXIXIXIXIXIXIXIXIXIXIXIXIXIX) 6.9.0.S.F.G.G.}.@XBXBXSXSXPXLXLXLXLXLXJXKXrXrX8XOXOX{.H.C.Z.i.1.-.R R IXIXIXIXIXIXIXIXIXIXIXIXIXIXIXIXIXIXIXIXIXIXIXIXIXIXIXIXIXIXIXIXIXIXIXIXIXIXIXIX^ ^ ) ' ] 7.8.8.8.8.8.8.8.7.' ' ) ^ IXIXIXIXIXIXIXIXIXIXIXIXIXIXIXIXIXIXIXIXIXIXIXIXIXIXIXIXIXIXIXIXIXIXIXIXIXIXIXIXIXIXIXIXIXIXIXIXIXIXIXIXIXIXIXIXIXIXIXIXIXIXIXIXIXIXIXIXIXIXIXIXIXIXIXIXIXIXIXIXIXIXIXIXIXIXIXIXIXIXIXIXIXIXIXIXIXIXIXIXIXIXIXIXIXIXIXIXIXIXIXIXIXIXIXIXIXIXIXIXIXIXIXIXIXIXIXIXIXIXIXIXIXIXIXIXIXIXIXIXIXIXIXIXIXIXIXIXIXIXIXIXIXIXIXIXIXIXIXIXIXIXIXIXIXIXIXIXIXIXIXIXIXIXIXIXIXIXIXIXIXIXIXIXIXIXIXIXIXIXIXIXIXIXIXIXIXIXIXIXIXIXIXIXIXIXIXIXIXIXIXIXIXIXIXIXIXIXIXIXIXIXIXIXIXIXIXIXIXIXIXIXIXIXIXIXIXIXIXIXIXIXIXIXIXIXIXIXIXIXIXIXIXIXIXIXIXIXIXIXIXIXIXIXIXIXIXIXIXIXIXIXIXIXIXIXIXIXIXIXIXIXIXIXIXIXIXIXIXIXIXIXIXIXIXIXIXIXIXIXIXIXIX",
"IXIXIXIXIXIXIXIXIXIXIXIXIXIXIXIXIXIXIXIXIXIXIXIXIXIXIXIXIXIXIXIXIXIXIXIXIXIXIXIXIXIXIXIXIXIXIXIXIXIXIXIXIXIXIXIXIXIXIXIXIXIXIXIXIXIXIXIXIXIXIXIXIXIXIXIXIXIXIXIXIXIXIXIXIXIXIXIXIXIXIXIXIXIXIXIXIXIXIXIXIXIXIXIXIXIXIXIXIXIXIXIXIXIX^ ( 6.w.0.S.F.G.G.@XMXBXCXSXSXPXLXLXLXLXLXJXKXrXrX8XOXOX{.(.C.Z.i.1.-.R R IXIXIXIXIXIXIXIXIXIXIXIXIXIXIXIXIXIXIXIXIXIXIXIXIXIXIXIXIXIXIXIXIXIXIXIXIXIXIX^ ^ ) ' ' 7.8.8.8.8.8.8.8.8.7.' ' ) ^ IXIXIXIXIXIXIXIXIXIXIXIXIXIXIXIXIXIXIXIXIXIXIXIXIXIXIXIXIXIXIXIXIXIXIXIXIXIXIXIXIXIXIXIXIXIXIXIXIXIXIXIXIXIXIXIXIXIXIXIXIXIXIXIXIXIXIXIXIXIXIXIXIXIXIXIXIXIXIXIXIXIXIXIXIXIXIXIXIXIXIXIXIXIXIXIXIXIXIXIXIXIXIXIXIXIXIXIXIXIXIXIXIXIXIXIXIXIXIXIXIXIXIXIXIXIXIXIXIXIXIXIXIXIXIXIXIXIXIXIXIXIXIXIXIXIXIXIXIXIXIXIXIXIXIXIXIXIXIXIXIXIXIXIXIXIXIXIXIXIXIXIXIXIXIXIXIXIXIXIXIXIXIXIXIXIXIXIXIXIXIXIXIXIXIXIXIXIXIXIXIXIXIXIXIXIXIXIXIXIXIXIXIXIXIXIXIXIXIXIXIXIXIXIXIXIXIXIXIXIXIXIXIXIXIXIXIXIXIXIXIXIXIXIXIXIXIXIXIXIXIXIXIXIXIXIXIXIXIXIXIXIXIXIXIXIXIXIXIXIXIXIXIXIXIXIXIXIXIXIXIXIXIXIXIXIXIXIXIXIXIXIXIXIXIXIXIXIXIXIXIXIXIX",
"IXIXIXIXIXIXIXIXIXIXIXIXIXIXIXIXIXIXIXIXIXIXIXIXIXIXIXIXIXIXIXIXIXIXIXIXIXIXIXIXIXIXIXIXIXIXIXIXIXIXIXIXIXIXIXIXIXIXIXIXIXIXIXIXIXIXIXIXIXIXIXIXIXIXIXIXIXIXIXIXIXIXIXIXIXIXIXIXIXIXIXIXIXIXIXIXIXIXIXIXIXIXIXIXIXIXIXIXIXIXIXIXIXIX^ ( 6.0.S.S.F.G.}.@XBXBXCXSXSXLXLXLXLXLXLXJXKXrXrX8XOXOX{.(.C.Z.p.4.-.R R ! IXIXIXIXIXIXIXIXIXIXIXIXIXIXIXIXIXIXIXIXIXIXIXIXIXIXIXIXIXIXIXIXIXIXIXIXIXIX^ ) ) ' 7.7.8.8.q.q.q.q.8.8.6.' ' ) K IXIXIXIXIXIXIXIXIXIXIXIXIXIXIXIXIXIXIXIXIXIXIXIXIXIXIXIXIXIXIXIXIXIXIXIXIXIXIXIXIXIXIXIXIXIXIXIXIXIXIXIXIXIXIXIXIXIXIXIXIXIXIXIXIXIXIXIXIXIXIXIXIXIXIXIXIXIXIXIXIXIXIXIXIXIXIXIXIXIXIXIXIXIXIXIXIXIXIXIXIXIXIXIXIXIXIXIXIXIXIXIXIXIXIXIXIXIXIXIXIXIXIXIXIXIXIXIXIXIXIXIXIXIXIXIXIXIXIXIXIXIXIXIXIXIXIXIXIXIXIXIXIXIXIXIXIXIXIXIXIXIXIXIXIXIXIXIXIXIXIXIXIXIXIXIXIXIXIXIXIXIXIXIXIXIXIXIXIXIXIXIXIXIXIXIXIXIXIXIXIXIXIXIXIXIXIXIXIXIXIXIXIXIXIXIXIXIXIXIXIXIXIXIXIXIXIXIXIXIXIXIXIXIXIXIXIXIXIXIXIXIXIXIXIXIXIXIXIXIXIXIXIXIXIXIXIXIXIXIXIXIXIXIXIXIXIXIXIXIXIXIXIXIXIXIXIXIXIXIXIXIXIXIXIXIXIXIXIXIXIXIXIXIXIXIXIXIXIXIXIXIXIX",
"IXIXIXIXIXIXIXIXIXIXIXIXIXIXIXIXIXIXIXIXIXIXIXIXIXIXIXIXIXIXIXIXIXIXIXIXIXIXIXIXIXIXIXIXIXIXIXIXIXIXIXIXIXIXIXIXIXIXIXIXIXIXIXIXIXIXIXIXIXIXIXIXIXIXIXIXIXIXIXIXIXIXIXIXIXIXIXIXIXIXIXIXIXIXIXIXIXIXIXIXIXIXIXIXIXIXIXIXIXIXIXIXIXIX) ' 6.q.S.S.G.G.bXMXBXBXCXSXPXLXLXLXLXLXJXJXKXrXrX8XOXOXoX(.C.Z.Z.4.-.-.R ! IXIXIXIXIXIXIXIXIXIXIXIXIXIXIXIXIXIXIXIXIXIXIXIXIXIXIXIXIXIXIXIXIXIXIXIXIX^ ) ) ' 6.7.8.8.q.q.q.q.q.8.w.6.' ' K K IXIXIXIXIXIXIXIXIXIXIXIXIXIXIXIXIXIXIXIXIXIXIXIXIXIXIXIXIXIXIXIXIXIXIXIXIXIXIXIXIXIXIXIXIXs s s s s s s s s s s IXIXIXIXIXIXIXIXIXIXIXIXIXIXIXIXIXIXIXIXIXIXIXIXIXIXIXIXIXIXIXIXIXIXIXIXIXIXIXIXIXIXIXIXIXIXIXIXIXIXIXIXIXIXIXIXIXIXIXIXIXIXIXIXIXIXIXIXIXIXIXIXIXIXIXIXIXIXIXIXIXIXIXIXIXIXIXIXIXIXIXIXIXIXIXIXIXIXIXIXIXIXIXIXIXIXIXIXIXIXIXIXIXIXIXIXIXIXIXIXIXIXIXIXIXIXIXIXIXIXIXIXIXIXIXIXIXIXIXIXIXIXIXIXIXIXIXIXIXIXIXIXIXIXIXIXIXIXIXIXIXIXIXIXIXIXIXIXIXIXIXIXIXIXIXIXIXIXIXIXIXIXIXIXIXIXIXIXIXIXIXIXIXIXIXIXIXIXIXIXIXIXIXIXIXIXIXIXIXIXIXIXIXIXIXIXIXIXIXIXIXIXIXIXIXIXIXIXIXIXIXIXIXIXIXIXIXIXIXIXIXIXIXIXIXIXIX",
"IXIXIXIXIXIXIXIXIXIXIXIXIXIXIXIXIXIXIXIXIXIXIXIXIXIXIXIXIXIXIXIXIXIXIXIXIXIXIXIXIXIXIXIXIXIXIXIXIXIXIXIXIXIXIXIXIXIXIXIXIXIXIXIXIXIXIXIXIXIXIXIXIXIXIXIXIXIXIXIXIXIXIXIXIXIXIXIXIXIXIXIXIXIXIXIXIXIXIXIXIXIXIXIXIXIXIXIXIXIXIXIXIXIX) 6.w.q.S.F.G.bXMXMXBXBXSXSXSXLXLXLXLXLXLXJXKXrXrX8XOXOXoX{.C.Z.Z.4.2.-.R ! IXIXIXIXIXIXIXIXIXIXIXIXIXIXIXIXIXIXIXIXIXIXIXIXIXIXIXIXIXIXIXIXIXIXIXIX^ ) ' ' 6.6.w.8.q.q.q.q.q.q.w.6.6.' ( K K IXIXIXIXIXIXIXIXIXIXIXIXIXIXIXIXIXIXIXIXIXIXIXIXIXIXIXIXIXIXIXIXIXIXIXIXIXIXIXIXIXx x x x x x x x x x x x k k k k s IXIXIXIXIXIXIXIXIXIXIXIXIXIXIXIXIXIXIXIXIXIXIXIXIXIXIXIXIXIXIXIXIXIXIXIXIXIXIXIXIXIXIXIXIXIXIXIXIXIXIXIXIXIXIXIXIXIXIXIXIXIXIXIXIXIXIXIXIXIXIXIXIXIXIXIXIXIXIXIXIXIXIXIXIXIXIXIXIXIXIXIXIXIXIXIXIXIXIXIXIXIXIXIXIXIXIXIXIXIXIXIXIXIXIXIXIXIXIXIXIXIXIXIXIXIXIXIXIXIXIXIXIXIXIXIXIXIXIXIXIXIXIXIXIXIXIXIXIXIXIXIXIXIXIXIXIXIXIXIXIXIXIXIXIXIXIXIXIXIXIXIXIXIXIXIXIXIXIXIXIXIXIXIXIXIXIXIXIXIXIXIXIXIXIXIXIXIXIXIXIXIXIXIXIXIXIXIXIXIXIXIXIXIXIXIXIXIXIXIXIXIXIXIXIXIXIXIXIXIXIXIXIXIXIXIXIXIXIXIXIXIXIXIXIX",
"IXIXIXIXIXIXIXIXIXIXIXIXIXIXIXIXIXIXIXIXIXIXIXIXIXIXIXIXIXIXIXIXIXIXIXIXIXIXIXIXIXIXIXIXIXIXIXIXIXIXIXIXIXIXIXIXIXIXIXIXIXIXIXIXIXIXIXIXIXIXIXIXIXIXIXIXIXIXIXIXIXIXIXIXIXIXIXIXIXIXIXIXIXIXIXIXIXIXIXIXIXIXIXIXIXIXIXIXIXIXIXIXIX^ _ 7.w.q.S.F.U.bXMXMXBXBXCXSXSXPXLXLXLXLXJXKXkXrXrX8XOXOXoX{.C.Z.Z.4.2.-.R ! IXIXIXIXIXIXIXIXIXIXIXIXIXIXIXIXIXIXIXIXIXIXIXIXIXIXIXIXIXIXIXIXIXIXIXIX) ( ' 6.6.w.w.q.q.q.q.q.q.w.w.6.6.' W K K IXIXIXIXIXIXIXIXIXIXIXIXIXIXIXIXIXIXIXIXIXIXIXIXIXIXIXIXIXIXIXIXIXIXIXIXIXIXIXx x x x x x x x x x x x Z x x x x x x k k IXIXIXIXIXIXIXIXIXIXIXIXIXIXIXIXIXIXIXIXIXIXIXIXIXIXIXIXIXIXIXIXIXIXIXIXIXIXIXIXIXIXIXIXIXIXIXIXIXIXIXIXIXIXIXIXIXIXIXIXIXIXIXIXIXIXIXIXIXIXIXIXIXIXIXIXIXIXIXIXIXIXIXIXIXIXIXIXIXIXIXIXIXIXIXIXIXIXIXIXIXIXIXIXIXIXIXIXIXIXIXIXIXIXIXIXIXIXIXIXIXIXIXIXIXIXIXIXIXIXIXIXIXIXIXIXIXIXIXIXIXIXIXIXIXIXIXIXIXIXIXIXIXIXIXIXIXIXIXIXIXIXIXIXIXIXIXIXIXIXIXIXIXIXIXIXIXIXIXIXIXIXIXIXIXIXIXIXIXIXIXIXIXIXIXIXIXIXIXIXIXIXIXIXIXIXIXIXIXIXIXIXIXIXIXIXIXIXIXIXIXIXIXIXIXIXIXIXIXIXIXIXIXIXIXIXIXIXIXIXIXIXIX",
"IXIXIXIXIXIXIXIXIXIXIXIXIXIXIXIXIXIXIXIXIXIXIXIXIXIXIXIXIXIXIXIXIXIXIXIXIXIXIXIXIXIXIXIXIXIXIXIXIXIXIXIXIXIXIXIXIXIXIXIXIXIXIXIXIXIXIXIXIXIXIXIXIXIXIXIXIXIXIXIXIXIXIXIXIXIXIXIXIXIXIXIXIXIXIXIXIXIXIXIXIXIXIXIXIXIXIXIXIXIXIXIXIX) ' 7.q.S.S.I.U.bXMXMXBXBXCXSXSXPXLXLXLXLXKXKXkXrX8XOXOXOX{.{.C.C.Z.4.5.;.R ! IXIXIXIXIXIXIXIXIXIXIXIXIXIXIXIXIXIXIXIXIXIXIXIXIXIXIXIXIXIXIXIXIXIXIX) ( ' 6.6.w.w.q.q.q.q.q.0.0.w.w.6.6.[ Q K ! IXIXIXIXIXIXIXIXIXIXIXIXIXIXIXIXIXIXIXIXIXIXIXIXIXIXIXIXIXIXIXIXIXIXIXIXIXIXJ J J J J J H H J J H H H H H H Z Z Z x x x x IXIXIXIXIXIXIXIXIXIXIXIXIXIXIXIXIXIXIXIXIXIXIXIXIXIXIXIXIXIXIXIXIXIXIXIXIXIXIXIXIXIXIXIXIXIXIXIXIXIXIXIXIXIXIXIXIXIXIXIXIXIXIXIXIXIXIXIXIXIXIXIXIXIXIXIXIXIXIXIXIXIXIXIXIXIXIXIXIXIXIXIXIXIXIXIXIXIXIXIXIXIXIXIXIXIXIXIXIXIXIXIXIXIXIXIXIXIXIXIXIXIXIXIXIXIXIXIXIXIXIXIXIXIXIXIXIXIXIXIXIXIXIXIXIXIXIXIXIXIXIXIXIXIXIXIXIXIXIXIXIXIXIXIXIXIXIXIXIXIXIXIXIXIXIXIXIXIXIXIXIXIXIXIXIXIXIXIXIXIXIXIXIXIXIXIXIXIXIXIXIXIXIXIXIXIXIX/ / / IXIXIXIXIXIXIXIXIXIXIXIXIXIXIXIXIXIXIXIXIXIXIXIXIXIXIXIXIXIXIXIX",
"IXIXIXIXIXIXIXIXIXIXIXIXIXIXIXIXIXIXIXIXIXIXIXIXIXIXIXIXIXIXIXIXIXIXIXIXIXIXIXIXIXIXIXIXIXIXIXIXIXIXIXIXIXIXIXIXIXIXIXIXIXIXIXIXIXIXIXIXIXIXIXIXIXIXIXIXIXIXIXIXIXIXIXIXIXIXIXIXIXIXIXIXIXIXIXIXIXIXIXIXIXIXIXIXIXIXIXIXIXIXIXIXIX) ] 7.q.S.L.U.U.bXMXMXBXBXCXSXSXSXPXPXPXPXkXrXrXrXOXOXOXoX{.H.C.A.A.4.5.;.R ! IXIXIXIXIXIXIXIXIXIXIXIXIXIXIXIXIXIXIXIXIXIXIXIXIXIXIXIXIXIXIXIXIXIX) ( 6.6.6.w.q.q.q.q.q.q.0.0.0.0.5.6.;.[ Q E ! IXIXIXIXIXIXIXIXIXIXIXIXIXIXIXIXIXIXIXIXIXIXIXIXIXIXIXIXIXIXIXIXIXIXIXIXJ J J J J J J J J J J J J J J J J H H H H Z Z Z x x IXIXIXIXIXIXIXIXIXIXIXIXIXIXIXIXIXIXIXIXIXIXIXIXIXIXIXIXIXIXIXIXIXIXIXIXIXIXIXIXIXIXIXIXIXIXIXIXIXIXIXIXIXIXIXIXIXIXIXIXIXIXIXIXIXIXIXIXIXIXIXIXIXIXIXIXIXIXIXIXIXIXIXIXIXIXIXIXIXIXIXIXIXIXIXIXIXIXIXIXIXIXIXIXIXIXIXIXIXIXIXIXIXIXIXIXIXIXIXIXIXIXIXIXIXIXIXIXIXIXIXIXIXIXIXIXIXIXIXIXIXIXIXIXIXIXIXIXIXIXIXIXIXIXIXIXIXIXIXIXIXIXIXIXIXIXIXIXIXIXIXIXIXIXIXIXIXIXIXIXIXIXIXIXIXIXIXIXIXIXIXIXIXIXIXIXIXIXIXIXIXIXIXIXIXIX/ / / / IXIXIXIXIXIXIXIXIXIXIXIXIXIXIXIXIXIXIXIXIXIXIXIXIXIXIXIXIXIXIX",
"IXIXIXIXIXIXIXIXIXIXIXIXIXIXIXIXIXIXIXIXIXIXIXIXIXIXIXIXIXIXIXIXIXIXIXIXIXIXIXIXIXIXIXIXIXIXIXIXIXIXIXIXIXIXIXIXIXIXIXIXIXIXIXIXIXIXIXIXIXIXIXIXIXIXIXIXIXIXIXIXIXIXIXIXIXIXIXIXIXIXIXIXIXIXIXIXIXIXIXIXIXIXIXIXIXIXIXIXIXIXIXIX^ _ 7.8.q.L.I.U.U.bXMXMXBXBXBXCXSXSXSXSXSXeXrXrXrX+XOXOX|.{.{.H.D.A.p.4.;.;.Q ! IXIXIXIXIXIXIXIXIXIXIXIXIXIXIXIXIXIXIXIXIXIXIXIXIXIXIXIXIXIXIXIXIX^ ( 6.6.w.w.q.q.q.N.N.N.q.q.0.0.0.5.6.;.[ E E ! IXIXIXIXIXIXIXIXIXIXIXIXIXIXIXIXIXIXIXIXIXIXIXIXIXIXIXIXIXIXIXIXIXIXIXK K K K K K K K K K E K Y Y Y Y Y Y J J J J J H H Z x x IXIXIXIXIXIXIXIXIXIXIXIXIXIXIXIXIXIXIXIXIXIXIXIXIXIXIXIXIXIXIXIXIXIXIXIXIXIXIXIXIXIXIXIXIXIXIXIXIXIXIXIXIXIXIXIXIXIXIXIXIXIXIXIXIXIXIXIXIXIXIXIXIXIXIXIXIXIXIXIXIXIXIXIXIXIXIXIXIXIXIXIXIXIXIXIXIXIXIXIXIXIXIXIXIXIXIXIXIXIXIXIXIXIXIXIXIXIXIXIXIXIXIXIXIXIXIXIXIXIXIXIXIXIXIXIXIXIXIXIXIXIXIXIXIXIXIXIXIXIXIXIXIXIXIXIXIXIXIXIXIXIXIXIXIXIXIXIXIXIXIXIXIXIXIXIXIXIXIXIXIXIXIXIXIXIXIXIXIXIXIXIXIXIXIXIXIXIXIXIXIXIXIXIXIX/ / / / / IXIXIXIXIXIXIXIXIXIXIXIXIXIXIXIXIXIXIXIXIXIXIXIXIXIXIXIXIXIX",
"IXIXIXIXIXIXIXIXIXIXIXIXIXIXIXIXIXIXIXIXIXIXIXIXIXIXIXIXIXIXIXIXIXIXIXIXIXIXIXIXIXIXIXIXIXIXIXIXIXIXIXIXIXIXIXIXIXIXIXIXIXIXIXIXIXIXIXIXIXIXIXIXIXIXIXIXIXIXIXIXIXIXIXIXIXIXIXIXIXIXIXIXIXIXIXIXIXIXIXIXIXIXIXIXIXIXIXIXIXIXIXIX^ _ 7.8.b.L.I.U.U.bXMXMXMXBXBXBXBXAXSX9X9X9X9X8X+XOX@X{.{.{.H.D.A.A.4.4.;.[ E ! IXIXIXIXIXIXIXIXIXIXIXIXIXIXIXIXIXIXIXIXIXIXIXIXIXIXIXIXIXIXIXIX^ ( 6.6.w.0.q.q.S.S.S.S.S.N.0.q.0.0.5.;.;.[ R ! ! D IXIXIXIXIXIXIXIXIXIXIXIXIXIXIXIXIXIXIXIXIXIXIXIXIXIXIXIXIXIXIXIXK K K Q Q Q Q Q Q Q Q Q Q Q K K K K K E K Y Y J J H H J H Z x IXIXIXIXIXIXIXIXIXIXIXIXIXIXIXIXIXIXIXIXIXIXIXIXIXIXIXIXIXIXIXIXIXIXIXIXIXIXIXIXIXIXIXIXIXIXIXIXIXIXIXIXIXIXIXIXIXIXIXIXIXIXIXIXIXIXIXIXIXIXIXIXIXIXIXIXIXIXIXIXIXIXIXIXIXIXIXIXIXIXIXIXIXIXIXIXIXIXIXIXIXIXIXIXIXIXIXIXIXIXIXIXIXIXIXIXIXIXIXIXIXIXIXIXIXIXIXIXIXIXIXIXIXIXIXIXIXIXIXIXIXIXIXIXIXIXIXIXIXIXIXIXIXIXIXIXIXIXIXIXIXIXIXIXIXIXIXIXIXIXIXIXIXIXIXIXIXIXIXIXIXIXIXIXIXIXIXIXIXIXIXIXIXIXIXIXIXIXIXIXIXIXIXIX/ / / / / IXIXIXIXIXIXIXIXIXIXIXIXIXIXIXIXIXIXIXIXIXIXIXIXIXIXIXIXIXIX",
"IXIXIXIXIXIXIXIXIXIXIXIXIXIXIXIXIXIXIXIXIXIXIXIXIXIXIXIXIXIXIXIXIXIXIXIXIXIXIXIXIXIXIXIXIXIXIXIXIXIXIXIXIXIXIXIXIXIXIXIXIXIXIXIXIXIXIXIXIXIXIXIXIXIXIXIXIXIXIXIXIXIXIXIXIXIXIXIXIXIXIXIXIXIXIXIXIXIXIXIXIXIXIXIXIXIXIXIXIXIXIXIX/ ] 7.c.b.L.I.T.Y.U.bXMXMXMXMXBXBXBX+X+X+X+X+X@X@X@X{.{.H.H.D.A.Z.p.4.5.;.W E J IXIXIXIXIXIXIXIXIXIXIXIXIXIXIXIXIXIXIXIXIXIXIXIXIXIXIXIXIXIXIX^ ) ' 6.w.w.q.N.S.S.S.S.S.S.S.N.q.0.0.5.;.;.[ R R ! G D IXIXIXIXIXIXIXIXIXIXIXIXIXIXIXIXIX~ ~ ~ ~ ~ ~ ~ ^ ^ ^ ^ ^ ) ) ) ) ( ( W W W W W W W W Q Q Q Q Q Q Q Q K K Y Y J J J J H J H x IXIXIXIXIXIXIXIXIXIXIXIXIXIXIXIXIXIXIXIXIXIXIXIXIXIXIXIXIXIXIXIXIXIXIXIXIXIXIXIXIXIXIXIXIXIXIXIXIXIXIXIXIXIXIXIXIXIXIXIXIXIXIXIXIXIXIXIXIXIXIXIXIXIXIXIXIXIXIXIXIXIXIXIXIXIXIXIXIXIXIXIXIXIXIXIXIXIXIXIXIXIXIXIXIXIXIXIXIXIXIXIXIXIXIXIXIXIXIXIXIXIXIXIXIXIXIXIXIXIXIXIXIXIXIXIXIXIXIXIXIXIXIXIXIXIXIXIXIXIXIXIXIXIXIXIXIXIXIXIXIXIXIXIXIXIXIXIXIXIXIXIXIXIXIXIXIXIXIXIXIXIXIXIXIXIXIXIXIXIXIXIXIXIXIXIXIXIXIXIXIXIXIXIX/ / / / IXIXIXIXIXIXIXIXIXIXIXIXIXIXIXIXIXIXIXIXIXIXIXIXIXIXIXIXIXIX",
"IXIXIXIXIXIXIXIXIXIXIXIXIXIXIXIXIXIXIXIXIXIXIXIXIXIXIXIXIXIXIXIXIXIXIXIXIXIXIXIXIXIXIXIXIXIXIXIXIXIXIXIXIXIXIXIXIXIXIXIXIXIXIXIXIXIXIXIXIXIXIXIXIXIXIXIXIXIXIXIXIXIXIXIXIXIXIXIXIXIXIXIXIXIXIXIXIXIXIXIXIXIXIXIXIXIXIXIXIXIXIX` _ ] 7.b.b.L.T.U.Y.Y.bXbXMXMXMXMXMX@X@X@X@X@X@X}.{.{.H.H.D.A.A.A.p.4.5.5.;.Q E IXIXIXIXIXIXIXIXIXIXIXIXIXIXIXIXIXIXIXIXIXIXIXIXIXIXIXIXIXIXIXK ) ' 6.w.w.q.N.S.S.S.F.S.S.S.S.S.0.0.0.5.5.;.[ R R ! G D D IXIXIXIXIXIXIXIXC C J J J J J ~ ~ ~ ~ ~ ~ ^ ^ ^ ^ ) ) ) ) ( ( ( ( ( ( ( ( ( ( ( ( W W W W W W W Q Q Q K K K Y J J J J H J H x IXIXIXIXIXIXIXIXIXIXIXIXIXIXIXIXIXIXIXIXIXIXIXIXIXIXIXIXIXIXIXIXIXIXIXIXIXIXIXIXIXIXIXIXIXIXIXIXIXIXIXIXIXIXIXIXIXIXIXIXIXIXIXIXIXIXIXIXIXIXIXIXIXIXIXIXIXIXIXIXIXIXIXIXIXIXIXIXIXIXIXIXIXIXIXIXIXIXIXIXIXIXIXIXIXIXIXIXIXIXIXIXIXIXIXIXIXIXIXIXIXIXIXIXIXIXIXIXIXIXIXIXIXIXIXIXIXIXIXIXIXIXIXIXIXIXIXIXIXIXIXIXIXIXIXIXIXIXIXIXIXIXIXIXIXIXIXIXIXIXIXIXIXIXIXIXIXIXIXIXIXIXIXIXIXIXIXIXIXIXIXIXIXIXIXIXIXIXIXIXIXIXIXIXIXIXIXIXIXIXIXIXIXIXIXIXIXIXIXIXIXIXIXIXIXIXIXIXIXIXIXIXIXIXIXIXIX",
"IXIXIXIXIXIXIXIXIXIXIXIXIXIXIXIXIXIXIXIXIXIXIXIXIXIXIXIXIXIXIXIXIXIXIXIXIXIXIXIXIXIXIXIXIXIXIXIXIXIXIXIXIXIXIXIXIXIXIXIXIXIXIXIXIXIXIXIXIXIXIXIXIXIXIXIXIXIXIXIXIXIXIXIXIXIXIXIXIXIXIXIXIXIXIXIXIXIXIXIXIXIXIXIXIXIXIXIXIXIXIX` _ ] x.b.J.L.T.T.Y.Y.Y.bXbXbXbXMX@X@X}.}.}.}.}.H.H.D.D.A.A.p.p.4.4.5.5.;.W Q Y IXIXIXIXIXIXIXIXIXIXIXIXIXIXIXIXIXIXIXIXIXIXIXIXIXIXIXIXIXIXIX) ' 6.w.w.q.N.S.S.S.F.F.F.F.S.S.S.0.0.0.5.5.;.-.R R ! G G D D D D D Z Z Z J J J J J J J J K ~ ~ ~ ^ ^ ^ ^ ) ) ) ) ( ( ( ( ( ( ( ( ( ( ( ( ( ( ( W W W W W W Q Q Q Q K K K K J J J H J J Z x x IXIXIXIXIXIXIXIXIXIXIXIXIXIXIXIXIXIXIXIXIXIXIXIXIXIXIXIXIXIXIXIXIXIXIXIXIXIXIXIXIXIXIXIXIXIXIXIXIXIXIXIXIXIXIXIXIXIXIXIXIXIXIXIXIXIXIXIXIXIXIXIXIXIXIXIXIXIXIXIXIXIXIXIXIXIXIXIXIXIXIXIXIXIXIXIXIXIXIXIXIXIXIXIXIXIXIXIXIXIXIXIXIXIXIXIXIXIXIXIXIXIXIXIXIXIXIXIXIXIXIXIXIXIXIXIXIXIXIXIXIXIXIXIXIXIXIXIXIXIXIXIXIXIXIXIXIXIXIXIXIXIXIXIXIXIXIXIXIXIXIXIXIXIXIXIXIXIXIXIXIXIXIXIXIXIXIXIXIXIXIXIXIXIXIXIXIXIXIXIXIXIXIXIXIXIXIXIXIXIXIXIXIXIXIXIXIXIXIXIXIXIXIXIXIXIXIXIXIXIXIXIXIXIXIX",
"IXIXIXIXIXIXIXIXIXIXIXIXIXIXIXIXIXIXIXIXIXIXIXIXIXIXIXIXIXIXIXIXIXIXIXIXIXIXIXIXIXIXIXIXIXIXIXIXIXIXIXIXIXIXIXIXIXIXIXIXIXIXIXIXIXIXIXIXIXIXIXIXIXIXIXIXIXIXIXIXIXIXIXIXIXIXIXIXIXIXIXIXIXIXIXIXIXIXIXIXIXIXIXIXIXIXIXIXIXIX~ ` _ ] c.b.J.P.T.T.T.Y.Y.U.U.U.U.U.}.G.G.G.G.H.H.D.A.A.h.h.p.4.4.5.5.5.;.;.Q E IXIXIXIXIXIXIXIXIXIXIXIXIXIXIXIXIXIXIXIXIXIXIXIXIXIXIXIXIXIXIX^ ( 6.6.w.q.S.S.S.F.F.G.F.F.F.F.S.A.0.0.0.5.5.;.-.R R ! ! G D D D D D D H H J J J K K K K K ^ ^ ^ ^ ^ ^ ) ) ) ( ( ( ( ( ( ( &.&.6.6.6.6.( ( ( ( ( ( ( ( W ( W W Q Q Q Q K K K J J J J H J Z x x s s s s i y y 9 0 IXIXIXIXIXIXIXIXIXIXIXIXIXIXIXIXIXIXIXIXIXIXIXIXIXIXIXIXIXIXIXIXIXIXIXIXIXIXIXIXIXIXIXIXIXIXIXIXIXIXIXIXIXIXIXIXIXIXIXIXIXIXIXIXIXIXIXIXIXIXIXIXIXIXIXIXIXIXIXIXIXIXIXIXIXIXIXIXIXIXIXIXIXIXIXIXIXIXIXIXIXIXIXIXIXIXIXIXIXIXIXIXIXIXIXIXIXIXIXIXIXIXIXIXIXIXIXIXIXIXIXIXIXIXIXIXIXIXIXIXIXIXIXIXIXIXIXIXIXIXIXIXIXIXIXIXIXIXIXIXIXIXIXIXIXIXIXIXIXIXIXIXIXIXIXIXIXIXIXIXIXIXIXIXIXIXIXIXIXIXIXIXIXIXIXIXIXIXIXIXIXIXIXIXIXIXIXIXIXIXIXIXIXIXIXIXIXIXIXIXIXIXIXIXIXIX",
"IXIXIXIXIXIXIXIXIXIXIXIXIXIXIXIXIXIXIXIXIXIXIXIXIXIXIXIXIXIXIXIXIXIXIXIXIXIXIXIXIXIXIXIXIXIXIXIXIXIXIXIXIXIXIXIXIXIXIXIXIXIXIXIXIXIXIXIXIXIXIXIXIXIXIXIXIXIXIXIXIXIXIXIXIXIXIXIXIXIXIXIXIXIXIXIXIXIXIXIXIXIXIXIXIXIXIXIXIXIX` / _ { c.b.J.P.T.T.T.T.U.U.U.U.U.G.G.G.G.F.F.A.A.A.h.h.0.4.4.5.5.5.;.;.@.Q E IXIXIXIXIXIXIXIXIXIXIXIXIXIXIXIXIXIXIXIXIXIXIXIXIXIXIXIXIXIXIXK ( 6.6.w.q.q.S.S.S.G.G.G.G.G.F.F.S.A.A.0.0.5.5.;.-.R R R ! ! G D D D D H H J J K K K ^ ^ ^ ^ ^ ^ ^ ^ ) ) ) ( ( ( ( ( ( ( ( ( &.6.6.6.6.6.&.&.&.&.&.( ( ( ( ( ( W W Q Q K K K K J J J J H J C x x x k s s i y y 9 0 0 IXIXIXIXIXIXIXIXIXIXIXIXIXIXIXIXIXIXIXIXIXIXIXIXIXIXIXIXIXIXIXIXIXIXIXIXIXIXIXIXIXIXIXIXIXIXIXIXIXIXIXIXIXIXIXIXIXIXIXIXIXIXIXIXIXIXIXIXIXIXIXIXIXIXIXIXIXIXIXIXIXIXIXIXIXIXIXIXIXIXIXIXIXIXIXIXIXIXIXIXIXIXIXIXIXIXIXIXIXIXIXIXIXIXIXIXIXIXIXIXIXIXIXIXIXIXIXIXIXIXIXIXIXIXIXIXIXIXIXIXIXIXIXIXIXIXIXIXIXIXIXIXIXIXIXIXIXIXIXIXIXIXIXIXIXIXIXIXIXIXIXIXIXIXIXIXIXIXIXIXIXIXIXIXIXIXIXIXIXIXIXIXIXIXIXIXIXIXIXIXIXIXIXIXIXIXIXIXIXIXIXIXIXIXIXIXIXIXIXIXIXIXIXIXIX",
"IXIXIXIXIXIXIXIXIXIXIXIXIXIXIXIXIXIXIXIXIXIXIXIXIXIXIXIXIXIXIXIXIXIXIXIXIXIXIXIXIXIXIXIXIXIXIXIXIXIXIXIXIXIXIXIXIXIXIXIXIXIXIXIXIXIXIXIXIXIXIXIXIXIXIXIXIXIXIXIXIXIXIXIXIXIXIXIXIXIXIXIXIXIXIXIXIXIXIXIXIXIXIXIXIXIXIXIXIXIX` / ] x.c.n.K.P.T.T.T.T.T.U.U.I.G.F.F.F.F.S.A.A.h.0.0.9.5.5.5.;.;.;.;.W Q E IXIXIXIXIXIXIXIXIXIXIXIXIXIXIXIXIXIXIXIXIXIXIXIXIXIXIXIXIXIXIXIX) ' 6.w.q.q.S.S.S.G.G.G.G.G.G.G.F.S.A.A.0.0.5.5.;.-.R R R ! ! ! G G G G ! ! J K K K K ^ ) ) ) ) ) ) ) ) ( ( ( ( ( ( ( ( ( ( ( &.&.&.&.&.( ( &.( &.( ( ( ( ( ( ( Q Q Q Q K K K K J J J J H J Z x x x k s s i y y 9 9 9 0 IXIXIXIXIXIXIXIXIXIXIXIXIXIXIXIXIXIXIXIXIXIXIXIXIXIXIXIXIXIXIXIXIXIXIXIXIXIXIXIXIXIXIXIXIXIXIXIXIXIXIXIXIXIXIXIXIXIXIXIXIXIXIXIXIXIXIXIXIXIXIXIXIXIXIXIXIXIXIXIXIXIXIXIXIXIXIXIXIXIXIXIXIXIXIXIXIXIXIXIXIXIXIXIXIXIXIXIXIXIXIXIXIXIXIXIXIXIXIXIXIXIXIXIXIXIXIXIXIXIXIXIXIXIXIXIXIXIXIXIXIXIXIXIXIXIXIXIXIXIXIXIXIXIXIXIXIXIXIXIXIXIXIXIXIXIXIXIXIXIXIXIXIXIXIXIXIXIXIXIXIXIXIXIXIXIXIXIXIXIXIXIXIXIXIXIXIXIXIXIXIXIXIXIXIXIXIXIXIXIXIXIXIXIXIXIXIXIXIXIXIXIXIXIX",
"IXIXIXIXIXIXIXIXIXIXIXIXIXIXIXIXIXIXIXIXIXIXIXIXIXIXIXIXIXIXIXIXIXIXIXIXIXIXIXIXIXIXIXIXIXIXIXIXIXIXIXIXIXIXIXIXIXIXIXIXIXIXIXIXIXIXIXIXIXIXIXIXIXIXIXIXIXIXIXIXIXIXIXIXIXIXIXIXIXIXIXIXIXIXIXIXIXIXIXIXIXIXIXIXIXIXIXIXIXIX` / ] x.v.n.K.P.P.T.T.T.T.I.I.L.S.S.S.S.A.j.0.0.0.9.5.;.;.;.@.@.W Q Q Q E Y IXIXIXIXIXIXIXIXIXIXIXIXIXIXIXIXIXIXIXIXIXIXIXIXIXIXIXIXIXIXIXK ( 6.w.w.q.S.S.S.G.G.U.U.U.G.G.G.F.F.A.A.0.0.5.5.;.;.+.R R T ! ! G G G ! ! E K E Q Q W ) ( ) ( ( ( ( ( ( ( ( ( ( ( ( ( ( ( ( &.( ( ( ( ( &.( ( ( ( ( ( ( ( ( ( ( Q Q Q K K K K K J J J H H J Z x x k k s s y y y 9 9 9 0 4 IXIXIXIXIXIXIXIXIXIXIXIXIXIXIXIXIXIXIXIXIXIXIXIXIXIXIXIXIXIXIXIXIXIXIXIXIXIXIXIXIXIXIXIXIXIXIXIXIXIXIXIXIXIXIXIXIXIXIXIXIXIXIXIXIXIXIXIXIXIXIXIXIXIXIXIXIXIXIXIXIXIXIXIXIXIXIXIXIXIXIXIXIXIXIXIXIXIXIXIXIXIXIXIXIXIXIXIXIXIXIXIXIXIXIXIXIXIXIXIXIXIXIXIXIXIXIXIXIXIXIXIXIXIXIXIXIXIXIXIXIXIXIXIXIXIXIXIXIXIXIXIXIXIXIXIXIXIXIXIXIXIXIXIXIXIXIXIXIXIXIXIXIXIXIXIXIXIXIXIXIXIXIXIXIXIXIXIXIXIXIXIXIXIXIXIXIXIXIXIXIXIXIXIXIXIXIXIXIXIXIXIXIXIXIXIXIXIXIXIXIXIXIX",
"IXIXIXIXIXIXIXIXIXIXIXIXIXIXIXIXIXIXIXIXIXIXIXIXIXIXIXIXIXIXIXIXIXIXIXIXIXIXIXIXIXIXIXIXIXIXIXIXIXIXIXIXIXIXIXIXIXIXIXIXIXIXIXIXIXIXIXIXIXIXIXIXIXIXIXIXIXIXIXIXIXIXIXIXIXIXIXIXIXIXIXIXIXIXIXIXIXIXIXIXIXIXIXIXIXIXIXIXIXIX` / ] x.v.n.n.P.P.P.P.P.L.L.L.S.S.j.q.q.0.0.0.9.9.6.;.;.W Q Q Q Q E E Y IXIXIXIXIXIXIXIXIXIXIXIXIXIXIXIXIXIXIXIXIXIXIXIXIXIXIXIXIXIXIXIXIX) 6.6.w.q.S.S.S.F.I.U.U.U.U.G.G.G.F.F.S.A.0.0.5.5.;.;.-.R R R T ! ! ! ! ! ! E E Q Q W W ( ( ( ( ( ( ( ( ( ( ( ( ( ( ( ( ( ( ( ( ( ( ( ( ( ( ( ( ( ( ( W W ( ) ) Q Q Q K K Y K K J J J H H J H x x x k k s s i y y 9 9 9 0 4 4 IXIXIXIXIXIXIXIXIXIXIXIXIXIXIXIXIXIXIXIXIXIXIXIXIXIXIXIXIXIXIXIXIXIXIXIXIXIXIXIXIXIXIXIXIXIXIXIXIXIXIXIXIXIXIXIXIXIXIXIXIXIXIXIXIXIXIXIXIXIXIXIXIXIXIXIXIXIXIXIXIXIXIXIXIXIXIXIXIXIXIXIXIXIXIXIXIXIXIXIXIXIXIXIXIXIXIXIXIXIXIXIXIXIXIXIXIXIXIXIXIXIXIXIXIXIXIXIXIXIXIXIXIXIXIXIXIXIXIXIXIXIXIXIXIXIXIXIXIXIXIXIXIXIXIXIXIXIXIXIXIXIXIXIXIXIXIXIXIXIXIXIXIXIXIXIXIXIXIXIXIXIXIXIXIXIXIXIXIXIXIXIXIXIXIXIXIXIXIXIXIXIXIXIXIXIXIXIXIXIXIXIXIXIXIXIXIXIXIXIXIXIX",
"IXIXIXIXIXIXIXIXIXIXIXIXIXIXIXIXIXIXIXIXIXIXIXIXIXIXIXIXIXIXIXIXIXIXIXIXIXIXIXIXIXIXIXIXIXIXIXIXIXIXIXIXIXIXIXIXIXIXIXIXIXIXIXIXIXIXIXIXIXIXIXIXIXIXIXIXIXIXIXIXIXIXIXIXIXIXIXIXIXIXIXIXIXIXIXIXIXIXIXIXIXIXIXIXIXIXIXIXIXIX` / ] { x.v.n.K.P.P.P.L.L.L.b.q.q.q.0.w.w.w.6.6.6.;.W Q Q E E Y Y IXIXIXIXIXIXIXIXIXIXIXIXIXIXIXIXIXIXIXIXIXIXIXIXIXIXIXIXIXIXIXIXIXIXIXK ( 6.w.q.N.S.S.F.I.U.U.U.U.U.U.G.G.F.F.S.h.0.0.5.5.;.;.-.R R R R R ! ! ! ! E E Q Q Q W W ( ( ( ( ( ( ( ( ( ( ( ( ( ( ( ( W W W W W W W W W W W W W Q Q Q Q Q Q Q Q K K K K K J J J J H H J Z x x x k k s s i y y y 9 9 9 4 4 4 IXIXIXIXIXIXIXIXIXIXIXIXIXIXIXIXIXIXIXIXIXIXIXIXIXIXIXIXIXIXIXIXIXIXIXIXIXIXIXIXIXIXIXIXIXIXIXIXIXIXIXIXIXIXIXIXIXIXIXIXIXIXIXIXIXIXIXIXIXIXIXIXIXIXIXIXIXIXIXIXIXIXIXIXIXIXIXIXIXIXIXIXIXIXIXIXIXIXIXIXIXIXIXIXIXIXIXIXIXIXIXIXIXIXIXIXIXIXIXIXIXIXIXIXIXIXIXIXIXIXIXIXIXIXIXIXIXIXIXIXIXIXIXIXIXIXIXIXIXIXIXIXIXIXIXIXIXIXIXIXIXIXIXIXIXIXIXIXIXIXIXIXIXIXIXIXIXIXIXIXIXIXIXIXIXIXIXIXIXIXIXIXIXIXIXIXIXIXIXIXIXIXIXIXIXIXIXIXIXIXIXIXIXIXIXIXIXIXIXIXIXIX",
"IXIXIXIXIXIXIXIXIXIXIXIXIXIXIXIXIXIXIXIXIXIXIXIXIXIXIXIXIXIXIXIXIXIXIXIXIXIXIXIXIXIXIXIXIXIXIXIXIXIXIXIXIXIXIXIXIXIXIXIXIXIXIXIXIXIXIXIXIXIXIXIXIXIXIXIXIXIXIXIXIXIXIXIXIXIXIXIXIXIXIXIXIXIXIXIXIXIXIXIXIXIXIXIXIXIXIXIXIXIX` / _ { x.v.n.n.K.K.K.J.b.b.q.8.w.w.6.6.6.6.6.W W Q Q E Y IXIXIXIXIXIXIXIXIXIXIXIXIXIXIXIXIXIXIXIXIXIXIXIXIXIXIXIXIXIXIXIXIXIXIXIXIXIXIX) 6.w.q.q.S.S.F.I.U.U.U.bXbXU.U.G.G.F.F.A.A.0.0.5.5.;.;.-.+.R R R R R ! ! ! E E Q Q Q W W W W W W ( ( ( W W W W W W W W W W W W Q Q Q Q Q Q Q Q Q Q Q K K K K K K K K K K J J J J J J J J Z Z x x x k s s s i y y t 9 9 9 4 4 4 4 IXIXIXIXIXIXIXIXIXIXIXIXIXIXIXIXIXIXIXIXIXIXIXIXIXIXIXIXIXIXIXIXIXIXIXIXIXIXIXIXIXIXIXIXIXIXIXIXIXIXIXIXIXIXIXIXIXIXIXIXIXIXIXIXIXIXIXIXIXIXIXIXIXIXIXIXIXIXIXIXIXIXIXIXIXIXIXIXIXIXIXIXIXIXIXIXIXIXIXIXIXIXIXIXIXIXIXIXIXIXIXIXIXIXIXIXIXIXIXIXIXIXIXIXIXIXIXIXIXIXIXIXIXIXIXIXIXIXIXIXIXIXIXIXIXIXIXIXIXIXIXIXIXIXIXIXIXIXIXIXIXIXIXIXIXIXIXIXIXIXIXIXIXIXIXIXIXIXIXIXIXIXIXIXIXIXIXIXIXIXIXIXIXIXIXIXIXIXIXIXIXIXIXIXIXIXIXIXIXIXIXIXIXIXIXIXIXIXIXIXIX",
"IXIXIXIXIXIXIXIXIXIXIXIXIXIXIXIXIXIXIXIXIXIXIXIXIXIXIXIXIXIXIXIXIXIXIXIXIXIXIXIXIXIXIXIXIXIXIXIXIXIXIXIXIXIXIXIXIXIXIXIXIXIXIXIXIXIXIXIXIXIXIXIXIXIXIXIXIXIXIXIXIXIXIXIXIXIXIXIXIXIXIXIXIXIXIXIXIXIXIXIXIXIXIXIXIXIXIXIXIXIX` / _ { x.x.v.n.n.n.b.c.c.8.7.7.7.' ' ( ( ( W Q Q IXIXIXIXIXIXIXIXIXIXIXIXIXIXIXIXIXIXIXIXIXIXIXIXIXIXIXIXIXIXIXIXIXIXIXIXIXIXIXIXIXIXK ( 6.w.q.S.S.F.I.U.U.U.bXbXbXbXU.G.G.F.F.A.h.h.0.5.5.;.-.-.+.R R R R R R E R E Q Q Q Q Q W W W W W W W W W W Q Q Q Q Q Q Q Q Q Q E E K K K K K K K K K K K K Y J J J J J J J J J J J H Z Z Z x x x x k s s i y y y t 9 9 9 4 4 4 4 4 IXIXIXIXIXIXIXIXIXIXIXIXIXIXIXIXIXIXIXIXIXIXIXIXIXIXIXIXIXIXIXIXIXIXIXIXIXIXIXIXIXIXIXIXIXIXIXIXIXIXIXIXIXIXIXIXIXIXIXIXIXIXIXIXIXIXIXIXIXIXIXIXIXIXIXIXIXIXIXIXIXIXIXIXIXIXIXIXIXIXIXIXIXIXIXIXIXIXIXIXIXIXIXIXIXIXIXIXIXIXIXIXIXIXIXIXIXIXIXIXIXIXIXIXIXIXIXIXIXIXIXIXIXIXIXIXIXIXIXIXIXIXIXIXIXIXIXIXIXIXIXIXIXIXIXIXIXIXIXIXIXIXIXIXIXIXIXIXIXIXIXIXIXIXIXIXIXIXIXIXIXIXIXIXIXIXIXIXIXIXIXIXIXIXIXIXIXIXIXIXIXIXIXIXIXIXIXIXIXIXIXIXIXIXIXIXIXIXIXIX",
"IXIXIXIXIXIXIXIXIXIXIXIXIXIXIXIXIXIXIXIXIXIXIXIXIXIXIXIXIXIXIXIXIXIXIXIXIXIXIXIXIXIXIXIXIXIXIXIXIXIXIXIXIXIXIXIXIXIXIXIXIXIXIXIXIXIXIXIXIXIXIXIXIXIXIXIXIXIXIXIXIXIXIXIXIXIXIXIXIXIXIXIXIXIXIXIXIXIXIXIXIXIXIXIXIXIXIXIXIXIXS / / { { x.v.v.v.v.c.x.7.7.] ' ) ) ) IXIXIXIXIXIXIXIXIXIXIXIXIXIXIXIXIXIXIXIXIXIXIXIXIXIXIXIXIXIXIXIXIXIXIXIXIXIXIXIXIXIXIXIXIXIXIXK ) 6.w.q.j.S.S.G.U.U.U.bXbXbXbXbXbXG.G.F.F.A.h.h.0.5.5.5.;.-.-.+.R R R R R R E E Q Q Q Q Q Q Q Q Q Q Q Q Q Q Q Q Q Q Q E E E E E E Y Y Y Y Y Y Y Y J J J J J J J J J J J H H J H H Z Z x x x x x x x k s s i i y y y 9 9 9 6 4 4 4 4 3 IXIXIXIXIXIXIXIXIXIXIXIXIXIXIXIXIXIXIXIXIXIXIXIXIXIXIXIXIXIXIXIXIXIXIXIXIXIXIXIXIXIXIXIXIXIXIXIXIXIXIXIXIXIXIXIXIXIXIXIXIXIXIXIXIXIXIXIXIXIXIXIXIXIXIXIXIXIXIXIXIXIXIXIXIXIXIXIXIXIXIXIXIXIXIXIXIXIXIXIXIXIXIXIXIXIXIXIXIXIXIXIXIXIXIXIXIXIXIXIXIXIXIXIXIXIXIXIXIXIXIXIXIXIXIXIXIXIXIXIXIXIXIXIXIXIXIXIXIXIXIXIXIXIXIXIXIXIXIXIXIXIXIXIXIXIXIXIXIXIXIXIXIXIXIXIXIXIXIXIXIXIXIXIXIXIXIXIXIXIXIXIXIXIXIXIXIXIXIXIXIXIXIXIXIXIXIXIXIXIXIXIXIXIXIXIXIXIXIXIX",
"IXIXIXIXIXIXIXIXIXIXIXIXIXIXIXIXIXIXIXIXIXIXIXIXIXIXIXIXIXIXIXIXIXIXIXIXIXIXIXIXIXIXIXIXIXIXIXIXIXIXIXIXIXIXIXIXIXIXIXIXIXIXIXIXIXIXIXIXIXIXIXIXIXIXIXIXIXIXIXIXIXIXIXIXIXIXIXIXIXIXIXIXIXIXIXIXIXIXIXIXIXIXIXIXIXIXIXIXIXIXS ` / { { { { x.x.x.{ ] ] _ _ ^ ^ IXIXIXIXIXIXIXIXIXIXIXIXIXIXIXIXIXIXIXIXIXIXIXIXIXIXIXIXIXIXIXIXIXIXIXIXIXIXIXIXIXIXIXIXIXIXIXIXJ K ( 6.w.q.S.S.G.U.U.bXbXbXbXbXbXbXbXG.G.F.F.A.h.h.0.5.5.5.;.;.;.-.@.R R R R R R E E Q Q Q Q Q Q Q Q Q Q Q E E E E E E E Y Y ! ! H H H H H H H H H H H H H H H J H H H H H Z Z Z Z x x x x x x x x k k s s i y y y t t 9 9 9 4 4 4 4 3 3 > IXIXIXIXIXIXIXIXIXIXIXIXIXIXIXIXIXIXIXIXIXIXIXIXIXIXIXIXIXIXIXIXIXIXIXIXIXIXIXIXIXIXIXIXIXIXIXIXIXIXIXIXIXIXIXIXIXIXIXIXIXIXIXIXIXIXIXIXIXIXIXIXIXIXIXIXIXIXIXIXIXIXIXIXIXIXIXIXIXIXIXIXIXIXIXIXIXIXIXIXIXIXIXIXIXIXIXIXIXIXIXIXIXIXIXIXIXIXIXIXIXIXIXIXIXIXIXIXIXIXIXIXIXIXIXIXIXIXIXIXIXIXIXIXIXIXIXIXIXIXIXIXIXIXIXIXIXIXIXIXIXIXIXIXIXIXIXIXIXIXIXIXIXIXIXIXIXIXIXIXIXIXIXIXIXIXIXIXIXIXIXIXIXIXIXIXIXIXIXIXIXIXIXIXIXIXIXIXIXIXIXIXIXIXIXIXIXIXIX",
"IXIXIXIXIXIXIXIXIXIXIXIXIXIXIXIXIXIXIXIXIXIXIXIXIXIXIXIXIXIXIXIXIXIXIXIXIXIXIXIXIXIXIXIXIXIXIXIXIXIXIXIXIXIXIXIXIXIXIXIXIXIXIXIXIXIXIXIXIXIXIXIXIXIXIXIXIXIXIXIXIXIXIXIXIXIXIXIXIXIXIXIXIXIXIXIXIXIXIXIXIXIXIXIXIXIXIXIXIXIXIXS / / { { { { { { ] _ / / ` IXIXIXIXIXIXIXIXIXIXIXIXIXIXIXIXIXIXIXIXIXIXIXIXIXIXIXIXIXIXIXIXIXIXIXIXIXIXIXIXIXIXIXIXIXIXIXIXx C K ) ' 6.w.q.S.S.I.U.U.bXbXbXbXbXbXbXbX}.G.F.F.S.h.h.0.0.5.2.;.;.;.;.@.@.W R R R R E E E Q Q Q Q E E E E E E E Y Y ! H H H H H H H H H H H H H H H H H H Z H H x x x x x x x x x x x x x x x k k k k s s s i y y y t t 9 9 9 6 4 4 4 3 3 3 3 > IXIXIXIXIXIXIXIXIXIXIXIXIXIXIXIXIXIXIXIXIXIXIXIXIXIXIXIXIXIXIXIXIXIXIXIXIXIXIXIXIXIXIXIXIXIXIXIXIXIXIXIXIXIXIXIXIXIXIXIXIXIXIXIXIXIXIXIXIXIXIXIXIXIXIXIXIXIXIXIXIXIXIXIXIXIXIXIXIXIXIXIXIXIXIXIXIXIXIXIXIXIXIXIXIXIXIXIXIXIXIXIXIXIXIXIXIXIXIXIXIXIXIXIXIXIXIXIXIXIXIXIXIXIXIXIXIXIXIXIXIXIXIXIXIXIXIXIXIXIXIXIXIXIXIXIXIXIXIXIXIXIXIXIXIXIXIXIXIXIXIXIXIXIXIXIXIXIXIXIXIXIXIXIXIXIXIXIXIXIXIXIXIXIXIXIXIXIXIXIXIXIXIXIXIXIXIXIXIXIXIXIXIXIXIXIXIXIX",
"IXIXIXIXIXIXIXIXIXIXIXIXIXIXIXIXIXIXIXIXIXIXIXIXIXIXIXIXIXIXIXIXIXIXIXIXIXIXIXIXIXIXIXIXIXIXIXIXIXIXIXIXIXIXIXIXIXIXIXIXIXIXIXIXIXIXIXIXIXIXIXIXIXIXIXIXIXIXIXIXIXIXIXIXIXIXIXIXIXIXIXIXIXIXIXIXIXIXIXIXIXIXIXIXIXIXIXIXIXIXIXS ` / / } { { { / / / ` A IXIXIXIXIXIXIXIXIXIXIXIXIXIXIXIXIXIXIXIXIXIXIXIXIXIXIXIXIXIXIXIXIXIXIXIXIXIXIXIXIXIXIXIXIXIXIXi x Z J K ( 6.w.q.S.S.I.I.U.U.bXbXbXbXbXbXbXbXG.G.G.F.S.h.h.0.0.5.2.2.;.;.;.;.Q W Q Q R E E E E E E E E E E E ! ! H H H H H H D D D D D D D z z z z z z z x x x x x x x x x x x x x x k k k k k k s s s s s s i y y y y t 9 9 9 6 6 4 4 4 3 3 3 > > > > > IXIXIXIXIXIXIXIXIXIXIXIXIXIXIXIXIXIXIXIXIXIXIXIXIXIXIXIXIXIXIXIXIXIXIXIXIXIXIXIXIXIXIXIXIXIXIXIXIXIXIXIXIXIXIXIXIXIXIXIXIXIXIXIXIXIXIXIXIXIXIXIXIXIXIXIXIXIXIXIXIXIXIXIXIXIXIXIXIXIXIXIXIXIXIXIXIXIXIXIXIXIXIXIXIXIXIXIXIXIXIXIXIXIXIXIXIXIXIXIXIXIXIXIXIXIXIXIXIXIXIXIXIXIXIXIXIXIXIXIXIXIXIXIXIXIXIXIXIXIXIXIXIXIXIXIXIXIXIXIXIXIXIXIXIXIXIXIXIXIXIXIXIXIXIXIXIXIXIXIXIXIXIXIXIXIXIXIXIXIXIXIXIXIXIXIXIXIXIXIXIXIXIXIXIXIXIXIXIXIXIXIXIXIXIXIX",
"IXIXIXIXIXIXIXIXIXIXIXIXIXIXIXIXIXIXIXIXIXIXIXIXIXIXIXIXIXIXIXIXIXIXIXIXIXIXIXIXIXIXIXIXIXIXIXIXIXIXIXIXIXIXIXIXIXIXIXIXIXIXIXIXIXIXIXIXIXIXIXIXIXIXIXIXIXIXIXIXIXIXIXIXIXIXIXIXIXIXIXIXIXIXIXIXIXIXIXIXIXIXIXIXIXIXIXIXIXIXIXIXS ` / / / / / / / S A IXIXIXIXIXIXIXIXIXIXIXIXIXIXIXIXIXIXIXIXIXIXIXIXIXIXIXIXIXIXIXIXIXIXIXIXIXIXIXIXIXIXIXIXIX4 9 y s x C J K ( 6.w.q.S.S.I.U.U.U.bXbXbXbXbXbXbXbXG.G.F.F.S.h.h.0.0.5.2.2.;.;.;.;.@.Q Q Q E E E E E E E Y ! H H H H H H H D D D D m m z z z z z z z k k k k k k k k k k k k k k k k k k k k s s s s s s i s i i y y y t t 9 9 9 9 6 6 4 4 4 3 3 > > > > > > > > - - - - > > > > > > > IXIXIXIXIXIXIXIXIXIXIXIXIXIXIXIXIXIXIXIXIXIXIXIXIXIXIXIXIXIXIXIXIXIXIXIXIXIXIXIXIXIXIXIXIXIXIXIXIXIXIXIXIXIXIXIXIXIXIXIXIXIXIXIXIXIXIXIXIXIXIXIXIXIXIXIXIXIXIXIXIXIXIXIXIXIXIXIXIXIXIXIXIXIXIXIXIXIXIXIXIXIXIXIXIXIXIXIXIXIXIXIXIXIXIXIXIXIXIXIXIXIXIXIXIXIXIXIXIXIXIXIXIXIXIXIXIXIXIXIXIXIXIXIXIXIXIXIXIXIXIXIXIXIXIXIXIXIXIXIXIXIXIXIXIXIXIXIXIXIXIXIXIXIXIXIXIXIXIXIXIXIXIXIXIXIXIXIXIXIXIXIXIXIXIXIXIXIXIXIXIXIXIXIX",
"IXIXIXIXIXIXIXIXIXIXIXIXIXIXIXIXIXIXIXIXIXIXIXIXIXIXIXIXIXIXIXIXIXIXIXIXIXIXIXIXIXIXIXIXIXIXIXIXIXIXIXIXIXIXIXIXIXIXIXIXIXIXIXIXIXIXIXIXIXIXIXIXIXIXIXIXIXIXIXIXIXIXIXIXIXIXIXIXIXIXIXIXIXIXIXIXIXIXIXIXIXIXIXIXIXIXIXIXIXIXIXIXIXS ` / / / / S S IXIXIXIXIXIXIXIXIXIXIXIXIXIXIXIXIXIXIXIXIXIXIXIXIXIXIXIXIXIXIXIXIXIXIXIXIXIXIXIXIXIXIXIXIXIX, 4 9 y x x J K W ' 6.w.q.S.S.I.I.U.U.bXbXbXbXbXbXbXbXG.G.F.F.A.h.h.0.0.9.9.2.;.;.;.;.@.Q Q Q E E E E Y Y H H H H H D D D D m m m z z z z z l k k k k k k k k k k k k s i i i i i i i i i i i i i i i y y y y y y y y y t 9 9 9 9 9 6 6 4 4 4 3 3 3 > > > > > > > > - - - - - - > > > > > > > IXIXIXIXIXIXIXIXIXIXIXIXIXIXIXIXIXIXIXIXIXIXIXIXIXIXIXIXIXIXIXIXIXIXIXIXIXIXIXIXIXIXIXIXIXIXIXIXIXIXIXIXIXIXIXIXIXIXIXIXIXIXIXIXIXIXIXIXIXIXIXIXIXIXIXIXIXIXIXIXIXIXIXIXIXIXIXIXIXIXIXIXIXIXIXIXIXIXIXIXIXIXIXIXIXIXIXIXIXIXIXIXIXIXIXIXIXIXIXIXIXIXIXIXIXIXIXIXIXIXIXIXIXIXIXIXIXIXIXIXIXIXIXIXIXIXIXIXIXIXIXIXIXIXIXIXIXIXIXIXIXIXIXIXIXIXIXIXIXIXIXIXIXIXIXIXIXIXIXIXIXIXIXIXIXIXIXIXIXIXIXIXIXIXIXIXIXIXIXIXIXIX",
"IXIXIXIXIXIXIXIXIXIXIXIXIXIXIXIXIXIXIXIXIXIXIXIXIXIXIXIXIXIXIXIXIXIXIXIXIXIXIXIXIXIXIXIXIXIXIXIXIXIXIXIXIXIXIXIXIXIXIXIXIXIXIXIXIXIXIXIXIXIXIXIXIXIXIXIXIXIXIXIXIXIXIXIXIXIXIXIXIXIXIXIXIXIXIXIXIXIXIXIXIXIXIXIXIXIXIXIXIXIXIXIXIXIXS S S S IXIXIXIXIXIXIXIXIXIXIXIXIXIXIXIXIXIXIXIXIXIXIXIXIXIXIXIXIXIXIXIXIXIXIXIXIXIXIXIXIXIXIXIXIXIXIXIX, 4 9 y s x Z J K ( 6.6.w.q.S.S.I.I.U.U.U.bXbXbXbXbXbXG.G.F.F.F.A.h.h.0.0.9.9.2.;.;.;.@.@.Q Q E E E Y Y H H H H H D D m m m z z z z l k k k k k k g i i i i i i y y y y y y y y y y y y y y y y y y y y y y y y y t t 9 9 9 9 9 9 6 6 6 4 4 4 4 3 3 3 > > > > > > > > - - - - > > > > > > > > > > IXIXIXIXIXIXIXIXIXIXIXIXIXIXIXIXIXIXIXIXIXIXIXIXIXIXIXIXIXIXIXIXIXIXIXIXIXIXIXIXIXIXIXIXIXIXIXIXIXIXIXIXIXIXIXIXIXIXIXIXIXIXIXIXIXIXIXIXIXIXIXIXIXIXIXIXIXIXIXIXIXIXIXIXIXIXIXIXIXIXIXIXIXIXIXIXIXIXIXIXIXIXIXIXIXIXIXIXIXIXIXIXIXIXIXIXIXIXIXIXIXIXIXIXIXIXIXIXIXIXIXIXIXIXIXIXIXIXIXIXIXIXIXIXIXIXIXIXIXIXIXIXIXIXIXIXIXIXIXIXIXIXIXIXIXIXIXIXIXIXIXIXIXIXIXIXIXIXIXIXIXIXIXIXIXIXIXIXIXIXIXIXIXIXIXIXIXIXIXIXIX",
"IXIXIXIXIXIXIXIXIXIXIXIXIXIXIXIXIXIXIXIXIXIXIXIXIXIXIXIXIXIXIXIXIXIXIXIXIXIXIXIXIXIXIXIXIXIXIXIXIXIXIXIXIXIXIXIXIXIXIXIXIXIXIXIXIXIXIXIXIXIXIXIXIXIXIXIXIXIXIXIXIXIXIXIXIXIXIXIXIXIXIXIXIXIXIXIXIXIXIXIXIXIXIXIXIXIXIXIXIXIXIXIXIXIXIXIXIXIXIXIXIXIXIXIXIXIXIXIXIXIXIXIXIXIXIXIXIXIXIXIXIXIXIXIXIXIXIXIXIXIXIXIXIXIXIXIXIXIXIXIXIXIXIXIXIX, 4 0 9 s s Z J K K ( 6.w.w.q.S.S.I.I.U.U.U.U.U.U.U.U.G.G.F.F.F.A.h.h.0.0.9.9.9.;.;.;.@.@.W Q Q Y E E H H H H H H m m z z z l l l k k k g g i i i y y y y u y y y y t t t t t t t t t t t t t t t 9 9 t 9 9 9 9 9 9 9 9 9 9 9 6 6 6 4 4 4 4 4 4 3 3 3 3 3 3 3 3 3 > > > - - - > > > > > > > > > > > > IXIXIXIXIXIXIXIXIXIXIXIXIXIXIXIXIXIXIXIXIXIXIXIXIXIXIXIXIXIXIXIXIXIXIXIXIXIXIXIXIXIXIXIXIXIXIXIXIXIXIXIXIXIXIXIXIXIXIXIXIXIXIXIXIXIXIXIXIXIXIXIXIXIXIXIXIXIXIXIXIXIXIXIXIXIXIXIXIXIXIXIXIXIXIXIXIXIXIXIXIXIXIXIXIXIXIXIXIXIXIXIXIXIXIXIXIXIXIXIXIXIXIXIXIXIXIXIXIXIXIXIXIXIXIXIXIXIXIXIXIXIXIXIXIXIXIXIXIXIXIXIXIXIXIXIXIXIXIXIXIXIXIXIXIXIXIXIXIXIXIXIXIXIXIXIXIXIXIXIXIXIXIXIXIXIXIXIXIXIXIXIXIXIXIXIXIXIXIXIX",
"IXIXIXIXIXIXIXIXIXIXIXIXIXIXIXIXIXIXIXIXIXIXIXIXIXIXIXIXIXIXIXIXIXIXIXIXIXIXIXIXIXIXIXIXIXIXIXIXIXIXIXIXIXIXIXIXIXIXIXIXIXIXIXIXIXIXIXIXIXIXIXIXIXIXIXIXIXIXIXIXIXIXIXIXIXIXIXIXIXIXIXIXIXIXIXIXIXIXIXIXIXIXIXIXIXIXIXIXIXIXIXIXIXIXIXIXIXIXIXIXIXIXIXIXIXIXIXIXIXIXIXIXIXIXIXIXIXIXIXIXIXIXIXIXIXIXIXIXIXIXIXIXIXIXIXIXIXIXIXIXIXIXIXIX4 4 0 9 s s x J K K ( ' 6.w.q.q.S.S.I.I.I.U.U.U.U.G.G.G.F.F.F.S.A.h.h.h.0.9.9.9.;.;.;.@.@.@.Q Q E Y Y H H H H H N m z z l l k k k g g g i i y u y y y y y t t t 9 9 9 9 9 6 6 6 6 6 6 6 6 9 9 9 9 9 9 9 9 9 9 9 9 9 9 6 6 6 6 4 4 4 4 4 4 4 4 4 3 3 3 3 3 3 3 3 3 3 3 3 3 3 3 3 3 3 3 3 3 3 3 3 3 3 3 3 IXIXIXIXIXIXIXIXIXIXIXIXIXIXIXIXIXIXIXIXIXIXIXIXIXIXIXIXIXIXIXIXIXIXIXIXIXIXIXIXIXIXIXIXIXIXIXIXIXIXIXIXIXIXIXIXIXIXIXIXIXIXIXIXIXIXIXIXIXIXIXIXIXIXIXIXIXIXIXIXIXIXIXIXIXIXIXIXIXIXIXIXIXIXIXIXIXIXIXIXIXIXIXIXIXIXIXIXIXIXIXIXIXIXIXIXIXIXIXIXIXIXIXIXIXIXIXIXIXIXIXIXIXIXIXIXIXIXIXIXIXIXIXIXIXIXIXIXIXIXIXIXIXIXIXIXIXIXIXIXIXIXIXIXIXIXIXIXIXIXIXIXIXIXIXIXIXIXIXIXIXIXIXIXIXIXIXIXIXIXIXIXIXIXIXIXIXIXIXIX",
"IXIXIXIXIXIXIXIXIXIXIXIXIXIXIXIXIXIXIXIXIXIXIXIXIXIXIXIXIXIXIXIXIXIXIXIXIXIXIXIXIXIXIXIXIXIXIXIXIXIXIXIXIXIXIXIXIXIXIXIXIXIXIXIXIXIXIXIXIXIXIXIXIXIXIXIXIXIXIXIXIXIXIXIXIXIXIXIXIXIXIXIXIXIXIXIXIXIXIXIXIXIXIXIXIXIXIXIXIXIXIXIXIXIXIXIXIXIXIXIXIXIXIXIXIXIXIXIXIXIXIXIXIXIXIXIXIXIXIXIXIXIXIXIXIXIXIXIXIXIXIXIXIXIXIXIXIXIXIXIXIXIXIXIX0 0 p s x c J K K ) ' 6.6.w.q.q.S.S.S.F.F.F.I.F.F.F.F.F.F.S.A.j.h.h.0.0.9.9.6.;.@.@.@.@.W Q Q Y Y Y H H H H N m z z l k k g g g i i i y u u y t t t t t w 6 6 6 6 6 6 6 6 6 6 6 4 4 4 4 4 4 4 4 4 4 4 4 4 4 4 4 4 4 4 4 4 4 4 4 4 4 4 4 4 4 4 3 3 4 3 3 3 3 3 3 3 3 3 3 3 3 3 3 3 3 3 3 3 5 3 4 4 6 6 6 6 IXIXIXIXIXIXIXIXIXIXIXIXIXIXIXIXIXIXIXIXIXIXIXIXIXIXIXIXIXIXIXIXIXIXIXIXIXIXIXIXIXIXIXIXIXIXIXIXIXIXIXIXIXIXIXIXIXIXIXIXIXIXIXIXIXIXIXIXIXIXIXIXIXIXIXIXIXIXIXIXIXIXIXIXIXIXIXIXIXIXIXIXIXIXIXIXIXIXIXIXIXIXIXIXIXIXIXIXIXIXIXIXIXIXIXIXIXIXIXIXIXIXIXIXIXIXIXIXIXIXIXIXIXIXIXIXIXIXIXIXIXIXIXIXIXIXIXIXIXIXIXIXIXIXIXIXIXIXIXIXIXIXIXIXIXIXIXIXIXIXIXIXIXIXIXIXIXIXIXIXIXIXIXIXIXIXIXIXIXIXIXIXIXIXIXIXIXIXIX",
"IXIXIXIXIXIXIXIXIXIXIXIXIXIXIXIXIXIXIXIXIXIXIXIXIXIXIXIXIXIXIXIXIXIXIXIXIXIXIXIXIXIXIXIXIXIXIXIXIXIXIXIXIXIXIXIXIXIXIXIXIXIXIXIXIXIXIXIXIXIXIXIXIXIXIXIXIXIXIXIXIXIXIXIXIXIXIXIXIXIXIXIXIXIXIXIXIXIXIXIXIXIXIXIXIXIXIXIXIXIXIXIXIXIXIXIXIXIXIXIXIXIXIXIXIXIXIXIXIXIXIXIXIXIXIXIXIXIXIXIXIXIXIXIXIXIXIXIXIXIXIXIXIXIXIXIXIXIXIXIXIXIXIX0 p p d c C J K K ) ' 6.6.w.q.q.j.S.S.S.S.S.S.F.S.S.S.S.A.j.h.h.h.0.0.9.9.6.;.@.@.@.@.Q Q Q Q Y Y Y H H H N N z z l l k g g i i y u u u y t t t 6 6 6 6 6 6 6 6 4 4 4 4 4 4 4 3 3 4 4 4 4 4 4 4 4 4 4 4 4 4 4 4 4 4 4 4 4 4 4 4 4 4 4 4 4 4 4 4 4 3 4 4 4 4 4 6 5 5 6 6 6 6 6 6 6 6 6 6 6 6 6 6 6 6 6 6 6 6 6 IXIXIXIXIXIXIXIXIXIXIXIXIXIXIXIXIXIXIXIXIXIXIXIXIXIXIXIXIXIXIXIXIXIXIXIXIXIXIXIXIXIXIXIXIXIXIXIXIXIXIXIXIXIXIXIXIXIXIXIXIXIXIXIXIXIXIXIXIXIXIXIXIXIXIXIXIXIXIXIXIXIXIXIXIXIXIXIXIXIXIXIXIXIXIXIXIXIXIXIXIXIXIXIXIXIXIXIXIXIXIXIXIXIXIXIXIXIXIXIXIXIXIXIXIXIXIXIXIXIXIXIXIXIXIXIXIXIXIXIXIXIXIXIXIXIXIXIXIXIXIXIXIXIXIXIXIXIXIXIXIXIXIXIXIXIXIXIXIXIXIXIXIXIXIXIXIXIXIXIXIXIXIXIXIXIXIXIXIXIXIXIXIXIXIXIXIXIX",
"IXIXIXIXIXIXIXIXIXIXIXIXIXIXIXIXIXIXIXIXIXIXIXIXIXIXIXIXIXIXIXIXIXIXIXIXIXIXIXIXIXIXIXIXIXIXIXIXIXIXIXIXIXIXIXIXIXIXIXIXIXIXIXIXIXIXIXIXIXIXIXIXIXIXIXIXIXIXIXIXIXIXIXIXIXIXIXIXIXIXIXIXIXIXIXIXIXIXIXIXIXIXIXIXIXIXIXIXIXIXIXIXIXIXIXIXIXIXIXIXIXIXIXIXIXIXIXIXIXIXIXIXIXIXIXIXIXIXIXIXIXIXIXIXIXIXIXIXIXIXIXIXIXIXIXIXIXIXIXIXIXIXIXa d d c C J ~ ^ ) ' 6.6.w.w.q.q.j.S.S.S.S.S.S.S.S.A.j.h.h.h.0.0.0.9.9.;.;.;.@.@.@.Q Q Q Q Y Y Y H H H N N x z x l k k g i i y u u y y t t w 6 6 6 6 6 6 6 6 4 4 3 3 3 3 3 3 3 3 3 3 3 3 3 3 3 4 4 3 4 4 4 4 4 4 4 4 4 > > 4 4 > 3 4 4 4 4 4 4 4 4 4 4 6 6 6 6 6 6 6 6 6 6 6 6 6 6 6 6 w w w w w w t t t t t t IXIXIXIXIXIXIXIXIXIXIXIXIXIXIXIXIXIXIXIXIXIXIXIXIXIXIXIXIXIXIXIXIXIXIXIXIXIXIXIXIXIXIXIXIXIXIXIXIXIXIXIXIXIXIXIXIXIXIXIXIXIXIXIXIXIXIXIXIXIXIXIXIXIXIXIXIXIXIXIXIXIXIXIXIXIXIXIXIXIXIXIXIXIXIXIXIXIXIXIXIXIXIXIXIXIXIXIXIXIXIXIXIXIXIXIXIXIXIXIXIXIXIXIXIXIXIXIXIXIXIXIXIXIXIXIXIXIXIXIXIXIXIXIXIXIXIXIXIXIXIXIXIXIXIXIXIXIXIXIXIXIXIXIXIXIXIXIXIXIXIXIXIXIXIXIXIXIXIXIXIXIXIXIXIXIXIXIXIXIXIXIXIXIXIXIXIXIX",
"IXIXIXIXIXIXIXIXIXIXIXIXIXIXIXIXIXIXIXIXIXIXIXIXIXIXIXIXIXIXIXIXIXIXIXIXIXIXIXIXIXIXIXIXIXIXIXIXIXIXIXIXIXIXIXIXIXIXIXIXIXIXIXIXIXIXIXIXIXIXIXIXIXIXIXIXIXIXIXIXIXIXIXIXIXIXIXIXIXIXIXIXIXIXIXIXIXIXIXIXIXIXIXIXIXIXIXIXIXIXIXIXIXIXIXIXIXIXIXIXIXIXIXIXIXIXIXIXIXIXIXIXIXIXIXIXIXIXIXIXIXIXIXIXIXIXIXIXIXIXIXIXIXIXIXIXIXIXIXIXIXIXIXd c c C ~ ^ ) ) ' 7.w.w.w.q.q.q.j.S.S.S.S.S.S.j.j.h.h.0.0.0.9.9.2.;.;.;.@.@.Q Q E E E E Y Y Y H H H N N z x x l k g g i i u u y t t t t t 6 6 6 6 6 6 6 6 4 4 3 3 3 3 3 3 3 3 3 > > > > > > > > > > > > 3 , > > > 4 4 > > > > > > 4 4 4 4 4 4 4 4 4 6 6 6 6 6 6 6 6 6 6 w w w w w t t t t t t t t t u u u u u u u IXIXIXIXIXIXIXIXIXIXIXIXIXIXIXIXIXIXIXIXIXIXIXIXIXIXIXIXIXIXIXIXIXIXIXIXIXIXIXIXIXIXIXIXIXIXIXIXIXIXIXIXIXIXIXIXIXIXIXIXIXIXIXIXIXIXIXIXIXIXIXIXIXIXIXIXIXIXIXIXIXIXIXIXIXIXIXIXIXIXIXIXIXIXIXIXIXIXIXIXIXIXIXIXIXIXIXIXIXIXIXIXIXIXIXIXIXIXIXIXIXIXIXIXIXIXIXIXIXIXIXIXIXIXIXIXIXIXIXIXIXIXIXIXIXIXIXIXIXIXIXIXIXIXIXIXIXIXIXIXIXIXIXIXIXIXIXIXIXIXIXIXIXIXIXIXIXIXIXIXIXIXIXIXIXIXIXIXIXIXIXIXIXIXIXIX",
"IXIXIXIXIXIXIXIXIXIXIXIXIXIXIXIXIXIXIXIXIXIXIXIXIXIXIXIXIXIXIXIXIXIXIXIXIXIXIXIXIXIXIXIXIXIXIXIXIXIXIXIXIXIXIXIXIXIXIXIXIXIXIXIXIXIXIXIXIXIXIXIXIXIXIXIXIXIXIXIXIXIXIXIXIXIXIXIXIXIXIXIXIXIXIXIXIXIXIXIXIXIXIXIXIXIXIXIXIXIXIXIXIXIXIXIXIXIXIXIXIXIXIXIXIXIXIXIXIXIXIXIXIXIXIXIXIXIXIXIXIXIXIXIXIXIXIXIXIXIXIXIXIXIXIXIXIXIXIXIXIXIXIXc A A ~ ^ ) _ ' 7.7.w.8.q.q.q.q.q.j.S.S.S.j.j.h.0.0.0.9.5.2.;.;.;.@.@.@.Q Q Y Y H H H H H H H H N N z x x k k g g g i y u y t t t t t w 6 6 6 6 6 6 6 4 4 4 3 3 3 3 3 3 3 3 3 > > > > > > > > > > > > > 3 > > > > , , > > > > > > > 3 4 4 4 4 4 4 6 6 6 6 6 6 6 w w w t t t t t u u u u u u u u u y i i i i i i i i IXIXIXIXIXIXIXIXIXIXIXIXIXIXIXIXIXIXIXIXIXIXIXIXIXIXIXIXIXIXIXIXIXIXIXIXIXIXIXIXIXIXIXIXIXIXIXIXIXIXIXIXIXIXIXIXIXIXIXIXIXIXIXIXIXIXIXIXIXIXIXIXIXIXIXIXIXIXIXIXIXIXIXIXIXIXIXIXIXIXIXIXIXIXIXIXIXIXIXIXIXIXIXIXIXIXIXIXIXIXIXIXIXIXIXIXIXIXIXIXIXIXIXIXIXIXIXIXIXIXIXIXIXIXIXIXIXIXIXIXIXIXIXIXIXIXIXIXIXIXIXIXIXIXIXIXIXIXIXIXIXIXIXIXIXIXIXIXIXIXIXIXIXIXIXIXIXIXIXIXIXIXIXIXIXIXIXIXIXIXIXIXIXIXIX",
"IXIXIXIXIXIXIXIXIXIXIXIXIXIXIXIXIXIXIXIXIXIXIXIXIXIXIXIXIXIXIXIXIXIXIXIXIXIXIXIXIXIXIXIXIXIXIXIXIXIXIXIXIXIXIXIXIXIXIXIXIXIXIXIXIXIXIXIXIXIXIXIXIXIXIXIXIXIXIXIXIXIXIXIXIXIXIXIXIXIXIXIXIXIXIXIXIXIXIXIXIXIXIXIXIXIXIXIXIXIXIXIXIXIXIXIXIXIXIXIXIXIXIXIXIXIXIXIXIXIXIXIXIXIXIXIXIXIXIXIXIXIXIXIXIXIXIXIXIXIXIXIXIXIXIXIXIXIXIXIXIXIXb A ~ ~ ^ ) ' ] 7.7.8.q.q.q.q.q.q.q.q.j.j.j.h.0.0.0.9.5.2.;.;.@.@.@.+.R R U U U H H H H H N N N N z x x k k g g g i i u u y t t t t t w 6 6 6 6 6 6 6 4 4 4 4 3 3 3 3 3 3 3 3 > > > > > > > > > > > > , > > > > > > , , > > > > > > > 4 4 4 4 4 4 6 6 6 6 6 w t t t t t t u u u u u u u u i i i i i g g g g g g g g g k k k k k g g g g g g g i i i i i i i y y y y IXIXIXIXIXIXIXIXIXIXIXIXIXIXIXIXIXIXIXIXIXIXIXIXIXIXIXIXIXIXIXIXIXIXIXIXIXIXIXIXIXIXIXIXIXIXIXIXIXIXIXIXIXIXIXIXIXIXIXIXIXIXIXIXIXIXIXIXIXIXIXIXIXIXIXIXIXIXIXIXIXIXIXIXIXIXIXIXIXIXIXIXIXIXIXIXIXIXIXIXIXIXIXIXIXIXIXIXIXIXIXIXIXIXIXIXIXIXIXIXIXIXIXIXIXIXIXIXIXIXIXIXIXIXIXIXIXIXIXIXIXIXIXIXIXIXIXIXIXIXIXIXIXIXIXIXIXIXIXIXIXIXIXIXIXIXIXIXIXIXIXIX",
"IXIXIXIXIXIXIXIXIXIXIXIXIXIXIXIXIXIXIXIXIXIXIXIXIXIXIXIXIXIXIXIXIXIXIXIXIXIXIXIXIXIXIXIXIXIXIXIXIXIXIXIXIXIXIXIXIXIXIXIXIXIXIXIXIXIXIXIXIXIXIXIXIXIXIXIXIXIXIXIXIXIXIXIXIXIXIXIXIXIXIXIXIXIXIXIXIXIXIXIXIXIXIXIXIXIXIXIXIXIXIXIXIXIXIXIXIXIXIXIXIXIXIXIXIXIXIXIXIXIXIXIXIXIXIXIXIXIXIXIXIXIXIXIXIXIXIXIXIXIXIXIXIXIXIXIXIXIXIXIXIXIXA ~ ` / _ ] ] 7.8.c.b.b.b.b.q.q.q.q.q.q.q.0.0.0.9.9.;.;.;.+.+.+.R R R P P G F F m m m m m z z l x x k k g g i i i u u u t t t t w w w 6 6 6 6 6 6 6 6 4 4 4 4 4 3 3 3 3 3 3 3 3 > > > > > > > > > > > > > > , , , , > > > > > > > , 3 4 4 4 4 4 4 6 6 6 9 t t t t y y u u u i i i g g g g g g g g g g k k l l l l l l l l l l l l l l l k k k k k k k k k k k g i i i i IXIXIXIXIXIXIXIXIXIXIXIXIXIXIXIXIXIXIXIXIXIXIXIXIXIXIXIXIXIXIXIXIXIXIXIXIXIXIXIXIXIXIXIXIXIXIXIXIXIXIXIXIXIXIXIXIXIXIXIXIXIXIXIXIXIXIXIXIXIXIXIXIXIXIXIXIXIXIXIXIXIXIXIXIXIXIXIXIXIXIXIXIXIXIXIXIXIXIXIXIXIXIXIXIXIXIXIXIXIXIXIXIXIXIXIXIXIXIXIXIXIXIXIXIXIXIXIXIXIXIXIXIXIXIXIXIXIXIXIXIXIXIXIXIXIXIXIXIXIXIXIXIXIXIXIXIXIXIXIXIXIXIXIXIXIXIXIXIXIX",
"IXIXIXIXIXIXIXIXIXIXIXIXIXIXIXIXIXIXIXIXIXIXIXIXIXIXIXIXIXIXIXIXIXIXIXIXIXIXIXIXIXIXIXIXIXIXIXIXIXIXIXIXIXIXIXIXIXIXIXIXIXIXIXIXIXIXIXIXIXIXIXIXIXIXIXIXIXIXIXIXIXIXIXIXIXIXIXIXIXIXIXIXIXIXIXIXIXIXIXIXIXIXIXIXIXIXIXIXIXIXIXIXIXIXIXIXIXIXIXIXIXIXIXIXIXIXIXIXIXIXIXIXIXIXIXIXIXIXIXIXIXIXIXIXIXIXIXIXIXIXIXIXIXIXIXIXIXIXIXIXIXIX~ ^ / _ ] 7.7.c.c.b.b.b.b.b.b.q.q.q.q.q.0.0.0.9.;.;.;.@.+.T T T P P G F F D m m z l l l l l k k k g g i i i u u u u t t t t w w 6 6 6 6 6 6 6 6 6 6 4 4 4 4 4 4 4 4 3 3 3 3 3 3 > > > > 3 > > > > > > , , , , , , , > > > > > > , , 4 4 4 4 4 4 6 6 6 t t t y y u u u i i g g g g g g k k k l l l l l l l l z m m m m m m m m m m m z m z z l l l l l l l l l k k k k k k i IXIXIXIXIXIXIXIXIXIXIXIXIXIXIXIXIXIXIXIXIXIXIXIXIXIXIXIXIXIXIXIXIXIXIXIXIXIXIXIXIXIXIXIXIXIXIXIXIXIXIXIXIXIXIXIXIXIXIXIXIXIXIXIXIXIXIXIXIXIXIXIXIXIXIXIXIXIXIXIXIXIXIXIXIXIXIXIXIXIXIXIXIXIXIXIXIXIXIXIXIXIXIXIXIXIXIXIXIXIXIXIXIXIXIXIXIXIXIXIXIXIXIXIXIXIXIXIXIXIXIXIXIXIXIXIXIXIXIXIXIXIXIXIXIXIXIXIXIXIXIXIXIXIXIXIXIXIXIXIXIXIXIXIXIXIXIXIX",
"IXIXIXIXIXIXIXIXIXIXIXIXIXIXIXIXIXIXIXIXIXIXIXIXIXIXIXIXIXIXIXIXIXIXIXIXIXIXIXIXIXIXIXIXIXIXIXIXIXIXIXIXIXIXIXIXIXIXIXIXIXIXIXIXIXIXIXIXIXIXIXIXIXIXIXIXIXIXIXIXIXIXIXIXIXIXIXIXIXIXIXIXIXIXIXIXIXIXIXIXIXIXIXIXIXIXIXIXIXIXIXIXIXIXIXIXIXIXIXIXIXIXIXIXIXIXIXIXIXIXIXIXIXIXIXIXIXIXIXIXIXIXIXIXIXIXIXIXIXIXIXIXIXIXIXIXIXIXIXIXIXIX/ _ _ ] 7.x.c.b.b.b.b.b.b.b.b.q.q.q.q.w.w.9.9.;.;.;.+.R T P P G F F D m m z l l l k g g g g g g i i u u u u y t t t t t w w 6 6 6 6 6 6 6 6 6 6 6 6 4 4 4 4 4 4 4 4 4 4 4 3 3 > > > 4 4 4 > > > , , , , , , , , , , > > > > > > > 3 4 4 4 4 4 6 6 9 t t y y y y i i g g g k k l l l l l l l l m m m m m m m m m m M M F F F F D M M D M m m m m m m m m m m m z z z z l l k k IXIXIXIXIXIXIXIXIXIXIXIXIXIXIXIXIXIXIXIXIXIXIXIXIXIXIXIXIXIXIXIXIXIXIXIXIXIXIXIXIXIXIXIXIXIXIXIXIXIXIXIXIXIXIXIXIXIXIXIXIXIXIXIXIXIXIXIXIXIXIXIXIXIXIXIXIXIXIXIXIXIXIXIXIXIXIXIXIXIXIXIXIXIXIXIXIXIXIXIXIXIXIXIXIXIXIXIXIXIXIXIXIXIXIXIXIXIXIXIXIXIXIXIXIXIXIXIXIXIXIXIXIXIXIXIXIXIXIXIXIXIXIXIXIXIXIXIXIXIXIXIXIXIXIXIXIXIXIXIXIXIXIXIXIXIXIX",
"IXIXIXIXIXIXIXIXIXIXIXIXIXIXIXIXIXIXIXIXIXIXIXIXIXIXIXIXIXIXIXIXIXIXIXIXIXIXIXIXIXIXIXIXIXIXIXIXIXIXIXIXIXIXIXIXIXIXIXIXIXIXIXIXIXIXIXIXIXIXIXIXIXIXIXIXIXIXIXIXIXIXIXIXIXIXIXIXIXIXIXIXIXIXIXIXIXIXIXIXIXIXIXIXIXIXIXIXIXIXIXIXIXIXIXIXIXIXIXIXIXIXIXIXIXIXIXIXIXIXIXIXIXIXIXIXIXIXIXIXIXIXIXIXIXIXIXIXIXIXIXIXIXIXIXIXIXIXIXIXIX/ / ] ] x.x.c.b.b.b.b.b.b.b.b.b.q.q.q.w.w.6.6.;.;.W R R ! G F D D m z z l l k k g g i i i u u u u u y t t t t t w w w w 6 6 6 6 6 6 6 6 6 6 6 6 6 6 6 4 4 4 4 4 4 4 4 4 4 4 4 , , , , , 4 , , , , , , , , , , , , , , > > > > > > , 4 4 4 4 4 6 6 9 t t y y i i g g k k l l l z m m m m m m m m M F F F F F F F L L L L L L L L L L L L L F F F F F F F F F F F F D m m m m m z z IXIXIXIXIXIXIXIXIXIXIXIXIXIXIXIXIXIXIXIXIXIXIXIXIXIXIXIXIXIXIXIXIXIXIXIXIXIXIXIXIXIXIXIXIXIXIXIXIXIXIXIXIXIXIXIXIXIXIXIXIXIXIXIXIXIXIXIXIXIXIXIXIXIXIXIXIXIXIXIXIXIXIXIXIXIXIXIXIXIXIXIXIXIXIXIXIXIXIXIXIXIXIXIXIXIXIXIXIXIXIXIXIXIXIXIXIXIXIXIXIXIXIXIXIXIXIXIXIXIXIXIXIXIXIXIXIXIXIXIXIXIXIXIXIXIXIXIXIXIXIXIXIXIXIXIXIXIXIXIXIXIXIXIXIXIX",
"IXIXIXIXIXIXIXIXIXIXIXIXIXIXIXIXIXIXIXIXIXIXIXIXIXIXIXIXIXIXIXIXIXIXIXIXIXIXIXIXIXIXIXIXIXIXIXIXIXIXIXIXIXIXIXIXIXIXIXIXIXIXIXIXIXIXIXIXIXIXIXIXIXIXIXIXIXIXIXIXIXIXIXIXIXIXIXIXIXIXIXIXIXIXIXIXIXIXIXIXIXIXIXIXIXIXIXIXIXIXIXIXIXIXIXIXIXIXIXIXIXIXIXIXIXIXIXIXIXIXIXIXIXIXIXIXIXIXIXIXIXIXIXIXIXIXIXIXIXIXIXIXIXIXIXIXIXIXIXIX/ _ ] ] x.c.v.v.n.b.b.b.J.J.b.b.b.q.8.w.6.6.6.[ W Q R ! G F D m z l k k k g g i i u y t t t t t t t t w w 6 6 6 6 6 6 6 6 6 6 6 6 6 6 6 6 6 4 4 4 4 4 4 4 4 4 4 4 4 4 4 4 4 4 , 4 4 , , , , , , , , , , , , , , > > > > < < < < < > > 4 4 4 4 4 6 9 t t y y i k k k l l z z m m D F F F F F L L L P P P P P I I I I I I I I T T T I I I I I I I I I I I P P P P P P P L P F F F F F F D IXIXIXIXIXIXIXIXIXIXIXIXIXIXIXIXIXIXIXIXIXIXIXIXIXIXIXIXIXIXIXIXIXIXIXIXIXIXIXIXIXIXIXIXIXIXIXIXIXIXIXIXIXIXIXIXIXIXIXIXIXIXIXIXIXIXIXIXIXIXIXIXIXIXIXIXIXIXIXIXIXIXIXIXIXIXIXIXIXIXIXIXIXIXIXIXIXIXIXIXIXIXIXIXIXIXIXIXIXIXIXIXIXIXIXIXIXIXIXIXIXIXIXIXIXIXIXIXIXIXIXIXIXIXIXIXIXIXIXIXIXIXIXIXIXIXIXIXIXIXIXIXIXIXIXIXIXIXIXIXIXIXIXIX",
"IXIXIXIXIXIXIXIXIXIXIXIXIXIXIXIXIXIXIXIXIXIXIXIXIXIXIXIXIXIXIXIXIXIXIXIXIXIXIXIXIXIXIXIXIXIXIXIXIXIXIXIXIXIXIXIXIXIXIXIXIXIXIXIXIXIXIXIXIXIXIXIXIXIXIXIXIXIXIXIXIXIXIXIXIXIXIXIXIXIXIXIXIXIXIXIXIXIXIXIXIXIXIXIXIXIXIXIXIXIXIXIXIXIXIXIXIXIXIXIXIXIXIXIXIXIXIXIXIXIXIXIXIXIXIXIXIXIXIXIXIXIXIXIXIXIXIXIXIXIXIXIXIXIXIXIXIXIXIX/ _ ] { x.c.v.b.n.n.b.b.b.b.b.b.b.q.8.7.6.6.' W Q E ! H D D z z k k g i i y u y y t t w 6 6 6 6 6 6 6 6 6 6 6 6 6 6 6 6 6 4 4 4 4 4 4 4 4 4 4 4 4 4 4 4 4 4 4 4 4 , , 3 > , , , , , > > > , > < > < < > > > > > > < < < < < < > > < < > > 4 4 4 6 9 9 t y y i k k l z m m D F H F P U U U R R R R T T T ..............X.O.X.O.O.O.X.X.X.X...........................T T T T T T I P P P P P IXIXIXIXIXIXIXIXIXIXIXIXIXIXIXIXIXIXIXIXIXIXIXIXIXIXIXIXIXIXIXIXIXIXIXIXIXIXIXIXIXIXIXIXIXIXIXIXIXIXIXIXIXIXIXIXIXIXIXIXIXIXIXIXIXIXIXIXIXIXIXIXIXIXIXIXIXIXIXIXIXIXIXIXIXIXIXIXIXIXIXIXIXIXIXIXIXIXIXIXIXIXIXIXIXIXIXIXIXIXIXIXIXIXIXIXIXIXIXIXIXIXIXIXIXIXIXIXIXIXIXIXIXIXIXIXIXIXIXIXIXIXIXIXIXIXIXIXIXIXIXIXIXIXIXIXIXIXIXIXIXIXIX",
"IXIXIXIXIXIXIXIXIXIXIXIXIXIXIXIXIXIXIXIXIXIXIXIXIXIXIXIXIXIXIXIXIXIXIXIXIXIXIXIXIXIXIXIXIXIXIXIXIXIXIXIXIXIXIXIXIXIXIXIXIXIXIXIXIXIXIXIXIXIXIXIXIXIXIXIXIXIXIXIXIXIXIXIXIXIXIXIXIXIXIXIXIXIXIXIXIXIXIXIXIXIXIXIXIXIXIXIXIXIXIXIXIXIXIXIXIXIXIXIXIXIXIXIXIXIXIXIXIXIXIXIXIXIXIXIXIXIXIXIXIXIXIXIXIXIXIXIXIXIXIXIXIXIXIXIXIXIX/ _ ] { x.x.v.n.n.n.n.n.b.b.b.b.b.c.8.7.7.' ( ) K K H H D z z k k i y y y y t t t 6 6 6 6 6 5 6 6 6 6 6 6 6 3 3 3 3 3 3 3 3 3 3 3 3 3 3 3 3 3 4 4 4 4 4 4 4 > > > , , , > > > > > > > > < > < < < < < < < < < < < < < < < < < < : > > < > > 4 4 4 9 9 t y y s k l z m D D H H U ! U R R R +.+.+.+.+.+.+.+.+.%.%.O.O.O.:.#.#.:.:.:.:.:.:.:.:.#.#.#.O.O.O.O.O.O.O.O.O.O.O.O.X.X.X.X.X.X.....T T T P IXIXIXIXIXIXIXIXIXIXIXIXIXIXIXIXIXIXIXIXIXIXIXIXIXIXIXIXIXIXIXIXIXIXIXIXIXIXIXIXIXIXIXIXIXIXIXIXIXIXIXIXIXIXIXIXIXIXIXIXIXIXIXIXIXIXIXIXIXIXIXIXIXIXIXIXIXIXIXIXIXIXIXIXIXIXIXIXIXIXIXIXIXIXIXIXIXIXIXIXIXIXIXIXIXIXIXIXIXIXIXIXIXIXIXIXIXIXIXIXIXIXIXIXIXIXIXIXIXIXIXIXIXIXIXIXIXIXIXIXIXIXIXIXIXIXIXIXIXIXIXIXIXIXIXIXIXIXIXIXIX",
"IXIXIXIXIXIXIXIXIXIXIXIXIXIXIXIXIXIXIXIXIXIXIXIXIXIXIXIXIXIXIXIXIXIXIXIXIXIXIXIXIXIXIXIXIXIXIXIXIXIXIXIXIXIXIXIXIXIXIXIXIXIXIXIXIXIXIXIXIXIXIXIXIXIXIXIXIXIXIXIXIXIXIXIXIXIXIXIXIXIXIXIXIXIXIXIXIXIXIXIXIXIXIXIXIXIXIXIXIXIXIXIXIXIXIXIXIXIXIXIXIXIXIXIXIXIXIXIXIXIXIXIXIXIXIXIXIXIXIXIXIXIXIXIXIXIXIXIXIXIXIXIXIXIXIXIXIX/ _ ] { x.x.v.n.n.n.n.n.n.n.b.b.b.c.8.7.7.' ) ^ K J J H Z z k k s i y y t t 6 6 6 6 6 6 4 3 3 3 3 3 3 3 3 3 3 3 3 3 3 3 3 3 3 3 3 3 3 3 3 3 3 3 3 3 3 3 , , , , > > , > > > > > < < > > > < < < < < < < < < < < < < < < < < : : : : : : < < , 4 4 6 9 t y y i k k z D D H H Y Y R E Q @.@.@.@.%.%.;.-.-.-.-.1.1.1.1.1.1.1.1.1.1.1.<.<.<.<.<.,.,.,.,.,.,.,.,.>.>.>.>.>.>.:.:.:.:.=.=.=.=.O.O.O.X...T T T T P P G F F IXIXIXIXIXIXIXIXIXIXIXIXIXIXIXIXIXIXIXIXIXIXIXIXIXIXIXIXIXIXIXIXIXIXIXIXIXIXIXIXIXIXIXIXIXIXIXIXIXIXIXIXIXIXIXIXIXIXIXIXIXIXIXIXIXIXIXIXIXIXIXIXIXIXIXIXIXIXIXIXIXIXIXIXIXIXIXIXIXIXIXIXIXIXIXIXIXIXIXIXIXIXIXIXIXIXIXIXIXIXIXIXIXIXIXIXIXIXIXIXIXIXIXIXIXIXIXIXIXIXIXIXIXIXIXIXIXIXIXIXIXIXIXIXIXIXIXIXIXIXIXIXIX",
"IXIXIXIXIXIXIXIXIXIXIXIXIXIXIXIXIXIXIXIXIXIXIXIXIXIXIXIXIXIXIXIXIXIXIXIXIXIXIXIXIXIXIXIXIXIXIXIXIXIXIXIXIXIXIXIXIXIXIXIXIXIXIXIXIXIXIXIXIXIXIXIXIXIXIXIXIXIXIXIXIXIXIXIXIXIXIXIXIXIXIXIXIXIXIXIXIXIXIXIXIXIXIXIXIXIXIXIXIXIXIXIXIXIXIXIXIXIXIXIXIXIXIXIXIXIXIXIXIXIXIXIXIXIXIXIXIXIXIXIXIXIXIXIXIXIXIXIXIXIXIXIXIXIXIXIX/ / ] { x.x.v.n.n.n.n.b.n.b.b.b.c.c.7.7.7.' ) ) K J J Z x x k k s i y t 9 6 6 6 6 4 4 4 3 3 3 3 3 3 3 3 3 3 3 3 3 3 3 3 3 3 3 3 3 3 > > > > > > 3 3 > > > > > > , , , , > < < < < < < < < < < < < < < < < < : : : : < < < < : : : : : : : > < , 4 4 9 9 y y i k k z D H H Y E E Q @.@.@.;.;.;.2.2.2.2.2.2.2.2.2.2.4.g.g.g.g.g.g.g.r.r.r.r.e.e.e.e.e.e.e.e.e.e.e.e.e.<.<.<.<.<.<.<.<.<.,.>.>.>.:.=.O.O.X.X.X.T T T T P G F D IXIXIXIXIXIXIXIXIXIXIXIXIXIXIXIXIXIXIXIXIXIXIXIXIXIXIXIXIXIXIXIXIXIXIXIXIXIXIXIXIXIXIXIXIXIXIXIXIXIXIXIXIXIXIXIXIXIXIXIXIXIXIXIXIXIXIXIXIXIXIXIXIXIXIXIXIXIXIXIXIXIXIXIXIXIXIXIXIXIXIXIXIXIXIXIXIXIXIXIXIXIXIXIXIXIXIXIXIXIXIXIXIXIXIXIXIXIXIXIXIXIXIXIXIXIXIXIXIXIXIXIXIXIXIXIXIXIXIXIXIXIXIXIXIXIXIXIXIXIX",
"IXIXIXIXIXIXIXIXIXIXIXIXIXIXIXIXIXIXIXIXIXIXIXIXIXIXIXIXIXIXIXIXIXIXIXIXIXIXIXIXIXIXIXIXIXIXIXIXIXIXIXIXIXIXIXIXIXIXIXIXIXIXIXIXIXIXIXIXIXIXIXIXIXIXIXIXIXIXIXIXIXIXIXIXIXIXIXIXIXIXIXIXIXIXIXIXIXIXIXIXIXIXIXIXIXIXIXIXIXIXIXIXIXIXIXIXIXIXIXIXIXIXIXIXIXIXIXIXIXIXIXIXIXIXIXIXIXIXIXIXIXIXIXIXIXIXIXIXIXIXIXIXIXIXIX/ / ] { x.x.v.n.n.n.n.b.b.b.c.c.c.7.7.7.] _ ) ^ ~ J J x x x k s i y y 9 9 6 4 4 4 4 3 3 3 3 3 3 3 > > > > > > 3 > > > > > > > > > > > > > > > > > > > > > > > > > , , < < < < < < < < < < < < < < < < < < : : : : : : : : : : : : : : : : : > < , 4 0 9 9 y i s k x D H H E E Q @.@.@.;.;.2.2.9.0.0.0.4.g.g.g.g.g.g.p.p.p.p.p.p.p.p.i.i.i.i.y.y.y.y.y.y.y.y.y.y.y.y.t.y.t.y.t.t.t.e.e.e.e.<.<.<.1.<.>.:.=.=.O.O.X.X.X.T T P P G F D D D IXIXIXIXIXIXIXIXIXIXIXIXIXIXIXIXIXIXIXIXIXIXIXIXIXIXIXIXIXIXIXIXIXIXIXIXIXIXIXIXIXIXIXIXIXIXIXIXIXIXIXIXIXIXIXIXIXIXIXIXIXIXIXIXIXIXIXIXIXIXIXIXIXIXIXIXIXIXIXIXIXIXIXIXIXIXIXIXIXIXIXIXIXIXIXIXIXIXIXIXIXIXIXIXIXIXIXIXIXIXIXIXIXIXIXIXIXIXIXIXIXIXIXIXIXIXIXIXIXIXIXIXIXIXIXIXIXIXIXIXIXIXIXIXIX",
"IXIXIXIXIXIXIXIXIXIXIXIXIXIXIXIXIXIXIXIXIXIXIXIXIXIXIXIXIXIXIXIXIXIXIXIX/ / IXIXIXIXIXIXIXIXIXIXIXIXIXIXIXIXIXIXIXIXIXIXIXIXIXIXIXIXIXIXIXIXIXIXIXIXIXIXIXIXIXIXIXIXIXIXIXIXIXIXIXIXIXIXIXIXIXIXIXIXIXIXIXIXIXIXIXIXIXIXIXIXIXIXIXIXIXIXIXIXIXIXIXIXIXIXIXIXIXIXIXIXIXIXIXIXIXIXIXIXIXIXIXIXIXIXIXIXIXIXIXIXIXIXIXIX/ / ] { x.x.v.n.n.n.n.v.v.c.c.c.x.7.7.] ' _ ) ^ ~ J C x x s s i y y t 9 9 4 4 4 3 3 3 3 3 3 3 > > > > > > > > > > > > > > > > > > > > > > > > > > > > > > < > > > < < < < < < < < < < < < < < < < < < < < : : : : : : : : : : : : : : : : : : : < , 4 9 9 y y i k x z H H E Q Q @.;.;.6.9.9.0.h.h.h.h.h.h.h.h.h.h.f.f.f.f.f.f.f.f.f.f.f.f.d.f.d.d.d.d.d.d.d.d.d.d.d.d.u.i.i.d.i.i.i.i.i.i.i.i.i.i.i.i.3.3.1.>.1.:.:.-.+.X.X.T T T P P P G H F D IXIXIXIXIXIXIXIXIXIXIXIXIXIXIXIXIXIXIXIXIXIXIXIXIXIXIXIXIXIXIXIXIXIXIXIXIXIXIXIXIXIXIXIXIXIXIXIXIXIXIXIXIXIXIXIXIXIXIXIXIXIXIXIXIXIXIXIXIXIXIXIXIXIXIXIXIXIXIXIXIXIXIXIXIXIXIXIXIXIXIXIXIXIXIXIXIXIXIXIXIXIXIXIXIXIXIXIXIXIXIXIXIXIXIXIXIXIXIXIXIXIXIXIXIXIXIXIXIXIXIXIXIXIXIXIXIXIXIXIXIXIX",
"IXIXIXIXIXIXIXIXIXIXIXIXIXIXIXIXIXIXIXIXIXIXIXIXIXIXIXIXIXIX/ _ _ _ _ _ _ } } } _ / IXIXIXIXIXIXIXIXIXIXIXIXIXIXIXIXIXIXIXIXIXIXIXIXIXIXIXIXIXIXIXIXIXIXIXIXIXIXIXIXIXIXIXIXIXIXIXIXIXIXIXIXIXIXIXIXIXIXIXIXIXIXIXIXIXIXIXIXIXIXIXIXIXIXIXIXIXIXIXIXIXIXIXIXIXIXIXIXIXIXIXIXIXIXIXIXIXIXIXIXIXIXIXIXIXIXIXIXIXIXIX/ / { { { x.v.n.n.n.n.v.v.c.c.c.7.7.] ' _ ) ^ ^ ~ J C c x s i y y t 9 9 9 4 4 3 3 > > > > > > > > > > > > > > > > > > > > > > > > > > > > > > < < > > < < < < < < < < < < < : < < < : : : : < < : : : : : : : : : : : : : : : : : : : : : : : : : < , 4 9 9 y y s k x H H E Q W @.;.6.9.9.0.0.h.h.h.k.k.k.k.A.D.D.D.D.D.D.D.C.C.C.C.C.C.C.C.C.C.C.V.V.V.V.V.V.s.s.s.s.f.f.f.f.f.f.f.f.f.f.f.f.f.p.p.p.i.i.i.g.g.1.1.1.1.1.1.-.+.X.X...R R R R P P F F IXIXIXIXIXIXIXIXIXIXIXIXIXIXIXIXIXIXIXIXIXIXIXIXIXIXIXIXIXIXIXIXIXIXIXIXIXIXIXIXIXIXIXIXIXIXIXIXIXIXIXIXIXIXIXIXIXIXIXIXIXIXIXIXIXIXIXIXIXIXIXIXIXIXIXIXIXIXIXIXIXIXIXIXIXIXIXIXIXIXIXIXIXIXIXIXIXIXIXIXIXIXIXIXIXIXIXIXIXIXIXIXIXIXIXIXIXIXIXIXIXIXIXIXIXIXIXIXIXIXIXIXIXIXIXIXIXIXIXIX",
"IXIXIXIXIXIXIXIXIXIXIXIXIXIXIXIXIXIXIXIXIXIXIXIXIXIXIX_ _ ] { { { { x.x.{ { { { { { { } IXIXIXIXIXIXIXIXIXIXIXIXIXIXIXIXIXIXIXIXIXIXIXIXIXIXIXIXIXIXIXIXIXIXIXIXIXIXIXIXIXIXIXIXIXIXIXIXIXIXIXIXIXIXIXIXIXIXIXIXIXIXIXIXIXIXIXIXIXIXIXIXIXIXIXIXIXIXIXIXIXIXIXIXIXIXIXIXIXIXIXIXIXIXIXIXIXIXIXIXIXIXIXIXIXIXIXIX/ / { { { x.v.v.n.n.n.n.v.c.c.x.7.] ] _ ) ^ ^ ~ ~ C c c d p p y 9 9 9 9 4 4 4 > > > > > > > > > > > > > > > > > > > > > > > > > > > > > > > > > > < < < < < < < < < < : : : : : < : : : : : : : : : : : : : : : : : : : : : : : : : : : : : : : = : < , 4 9 9 y i s x x H J E Q @.;.9.9.0.0.0.h.h.A.A.F.D.F.D.D.D.D.D.D.D.].].].].].].~.~.~.~.~.~.~.~.~.~.~.~.~.!.!.!.!.~.~.~.~.~.C.C.C.C.C.C.C.C.C.Z.f.f.f.p.p.p.p.i.i.g.4.1.1.1.1.1.-.-.+.+.+.+.T R P P P IXIXIXIXIXIXIXIXIXIXIXIXIXIXIXIXIXIXIXIXIXIXIXIXIXIXIXIXIXIXIXIXIXIXIXIXIXIXIXIXIXIXIXIXIXIXIXIXIXIXIXIXIXIXIXIXIXIXIXIXIXIXIXIXIXIXIXIXIXIXIXIXIXIXIXIXIXIXIXIXIXIXIXIXIXIXIXIXIXIXIXIXIXIXIXIXIXIXIXIXIXIXIXIXIXIXIXIXIXIXIXIXIXIXIXIXIXIXIXIXIXIXIXIXIXIXIXIXIXIXIXIXIXIXIXIXIXIX",
"IXIXIXIXIXIXIXIXIXIXIXIXIXIXIXIXIXIXIXIXIXIXIXIXIX_ _ ] x.x.x.x.x.x.v.v.v.v.v.v.x.{ { { } IXIXIXIXIXIXIXIXIXIXIXIXIXIXIXIXIXIXIXIXIXIXIXIXIXIXIXIXIXIXIXIXIXIXIXIXIXIXIXIXIXIXIXIXIXIXIXIXIXIXIXIXIXIXIXIXIXIXIXIXIXIXIXIXIXIXIXIXIXIXIXIXIXIXIXIXIXIXIXIXIXIXIXIXIXIXIXIXIXIXIXIXIXIXIXIXIXIXIXIXIXIXIXIXIXIX/ / { { { x.v.v.n.n.n.n.v.c.c.x.7.] _ _ ^ ^ ~ ~ C C c c d p p 0 0 9 4 4 4 4 > > < > > > > : : > > > > > > - - > > > > > > > > > > > > > > > > : : > : : > : : : : : : : : : : : : : : : : : : : : : : : : : : : : : : : : : : : : : : : : : = = = = : < , 4 9 9 y s s x Z H Y Q W ;.9.9.0.0.h.h.A.A.F.F.G.G.[.[.[.[.[.{.{.{.{.{.{.{.{.{.{.{.{.(.(.(.(.(.(.(.(.~.~.(.(.(.(.(.~.~.~.~.~.~.~.~.~.~.~.~.~.C.C.C.C.C.Z.C.Z.f.f.f.p.p.i.g.4.4.2.1.1.1.1.-.+.X...T I P P IXIXIXIXIXIXIXIXIXIXIXIXIXIXIXIXIXIXIXIXIXIXIXIXIXIXIXIXIXIXIXIXIXIXIXIXIXIXIXIXIXIXIXIXIXIXIXIXIXIXIXIXIXIXIXIXIXIXIXIXIXIXIXIXIXIXIXIXIXIXIXIXIXIXIXIXIXIXIXIXIXIXIXIXIXIXIXIXIXIXIXIXIXIXIXIXIXIXIXIXIXIXIXIXIXIXIXIXIXIXIXIXIXIXIXIXIXIXIXIXIXIXIXIXIXIXIXIXIXIXIXIXIXIXIXIX",
"IXIXIXIXIXIXIXIXIXIXIXIXIXIXIXIXIXIXIXIXIXIXIX_ _ _ 7.x.x.x.v.v.n.n.n.n.n.n.n.n.v.v.x.{ { } IXIXIXIXIXIXIXIXIXIXIXIXIXIXIXIXIXIXIXIXIXIXIXIXIXIXIXIXIXIXIXIXIXIXIXIXIXIXIXIXIXIXIXIXIXIXIXIXIXIXIXIXIXIXIXIXIXIXIXIXIXIXIXIXIXIXIXIXIXIXIXIXIXIXIXIXIXIXIXIXIXIXIXIXIXIXIXIXIXIXIXIXIXIXIXIXIXIXIXIXIXIXIXIX/ / } { { x.v.v.n.n.n.n.v.v.x.x.] ] _ / ^ ~ ~ C C c c d d p 0 0 0 4 4 , , > < < > : : = = = = = : : : : : : = = = = : : : : : : : : : : : : : : : : : : : : : : : : : : : : : : : : : : : : : : : : : : : : : : : : : % : : % % % : : : : : # # # # = : < , 4 9 9 y s k x H J E Q ;.6.9.0.0.h.h.A.A.F.F.[.}.}.}.}.}.}.}.}.}. X|.|.|.|.|.|.|.|.|.|.|.|.`.`.`.`.`.`.`.`.`.(.(.(.(.`.`.`.`.(.(.(.(.(.(.(.(.~.~.~.~.~.~.~.C.C.C.C.Z.Z.f.f.f.p.p.p.g.g.4.4.1.-.+.X...T T P P IXIXIXIXIXIXIXIXIXIXIXIXIXIXIXIXIXIXIXIXIXIXIXIXIXIXIXIXIXIXIXIXIXIXIXIXIXIXIXIXIXIXIXIXIXIXIXIXIXIXIXIXIXIXIXIXIXIXIXIXIXIXIXIXIXIXIXIXIXIXIXIXIXIXIXIXIXIXIXIXIXIXIXIXIXIXIXIXIXIXIXIXIXIXIXIXIXIXIXIXIXIXIXIXIXIXIXIXIXIXIXIXIXIXIXIXIXIXIXIXIXIXIXIXIXIXIXIXIXIXIXIXIXIX",
"IXIXIXIXIXIXIXIXIXIXIXIXIXIXIXIXIXIXIXIXIXIX_ _ _ 7.x.x.v.n.b.n.n.n.n.n.n.n.n.n.n.v.v.{ { } IXIXIXIXIXIXIXIXIXIXIXIXIXIXIXIXIXIXIXIXIXIXIXIXIXIXIXIXIXIXIXIXIXIXIXIXIXIXIXIXIXIXIXIXIXIXIXIXIXIXIXIXIXIXIXIXIXIXIXIXIXIXIXIXIXIXIXIXIXIXIXIXIXIXIXIXIXIXIXIXIXIXIXIXIXIXIXIXIXIXIXIXIXIXIXIXIXIXIXIXIXIXIX/ / _ { { x.v.v.n.n.n.n.n.v.x.x.] ] _ ^ ^ ~ C C c c d d p q 0 0 , < < < > : : : = = = = = = = # = = = = = = = = = = = = = = = : : : : = = = : : : : : : : : : : : : : : : : : : : : : : : : : : : : : % % : : : : % % % % % % % % % % % % % # # # # # = : > , 4 9 9 y s k x H J E W ;.9.9.0.0.h.A.A.F.G.}.}.}.}. X X X X X X X X+XOX+XOXOX|.|.|.|.|.|.vX|.`.`.`.`.`.`.`.`.`.`.`.`.`.`.`.`.`.`.`.`.`.`.`.`.`.`.{.(.(.(.(.(.~.~.~.~.~.C.C.C.C.C.f.f.f.f.p.p.1.1.:.O.O...T I P IXIXIXIXIXIXIXIXIXIXIXIXIXIXIXIXIXIXIXIXIXIXIXIXIXIXIXIXIXIXIXIXIXIXIXIXIXIXIXIXIXIXIXIXIXIXIXIXIXIXIXIXIXIXIXIXIXIXIXIXIXIXIXIXIXIXIXIXIXIXIXIXIXIXIXIXIXIXIXIXIXIXIXIXIXIXIXIXIXIXIXIXIXIXIXIXIXIXIXIXIXIXIXIXIXIXIXIXIXIXIXIXIXIXIXIXIXIXIXIXIXIXIXIXIXIXIXIXIXIXIXIXIX",
"IXIXIXIXIXIXIXIXIXIXIXIXIXIXIXIXIXIXIXIXIX/ _ _ x.x.x.v.n.n.n.n.n.K.K.P.K.n.n.n.n.n.v.{ { } IXIXIXIXIXIXIXIXIXIXIXIXIXIXIXIXIXIXIXIXIXIXIXIXIXIXIXIXIXIXIXIXIXIXIXIXIXIXIXIXIXIXIXIXIXIXIXIXIXIXIXIXIXIXIXIXIXIXIXIXIXIXIXIXIXIXIXIXIXIXIXIXIXIXIXIXIXIXIXIXIXIXIXIXIXIXIXIXIXIXIXIXIXIXIXIXIXIXIXIXIXIXIX/ _ { { x.v.v.n.n.n.n.n.v.x.x.] ] _ / ^ A C c c d d a q 0 0 4 < < : : = = = # # # # # # # # # # # # # # # = = = = = = = = = = : : = = = = = : : : : : : : : : : : : % % % % % % % % % % % % % % % % % % % % % % % % % % % % % % % % % % # # # # # # # # = : > 4 9 9 y s k x H J E W ;.6.0.0.h.h.S.F.G.}.}.}. X@X+X+X+X+X+X+X9X9X8XqXqXqX8X8X8X6X6X7X7X5X5X7X7X7X&X&X&X&X&X&X&X&X&X&X&X$X$X$X$X`.`.`.|.|.|.|.|.|.|.|.`.|.|.|.|.(.(.(.(.~.~.~.~.C.C.C.C.f.f.p.g.<.<.>.O.O...T P F IXIXIXIXIXIXIXIXIXIXIXIXIXIXIXIXIXIXIXIXIXIXIXIXIXIXIXIXIXIXIXIXIXIXIXIXIXIXIXIXIXIXIXIXIXIXIXIXIXIXIXIXIXIXIXIXIXIXIXIXIXIXIXIXIXIXIXIXIXIXIXIXIXIXIXIXIXIXIXIXIXIXIXIXIXIXIXIXIXIXIXIXIXIXIXIXIXIXIXIXIXIXIXIXIXIXIXIXIXIXIXIXIXIXIXIXIXIXIXIXIXIXIXIXIXIXIXIXIXIXIX",
"IXIXIXIXIXIXIXIXIXIXIXIXIXIXIXIXIXIXIXIX` _ _ ] x.x.v.b.n.n.n.P.P.P.P.P.K.n.n.n.n.v.v.{ { } IXIXIXIXIXIXIXIXIXIXIXIXIXIXIXIXIXIXIXIXIXIXIXIXIXIXIXIXIXIXIXIXIXIXIXIXIXIXIXIXIXIXIXIXIXIXIXIXIXIXIXIXIXIXIXIXIXIXIXIXIXIXIXIXIXIXIXIXIXIXIXIXIXIXIXIXIXIXIXIXIXIXIXIXIXIXIXIXIXIXIXIXIXIXIXIXIXIXIXIXIXIX/ _ { { x.v.v.n.n.n.n.n.v.x.x.] ] _ / ~ A C c d d a q 0 0 7 , < : : # # # # # # # # # @ O @ @ # # # # # # # # # # # # # # # # # = = = = = # # # % % % # # # # # # % % % % % % % % % % % % % % % % % % % % % % % % % % % % % % % # # # # # # # # # # # # # = : < 4 0 9 y i s x Z J E W ;.6.0.0.h.A.S.F.G.}.}.@XBXBXBXBXBX+X9X9X9XeXrXeXeXeX0X0X0X0X6X6X6X6X5X5X5X5X5X;X&X&X&X&X&X&X&X&X&X&X&X&X&X&X7X&X7X7X7X7X7X|.|.|.|.|.|.|.|.|.|.`.`.`.(.(.(.~.~.~.~.~.C.f.i.i.e.<.>.:.O...T P F IXIXIXIXIXIXIXIXIXIXIXIXIXIXIXIXIXIXIXIXIXIXIXIXIXIXIXIXIXIXIXIXIXIXIXIXIXIXIXIXIXIXIXIXIXIXIXIXIXIXIXIXIXIXIXIXIXIXIXIXIXIXIXIXIXIXIXIXIXIXIXIXIXIXIXIXIXIXIXIXIXIXIXIXIXIXIXIXIXIXIXIXIXIXIXIXIXIXIXIXIXIXIXIXIXIXIXIXIXIXIXIXIXIXIXIXIXIXIXIXIXIXIXIXIXIXIXIXIXIX",
"IXIXIXIXIXIXIXIXIXIXIXIXIXIXIXIXIXIXIX` _ _ ] x.x.v.b.b.m.n.P.P.P.P.P.P.P.n.n.n.n.v.x.{ } } IXIXIXIXIXIXIXIXIXIXIXIXIXIXIXIXIXIXIXIXIXIXIXIXIXIXIXIXIXIXIXIXIXIXIXIXIXIXIXIXIXIXIXIXIXIXIXIXIXIXIXIXIXIXIXIXIXIXIXIXIXIXIXIXIXIXIXIXIXIXIXIXIXIXIXIXIXIXIXIXIXIXIXIXIXIXIXIXIXIXIXIXIXIXIXIXIXIXIXIXIXIX_ { { x.x.v.v.n.n.n.n.v.v.x.] ] ] / ~ ~ C c c d p q 0 0 7 < < : = # # # + O O O O O O O O O O O O @ # # # # # # # # # # # # # # # # # # # # # # # # # # # # # # # # # # % % # % # # % % % % % % % % % % % % % % % % % % % % # # + # # # # # # # # # # # # # : < , 4 9 y y s x Z J E W 6.9.0.0.j.A.A.G.}.}.@XBXBXBXBXAXAXAXAXAXSXeXjXjXjXjXjXjXhXhXhXpXpXyXyXyXyXyXtXtX;X;X;X;X&X&X&X&X;X;X&X&X&X&X&X&X&X&X&X5X7X7X7X7X7X7X7X7XOX|.|.|.|.|.|.|.|.|.|.(.(.~.~.C.f.d.y.t.e.<.>.O...T P F IXIXIXIXIXIXIXIXIXIXIXIXIXIXIXIXIXIXIXIXIXIXIXIXIXIXIXIXIXIXIXIXIXIXIXIXIXIXIXIXIXIXIXIXIXIXIXIXIXIXIXIXIXIXIXIXIXIXIXIXIXIXIXIXIXIXIXIXIXIXIXIXIXIXIXIXIXIXIXIXIXIXIXIXIXIXIXIXIXIXIXIXIXIXIXIXIXIXIXIXIXIXIXIXIXIXIXIXIXIXIXIXIXIXIXIXIXIXIXIXIXIXIXIXIXIXIXIXIX",
"IXIXIXIXIXIXIXIXIXIXIXIXIXIXIXIXIXIXIX/ _ ] 7.x.v.n.b.m.m.m.P.P.P.P.P.P.n.n.n.n.v.v.{ { } } IXIXIXIXIXIXIXIXIXIXIXIXIXIXIXIXIXIXIXIXIXIXIXIXIXIXIXIXIXIXIXIXIXIXIXIXIXIXIXIXIXIXIXIXIXIXIXIXIXIXIXIXIXIXIXIXIXIXIXIXIXIXIXIXIXIXIXIXIXIXIXIXIXIXIXIXIXIXIXIXIXIXIXIXIXIXIXIXIXIXIXIXIXIXIXIXIXIXIXIXIXIX{ { x.x.v.v.v.n.n.n.v.v.x.{ ] ] / ^ ~ C C d p q 0 0 7 , < < : # # # + O O O O O O O O O O O O O O O + # # # # # # # # # # # # # # # # # # # # # # # # # # # # # # # # # # # # # # # # # # + + # % % % & % % % % % % % % % & + + + + + + # # # # + + # # # # : < , 4 9 t y s s Z J E Q ;.9.0.0.h.A.A.F.}.}.@XBXBXBXAXAXAXAXSXSXFXFXFXFXFXxXxXxXcXlXlXlXsXsXsXsXaXaXaXtX;X;X;X;X;X;X;X;X;X;X;X;X;X;X;X;X;X&X;X;X&X&X&X7X7X7X7X7X7X7X7X7XOX|.|.|.|.|.|.|.|.|.~.~.C.C.d.u.y.t.<.>.O.X.T P F IXIXIXIXIXIXIXIXIXIXIXIXIXIXIXIXIXIXIXIXIXIXIXIXIXIXIXIXIXIXIXIXIXIXIXIXIXIXIXIXIXIXIXIXIXIXIXIXIXIXIXIXIXIXIXIXIXIXIXIXIXIXIXIXIXIXIXIXIXIXIXIXIXIXIXIXIXIXIXIXIXIXIXIXIXIXIXIXIXIXIXIXIXIXIXIXIXIXIXIXIXIXIXIXIXIXIXIXIXIXIXIXIXIXIXIXIXIXIXIXIXIXIXIXIXIXIXIX",
"IXIXIXIXIXIXIXIXIXIXIXIXIXIXIXIXIXIX/ _ ] x.x.v.b.b.b.m.m.P.P.P.P.m.n.n.n.n.n.v.v.x.{ } / IXIXIXIXIXIXIXIXIXIXIXIXIXIXIXIXIXIXIXIXIXIXIXIXIXIXIXIXIXIXIXIXIXIXIXIXIXIXIXIXIXIXIXIXIXIXIXIXIXIXIXIXIXIXIXIXIXIXIXIXIXIXIXIXIXIXIXIXIXIXIXIXIXIXIXIXIXIXIXIXIXIXIXIXIXIXIXIXIXIXIXIXIXIXIXIXIXIXIXIXIXIX{ { x.x.v.v.v.n.n.n.v.x.x.x.] ] / ^ ~ A C c d q 0 0 , < < < : # # # + O O O O O O O O O O O O O O O + + + + # # # # # # # # # # # # # # # # # # # # # # # # # # # # # # # # + + + + + + + + + + + & & & & & & & & & + + + + + + + + + + + + + + + + + + # # # = : , 4 9 9 y s x x H Y Q ;.;.9.0.h.A.A.F.}.}.@X+X+XAXAXAXSXSXFXFXFXFXFXFXFXFXxXxXxXxXzXzXzXfXfXsXsXaXaXaX2X;X;X;X;X:X:X:X;X;X;X;X;X;X;X;X;X&X&X;X;X;X&X&X5X&X&X5X5X7X7X7X7X7X7X7XvX|.|.|.|.|.`.(.~.~.V.s.a.y.t.e.,.:.X.T P F F IXIXIXIXIXIXIXIXIXIXIXIXIXIXIXIXIXIXIXIXIXIXIXIXIXIXIXIXIXIXIXIXIXIXIXIXIXIXIXIXIXIXIXIXIXIXIXIXIXIXIXIXIXIXIXIXIXIXIXIXIXIXIXIXIXIXIXIXIXIXIXIXIXIXIXIXIXIXIXIXIXIXIXIXIXIXIXIXIXIXIXIXIXIXIXIXIXIXIXIXIXIXIXIXIXIXIXIXIXIXIXIXIXIXIXIXIXIXIXIXIXIXIXIXIXIX",
"IXIXIXIXIXIXIXIXIXIXIXIXIXIXIXIXIX/ _ ] x.x.v.b.b.b.m.m.m.m.m.m.m.n.n.n.n.n.v.x.x.{ } / IXIXIXIXIXIXIXIXIXIXIXIXIXIXIXIXIXIXIXIXIXIXIXIXIXIXIXIXIXIXIXIXIXIXIXIXIXIXIXIXIXIXIXIXIXIXIXIXIXIXIXIXIXIXIXIXIXIXIXIXIXIXIXIXIXIXIXIXIXIXIXIXIXIXIXIXIXIXIXIXIXIXIXIXIXIXIXIXIXIXIXIXIXIXIXIXIXIXIXIXIXIXIX{ x.x.v.v.v.v.n.v.v.v.x.{ ] ] / ^ ~ A C c d q 0 0 , < < : : % # + O O O . . . . . . . O O O O O O O + + + + + # # # # # # # # # # # # # # # # # # # # # # # # + + + + + + + + + + + + + + + + + + + + + + + + & & + + + + + + + + + + + + + + + + + O O O # # = : < 4 0 9 y i s x Z J Q @.;.9.0.0.h.A.F.G.}.@X+X+XAXAXSXSXFXFXFXFXFXLXLXLXFXFXxXxXxXzXzXzXfXfXfXsXaXaXaX2X:X2X:X:X:X:X:X:X:X:X:X:X4X4X4X4X:X:X;X;X;X;X;X;X;X;X;X&X5X5X5X5X7X7X7X7X7X7X7XvX|.|.`.(.~.~.~.V.a.a.y.e.<.:.X.T I P F IXIXIXIXIXIXIXIXIXIXIXIXIXIXIXIXIXIXIXIXIXIXIXIXIXIXIXIXIXIXIXIXIXIXIXIXIXIXIXIXIXIXIXIXIXIXIXIXIXIXIXIXIXIXIXIXIXIXIXIXIXIXIXIXIXIXIXIXIXIXIXIXIXIXIXIXIXIXIXIXIXIXIXIXIXIXIXIXIXIXIXIXIXIXIXIXIXIXIXIXIXIXIXIXIXIXIXIXIXIXIXIXIXIXIXIXIXIXIXIXIXIXIXIXIX",
"IXIXIXIXIXIXIXIXIXIXIXIXIXIXIXIXIX_ _ ] x.x.b.b.b.b.m.m.m.m.m.m.m.n.n.n.v.v.x.x.{ } / IXIXIXIXIXIXIXIXIXIXIXIXIXIXIXIXIXIXIXIXIXIXIXIXIXIXIXIXIXIXIXIXIXIXIXIXIXIXIXIXIXIXIXIXIXIXIXIXIXIXIXIXIXIXIXIXIXIXIXIXIXIXIXIXIXIXIXIXIXIXIXIXIXIXIXIXIXIXIXIXIXIXIXIXIXIXIXIXIXIXIXIXIXIXIXIXIXIXIXIXIXIXIX{ x.x.x.v.v.v.v.v.v.x.x.x.] ] _ ^ ~ A C c d p 0 0 , < < : % # # + + O . . . . . . . . . . . . O O O O + + + + + + + # # # # # # # # # # # # # # # # # + + + + + + + + + + + + + + + + + + + + + + + + + + + + + + + + + + + + + + + + + + + + + + + O O O O + # # : < 4 4 9 9 y s k x H E Q ;.;.5.0.h.A.A.G.}.@X+X+X9X9XSXSXFXFXFXFXLXLXLXLXLXLXJXJXxXxXzXzXzXfXfXsXaXaXaX2X2X2X3X:X:X:X:X:X:X:X:X:X:X:X-X-X:X:X:X;X;X;X&X;X;X;X;X;X5X5X5X5X5X5X5X5X5X5X7X7X7X|.|.`.`.(.(.!.V.V.a.y.t.<.:.O...T P P F IXIXIXIXIXIXIXIXIXIXIXIXIXIXIXIXIXIXIXIXIXIXIXIXIXIXIXIXIXIXIXIXIXIXIXIXIXIXIXIXIXIXIXIXIXIXIXIXIXIXIXIXIXIXIXIXIXIXIXIXIXIXIXIXIXIXIXIXIXIXIXIXIXIXIXIXIXIXIXIXIXIXIXIXIXIXIXIXIXIXIXIXIXIXIXIXIXIXIXIXIXIXIXIXIXIXIXIXIXIXIXIXIXIXIXIXIXIXIXIXIXIXIX",
"IXIXIXIXIXIXIXIXIXIXIXIXIXIXIXIXIX_ ] 7.x.v.b.b.b.m.m.m.m.m.m.b.b.n.v.v.x.x.x.{ _ / ` IXIXIXIXIXIXIXIXIXIXIXIXIXIXIXIXIXIXIXIXIXIXIXIXIXIXIXIXIXIXIXIXIXIXIXIXIXIXIXIXIXIXIXIXIXIXIXIXIXIXIXIXIXIXIXIXIXIXIXIXIXIXIXIXIXIXIXIXIXIXIXIXIXIXIXIXIXIXIXIXIXIXIXIXIXIXIXIXIXIXIXIXIXIXIXIXIXIXIXIXIXIXIXx.x.x.v.v.v.v.v.v.x.x.{ ] _ / ^ ~ A C c d p 0 0 , < : % # # # + + O . . . . . . . . . . . . . . O O O + + + + + + + + + + + + + + # # # # + + + + + + + + + + + + + + + + + + + + + + + + + + + + + + + + + + + + + + + + + + + + + + + + + + + + O O O O O O # # : < , 4 0 0 y i k x H Y Q @.;.2.5.0.h.A.D.}. X@X+X+X9X9XSXFXFXFXLXLXLXLXLXLXLXLXJXJXxXzXzXzXfXfXfXdXaXaX2X2X1X1X1X1X:X,X-X:X-X-X-X-X-X-X:X:X:X:X:X4X4X;X;X;X;X;X;X;X;X;X5X5X5X5X5X5X5X5X5X5X7X7X`.`.`.`.(./.!.B.a.u.t.<.>.=.X...T P F IXIXIXIXIXIXIXIXIXIXIXIXIXIXIXIXIXIXIXIXIXIXIXIXIXIXIXIXIXIXIXIXIXIXIXIXIXIXIXIXIXIXIXIXIXIXIXIXIXIXIXIXIXIXIXIXIXIXIXIXIXIXIXIXIXIXIXIXIXIXIXIXIXIXIXIXIXIXIXIXIXIXIXIXIXIXIXIXIXIXIXIXIXIXIXIXIXIXIXIXIXIXIXIXIXIXIXIXIXIXIXIXIXIXIXIXIXIXIXIXIXIX",
"IXIXIXIXIXIXIXIXIXIXIXIXIXIXIXIX/ _ ] x.x.b.b.b.b.m.m.m.b.b.b.b.c.c.x.x.x.{ _ _ / ` IXIXIXIXIXIXIXIXIXIXIXIXIXIXIXIXIXIXIXIXIXIXIXIXIXIXIXIXIXIXIXIXIXIXIXIXIXIXIXIXIXIXIXIXIXIXIXIXIXIXIXIXIXIXIXIXIXIXIXIXIXIXIXIXIXIXIXIXIXIXIXIXIXIXIXIXIXIXIXIXIXIXIXIXIXIXIXIXIXIXIXIXIXIXIXIXIXIXIXIXIXIX{ { x.x.v.v.v.v.v.v.x.x.{ ] ] / ` ~ A C c d p q 0 , < : # # # + O O O . . . . . . . . . . . . . . . . . + + + + + + + + + + + + + + + + + + + + + + + + + + + + + + + + + + + + + + + + + + + + + + + + X X + + + + + + + + + + + X + + X X + O O O + O O O O O O @ # = : < 4 4 9 0 y s x Z H E Q @.;.5.4.h.A.D.H.}. X+X+X+X9XAXSXFXFXLXLXLXLXLXLXLXJXJXJXJXJXzXzXfXfXfXdXdXdX2X2X1X1X1X1X1X,X,X,X,X-X-X-X-X-X-X-X-X-X:X:X:X:X:X;X;X;X;X;X;X;X;XtXtXtXtXtXtXtXtX5X5X7X7X`.`.`.`.(.(.~.!.V.u.t.e.<.:.O.X.T P F IXIXIXIXIXIXIXIXIXIXIXIXIXIXIXIXIXIXIXIXIXIXIXIXIXIXIXIXIXIXIXIXIXIXIXIXIXIXIXIXIXIXIXIXIXIXIXIXIXIXIXIXIXIXIXIXIXIXIXIXIXIXIXIXIXIXIXIXIXIXIXIXIXIXIXIXIXIXIXIXIXIXIXIXIXIXIXIXIXIXIXIXIXIXIXIXIXIXIXIXIXIXIXIXIXIXIXIXIXIXIXIXIXIXIXIXIXIXIXIXIX",
"IXIXIXIXIXIXIXIXIXIXIXIXIXIXIXIX/ _ ] x.c.b.b.b.b.b.b.b.b.b.c.c.x.x.x.*._ _ _ / IXIXIXIXIXIXIXIXIXIXIXIXIXIXIXIXIXIXIXIXIXIXIXIXIXIXIXIXIXIXIXIXIXIXIXIXIXIXIXIXIXIXIXIXIXIXIXIXIXIXIXIXIXIXIXIXIXIXIXIXIXIXIXIXIXIXIXIXIXIXIXIXIXIXIXIXIXIXIXIXIXIXIXIXIXIXIXIXIXIXIXIXIXIXIXIXIXIXIXIXIXIXIX_ { x.x.v.v.v.v.v.v.x.x.{ ] _ / ` ~ A C c d a q 0 , < : # # O O O O . . . .             . . . . . . . . . X X + + + + + + + + + + + + + + + + + + + + + + + + + + + + + + + + + + + X X X X X X X X X X X X X X X X X X X X X X X X X X X X X . . O O O O O O O O O O # = : < > 4 4 9 y i k x H ! E Q ;.;.5.4.h.A.H.{.{.@X+X+X+X9XSXSXFXFXLXLXLXLXLXLXJXJXJXJXJXzXzXzXfXfXfXdXdX2X2X1X1X1X1X1X,X,X,X,X-X,X<X<X<X,X-X,X-X-X1X1X3X3X3X3X2X2X2X2X2X2X;XiXiXiXiXiXiXiXtX5X5X5X7X&X&X`.`.`.`.(.!.V.d.i.i.3.1.-.+...R P IXIXIXIXIXIXIXIXIXIXIXIXIXIXIXIXIXIXIXIXIXIXIXIXIXIXIXIXIXIXIXIXIXIXIXIXIXIXIXIXIXIXIXIXIXIXIXIXIXIXIXIXIXIXIXIXIXIXIXIXIXIXIXIXIXIXIXIXIXIXIXIXIXIXIXIXIXIXIXIXIXIXIXIXIXIXIXIXIXIXIXIXIXIXIXIXIXIXIXIXIXIXIXIXIXIXIXIXIXIXIXIXIXIXIXIXIXIXIXIX",
"IXIXIXIXIXIXIXIXIXIXIXIXIXIXIXIX/ _ ] x.c.b.b.b.b.b.b.b.c.c.x.x.7.*._ _ _ / / IXIXIXIXIXIXIXIXIXIXIXIXIXIXIXIXIXIXIXIXIXIXIXIXIXIXIXIXIXIXIXIXIXIXIXIXIXIXIXIXIXIXIXIXIXIXIXIXIXIXIXIXIXIXIXIXIXIXIXIXIXIXIXIXIXIXIXIXIXIXIXIXIXIXIXIXIXIXIXIXIXIXIXIXIXIXIXIXIXIXIXIXIXIXIXIXIXIXIXIXIXIX/ _ { x.x.x.v.v.v.v.v.x.x.] ] _ / ` A A c c d a 0 0 , < : # + O O . . . . .                     . . . . . . . . X X X X + + + + + + + + + + + + + + + + + + + + X X + + . . . . . . . X X . . . . . X X X X X X X X X X X X X X X X X X . . . . . . . . . . . . . O O O O # # = : < > 4 6 9 y i x x H ! E W ;.;.2.4.h.D.H.}.{.@X+X+X9X9XeXSXFXFXLXLXLXLXLXJXJXJXJXJXJXJXzXfXfXfXdXdXdX2X2X1X1X1X1X1X,X,X,X,X,X,X,X,X,X,X,X,X,X,X1X1X1X3X3X3X1X2X2X2X2X2X2X2XaXaXaXaXaXaXtXtX5X5X5X&X&X&X`.`.`.(.~.C.C.f.i.i.1.1.-.+.R H IXIXIXIXIXIXIXIXIXIXIXIXIXIXIXIXIXIXIXIXIXIXIXIXIXIXIXIXIXIXIXIXIXIXIXIXIXIXIXIXIXIXIXIXIXIXIXIXIXIXIXIXIXIXIXIXIXIXIXIXIXIXIXIXIXIXIXIXIXIXIXIXIXIXIXIXIXIXIXIXIXIXIXIXIXIXIXIXIXIXIXIXIXIXIXIXIXIXIXIXIXIXIXIXIXIXIXIXIXIXIXIXIXIXIXIXIXIXIX",
"IXIXIXIXIXIXIXIXIXIXIXIXIXIXIXIX/ _ ] x.x.c.v.b.b.c.c.c.x.x.7.*._ _ _ _ _ IXIXIXIXIXIXIXIXIXIXIXIXIXIXIXIXIXIXIXIXIXIXIXIXIXIXIXIXIXIXIXIXIXIXIXIXIXIXIXIXIXIXIXIXIXIXIXIXIXIXIXIXIXIXIXIXIXIXIXIXIXIXIXIXIXIXIXIXIXIXIXIXIXIXIXIXIXIXIXIXIXIXIXIXIXIXIXIXIXIXIXIXIXIXIXIXIXIXIXIXIXIX` / _ _ { x.x.x.v.v.v.v.x.x.] ] _ / ` A A c d d q 0 0 , < : # # O O . . . .                               . . . . . . X X X X X X X X + + + + + + + + + + + X X . . . X X . . . . . . . . . . . . . . . . . . . . X X X X X X X X X X . . . . . . . . . . . . . . . . . O O O O # = = : < > 4 6 9 y s x H H Y E W -.;.2.p.Z.D.H.{.{.@X+X+X9X9XeXFXFXFXFXLXLXLXJXJXJXJXJXJXJXzXfXfXfXfXdXdX2X1X2X1X1X1X1X1X,X,X,X,X,X,X,X,X,X,X,X,X,X,X,X1X1X1X1X1X1X1X1X2X2X2X2X2X2XaXaXaXaXaXiXtXtXtX5X5X&X&X&X`.`.(.~.~.C.Z.p.p.g.1.1.+.R U IXIXIXIXIXIXIXIXIXIXIXIXIXIXIXIXIXIXIXIXIXIXIXIXIXIXIXIXIXIXIXIXIXIXIXIXIXIXIXIXIXIXIXIXIXIXIXIXIXIXIXIXIXIXIXIXIXIXIXIXIXIXIXIXIXIXIXIXIXIXIXIXIXIXIXIXIXIXIXIXIXIXIXIXIXIXIXIXIXIXIXIXIXIXIXIXIXIXIXIXIXIXIXIXIXIXIXIXIXIXIXIXIXIXIXIXIXIX",
"IXIXIXIXIXIXIXIXIXIXIXIXIXIXIXIX/ _ ] ] x.x.x.x.c.c.x.7.7.*._ _ / / IXIXIXIXIXIXIXIXIXIXIXIXIXIXIXIXIXIXIXIXIXIXIXIXIXIXIXIXIXIXIXIXIXIXIXIXIXIXIXIXIXIXIXIXIXIXIXIXIXIXIXIXIXIXIXIXIXIXIXIXIXIXIXIXIXIXIXIXIXIXIXIXIXIXIXIXIXIXIXIXIXIXIXIXIXIXIXIXIXIXIXIXIXIXIXIXIXIXIXIXIXIXIXIXIX/ _ _ ] x.x.x.v.v.v.v.x.x.x.] _ / ` ~ A c d a q 0 0 , < : # # O O . . .                                       . . . . . X X X X X X X X X X X X X X . . . . . . . . . . . . . . . . . . . . . . . . . . . . . . . . . . X X X X X . . . . . . . . . . . . . . . . . . . . O O O # # = = : < > 4 6 t i k x D H ! E R -.2.4.p.A.D.H.{.{.}.+X+X9X9XeXFXFXFXFXFXxXxXxXxXxXzXzXJXzXzXfXfXfXdXdXdX2X1X1X1X1X1X1X1X,X,X,X,X,X,X,X,X,X,X,X,X,X,X,X,X,X,X,X1X1X1X1X1X2X2X2X2X2X2X2XaX2XaXaXiXiXtXtX5X5X5X&X`.`.(.(.~.C.C.f.f.g.1.-.+.R U IXIXIXIXIXIXIXIXIXIXIXIXIXIXIXIXIXIXIXIXIXIXIXIXIXIXIXIXIXIXIXIXIXIXIXIXIXIXIXIXIXIXIXIXIXIXIXIXIXIXIXIXIXIXIXIXIXIXIXIXIXIXIXIXIXIXIXIXIXIXIXIXIXIXIXIXIXIXIXIXIXIXIXIXIXIXIXIXIXIXIXIXIXIXIXIXIXIXIXIXIXIXIXIXIXIXIXIXIXIXIXIXIXIXIXIXIX",
"IXIXIXIXIXIXIXIXIXIXIXIXIXIXIXIXIX/ _ ] 7.x.x.x.7.7.7._ _ _ ^ ` IXIXIXIXIXIXIXIXIXIXIXIXIXIXIXIXIXIXIXIXIXIXIXIXIXIXIXIXIXIXIXIXIXIXIXIXIXIXIXIXIXIXIXIXIXIXIXIXIXIXIXIXIXIXIXIXIXIXIXIXIXIXIXIXIXIXIXIXIXIXIXIXIXIXIXIXIXIXIXIXIXIXIXIXIXIXIXIXIXIXIXIXIXIXIXIXIXIXIXIXIXIXIXIXIXIX` _ _ ] x.x.x.x.v.v.v.x.x.x.] _ _ ^ ~ A c d a q 0 0 , < : : # O O . . .                                             . . . . . X X X . . . . X X X X X . . . . . . . . . . . . . . . . . . . . . . . . . . . . . . . . . . . . . . . . . . . . . . . . . . . . . . . . . . . . O O @ # # = = : < > 4 0 t i x z D H ! R R -.2.4.p.A.D.H.{.{.}.+X+X9XrXeXjXkXkXxXxXxXxXxXxXzXzXzXzXzXfXfXfXdXdXdX2X2X1X1X1X1X1X1X1X1X,X,X,X,X,X,X,X,X,X,X,X,X,X,X,X,X,X,X,X,X1X1X1X1X1X1X2X1X1X2X2X2XaXaXaXiXiXtXtX5X5X7X|.|.|.(.~.~.C.C.f.g.2.-.+.R ! IXIXIXIXIXIXIXIXIXIXIXIXIXIXIXIXIXIXIXIXIXIXIXIXIXIXIXIXIXIXIXIXIXIXIXIXIXIXIXIXIXIXIXIXIXIXIXIXIXIXIXIXIXIXIXIXIXIXIXIXIXIXIXIXIXIXIXIXIXIXIXIXIXIXIXIXIXIXIXIXIXIXIXIXIXIXIXIXIXIXIXIXIXIXIXIXIXIXIXIXIXIXIXIXIXIXIXIXIXIXIXIXIXIXIXIX",
"IXIXIXIXIXIXIXIXIXIXIXIXIXIXIXIXIX/ / _ ] ] ] ] ] _ _ _ ` ~ IXIXIXIXIXIXIXIXIXIXIXIXIXIXIXIXIXIXIXIXIXIXIXIXIXIXIXIXIXIXIXIXIXIXIXIXIXIXIXIXIXIXIXIXIXIXIXIXIXIXIXIXIXIXIXIXIXIXIXIXIXIXIXIXIXIXIXIXIXIXIXIXIXIXIXIXIXIXIXIXIXIXIXIXIXIXIXIXIXIXIXIXIXIXIXIXIXIXIXIXIXIXIXIXIXIXIXIX_ _ ] ] x.x.x.v.v.c.x.x.x.] _ _ ^ ~ A c c d q 0 0 , < < : # # O O . . .                                                 . . . . . . . . . . . . . . . . . . . . . . . . . . . . . . . . . . . . . . . . . . . . . . . . . . . . . . . . . . . . . . . . . . . . . . . . . . . O O O # # = = = : > 3 4 9 y i k z D F G R R -.1.4.p.A.D.H.].}.{.@X+X9X9XrXeXjXjXcXxXxXxXzXzXzXzXzXfXfXfXfXfXdXdXdX2X2X2X1X1X1X1X1X1X1X,X,X,X,X,X,X,X,X,X<X<X<X<X<X,X<X<X<X<X,X,X,X,X1X1X1X1X1X2X2X2X2X3XaXaXaXiXiXtX5X5X7X|.|.|.{.].].C.C.f.g.2.-.@.R Y H IXIXIXIXIXIXIXIXIXIXIXIXIXIXIXIXIXIXIXIXIXIXIXIXIXIXIXIXIXIXIXIXIXIXIXIXIXIXIXIXIXIXIXIXIXIXIXIXIXIXIXIXIXIXIXIXIXIXIXIXIXIXIXIXIXIXIXIXIXIXIXIXIXIXIXIXIXIXIXIXIXIXIXIXIXIXIXIXIXIXIXIXIXIXIXIXIXIXIXIXIXIXIXIXIXIXIXIXIXIXIXIXIXIX",
"IXIXIXIXIXIXIXIXIXIXIXIXIXIXIXIXIXIX/ / _ _ _ _ _ / ` ~ IXIXIXIXIXIXIXIXIXIXIXIXIXIXIXIXIXIXIXIXIXIXIXIXIXIXIXIXIXIXIXIXIXIXIXIXIXIXIXIXIXIXIXIXIXIXIXIXIXIXIXIXIXIXIXIXIXIXIXIXIXIXIXIXIXIXIXIXIXIXIXIXIXIXIXIXIXIXIXIXIXIXIXIXIXIXIXIXIXIXIXIXIXIXIXIXIXIXIXIXIXIXIXIXIXIXIXIXIX_ _ ] ] x.x.x.c.v.c.x.x.x.] ] _ ^ ~ A C c d q 0 0 < < : : # # + O . . .                                                           . . . . . . . . . . . . . . . . . . . . . . . .     . . . .             . . . . . . . . . . . . . . . . . . . . .       . . . . . . . . . . . O O O @ # # # = = : > 4 6 t y i k z m F G T X.-.1.4.p.Z.Z.D.H.{.{.@X+X8X8XrXuXjXjXcXcXcXlXcXzXzXzXfXfXfXfXfXdXdXdXdX2X2X2X2X1X1X1X1X1X1X,X,X,X,X,X,X,X<X<X>X>X>X>X>X>X>X>X>X>X<X<X<X,X,X,X,X1X1X1X2X2X3XaXaXaXaXiXpXyX6X7X7XOX|.|.{.{.].D.Z.p.4.2.;.@.Q E H IXIXIXIXIXIXIXIXIXIXIXIXIXIXIXIXIXIXIXIXIXIXIXIXIXIXIXIXIXIXIXIXIXIXIXIXIXIXIXIXIXIXIXIXIXIXIXIXIXIXIXIXIXIXIXIXIXIXIXIXIXIXIXIXIXIXIXIXIXIXIXIXIXIXIXIXIXIXIXIXIXIXIXIXIXIXIXIXIXIXIXIXIXIXIXIXIXIXIXIXIXIXIXIXIXIXIXIXIXIXIXIXIX",
"IXIXIXIXIXIXIXIXIXIXIXIXIXIXIXIXIXIXIX` / / / / ` ~ IXIXIXIXIXIXIXIXIXIXIXIXIXIXIXIXIXIXIXIXIXIXIXIXIXIXIXIXIXIXIXIXIXIXIXIXIXIXIXIXIXIXIXIXIXIXIXIXIXIXIXIXIXIXIXIXIXIXIXIXIXIXIXIXIXIXIXIXIXIXIXIXIXIXIXIXIXIXIXIXIXIXIXIXIXIXIXIXIXIXIXIXIXIXIXIXIXIXIXIXIXIXIXIXIXIXIXIXIXIXIX_ ] ] x.x.x.c.c.c.x.x.x.] ] _ ^ ~ A C c d p 0 0 < < : : # # # O O . . . .                                                         .       . . . . . . . . . . . . . . . .                 . . . .   . . . . . . . . .             . . . . . . . . .       . .   . . . . . . . . . O O O @ @ @ # = = - > 4 6 t y s k z m D G T X.=.1.4.p.p.A.D.H.{.{. X+X+X8X8X8X0X0XuXhXhXhXlXzXzXfXfXfXfXfXfXdXdXdXdXdX2X2X2X2X1X1X1X1X1X1X,X,X,X,X,X<X<X>X>X>X>X>X>X>X>X>X>X>X>X>X>X>X>X<X,X,X1X1X2X2X2XaXaXaXsXpXpX6X6X7X7XOX|.|.|.{.].D.f.p.4.2.;.@.Q E H H IXIXIXIXIXIXIXIXIXIXIXIXIXIXIXIXIXIXIXIXIXIXIXIXIXIXIXIXIXIXIXIXIXIXIXIXIXIXIXIXIXIXIXIXIXIXIXIXIXIXIXIXIXIXIXIXIXIXIXIXIXIXIXIXIXIXIXIXIXIXIXIXIXIXIXIXIXIXIXIXIXIXIXIXIXIXIXIXIXIXIXIXIXIXIXIXIXIXIXIXIXIXIXIXIXIXIXIXIXIXIX",
"IXIXIXIXIXIXIXIXIXIXIXIXIXIXIXIXIXIXIXIXIXIXIXIXIXIXIXIXIXIXIXIXIXIXIXIXIXIXIXIXIXIXIXIXIXIXIXIXIXIXIXIXIXIXIXIXIXIXIXIXIXIXIXIXIXIXIXIXIXIXIXIXIXIXIXIXIXIXIXIXIXIXIXIXIXIXIXIXIXIXIXIXIXIXIXIXIXIXIXIXIXIXIXIXIXIXIXIXIXIXIXIXIXIXIXIXIXIXIXIXIXIXIXIXIXIXIXIXIXIXIXIXIXIXIXIX_ ] ] x.x.x.x.c.x.x.x.7.7.] _ / ^ ~ A c d p 0 0 < < : = # # # + O O . . . .                                                                                             . . .               . . . .     . . . . . . . .       .     . . . . . . .   . .           . . . . . . . . . O O O O @ @ @ @ = ; > > 4 6 t y i k l z D P T X.=.1.4.4.p.A.D.D.].{. XOXOX+X+X8X8X0X0X0XhXhXlXlXsXsXsXsXfXsXsXdXdXdXdXdXdXdX2X2X2X1X1X1X1X1X1X,X,X,X,X,X>X>X>X>X>X>X>X>X>X>X>X>X>X>X>X>X>X>X<X,X1X1X2X2XaXaXaXsXsXpXpX6X6X6X7XOX|.|.{.{.].D.f.p.g.2.2.;.@.R Y H IXIXIXIXIXIXIXIXIXIXIXIXIXIXIXIXIXIXIXIXIXIXIXIXIXIXIXIXIXIXIXIXIXIXIXIXIXIXIXIXIXIXIXIXIXIXIXIXIXIXIXIXIXIXIXIXIXIXIXIXIXIXIXIXIXIXIXIXIXIXIXIXIXIXIXIXIXIXIXIXIXIXIXIXIXIXIXIXIXIXIXIXIXIXIXIXIXIXIXIXIXIXIXIXIXIXIXIXIXIX",
"IXIXIXIXIXIXIXIXIXIXIXIXIXIXIXIXIXIXIXIXIXIXIXIXIXIXIXIXIXIXIXIXIXIXIXIXIXIXIXIXIXIXIXIXIXIXIXIXIXIXIXIXIXIXIXIXIXIXIXIXIXIXIXIXIXIXIXIXIXIXIXIXIXIXIXIXIXIXIXIXIXIXIXIXIXIXIXIXIXIXIXIXIXIXIXIXIXIXIXIXIXIXIXIXIXIXIXIXIXIXIXIXIXIXIXIXIXIXIXIXIXIXIXIXIXIXIXIXIXIXIXIXIXIXIXIX] ] 7.x.x.c.c.c.x.x.7.7.] _ / ~ ~ C c d a 0 0 , < : = # # # + O O O . . . . .                                                                                                                           .           . .   . . .       .     .   .                   . . . . . . . . . O O O O O @ @ @ = ; > 3 4 6 t y i k k z D P T X.-.1.1.4.p.p.A.D.H.{.{.|.|.OXOXOX7X6X6X6X6XpXpXpXpXpXsXsXsXsXsXaXaXaXaXaXaXdXdX2X2X2X2X2X1X1X1X1X,X,X,X>X>X>X>X>X>X>X>X>X>X<X<X<X>X>X>X>X>X>X>X,X1X1X2X2XaXaXaXsXsXpXyX6X6X6X7X7XOX|.{.{.].D.k.p.g.2.2.-.@.Q Y H IXIXIXIXIXIXIXIXIXIXIXIXIXIXIXIXIXIXIXIXIXIXIXIXIXIXIXIXIXIXIXIXIXIXIXIXIXIXIXIXIXIXIXIXIXIXIXIXIXIXIXIXIXIXIXIXIXIXIXIXIXIXIXIXIXIXIXIXIXIXIXIXIXIXIXIXIXIXIXIXIXIXIXIXIXIXIXIXIXIXIXIXIXIXIXIXIXIXIXIXIXIXIXIXIXIXIXIXIX",
"IXIXIXIXIXIXIXIXIXIXIXIXIXIXIXIXIXIXIXIXIXIXIXIXIXIXIXIXIXIXIXIXIXIXIXIXIXIXIXIXIXIXIXIXIXIXIXIXIXIXIXIXIXIXIXIXIXIXIXIXIXIXIXIXIXIXIXIXIXIXIXIXIXIXIXIXIXIXIXIXIXIXIXIXIXIXIXIXIXIXIXIXIXIXIXIXIXIXIXIXIXIXIXIXIXIXIXIXIXIXIXIXIXIXIXIXIXIXIXIXIXIXIXIXIXIXIXIXIXIXIXIXIXIXIX] ] 7.x.x.c.c.c.x.x.7.7.] _ ^ ^ ~ C c d a 0 0 < < = # # # O O O O O . . . . . .                                                                                                                         . .     . . . . . . . . . . . .           .                     . . . . . . . . O O O O O O @ @ @ = = > 3 4 6 9 t y i k z D P T T X.-.1.2.4.p.f.D.D.].{.{.{.|.|.|.OX7X6X6X6X6XyXyXyXpXpXpXsXsXsXsXsXsXaXaXaXaXaX2X2X2X2X2X1X1X1X1X,X,X>X>X>X>X>X>X<X<X=X=X=X<X<X<X>X>X>X>X>X>X>X,X1X1X2XaXaXaXsXsXpXpXyX0X0X6X6X7XOX|.|.{.].D.A.f.p.g.2.2.%.+.E H IXIXIXIXIXIXIXIXIXIXIXIXIXIXIXIXIXIXIXIXIXIXIXIXIXIXIXIXIXIXIXIXIXIXIXIXIXIXIXIXIXIXIXIXIXIXIXIXIXIXIXIXIXIXIXIXIXIXIXIXIXIXIXIXIXIXIXIXIXIXIXIXIXIXIXIXIXIXIXIXIXIXIXIXIXIXIXIXIXIXIXIXIXIXIXIXIXIXIXIXIXIXIXIXIXIXIXIX",
"IXIXIXIXIXIXIXIXIXIXIXIXIXIXIXIXIXIXIXIXIXIXIXIXIXIXIXIXIXIXIXIXIXIXIXIXIXIXIXIXIXIXIXIXIXIXIXIXIXIXIXIXIXIXIXIXIXIXIXIXIXIXIXIXIXIXIXIXIXIXIXIXIXIXIXIXIXIXIXIXIXIXIXIXIXIXIXIXIXIXIXIXIXIXIXIXIXIXIXIXIXIXIXIXIXIXIXIXIXIXIXIXIXIXIXIXIXIXIXIXIXIXIXIXIXIXIXIXIXIXIXIXIXIX_ ] 7.x.c.c.c.c.c.x.7.7.] _ / ^ ~ A c d a 0 0 4 < = # @ @ O O O O O O . . . . . . .                                                                                                                   . . .   . . . . . . . . . . . . . . . . . . . .               .   . . . . . . . . . O O O O O O O O @ @ = = - > 3 4 6 t y i k z D G P T T X.-.2.2.p.p.A.D.D.D.].{.{.{.|.|.OXOX7X6X6X6X6X6X6XyXyXpXpXsXsXsXsXsXsXaXaXaXaX2X2X2X2X2X1X1X,X,X<X<X<X<X=X<X=X=X=X=X=X=X=X<X<X>X>X>X>X>X>X<X,X1X2X2XaXaXsXsXsXsXhXhXuX0X0X6X6XOX|.|.{.].D.D.Z.f.p.4.2.-.@.R H H IXIXIXIXIXIXIXIXIXIXIXIXIXIXIXIXIXIXIXIXIXIXIXIXIXIXIXIXIXIXIXIXIXIXIXIXIXIXIXIXIXIXIXIXIXIXIXIXIXIXIXIXIXIXIXIXIXIXIXIXIXIXIXIXIXIXIXIXIXIXIXIXIXIXIXIXIXIXIXIXIXIXIXIXIXIXIXIXIXIXIXIXIXIXIXIXIXIXIXIXIXIXIXIXIXIX",
"IXIXIXIXIXIXIXIXIXIXIXIXIXIXIXIXIXIXIXIXIXIXIXIXIXIXIXIXIXIXIXIXIXIXIXIXIXIXIXIXIXIXIXIXIXIXIXIXIXIXIXIXIXIXIXIXIXIXIXIXIXIXIXIXIXIXIXIXIXIXIXIXIXIXIXIXIXIXIXIXIXIXIXIXIXIXIXIXIXIXIXIXIXIXIXIXIXIXIXIXIXIXIXIXIXIXIXIXIXIXIXIXIXIXIXIXIXIXIXIXIXIXIXIXIXIXIXIXIXIXIXIX^ _ ] 7.7.7.c.c.c.c.7.7.7.] _ ) ^ ~ A c d a 0 0 4 < = # @ O O O O O O . . . . . . . .                                                                                                             .   . . . . . . . . . . . . . . . . . . . . . . . . . . .             .   . . . . . . . . . . O O O O O O O O @ @ = ; - > 3 4 6 9 t y k z m D G P T R +.-.2.4.p.p.f.Z.D.D.D.].{.{.|.|.|.OX7X7X6X6X6X6X6XyXyXpXpXpXpXsXsXsXsXaXaXaXaXaX2X2X2X1X1X,X,X<X<X<X=X<X<X=X=X=X=X=X<X<X<X>X>X>X>X>X>X>X<X,X1X2X2XdXdXfXfXsXsXhXhXhXhX6X6X6X7X|.|.{.{.].D.D.f.p.g.2.1.@.Q Y H H IXIXIXIXIXIXIXIXIXIXIXIXIXIXIXIXIXIXIXIXIXIXIXIXIXIXIXIXIXIXIXIXIXIXIXIXIXIXIXIXIXIXIXIXIXIXIXIXIXIXIXIXIXIXIXIXIXIXIXIXIXIXIXIXIXIXIXIXIXIXIXIXIXIXIXIXIXIXIXIXIXIXIXIXIXIXIXIXIXIXIXIXIXIXIXIXIXIXIXIXIXIXIXIX",
"IXIXIXIXIXIXIXIXIXIXIXIXIXIXIXIXIXIXIXIXIXIXIXIXIXIXIXIXIXIXIXIXIXIXIXIXIXIXIXIXIXIXIXIXIXIXIXIXIXIXIXIXIXIXIXIXIXIXIXIXIXIXIXIXIXIXIXIXIXIXIXIXIXIXIXIXIXIXIXIXIXIXIXIXIXIXIXIXIXIXIXIXIXIXIXIXIXIXIXIXIXIXIXIXIXIXIXIXIXIXIXIXIXIXIXIXIXIXIXIXIXIXIXIXIXIXIXIXIXIXIX^ _ ] ] 7.7.c.c.c.8.7.7.7.] _ ) ^ ~ A c d d q 0 4 > : # @ O O . . . . . . . . . . .                                                                                                               . . . . . . . . . . . . . . . . . . . . . . . . . . . . . . . . . . .   . . . . . . . . . . . . . . O O O O O O O @ @ = ; = > > 3 4 6 t y k k z D D G P R +.-.1.2.4.p.p.p.f.C.D.D.].{.{.|.|.|.|.OX7X6X8X0X0XuXhXhXhXhXpXpXsXsXsXsXaXaXaXaXaX2X2X1X1X,X,X,X<X<X<X<X=X<X=X=X=X=X=X<X=X>X>X>X>X>X>X>X,X1X1X1XdXdXdXfXfXsXsXlXhXhXpXyX6X6X7XOX|.|.{.].].D.C.f.p.2.2.@.@.E E H IXIXIXIXIXIXIXIXIXIXIXIXIXIXIXIXIXIXIXIXIXIXIXIXIXIXIXIXIXIXIXIXIXIXIXIXIXIXIXIXIXIXIXIXIXIXIXIXIXIXIXIXIXIXIXIXIXIXIXIXIXIXIXIXIXIXIXIXIXIXIXIXIXIXIXIXIXIXIXIXIXIXIXIXIXIXIXIXIXIXIXIXIXIXIXIXIXIXIXIXIXIXIX",
"IXIXIXIXIXIXIXIXIXIXIXIXIXIXIXIXIXIXIXIXIXIXIXIXIXIXIXIXIXIXIXIXIXIXIXIXIXIXIXIXIXIXIXIXIXIXIXIXIXIXIXIXIXIXIXIXIXIXIXIXIXIXIXIXIXIXIXIXIXIXIXIXIXIXIXIXIXIXIXIXIXIXIXIXIXIXIXIXIXIXIXIXIXIXIXIXIXIXIXIXIXIXIXIXIXIXIXIXIXIXIXIXIXIXIXIXIXIXIXIXIXIXIXIXIXIXIXIXIX^ ^ _ ' ] 7.7.8.8.c.8.7.7.7.] ' ) ^ ~ A c d d p 0 4 , : = # O O . . . . . . . . . . .                                                                                                               . . . . . . . . . . . . . . . . . . . . . . . . . . . . . . . . . . . .   . . . . . . . . . . . . . . . O . . O O O O @ @ = = = - > > 4 6 t y i k z z D D G R R +.-.2.2.2.g.p.p.f.C.D.].].{.{.|.|.|. X+XqX8X0X0X0XhXhXhXhXhXhXlXsXfXfXfXfXaXaXaXaX2X2X1X1X,X,X<X<X<X<X<X<X=X=X=X=X=X=X>X>X>X>X>X>X>X>X,X1X1X2X2XdXdXsXsXsXsXsXpXpXpXyX6X6X7XOX|.|.{.{.].].D.f.p.4.2.;.@.Q E Y H IXIXIXIXIXIXIXIXIXIXIXIXIXIXIXIXIXIXIXIXIXIXIXIXIXIXIXIXIXIXIXIXIXIXIXIXIXIXIXIXIXIXIXIXIXIXIXIXIXIXIXIXIXIXIXIXIXIXIXIXIXIXIXIXIXIXIXIXIXIXIXIXIXIXIXIXIXIXIXIXIXIXIXIXIXIXIXIXIXIXIXIXIXIXIXIXIXIXIXIXIX",
"IXIXIXIXIXIXIXIXIXIXIXIXIXIXIXIXIXIXIXIXIXIXIXIXIXIXIXIXIXIXIXIXIXIXIXIXIXIXIXIXIXIXIXIXIXIXIXIXIXIXIXIXIXIXIXIXIXIXIXIXIXIXIXIXIXIXIXIXIXIXIXIXIXIXIXIXIXIXIXIXIXIXIXIXIXIXIXIXIXIXIXIXIXIXIXIXIXIXIXIXIXIXIXIXIXIXIXIXIXIXIXIXIXIXIXIXIXIXIXIXIXIXIXIXIXIXIXIX^ ) _ ' ] 7.8.8.8.8.8.8.7.7.7.' ) ^ ^ C C c d p 0 0 4 < = # @ O O . . . . . . . . . . .                                                                                                                 . . . . . . . . . . . . . . . . . . . . . . . . . . . . . . . . . . . . . . . . . . . . . . . . . . . . . . O O O O @ @ @ # = = = > > 4 6 t y i s k z z D F P R +.+.-.1.2.2.g.p.f.A.D.].].{.{.{.|. X X+X8XqX0X0X0XuXhXhXhXhXlXlXlXlXfXfXfXsXaXaXaX2X2X1X1X,X,X>X<X<X<X<X=X<X=X=X=X=X=X=X<X<X<X<X>X>X>X,X,X1X2X2XaXaXaXsXsXsXsXsXpXpX6X6X6X7XOX|.|.|.{.{.].D.f.p.4.2.;.@.@.Q E H IXIXIXIXIXIXIXIXIXIXIXIXIXIXIXIXIXIXIXIXIXIXIXIXIXIXIXIXIXIXIXIXIXIXIXIXIXIXIXIXIXIXIXIXIXIXIXIXIXIXIXIXIXIXIXIXIXIXIXIXIXIXIXIXIXIXIXIXIXIXIXIXIXIXIXIXIXIXIXIXIXIXIXIXIXIXIXIXIXIXIXIXIXIXIXIXIXIXIXIX",
"IXIXIXIXIXIXIXIXIXIXIXIXIXIXIXIXIXIXIXIXIXIXIXIXIXIXIXIXIXIXIXIXIXIXIXIXIXIXIXIXIXIXIXIXIXIXIXIXIXIXIXIXIXIXIXIXIXIXIXIXIXIXIXIXIXIXIXIXIXIXIXIXIXIXIXIXIXIXIXIXIXIXIXIXIXIXIXIXIXIXIXIXIXIXIXIXIXIXIXIXIXIXIXIXIXIXIXIXIXIXIXIXIXIXIXIXIXIXIXIXIXIXIXIXIXIXIX) ) ' ] 7.7.8.8.8.8.8.8.7.7.7.' ) ^ ^ ~ C c d p 0 0 4 < : = # @ O . . . . . . . . . . . .                                                                                                                 . . . . . . . . . . . . . . . . . . . . . . . . . . . . . . . . . . . . . . . . . . . . . . . . . . . . . . O O O O @ @ @ @ # = = = > 3 4 6 9 y y i k k z m F P R R +.+.-.1.2.4.p.f.k.D.D.].[.{.{. X X X+X8X0XeXeXeXeXjXjXjXcXlXlXlXzXzXfXfXfXfXaXaX2X2X1X1X,X,X<X<X>X>X<X<X=X=X=X=X<X<X<X<X<X<X<X>X>X>X,X,X1X2X2X2XaXaXaXaXsXsXgXpXyX6X6X6X7X7XOX|.|.|.{.].D.k.h.g.2.2.;.@.@.E H H IXIXIXIXIXIXIXIXIXIXIXIXIXIXIXIXIXIXIXIXIXIXIXIXIXIXIXIXIXIXIXIXIXIXIXIXIXIXIXIXIXIXIXIXIXIXIXIXIXIXIXIXIXIXIXIXIXIXIXIXIXIXIXIXIXIXIXIXIXIXIXIXIXIXIXIXIXIXIXIXIXIXIXIXIXIXIXIXIXIXIXIXIXIXIXIXIXIX",
"IXIXIXIXIXIXIXIXIXIXIXIXIXIXIXIXIXIXIXIXIXIXIXIXIXIXIXIXIXIXIXIXIXIXIXIXIXIXIXIXIXIXIXIXIXIXIXIXIXIXIXIXIXIXIXIXIXIXIXIXIXIXIXIXIXIXIXIXIXIXIXIXIXIXIXIXIXIXIXIXIXIXIXIXIXIXIXIXIXIXIXIXIXIXIXIXIXIXIXIXIXIXIXIXIXIXIXIXIXIXIXIXIXIXIXIXIXIXIXIXIXIXIXIXIXIX) ' ] ] 7.7.8.8.8.8.8.8.8.7.7.] ) ) ^ ~ C C d p q 0 4 < < : = @ O O . . . . . . . . . . . . .                                                                                                         .   . . . . . . . . . . . . . . . O O O O O O . . O . . . . . . . . . . . . . . . . . . . . . . . . . . . . . . . O O O O @ @ @ @ @ # = = = > 3 4 6 9 t y y i k z m F G P R R +.+.-.2.4.g.h.k.D.D.].[.{.}. X X XqXqXqXqXeXeXeXjXjXjXcXlXcXcXzXzXzXfXfXfXdXaX2X2X1X1X1X,X<X>X>X<X<X=X=X<X<X<X<X<X<X<X<X<X<X>X>X>X>X,X1X1X2X3X3XaXaXaXaXaXpXpX6X6X6X6X6X7XOXOX|.|.{.].D.A.h.h.g.2.;.@.@.E Y H IXIXIXIXIXIXIXIXIXIXIXIXIXIXIXIXIXIXIXIXIXIXIXIXIXIXIXIXIXIXIXIXIXIXIXIXIXIXIXIXIXIXIXIXIXIXIXIXIXIXIXIXIXIXIXIXIXIXIXIXIXIXIXIXIXIXIXIXIXIXIXIXIXIXIXIXIXIXIXIXIXIXIXIXIXIXIXIXIXIXIXIXIXIXIXIXIX",
"IXIXIXIXIXIXIXIXIXIXIXIXIXIXIXIXIXIXIXIXIXIXIXIXIXIXIXIXIXIXIXIXIXIXIXIXIXIXIXIXIXIXIXIXIXIXIXIXIXIXIXIXIXIXIXIXIXIXIXIXIXIXIXIXIXIXIXIXIXIXIXIXIXIXIXIXIXIXIXIXIXIXIXIXIXD D D IXIXIXIXIXIXIXIXIXIXIXIXIXIXIXIXIXIXIXIXIXIXIXIXIXIXIXIXIXIXIXIXIXIXIXIX) ' ' 7.7.7.8.8.8.8.8.8.8.8.7.7.] ' ) ^ K C C c p p 0 4 < < : = # @ O O . . . . . . . . . . . . .                                                                                                       . . . . . . . . . . . . . O O O + + + O O O O O + + + O . . O . . . . . . . . . . . . . . . . . . . . . . . . . . O O O O O O @ @ @ @ @ # = = = > 3 4 4 6 9 t y i k k z D F G P R +.+.-.2.2.g.h.k.D.D.D.[.[.}. X X+XqX9X9X9XeXeXeXjXjXjXcXxXcXcXcXzXzXfXsXdXdXaX2X2X2X1X1X,X,X<X<X<X<X=X<X<X<X<X=X<X=X=X=X=X=X=X<X<X<X<X,X1X3X2X2X2XaXaXaXiXiXyX6X6X6X6X6X7X7XOX|.{.{.].D.D.k.h.p.4.2.;.@.Q Y H IXIXIXIXIXIXIXIXIXIXIXIXIXIXIXIXIXIXIXIXIXIXIXIXIXIXIXIXIXIXIXIXIXIXIXIXIXIXIXIXIXIXIXIXIXIXIXIXIXIXIXIXIXIXIXIXIXIXIXIXIXIXIXIXIXIXIXIXIXIXIXIXIXIXIXIXIXIXIXIXIXIXIXIXIXIXIXIXIXIXIXIXIXIXIXIX",
"IXIXIXIXIXIXIXIXIXIXIXIXIXIXIXIXIXIXIXIXIXIXIXIXIXIXIXIXIXIXIXIXIXIXIXIXIXIXIXIXIXIXIXIXIXIXIXIXIXIXIXIXIXIXIXIXIXIXIXIXIXIXIXIXIXIXIXIXIXIXIXIXIXIXIXIXIXIXIXIXIXG ! ! ! ! ! ! ! G G G D IXIXIXIXIXIXIXIXIXIXIXIXIXIXIXIXIXIXIXIXIXIXIXIXIXIXIXIXIXIX' ' 6.7.8.8.8.q.q.q.q.8.8.8.8.7.' ' ) ^ ~ J C c d p 0 4 4 < : = = # @ O O . . . . . . . . . . . . . . .                                                                                               . . . . . . . . . . X X + + + + + + + + + + + + O + + + + O + O O O . . . . . . . . . . . . . . . . . . . . . . . . . O O O O O O @ @ @ @ @ @ # = = = > > 3 4 4 6 9 t y i k z m D F P U R +.@.;.2.g.h.k.k.D.D.D.[.}.}. X X+X9X9X9X9XeXeXeXjXjXjXcXcXcXcXzXzXfXfXaXaXaX2X2X2X1X1X,X<X<X<X<X<X<X=X=X=X=X=X=X=X=X=X=X=X=X<X<X<X<X<X,X1X3X2X2X2XiXiXiXtXyX6X6X6X6X6X6X7XOX|.|.{.].D.D.D.k.h.4.2.2.@.R U H IXIXIXIXIXIXIXIXIXIXIXIXIXIXIXIXIXIXIXIXIXIXIXIXIXIXIXIXIXIXIXIXIXIXIXIXIXIXIXIXIXIXIXIXIXIXIXIXIXIXIXIXIXIXIXIXIXIXIXIXIXIXIXIXIXIXIXIXIXIXIXIXIXIXIXIXIXIXIXIXIXIXIXIXIXIXIXIXIXIXIXIXIXIXIX",
"IXIXIXIXIXIXIXIXIXIXIXIXIXIXIXIXIXIXIXIXIXIXIXIXIXIXIXIXIXIXIXIXIXIXIXIXIXIXIXIXIXIXIXIXIXIXIXIXIXIXIXIXIXIXIXIXIXIXIXIXIXIXIXIXIXIXIXIXIXIXIXIXIXIXIXIXIXIXIX! T T T T T T T T T T T T ! P G IXIXIXIXIXIXIXIXIXIXIXIXIXIXIXIXIXIXIXIXIXIXIXIXIXIXW ' 6.6.8.8.8.q.b.q.q.q.q.q.8.8.7.' ' ) ^ ^ J C c d p 0 0 4 < : = = # # @ O O . . . . . . . . . . . . . .                                                                                               . . . X . X . . . X X + + + + + + + + + + + + + + + + + + + + + + + + O O . . . . . . . . . . . . . . . . . . . . O O O O O O O O O @ @ @ @ @ @ @ # = = = - > > 3 3 4 6 9 y i k l z m F F U R +.@.2.2.0.l.h.h.k.D.F.[.}.}. X X+X+X+X9X9X9XeXeXjXjXjXcXcXcXhXhXsXsXsXaXaXaX3X3X3X3X1X,X<X<X<X<X<X=X=X=X=X=X=X*X*X=X=X*X=X=X=X=X=X=X*X-X,X1X3X2X2X2XiXiXyXyXyXyX6X6X6X6X6XOX|.|.{.{.].D.D.A.h.p.2.2.%.R R G D IXIXIXIXIXIXIXIXIXIXIXIXIXIXIXIXIXIXIXIXIXIXIXIXIXIXIXIXIXIXIXIXIXIXIXIXIXIXIXIXIXIXIXIXIXIXIXIXIXIXIXIXIXIXIXIXIXIXIXIXIXIXIXIXIXIXIXIXIXIXIXIXIXIXIXIXIXIXIXIXIXIXIXIXIXIXIXIXIXIXIXIXIX",
"IXIXIXIXIXIXIXIXIXIXIXIXIXIXIXIXIXIXIXIXIXIXIXIXIXIXIXIXIXIXIXIXIXIXIXIXIXIXIXIXIXIXIXIXIXIXIXIXIXIXIXIXIXIXIXIXIXIXIXIXIXIXIXIXIXIXIXIXIXIXIXIXIXIXIXIXIX! T T T X.=.=.=.=.=.=.=.=.=.X.X.T T T P G IXIXIXIXIXIXIXIXIXIXIXIXIXIXIXIXIXIXIXIXIXIXW [ 6.6.8.q.q.N.J.J.J.J.N.q.8.8.8.7.' ) ^ K J C c d p 0 0 4 < : = = # # @ O O O . . . . . . . . . . . . . . .                                                                                           X X X X X X X X X + + + + + + + + + + + + + + + + + + + + + + + + + + + + O O + O O . . . . . . . . . . . . . . O O . O O O O O O O O O O O O O O @ @ @ # = = = = > > > 3 4 9 t y i k l z m H H Y Q @.%.;.9.0.l.h.h.k.F.F.[.}.}. X X X X+X9XqX9XeXeXeXhXhXhXhXpXpXgXgXaXaXaXaX3X2X2X3X1X,X<X*X*X*X*X*X*X*X*X*X*X*X*X*X*X*X*X*X*X*X*X*X*X*X-X,X1X3X2X2XiXiXiXpXpXpXpXpX6X0X6X7XOX|.|.{.{.].D.D.k.p.2.2.%.R R G D IXIXIXIXIXIXIXIXIXIXIXIXIXIXIXIXIXIXIXIXIXIXIXIXIXIXIXIXIXIXIXIXIXIXIXIXIXIXIXIXIXIXIXIXIXIXIXIXIXIXIXIXIXIXIXIXIXIXIXIXIXIXIXIXIXIXIXIXIXIXIXIXIXIXIXIXIXIXIXIXIXIXIXIXIXIXIXIXIXIXIXIX",
"IXIXIXIXIXIXIXIXIXIXIXIXIXIXIXIXIXIXIXIXIXIXIXIXIXIXIXIXIXIXIXIXIXIXIXIXIXIXIXIXIXIXIXIXIXIXIXIXIXIXIXIXIXIXIXIXIXIXIXIXIXIXIXIXIXIXIXIXIXIXIXIXIXIXIXG ! T T -.-.-.1.1.1.1.1.1.1.3.>.>.=.=.=.X.T T T G IXIXIXIXIXIXIXIXIXIXIXIXIXIXIXIXIXIX! Q [ 6.w.w.q.N.J.J.J.J.J.J.N.q.8.8.7.' ' ) K J C c d p 0 0 4 < : = # # @ @ O O O O . . . . . . . . . . . . . . .                                                                                   o o X . X X X X X X + + + + + + + + + + + # # # # # # # # # # # # # # # + + + + + + + + + O O O . . . . O O . . O O O O O O O O O O O O O O O O O O O O O O O @ @ @ @ # = = ; = > > 4 6 9 y y i k x z N H Y Q @.@.@.9.9.9.l.h.h.F.F.F.[.}.}.}. X X X+X+X8XqXqX0X0X0X0X6XwXpXpXiXiXiXiXiX;X;X3X:X-X-X-X*X*X*X*X*X*X*X*X*X*X*X*X*X*X*X*X*X*X*X*X=X=X<X<X,X1X3X2X2XaXaXaXsXsXsXsXpXpX6X6X8X7XOX|.|.|.{.].D.A.p.4.2.;.+.R H D IXIXIXIXIXIXIXIXIXIXIXIXIXIXIXIXIXIXIXIXIXIXIXIXIXIXIXIXIXIXIXIXIXIXIXIXIXIXIXIXIXIXIXIXIXIXIXIXIXIXIXIXIXIXIXIXIXIXIXIXIXIXIXIXIXIXIXIXIXIXIXIXIXIXIXIXIXIXIXIXIXIXIXIXIXIXIXIXIXIXIX",
"IXIXIXIXIXIXIXIXIXIXIXIXIXIXIXIXIXIXIXIXIXIXIXIXIXIXIXIXIXIXIXIXIXIXIXIXIXIXIXIXIXIXIXIXIXIXIXIXIXIXIXIXIXIXIXIXIXIXIXIXIXIXIXIXIXIXIXIXIXIXIXIXIXIXG R R -.-.-.2.4.4.4.p.p.p.p.p.p.i.3.3.1.>.-.=.X.T T T P G IXIXIXIXIXIXIXIXIXIXIXIXG ! R Q [ 6.9.q.q.N.N.L.L.L.L.L.J.N.q.q.8.7.' ) K J C C x p p 0 4 < : # # @ O O O O O O . . . . . . . . . . . . . . . .     o o o                                                                   o . . X X X X X X X X + + + + + + + + + # # # # # # # # # # # # # # # # # # # # # + # + + + + + + + + O O O O O O O O O O O O O O O O O O O O O O O O O O O O O O O O O O @ @ @ @ @ * = = > 3 4 6 9 t y i k x x H H Y Q @.@.&.6.9.9.h.h.k.k.F.D.F.[.[.[.}. X XOX+X+X8X7X6X6X6X6X6X5XtXiXiXiXiXiX4X3X:X:X-X-X-X*X*X*X*X*X*X*X*X*X*X*X*X*X*X*X*X*X*X*X*X=X=X<X<X,X,X3X3X2X2XaXaXsXsXfXsXsXpX0X0X0X6X7XOXOX|.{.].D.k.p.4.2.;.@.R U H IXIXIXIXIXIXIXIXIXIXIXIXIXIXIXIXIXIXIXIXIXIXIXIXIXIXIXIXIXIXIXIXIXIXIXIXIXIXIXIXIXIXIXIXIXIXIXIXIXIXIXIXIXIXIXIXIXIXIXIXIXIXIXIXIXIXIXIXIXIXIXIXIXIXIXIXIXIXIXIXIXIXIXIXIXIXIXIXIXIX",
"IXIXIXIXIXIXIXIXIXIXIXIXIXIXIXIXIXIXIXIXIXIXIXIXIXIXIXIXIXIXIXIXIXIXIXIXIXIXIXIXIXIXIXIXIXIXIXIXIXIXIXIXIXIXIXIXIXIXIXIXIXIXIXIXIXIXIXIXIXIXIXIXIX! E W ;.;.5.4.4.p.A.Z.A.A.C.Z.Z.Z.Z.p.p.p.3.1.1.-.-.+.X.R R ! P G G IXIXIXIXG G G ! R R W ;.6.9.0.q.N.S.L.L.L.L.L.L.J.N.q.8.8.' ' ^ K C C d d p 0 4 , : = # @ O O O O O O O . . . . . . . . . . . . . . . . .     o o                                                                 X X X X X X X X X X X + + + + + + + + # # # # # # # % % % % % % # = # # # # # # # # # # # # + + + + + + + + O O O O O O O O O O O O O O O O O O O O O O O O O O O O O O O O O O @ @ @ @ @ = = > > 3 4 6 t y y g x x N H Y Y Q @.@.&.6.9.0.l.h.h.k.D.D.D.D.[.{.{.|.|.|.OXOXOX7X7X7X5X5X5X5X5XtX5XiX;X;X3X:X:X:X-X-X-X*X*X*X*X*X*X*X*X*X*X*X*X*X*X*X*X*X=X=X=X<X<X<X<X,X1X1X2X2XaXdXdXfXfXsXsXpXhX0X6X6X6X7XOX|.{.].D.A.h.4.2.;.@.E ! H IXIXIXIXIXIXIXIXIXIXIXIXIXIXIXIXIXIXIXIXIXIXIXIXIXIXIXIXIXIXIXIXIXIXIXIXIXIXIXIXIXIXIXIXIXIXIXIXIXIXIXIXIXIXIXIXIXIXIXIXIXIXIXIXIXIXIXIXIXIXIXIXIXIXIXIXIXIXIXIXIXIXIXIXIXIXIXIXIX",
"IXIXIXIXIXIXIXIXIXIXIXIXIXIXIXIXIXIXIXIXIXIXIXIXIXIXIXIXIXIXIXIXIXIXIXIXIXIXIXIXIXIXIXIXIXIXIXIXIXIXIXIXIXIXIXIXIXIXIXIXIXIXIXIXIXIXIXIXIXIXIXIXK Q W ;.5.5.0.h.A.A.D.D.D.H.H.H.H.D.C.C.A.Z.p.p.4.2.1.-.-.+.+.R R R E ! ! ! ! R R R R W ;.;.6.9.0.q.N.S.L.L.L.L.L.L.L.J.N.q.8.6.' ( K J C c d p 9 0 < < = # # O O O O O O O . . . . . . . . . . . . . . . . . X o o                                                                 o o X X X X X X X X X + + + + + + + % % % # % % % % % % : : % : : : : : : : : % % % % % # # # # # # # + + + + + + + + O O O O O O O O O O O O O O O O O O O O O O O O O O O O O O O O O O @ @ @ = = - > 3 4 6 6 t u s x x N N J Y Y Q @.&.&.9.9.0.l.h.h.h.k.D.D.].{.{.{.|.|.|.|.OXOX7X7X7X5X5X5X5X5X5XtX;X4X;X3X:X:X:X-X-X-X*X*X*X*X=X<X=X*X*X*X*X*X*X*X*X=X=X=X=X<X>X>X>X,X1X1X2X2XdXdXdXdXfXsXpXpXhXpX6X0X6X7XOX X{.].D.k.h.0.2.;.@.Q Y IXIXIXIXIXIXIXIXIXIXIXIXIXIXIXIXIXIXIXIXIXIXIXIXIXIXIXIXIXIXIXIXIXIXIXIXIXIXIXIXIXIXIXIXIXIXIXIXIXIXIXIXIXIXIXIXIXIXIXIXIXIXIXIXIXIXIXIXIXIXIXIXIXIXIXIXIXIXIXIXIXIXIXIXIXIXIXIXIX",
"IXIXIXIXIXIXIXIXIXIXIXIXIXIXIXIXIXIXIXIXIXIXIXIXIXIXIXIXIXIXIXIXIXIXIXIXIXIXIXIXIXIXIXIXIXIXIXIXIXIXIXIXIXIXIXIXIXIXIXIXIXIXIXIXIXIXIXIXIXIXIXK Q W 6.9.0.h.A.A.A.F.H.H.{.{.}.{.{.{.H.H.D.D.A.Z.p.p.4.2.2.2.;.;.@.@.@.Q Q W W W @.;.;.;.5.9.0.0.q.N.S.L.L.I.U.L.L.L.L.N.N.q.8.6.' ^ K C C d p 0 0 4 < : # # O O O . O O O O . . . . . . . . . . . . . . . X X X         o o                                                       o X X X X X X X X X X + + + + + + % % % % % % % % % : : : : : : : : : : : : : : : : : : % % # # # # # # # # # + + + + + + + + O O O O O O O O O O O O O O O O O O O O O O O O O O O O O O O O @ @ @ = = - > > 3 6 6 t p s x x x N N J Y Y Q @.@.6.9.9.0.l.l.h.h.k.D.D.].].].{.{.`.|.|.OXOX7X7X5X5X5X5X5X5XtX;X;X;X;X3X3X1X1X:X-X<X<X<X<X<X<X=X=X=X=X=X=X*X*X=X=X=X<X<X<X>X>X>X,X,X1X1X2X2XdXdXdXsXsXpXpXpXpX0X0X6X7XOX|.{.H.D.k.h.0.9.;.@.Q Y IXIXIXIXIXIXIXIXIXIXIXIXIXIXIXIXIXIXIXIXIXIXIXIXIXIXIXIXIXIXIXIXIXIXIXIXIXIXIXIXIXIXIXIXIXIXIXIXIXIXIXIXIXIXIXIXIXIXIXIXIXIXIXIXIXIXIXIXIXIXIXIXIXIXIXIXIXIXIXIXIXIXIXIXIXIXIXIX",
"IXIXIXIXIXIXIXIXIXIXIXIXIXIXIXIXIXIXIXIXIXIXIXIXIXIXIXIXIXIXIXIXIXIXIXIXIXIXIXIXIXIXIXIXIXIXIXIXIXIXIXIXIXIXIXIXIXIXIXIXIXIXIXIXIXIXIXIXIXIXIXK ( 6.9.0.j.A.F.F.G.G.}.}.}.}. X}.}.}.{.{.H.H.D.D.A.p.p.p.4.4.5.2.2.;.;.;.;.;.;.;.5.5.9.9.0.0.q.N.S.S.S.I.I.I.I.L.L.L.J.N.q.8.8.' ' K J C c d p 0 0 < < : # @ O O O . . . O O . . . . . . . . . . . . . . X X X o X                                                               o X X X X X X X X X + + + & & & % % % % % % % % % : : : : : : : : : : : : : : : : : : : : : : % % # # # # # # # # + + + + + + + + + + + + + + O O O O O O O O O O O O O O O O O O O O O O O O O O @ @ * = ; - > 3 3 5 6 t p s v x x N N N J Y Q Q @.@.%.2.2.2.4.g.p.f.C.C.C.~.~.(.(.(.`.`.XXXX&X&X7X5X5X5X5X5XtXiXiXiX;X3X3X3X1X1X,X,X<X<X<X<X<X<X=X=X=X*X*X=X=X=X=X=X<X=X=X<X>X>X,X,X,X1X1X1X2XaXaXaXsXpXpXpXhX6X0X8X+X X{.[.D.D.h.h.0.9.6.@.Q K IXIXIXIXIXIXIXIXIXIXIXIXIXIXIXIXIXIXIXIXIXIXIXIXIXIXIXIXIXIXIXIXIXIXIXIXIXIXIXIXIXIXIXIXIXIXIXIXIXIXIXIXIXIXIXIXIXIXIXIXIXIXIXIXIXIXIXIXIXIXIXIXIXIXIXIXIXIXIXIXIXIXIXIXIXIXIX",
"IXIXIXIXIXIXIXIXIXIXIXIXIXIXIXIXIXIXIXIXIXIXIXIXIXIXIXIXIXIXIXIXIXIXIXIXIXIXIXIXIXIXIXIXIXIXIXIXIXIXIXIXIXIXIXIXIXIXIXIXIXIXIXIXIXIXIXIXIXIXK ( 6.w.0.j.S.F.G.G.}.}.}.@X@X+X+X+X@X@X X}.{.{.H.H.D.D.A.h.h.h.l.0.0.0.0.9.9.9.0.0.0.0.0.0.0.N.S.S.S.S.I.I.U.U.I.L.L.L.N.N.q.8.7.' ) K C C x p 0 0 4 < : = @ O O O . . . . O O . . . . . . . . . . . . . . X X . X X o           o     o o                                     o o X X X X X X X X + + + + & & & % % % % % % % % % : : : : : : : : : : : : : : : : : : : : : : : : : % % % % % # # # # # # # + + + + + + + + + + + + + O O O O O O O O O O O O O O O O O O O O O O O @ @ @ * ; = - > 3 3 5 6 t p s j j x x V N N H Y Y @.@.@.%.-.1.1.4.p.p.f.C.C.C.~.~.(.(.`.`.`.XX&X&X&X7X5X5X5X5XiXiXiXiXiXaX3X3X2X3X1X,X,X<X<X<X<X<X<X=X=X=X=X=X=X=X=X=X=X=X<X<X<X>X>X<X,X1X1X2X2XaXaXaXgXpXpXpXwX0X8X+XOX X}.[.D.A.k.h.0.9.6.&.W K IXIXIXIXIXIXIXIXIXIXIXIXIXIXIXIXIXIXIXIXIXIXIXIXIXIXIXIXIXIXIXIXIXIXIXIXIXIXIXIXIXIXIXIXIXIXIXIXIXIXIXIXIXIXIXIXIXIXIXIXIXIXIXIXIXIXIXIXIXIXIXIXIXIXIXIXIXIXIXIXIXIXIXIXIXIX",
"IXIXIXIXIXIXIXIXIXIXIXIXIXIXIXIXIXIXIXIXIXIXIXIXIXIXIXIXIXIXIXIXIXIXIXIXIXIXIXIXIXIXIXIXIXIXIXIXIXIXIXIXIXIXIXIXIXIXIXIXIXIXIXIXIXIXIXIXIXK ) ' 6.w.j.S.F.G.bXbXMXMXMXBXBXBXBXBX+X+X+X@X X}.}.{.[.H.D.D.D.A.A.h.h.h.h.h.h.h.h.j.j.A.A.S.S.S.S.S.F.U.U.U.U.U.I.L.L.N.N.q.8.7.' ' K J C c d p 0 0 < < : # @ O O . . . . . O O O . . . . . . . . . . . . . . . X X X o o o o o o o o o o o                                 o o X X X X X X X + + + + + & & & & % % % % % % % % : : : : : : : < : < < < < < < < < < : : : : : : : : : : : % % % # # # # # # # # # # # # # # # + + + # # # + + + + O O O O O O O O O O O O O O O O O O @ @ @ * = ; = - > 3 3 5 6 t t p u j s j l V N H H Y R R +.+.+.:.1.<.t.i.u.a.V.V.V.!.!.(.(.`.`.`.XX&X7X7X7X5X5X5XiXiXiXiXiXiX3X2X2X2X3X1X,X,X<X<X<X<X<X<X<X<X<X=X=X=X=X=X=X=X=X<X<X>X>X>X<X,X1X1X2XaXaXiXpXpXpXpX0X0X8X+X X X}.[.F.A.A.h.0.9.6.6.( Q K IXIXIXIXIXIXIXIXIXIXIXIXIXIXIXIXIXIXIXIXIXIXIXIXIXIXIXIXIXIXIXIXIXIXIXIXIXIXIXIXIXIXIXIXIXIXIXIXIXIXIXIXIXIXIXIXIXIXIXIXIXIXIXIXIXIXIXIXIXIXIXIXIXIXIXIXIXIXIXIXIXIXIXIX",
"IXIXIXIXIXIXIXIXIXIXIXIXIXIXIXIXIXIXIXIXIXIXIXIXIXIXIXIXIXIXIXIXIXIXIXIXIXIXIXIXIXIXIXIXIXIXIXIXIXIXIXIXIXIXIXIXIXIXIXIXIXIXIXIXIXIXIXIXIX^ ( 6.w.q.S.F.U.bXbXMXMXBXBXBXCXCXAXAXBXBX+X+X+X@X X}.}.}.[.H.G.F.D.F.A.A.S.S.S.S.S.S.F.F.F.F.F.F.G.I.U.U.U.U.U.U.I.L.L.N.q.8.8.6.' ) K C C d p 0 0 0 < : = # O O O . . . . . O O O . . . . . . . . . . . . . . X X X X X o o o o o o o o o o                             o o X X X X X X X X + + + + + + & & % % % % % % : : : : : : : : : < < < < < < < < < < < < < < < : : : : : : : : : : : : % % # # # # # # # # # # # # # # # # # # # # # # # O O O O O O O O O O O O O O O O O O @ @ @ @ = = ; = - - 3 3 5 6 w w t p u j j j l m N F L U I I ....O.:.<.<.t.t.u.a.a.B.B.!././.`.`.`.`.XXOX7X7X5X5X5XtXiXiXiXiXiXaX2X2X2X2X3X1X,X<X<X<X<X<X<X<X=X=X=X=X=X=X=X=X=X=X<X<X>X>X>X>X,X1X1X2XaXaXiXpXpXpXhX0XqX+X+X X X}.[.G.F.A.j.0.9.6.6.( ) K IXIXIXIXIXIXIXIXIXIXIXIXIXIXIXIXIXIXIXIXIXIXIXIXIXIXIXIXIXIXIXIXIXIXIXIXIXIXIXIXIXIXIXIXIXIXIXIXIXIXIXIXIXIXIXIXIXIXIXIXIXIXIXIXIXIXIXIXIXIXIXIXIXIXIXIXIXIXIXIXIXIXIX",
"IXIXIXIXIXIXIXIXIXIXIXIXIXIXIXIXIXIXIXIXIXIXIXIXIXIXIXIXIXIXIXIXIXIXIXIXIXIXIXIXIXIXIXIXIXIXIXIXIXIXIXIXIXIXIXIXIXIXIXIXIXIXIXIXIXIXIXIXIX^ ( 6.q.j.S.I.bXbXMXMXVXVXCXAXAXDXSXSXSXAXAXBX+X+X+X@X X X}.}.}.}.[.[.G.G.G.G.G.G.G.G.G.G.U.U.U.U.U.U.U.U.U.U.U.U.I.L.N.N.q.8.7.' ' K J C c d 0 0 0 < < : # + O O . . . . . . . . . . . . . . . . O O . X X X X X X X X X X X o o o o o o o o o o     o o       o o o o   X X X X X X X X + + + + + + & & % % % % % % : : : : : : : < : < < < < < , , < < , , , , < < < < < < < < : : : : : : : : : : % : % # # # # # # # # # # # # # # # # # # # # # # @ O O O O O O O O O O O O O O @ @ @ @ @ * * ; ; ; - - > 3 3 5 6 6 w w t u i g h l m m M F L P I ..X.O.:.<.<.e.t.y.u.a.B.V././.(.`.`.`.`.OXOX7X7X5X5X5XtXiXiXiXiXiXaX3X3X3X3X1X,X,X<X<X<X<X=X=X*X*X*X*X*X=X=X=X=X=X=X<X<X<X>X>X,X1X2X2XaXaXgXpXpXhXhX0XqX+X+X X}.}.[.F.F.S.j.q.w.6.6.( K K IXIXIXIXIXIXIXIXIXIXIXIXIXIXIXIXIXIXIXIXIXIXIXIXIXIXIXIXIXIXIXIXIXIXIXIXIXIXIXIXIXIXIXIXIXIXIXIXIXIXIXIXIXIXIXIXIXIXIXIXIXIXIXIXIXIXIXIXIXIXIXIXIXIXIXIXIXIXIXIXIXIX",
"IXIXIXIXIXIXIXIXIXIXIXIXIXIXIXIXIXIXIXIXIXIXIXIXIXIXIXIXIXIXIXIXIXIXIXIXIXIXIXIXIXIXIXIXIXIXIXIXIXIXIXIXIXIXIXIXIXIXIXIXIXIXIXIXIXIXIXIXIX^ ' w.q.S.I.U.bXMXVXVXCXCXDXDXDXDXDXGXGXSXSXSXAXBX+X+X+X+X+X@X X X X}.}.}.}.}.bXbXbXbXbXbXbXbXbXbXbXbXbXU.U.U.U.U.L.S.N.q.8.6.' ' K K C C d 0 0 0 < < : # # O O . . . . . . . . . . . O O O O . . . . + X X X X X X X X X X X X X X o o o o o o o o o o o o o o o o X X X X X X X X X X + + + + + % % % % % % % % % : : : : : < < < < < < < < , , , , , , , , , , , , , , , , < < < < < : : : : : : : : : : : : : % % % % # # # # # # # # # # # # # # # # # # @ @ @ @ @ O @ @ O O O @ @ @ @ @ @ @ * * * = ; ; - - > 3 3 3 5 6 6 w w u u g g l l m m M F P I ..O.O.:.>.<.<.t.t.u.a.V.V.!.~.(.(.(.`.|.|.7X7X7X5X5X5X5XtXtXtXiXiX2X2X2X3X3X1X-X-X*X*X<X=X*X*X*X*X*X*X=X=X=X=X=X=X<X<X>X>X>X,X1X2X3XaXaXsXsXhXhXuXeXqX+X+X+X X}.}.G.F.S.j.q.w.6.6.( K K IXIXIXIXIXIXIXIXIXIXIXIXIXIXIXIXIXIXIXIXIXIXIXIXIXIXIXIXIXIXIXIXIXIXIXIXIXIXIXIXIXIXIXIXIXIXIXIXIXIXIXIXIXIXIXIXIXIXIXIXIXIXIXIXIXIXIXIXIXIXIXIXIXIXIXIXIXIXIXIXIX",
"IXIXIXIXIXIXIXIXIXIXIXIXIXIXIXIXIXIXIXIXIXIXIXIXIXIXIXIXIXIXIXIXIXIXIXIXIXIXIXIXIXIXIXIXIXIXIXIXIXIXIXIXIXIXIXIXIXIXIXIXIXIXIXIXIXIXIXIXIX^ ' 6.q.S.I.U.bXMXVXVXCXDXDXDXGXGXGXGXGXGXSXSXSXSXAXAXAXBX+X+X+X+X+XBXBXBXBXBXMXMXMXMXMXMXVXVXMXMXMXMXMXbXU.U.U.I.S.N.q.8.7.' ' K K C C d p 0 0 , < : # # O O . . . . . . . . . . . . O O . . . . . + . X X X X X X X X X X X X X X X X X o X o o X o o X o o X X X X X X X X X X + + + + + + % % % % % % % % % % : : : : : < < < < < < < , , , , , , , , , , , 4 4 , , , , , , , < < < < < < < : : : : : : : : : : : : : : : : : # # # # = # # # # # # # # # # # # @ @ @ @ @ @ @ @ @ @ @ @ @ @ @ @ @ @ @ * ; ; ; - - - 1 3 3 3 5 5 w w u u g g h l n m M L P I ....O.O.:.>.<.t.y.u.a.V.V.C.~.~.(.(.|.|.|.OX7X7X5X5X5X5X5XtXiXiX;X;X3X:X:X:X-X-X*X*X=X<X*X*X*X*X*X*X*X=X=X=X=X=X=X>X>X>X>X,X1X2XaXaXsXsXlXcXhXeXeX9X9X+XBX@X}.}.G.F.S.j.0.w.6.' ) K IXIXIXIXIXIXIXIXIXIXIXIXIXIXIXIXIXIXIXIXIXIXIXIXIXIXIXIXIXIXIXIXIXIXIXIXIXIXIXIXIXIXIXIXIXIXIXIXIXIXIXIXIXIXIXIXIXIXIXIXIXIXIXIXIXIXIXIXIXIXIXIXIXIXIXIXIXIXIXIXIX",
"IXIXIXIXIXIXIXIXIXIXIXIXIXIXIXIXIXIXIXIXIXIXIXIXIXIXIXIXIXIXIXIXIXIXIXIXIXIXIXIXIXIXIXIXIXIXIXIXIXIXIXIXIXIXIXIXIXIXIXIXIXIXIXIXIXIXIXIXIX^ ( 6.w.j.F.U.bXMXBXVXCXAXDXDXGXGXGXFXFXGXFXSXFXSXSXSXAXAXAXAXAXAXAXBXBXBXBXBXBXBXVXVXVXVXVXVXVXVXMXMXMXMXU.U.U.F.S.N.q.w.6.' W K J C c d 0 0 , < : # # + O O . . .   . . . . . . O O O O . . . . . + . X X X X X X X X X X X X X X X X X X X X X X X X X X X X X X X X X + + + + + + + + % % % % % % % % % % % : : : : : : : : < < < < , , > , , , , , , , , , , 4 4 , , , > , , > > < < < < < < < : : : : : : : : : : : : : : : : : : : = : = = # # # # # # # # # # # @ @ @ @ @ @ @ @ @ @ @ @ @ @ @ @ @ * * * ; ; ; ; ; - - 1 3 3 5 6 w w u u u g g l n m F L P I T ..X.O.:.,.<.t.y.u.f.f.C.C.~.~.(.{.|.|.|.OX7X7X7X5X5X5XtXtX;X;X;X3X3X:X:X-X-X*X*X=X*X*X*X*X*X*X*X=X=X=X=X=X>X>X>X>X>X,X1X2X2XaXfXfXzXlXcXjXeXeX9XAXBXBXBXbX}.G.S.S.q.0.6.6.( K K IXIXIXIXIXIXIXIXIXIXIXIXIXIXIXIXIXIXIXIXIXIXIXIXIXIXIXIXIXIXIXIXIXIXIXIXIXIXIXIXIXIXIXIXIXIXIXIXIXIXIXIXIXIXIXIXIXIXIXIXIXIXIXIXIXIXIXIXIXIXIXIXIXIXIXIXIXIXIXIX",
"IXIXIXIXIXIXIXIXIXIXIXIXIXIXIXIXIXIXIXIXIXIXIXIXIXIXIXIXIXIXIXIXIXIXIXIXIXIXIXIXIXIXIXIXIXIXIXIXIXIXIXIXIXIXIXIXIXIXIXIXIXIXIXIXIXIXIXIXIXK ( 6.w.j.S.U.bXbXBXBXCXAXDXDXGXGXGXFXPXFXFXGXFXFXSXSXSXSXAXSXSXSXSXAXAXAXAXAXAXAXAXDXDXDXCXCXVXVXMXMXMXMXU.U.U.S.S.q.w.6.' W K J C C d 0 0 , < : # # + O O . . .     . . . . . . . O . . . . O . . . . X X X X X X X X X X X X X X X X X X X X X X X X X X X X X X X + + + + + & & # % % % % % % % % % % % % : : : : : : : : : : < < < < < > < > > > , > , 4 , , , , 4 4 4 , , , , > , , < , < < < < < < : < < < < : : : : : : : : : : : : : : : = = = = # # # # # # # # # # @ @ @ @ @ @ @ @ @ @ @ @ @ @ @ * * * ; ; ; ; ; ; - - 1 3 5 6 w w w u u u g h l m M F L P I T ..X.O.>.<.e.t.i.i.i.f.Z.C.~.~.(.|.|.|.|.OX7X7X7X5X5X5XtX4X;X;X3X3X:X:X,X<X<X<X<X*X*X=X=X=X*X=X=X=X=X=X>X>X>X>X>X>X,X1X2XaXdXfXfXzXlXjXeXeXeXAXAXBXBX X}.G.F.S.j.0.9.6.' W K IXIXIXIXIXIXIXIXIXIXIXIXIXIXIXIXIXIXIXIXIXIXIXIXIXIXIXIXIXIXIXIXIXIXIXIXIXIXIXIXIXIXIXIXIXIXIXIXIXIXIXIXIXIXIXIXIXIXIXIXIXIXIXIXIXIXIXIXIXIXIXIXIXIXIXIXIXIXIXIX",
"IXIXIXIXIXIXIXIXIXIXIXIXIXIXIXIXIXIXIXIXIXIXIXIXIXIXIXIXIXIXIXIXIXIXIXIXIXIXIXIXIXIXIXIXIXIXIXIXIXIXIXIXIXIXIXIXIXIXIXIXIXIXIXIXIXIXIXIXIXK ) 6.w.q.S.F.}.bXMXBXBXCXAXDXGXGXFXFXFXFXFXFXFXFXFXFXSXSXSXSXSXSXSXSXSXSXSXSXDXDXDXDXDXDXDXDXCXVXVXMXMXMXU.U.G.S.N.0.w.' ' K K C C d d 0 0 , < % # + O O . . .         . . . . . . O . . . . O . . . O + + + X X + + X X X X X X X X X X X X X X X X X X + + X + + + + + & & & % % % % % % % % % % % : : : : : : : : : : : : : : : < < < < < < < < > > > > > , , , , , 4 , , , , , > > > , , > < < < < < < < < < < < < < < : : : : : : : : : : : : : : = = = = = = # # # # # # # # # @ @ @ @ @ @ @ @ @ @ @ @ * * * * ; ; ; ; ; - - 1 3 5 5 6 w w w u u g g l m m M F L P I I ..O.:.>.,.<.g.i.i.p.f.C.~.~.(.(.`.`.`.|.OX7X7X5X5XtXtX4X4X4X;X3X:X1X,X<X<X<X=X=X*X*X*X=X=X=X=X=X=X=X>X>X>X>X>X<X1X2X2XdXfXfXzXlXjXjXeXeXAXAXBXBXBX}.}.G.S.A.0.9.6.6.W Q IXIXIXIXIXIXIXIXIXIXIXIXIXIXIXIXIXIXIXIXIXIXIXIXIXIXIXIXIXIXIXIXIXIXIXIXIXIXIXIXIXIXIXIXIXIXIXIXIXIXIXIXIXIXIXIXIXIXIXIXIXIXIXIXIXIXIXIXIXIXIXIXIXIXIXIXIXIXIXIX",
"IXIXIXIXIXIXIXIXIXIXIXIXIXIXIXIXIXIXIXIXIXIXIXIXIXIXIXIXIXIXIXIXIXIXIXIXIXIXIXIXIXIXIXIXIXIXIXIXIXIXIXIXIXIXIXIXIXIXIXIXIXIXIXIXIXIXIXIXIXJ K ( 6.0.j.F.G.}.}.BXBXBXAXSXSXGXGXFXFXFXFXFXFXFXFXFXFXFXFXFXSXSXSXSXSXSXSXDXDXDXDXDXDXDXDXDXCXVXVXMXMXMXU.G.F.S.q.0.6.[ Q K J C Z s p 0 , < : # # + O O . . .         . . . . . . . . . O O O O . . + + + + X X X + X X + + + + X X + + X X X X + & & & + + + & & & & & % % % % % % % % % % % % : : : : : : : : : : : : : : : : : : : > < < > > < < > > > > > > > > , , > > > > > > > > > > > > < < < < < < > > < < < < < < < < < < < : : : : : : : : : : : : = = = = = = = = # # # # # @ # @ @ @ @ * * * * * * * * ; ; ; ; ; ; - - 3 3 3 5 5 6 w w u u g g l l m m M F L P I ..O.O.:.:.,.<.g.i.i.f.C.C.~.(.(.(.(.`.`.XX&X5X&X5XtXtXiXiX;X;X3X2X3X,X,X<X<X<X=X=X=X=X=X=X=X=X=X=X>X>X>X>X>X>X,X1X2XdXdXfXzXlXcXjXeXeXAXAXAX+X+X}.}.G.S.A.0.0.9.6.W Q K IXIXIXIXIXIXIXIXIXIXIXIXIXIXIXIXIXIXIXIXIXIXIXIXIXIXIXIXIXIXIXIXIXIXIXIXIXIXIXIXIXIXIXIXIXIXIXIXIXIXIXIXIXIXIXIXIXIXIXIXIXIXIXIXIXIXIXIXIXIXIXIXIXIXIXIXIXIXIX",
"IXIXIXIXIXIXIXIXIXIXIXIXIXIXIXIXIXIXIXIXIXIXIXIXIXIXIXIXIXIXIXIXIXIXIXIXIXIXIXIXIXIXIXIXIXIXIXIXIXIXIXIXIXIXIXIXIXIXIXIXIXIXIXIXIXIXIXIXIXIXK W 6.9.h.A.F.[.}.}.BXBXBXAXSXSXSXFXFXFXFXFXFXFXFXFXFXFXFXFXFXFXFXFXSXSXSXDXGXGXGXGXGXDXDXDXCXVXVXMXMXbXG.F.S.S.0.5.[ [ K J C Z s s 0 0 , : % # + O O . . . .         . . . . . . . . O O O O O . . + + + + + + + + + + + + + + + & & & & & & & & & & & & & & & & & % % % % % % % % % : : : : : : : : : : : : : : : = : : : : : : : : : > > > > > > < > > > > > > > > > > > > > > > > > > > > > > > > > > > > > > > > > > > < < < < < < < < < < : : : : : : : : = = = = = = = = = = = = = = = = = = * * * * * * * = ; ; ; ; ; ; ; - 1 3 3 3 5 5 6 w w t u g g h l l n m M F L I T ..O.O.O.:.1.<.g.i.f.f.C.~.~.~.(.(.`.`.&X&X&X5X5X5XtXtXiXiX;X2X3X1X1X,X<X<X=X=X=X=X=X=X=X=X=X=X=X>X>X>X>X>X,X1X2X2XdXfXfXlXcXjXeXeXeX9X9X+X+X}.}.G.F.A.h.0.9.6.;.Q E IXIXIXIXIXIXIXIXIXIXIXIXIXIXIXIXIXIXIXIXIXIXIXIXIXIXIXIXIXIXIXIXIXIXIXIXIXIXIXIXIXIXIXIXIXIXIXIXIXIXIXIXIXIXIXIXIXIXIXIXIXIXIXIXIXIXIXIXIXIXIXIXIXIXIXIXIXIXIX",
"IXIXIXIXIXIXIXIXIXIXIXIXIXIXIXIXIXIXIXIXIXIXIXIXIXIXIXIXIXIXIXIXIXIXIXIXIXIXIXIXIXIXIXIXIXIXIXIXIXIXIXIXIXIXIXIXIXIXIXIXIXIXIXIXIXIXIXIXIXIXJ Q @.9.0.h.A.F.[.}.}. X+XBXAXSXSXSXFXFXFXFXFXFXFXFXFXFXFXFXFXFXFXFXFXFXGXGXDXGXGXGXGXGXDXDXCXVXVXMXbXU.G.F.S.0.0.;.[ K K Z Z x s 0 0 , < % # + + O . . . . .         . . . . . . . . . . O O O . . X X + + + + + + + + + + + & & & & & & & & & & & & & & & % % % % % % % % % : : : : : : : : : : : : : : = = = = = = = = = = = = : : : : > > > > > > > < > > > > > > > > > > > , , > > > > > > , , > > > > , , , , , , , , > > > < < < < < < < < < < < > > > > : : : : : : = = = = = = = = ; = = = = = = = ; ; = ; ; ; ; ; ; ; - - - 3 3 3 3 5 5 5 w w t u u g g g l l n m M L P I T ....O.O.:.,.g.i.i.f.C.C.~.~.(.(.`.`.&X&X5X5X5X5XtXiXiXiX3X3X3X3X1X,X<X<X<X=X=X=X=X=X=X=X=X=X=X>X<X>X>X,X,X1X2XaXaXfXlXhXhXeXeX9X9X9X+X+X X}.G.F.S.h.0.0.9.;.W Q IXIXIXIXIXIXIXIXIXIXIXIXIXIXIXIXIXIXIXIXIXIXIXIXIXIXIXIXIXIXIXIXIXIXIXIXIXIXIXIXIXIXIXIXIXIXIXIXIXIXIXIXIXIXIXIXIXIXIXIXIXIXIXIXIXIXIXIXIXIXIXIXIXIXIXIXIXIXIX",
"IXIXIXIXIXIXIXIXIXIXIXIXIXIXIXIXIXIXIXIXIXIXIXIXIXIXIXIXIXIXIXIXIXIXIXIXIXIXIXIXIXIXIXIXIXIXIXIXIXIXIXIXIXIXIXIXIXIXIXIXIXIXIXIXIXIXIXIXIXIXIXY Q ;.5.l.h.D.D.[.}.}. X+X+X9XAXSXSXFXFXFXFXFXFXFXFXFXFXFXFXFXFXFXFXFXFXGXGXGXGXGXGXGXDXDXCXVXMXMXbXG.F.S.A.0.5.[ Q K H Z Z s s 0 0 , : % # + O O . . . . .         . . . . . . . . . O O O + . . + + + + + + + + + + + & & & & & & & & & & & % % % % % % % % % % % % : : : : : : : : : : : : : : : : : : = = = = = = = = = = = = = : > > > > > > > > > > > > > > > > > > > > > , > > > > 4 4 4 4 > > > , 4 4 4 4 4 4 4 4 , > , , , , > > > > < < < < < < < < < > > : > > > > : : : = - = = = = = ; ; ; ; ; ; ; ; ; ; ; ; ; ; - - - - 3 3 3 3 3 5 6 6 w t u u u g g g l l m M F L P I I ....O.#.>.<.t.i.d.d.V.V.~.(.(.`.`.&X&X7X5X5X5XtXiXiXiXaX3X3X3X1X,X<X<X<X=X=X=X=X=X=X=X<X=X=X=X>X>X>X,X1X2XaXaXsXsXhXhXuXeX9X9X9X+X+X X}.G.F.S.h.0.0.9.;.;.Q IXIXIXIXIXIXIXIXIXIXIXIXIXIXIXIXIXIXIXIXIXIXIXIXIXIXIXIXIXIXIXIXIXIXIXIXIXIXIXIXIXIXIXIXIXIXIXIXIXIXIXIXIXIXIXIXIXIXIXIXIXIXIXIXIXIXIXIXIXIXIXIXIXIXIXIXIXIXIX",
"IXIXIXIXIXIXIXIXIXIXIXIXIXIXIXIXIXIXIXIXIXIXIXIXIXIXIXIXIXIXIXIXIXIXIXIXIXIXIXIXIXIXIXIXIXIXIXIXIXIXIXIXIXIXIXIXIXIXIXIXIXIXIXIXIXIXIXIXIXIXIXIXR +.;.2.p.p.D.D.].{.}. X+X9X9XeXeXeXeXjXjXFXFXFXFXFXFXFXFXFXFXFXFXFXFXGXGXGXGXGXGXGXDXDXCXVXMXbXG.G.F.A.0.5.;.[ ! H Z Z s s 9 0 , , % % + O O . . . . . .       . . . . . . . . . . . . + + + + + + + + + + + + + + & & % & & % % % % % % % % % % % % % % % % : : : : : : < < < : < < < < < < > : : : : : = = = = = = = = = = = : > > > > > > > > > > > > > > > > > > 3 > 3 3 4 3 3 3 4 4 4 4 4 4 4 4 4 4 4 4 4 4 4 4 4 4 4 4 4 4 3 , , , > > > > > > > > > > > > < < < < > > > > > > > > - - - - - = = = ; ; ; = ; ; ; ; ; ; - - - - 1 3 3 3 3 5 5 6 w w w u u u u g g l l n m M F L P I T ..O.:.,.e.t.i.d.d.V.!.(.(.`.`.XX&X7X7X5X5X5XiXiXiXaX3X2X2X1X,X=X<X<X=X=X=X=X=X<X<X<X=X=X=X>X>X,X1X2X2XaXsXsXpXhXuX0XeXqX9X+X+X X}.[.F.A.A.h.0.9.;.;.Q ! IXIXIXIXIXIXIXIXIXIXIXIXIXIXIXIXIXIXIXIXIXIXIXIXIXIXIXIXIXIXIXIXIXIXIXIXIXIXIXIXIXIXIXIXIXIXIXIXIXIXIXIXIXIXIXIXIXIXIXIXIXIXIXIXIXIXIXIXIXIXIXIXIXIXIXIXIXIX",
"IXIXIXIXIXIXIXIXIXIXIXIXIXIXIXIXIXIXIXIXIXIXIXIXIXIXIXIXIXIXIXIXIXIXIXIXIXIXIXIXIXIXIXIXIXIXIXIXIXIXIXIXIXIXIXIXIXIXIXIXIXIXIXIXIXIXIXIXIXIXIXIXP T +.1.4.p.f.C.D.].{.{. X+X9X9XeXeXeXjXjXjXjXFXFXFXFXFXFXFXFXFXFXFXFXFXGXGXGXGXGXGXDXDXCXVXMXbXG.F.A.A.0.5.[ R ! Z Z s s 9 0 0 , : % + O . . . . . . . . .     . . . . . . . O . . O O + + + + + + + + + + + + + % % % % % % % % % % % % % % % % % : : : : : : : : : : < < < < < < < > > > < < < > > > > > > > > > > > > > > > > > > > > > > > > > > > > > 3 3 3 > 3 3 3 4 4 4 3 4 4 4 4 4 4 4 4 4 4 4 4 4 4 4 4 4 4 4 4 4 4 4 4 4 4 4 4 4 4 3 , , > , , > > > > > > > > > > > > > > > > > > > > - - - - - - - = ; ; ; ; ; ; - - - - - - - 3 3 3 3 5 6 6 6 w w w t u u g g l l n m m M F L I ..O.#.>.<.e.t.y.a.V.!.~.(.`.`.`.XX7X7X7X5X5XiXiXiXiX;X3X:X:X-X,X<X<X<X=X=X=X<X<X<X=X=X=X<X>X,X1X1X2XaXaXsXpXhX0X0X0XqX9X+X+X X}.[.F.A.A.h.0.5.5.;.W R IXIXIXIXIXIXIXIXIXIXIXIXIXIXIXIXIXIXIXIXIXIXIXIXIXIXIXIXIXIXIXIXIXIXIXIXIXIXIXIXIXIXIXIXIXIXIXIXIXIXIXIXIXIXIXIXIXIXIXIXIXIXIXIXIXIXIXIXIXIXIXIXIXIXIXIXIXIX",
"IXIXIXIXIXIXIXIXIXIXIXIXIXIXIXIXIXIXIXIXIXIXIXIXIXIXIXIXIXIXIXIXIXIXIXIXIXIXIXIXIXIXIXIXIXIXIXIXIXIXIXIXIXIXIXIXIXIXIXIXIXIXIXIXIXIXIXIXIXIXIXIXIXT X.=.>.3.i.f.C.C.].{.|.OX8XqX0XeXeXjXjXjXjXxXFXFXFXFXFXFXFXFXFXFXFXFXFXFXGXGXGXGXDXDXCXMXbX}.G.F.A.0.5.;.R ! D Z s s 9 0 0 , < % + + . . . . . . . . . . .   . . . . . O O O O O O + + + + + + + + + + + # # % % % % % % % % % % % % : % : : : : < < < < < < < < < < < , , , , , , , 4 4 > > > > > > > > > > > > > > > > > > > > > > > 3 3 3 3 3 3 3 3 3 3 3 3 3 3 3 3 3 4 4 4 4 4 4 4 4 4 4 4 4 4 4 4 4 4 4 4 4 4 4 4 4 4 4 4 4 4 4 4 4 4 4 4 4 4 4 4 4 4 4 4 4 4 4 4 4 3 3 > > > > > > > > > > - - - - - - = = - ; ; ; - - - - - - - - - - 1 3 3 3 3 5 5 5 5 6 w w t u i g g l l n m M L P I ..O.#.>.<.e.y.u.a.V.!.(.(.`.`.`.OX7X7X5X5XtXiXiXiX;X;X:X:X-X,X<X<X<X=X=X=X=X=X=X=X=X=X=X,X1X1X2XaXaXsXpXpXuX0X0X8XqX9X+X+X X}.H.D.A.A.h.4.5.-.-.R ! IXIXIXIXIXIXIXIXIXIXIXIXIXIXIXIXIXIXIXIXIXIXIXIXIXIXIXIXIXIXIXIXIXIXIXIXIXIXIXIXIXIXIXIXIXIXIXIXIXIXIXIXIXIXIXIXIXIXIXIXIXIXIXIXIXIXIXIXIXIXIXIXIXIXIXIXIX",
"IXIXIXIXIXIXIXIXIXIXIXIXIXIXIXIXIXIXIXIXIXIXIXIXIXIXIXIXIXIXIXIXIXIXIXIXIXIXIXIXIXIXIXIXIXIXIXIXIXIXIXIXIXIXIXIXIXIXIXIXIXIXIXIXIXIXIXIXIXIXIXIXIXP T X.:.<.t.i.f.C.~.].|.|.OX8X0X0X0XjXjXjXjXxXFXFXFXFXLXLXFXFXFXFXFXFXFXFXFXGXGXGXGXDXBXMX}.G.F.A.h.4.5.-.R G Z k s 9 9 0 , , : % + . . . . . . . . . . . . . . . . . . O O O O O + + + + + + + + + + # # # % % % % % % : : : : : : : : : < < < < < < < < < < < , , , , , 4 4 4 4 4 4 4 4 4 4 4 3 3 3 3 3 3 3 3 3 3 3 3 3 3 3 3 3 3 3 3 4 4 4 4 4 4 4 4 4 3 4 3 3 3 3 4 4 4 4 4 4 4 4 4 4 4 4 4 4 4 4 4 4 4 4 4 4 4 4 4 4 4 4 4 4 4 4 4 4 4 4 4 4 4 4 4 4 4 4 4 4 4 4 4 4 4 4 4 4 3 3 3 3 > > > > > > > - - - = = - - - ; ; ; ; ; ; ; - - - - - - - 3 3 3 3 3 3 3 5 5 6 w t u u g g g l n m F L I ....O.:.,.<.t.y.a.V.!.~.(.(.`.`.|.OX7X5X5X5XtXtX;X;X;X:X:X1X-X<X<X<X>X=X=X=X=X=X=X>X=X,X1X1X2X2XaXaXpXpXyX0X0X0XqX8X+X+X X}.H.D.D.A.p.4.2.-.-.R ! D IXIXIXIXIXIXIXIXIXIXIXIXIXIXIXIXIXIXIXIXIXIXIXIXIXIXIXIXIXIXIXIXIXIXIXIXIXIXIXIXIXIXIXIXIXIXIXIXIXIXIXIXIXIXIXIXIXIXIXIXIXIXIXIXIXIXIXIXIXIXIXIXIXIXIXIX",
"IXIXIXIXIXIXIXIXIXIXIXIXIXIXIXIXIXIXIXIXIXIXIXIXIXIXIXIXIXIXIXIXIXIXIXIXIXIXIXIXIXIXIXIXIXIXIXIXIXIXIXIXIXIXIXIXIXIXIXIXIXIXIXIXIXIXIXIXIXIXIXIXIXIXI ..O.>.<.t.u.f.C.~.{.|.OX7X0X0X0XhXjXjXjXxXxXFXFXFXLXLXLXLXFXFXFXFXFXFXFXFXGXGXGXDXBXBX}.G.F.A.0.5.;.R ! D z s y 9 0 , , : % + + . . .       . . . . . . . . . . . . . O + O O + + + + + + + + + # # # % % % % % % : : : : : : : < < < < < < < < < < < < , , , , , 4 4 4 4 4 4 4 4 4 4 4 4 4 4 4 4 4 4 4 4 4 4 4 4 4 4 4 4 4 4 4 4 4 4 4 4 4 4 4 4 4 4 4 4 4 4 4 4 4 4 4 3 4 4 3 3 6 4 6 6 4 4 4 4 4 4 6 6 4 4 4 4 4 4 4 4 4 4 4 4 4 4 4 4 4 4 4 4 4 4 4 4 4 4 4 4 4 4 4 4 4 4 4 4 4 3 3 > 3 > > > > > - - - - - - - - - - ; ; ; ; - - - - ; - - - - 1 - 1 1 1 3 3 5 6 w w t u u u g g l m M L I I ..O.O.:.<.e.y.a.V.C.~.(.(.`.`.|.OX7X5X5X5XtXtX;X;X;X:X:X1X,X,X,X>X>X=X=X=X=X=X=X=X,X1X1X2X2XaXaXiXpXyX6X0X0X8X8X+X+X X{.].H.D.A.p.4.4.1.-.T ! G D IXIXIXIXIXIXIXIXIXIXIXIXIXIXIXIXIXIXIXIXIXIXIXIXIXIXIXIXIXIXIXIXIXIXIXIXIXIXIXIXIXIXIXIXIXIXIXIXIXIXIXIXIXIXIXIXIXIXIXIXIXIXIXIXIXIXIXIXIXIXIXIXIXIXIX",
"IXIXIXIXIXIXIXIXIXIXIXIXIXIXIXIXIXIXIXIXIXIXIXIXIXIXIXIXIXIXIXIXIXIXIXIXIXIXIXIXIXIXIXIXIXIXIXIXIXIXIXIXIXIXIXIXIXIXIXIXIXIXIXIXIXIXIXIXIXIXIXIXIXIXP T X.O.>.<.t.a.V.~.(.|.|.7X6X0X0XuXhXjXcXxXxXxXxXFXLXLXLXLXFXFXFXFXFXFXFXFXFXFXSXAXBX}.}.G.A.h.4.5.-.R G D s y 9 0 , , : % # + . . .         . . . . . . . . . . . . O + + + + + + + + + + + + + # # % % % % : : : : : < < < < < < < < < < < < < < , , , , , , , , 4 4 4 4 4 4 4 4 4 6 6 6 6 6 6 6 6 6 6 6 6 6 6 6 6 6 6 6 6 6 6 6 6 6 6 6 6 6 6 6 6 6 6 6 6 6 6 6 6 4 4 4 3 5 3 3 3 3 6 4 3 3 4 4 4 4 6 6 4 4 4 4 6 4 4 4 4 4 4 4 4 4 4 4 4 4 4 4 4 4 4 4 4 4 4 4 4 4 4 4 4 4 4 4 4 4 4 3 3 3 3 > > > > > > > > - - - - - - - ; ; - - - - ; ; ; ; - - - - - - - 3 3 5 5 6 6 w w t u g g l m M F P I ....O.:.<.e.y.a.V.C.~.~.(.`.`.|.7X7X5X5X5XtXtX;X;X;X:X3X3X1X,X,X,X>X=X>X>X=X=X,X,X1X1X2X2X2XaXiXtXyX6X6X0X8X8X+XOX X{.].H.D.A.p.p.1.>.=.T ! G D IXIXIXIXIXIXIXIXIXIXIXIXIXIXIXIXIXIXIXIXIXIXIXIXIXIXIXIXIXIXIXIXIXIXIXIXIXIXIXIXIXIXIXIXIXIXIXIXIXIXIXIXIXIXIXIXIXIXIXIXIXIXIXIXIXIXIXIXIXIXIXIXIXIXIX",
"IXIXIXIXIXIXIXIXIXIXIXIXIXIXIXIXIXIXIXIXIXIXIXIXIXIXIXIXIXIXIXIXIXIXIXIXIXIXIXIXIXIXIXIXIXIXIXIXIXIXIXIXIXIXIXIXIXIXIXIXIXIXIXIXIXIXIXIXIXIXIXIXIXIXIXI ..O.:.<.t.y.a.V.~.`.|.7X7X6X0XuXhXhXcXxXxXxXxXFXFXFXxXxXxXxXFXFXFXFXFXFXFXFXSXAXBX}.[.F.A.h.4.;.R ! D z s y 0 0 , < : % + O . . .           . . . . . . . . . . . + + + + + + + + + + + + # # # % % % % : : : : < < < < < < < < < < < < , , , , , , , , , 3 4 4 4 4 4 4 4 4 4 6 6 6 6 6 6 6 6 6 6 6 6 6 6 6 w w 6 9 6 6 9 9 9 9 9 6 9 9 6 6 6 6 6 6 6 6 6 6 6 6 6 6 6 6 5 5 6 4 4 4 4 4 4 4 3 3 5 5 5 5 6 6 6 6 4 4 4 4 4 4 4 4 4 4 4 4 4 4 6 6 6 6 6 6 6 6 6 6 6 6 6 6 6 6 6 4 4 4 4 4 4 4 3 3 3 > > > > > > > - - - - - - - - - ; ; ; ; ; ; ; ; ; ; - - - - - 1 3 3 5 5 6 6 w t u u g l n M F L I I ..O.:.<.e.y.d.f.C.~.~.(.(.`.|.7X7X5X5X5XtX;X;X;X2X2X2X1X1X1X,X,X,X,X,X,X,X,X,X1X1X2X2X2XiXtXtXtX6X6X6X6X8X+XOX X{.{.H.D.A.p.p.3.>.=.T ! G D z IXIXIXIXIXIXIXIXIXIXIXIXIXIXIXIXIXIXIXIXIXIXIXIXIXIXIXIXIXIXIXIXIXIXIXIXIXIXIXIXIXIXIXIXIXIXIXIXIXIXIXIXIXIXIXIXIXIXIXIXIXIXIXIXIXIXIXIXIXIXIXIXIXIX",
"IXIXIXIXIXIXIXIXIXIXIXIXIXIXIXIXIXIXIXIXIXIXIXIXIXIXIXIXIXIXIXIXIXIXIXIXIXIXIXIXIXIXIXIXIXIXIXIXIXIXIXIXIXIXIXIXIXIXIXIXIXIXIXIXIXIXIXIXIXIXIXIXIXIXIXL I ..O.>.e.y.a.B.~.(.`.OX7X7X6X0XuXhXlXxXxXxXxXxXxXxXxXxXxXxXxXxXFXFXFXFXFXSXAXBX+X}.G.D.h.4.5.-.R ! D k y 9 0 , < : % # + O . .             . . . . . . . . . X + + + + + + + + + + + + # # # # % % % : : : : < < < < < < < , , < < < , , , , , , , , , 3 3 4 4 4 4 4 4 4 4 6 6 6 6 6 6 6 6 w 6 w t t t t t t t t t y t y t t t t t t t t t 9 6 6 6 6 6 6 6 6 6 6 6 6 6 5 5 5 5 5 5 5 3 3 3 3 3 5 5 3 3 3 3 3 3 3 3 3 3 3 4 4 4 4 4 4 4 6 6 6 6 6 6 6 6 6 6 6 6 6 6 6 6 6 6 6 6 4 4 4 4 4 4 3 3 3 3 > > > > > > > > > > - - - - - - - - - - - ; ; ; ; ; ; ; - - - 3 3 3 3 5 5 6 w w u g g l n m F L P I ..O.:.<.e.i.i.f.C.~.~.(.(.`.|.7X7X5X5X5XtXtX;X;X2X2X2X2X1X1X1X1X,X,X,X,X1X1X1X1X2X2X2X;XtXtX5X6X6X6X6X8XOXOX X{.{.H.C.Z.p.i.3.>.=.T ! G D z IXIXIXIXIXIXIXIXIXIXIXIXIXIXIXIXIXIXIXIXIXIXIXIXIXIXIXIXIXIXIXIXIXIXIXIXIXIXIXIXIXIXIXIXIXIXIXIXIXIXIXIXIXIXIXIXIXIXIXIXIXIXIXIXIXIXIXIXIXIXIXIXIXIX",
"IXIXIXIXIXIXIXIXIXIXIXIXIXIXIXIXIXIXIXIXIXIXIXIXIXIXIXIXIXIXIXIXIXIXIXIXIXIXIXIXIXIXIXIXIXIXIXIXIXIXIXIXIXIXIXIXIXIXIXIXIXIXIXIXIXIXIXIXIXIXIXIXIXIXIXL I ..O.:.<.t.a.B.!.(.`.|.7X7X6X6XuXhXcXcXxXxXxXxXxXxXxXxXxXxXcXxXxXjXFXFXSXAXAX+X X}.F.A.h.4.;.-.R G D s y 0 0 < : : % # + . . .         . . . . . . . . . X X X + + + + + + + + + + + + # # # % % % : : : : < < < < < , , , , , , , , , , , , , , , , 4 3 3 3 3 3 3 4 4 4 6 6 6 6 6 6 w w t t t t t y y u u y u y y u u y y u u y y y y y y t t t t w 6 6 6 6 6 6 6 6 6 6 6 5 5 5 5 5 5 5 5 3 3 3 3 3 3 3 3 3 3 3 3 3 3 3 3 3 3 4 3 4 6 6 6 6 6 6 6 6 6 6 6 9 9 9 9 6 6 6 6 6 6 6 6 4 4 4 4 4 4 3 3 3 3 3 3 > > > > > > > - > - - - - - - - - - - ; ; ; ; ; - - - - 3 3 3 3 3 5 6 w t u g h l n m M L P I ..O.:.<.e.y.i.f.V.C.~.(.(.`.OX7X7X5X5X5XtXtXaXaXaX2X2X2X2X2X1X1X1X1X1X1X1X1X1X2X2X2X;X;XtX5X5X6X6X6X6X7XOX X{.{.H.C.Z.i.t.3.>.=.T ! G D z IXIXIXIXIXIXIXIXIXIXIXIXIXIXIXIXIXIXIXIXIXIXIXIXIXIXIXIXIXIXIXIXIXIXIXIXIXIXIXIXIXIXIXIXIXIXIXIXIXIXIXIXIXIXIXIXIXIXIXIXIXIXIXIXIXIXIXIXIXIXIXIXIXIX",
"IXIXIXIXIXIXIXIXIXIXIXIXIXIXIXIXIXIXIXIXIXIXIXIXIXIXIXIXIXIXIXIXIXIXIXIXIXIXIXIXIXIXIXIXIXIXIXIXIXIXIXIXIXIXIXIXIXIXIXIXIXIXIXIXIXIXIXIXIXIXIXIXIXIXIXF L I ..#.,.e.y.s.!./.`.`.7X7X6X6XyXhXhXlXxXxXxXxXxXxXxXxXxXcXcXjXjXjXjXjXeX9X9X+X X[.D.h.p.2.-.R ! D z s y 0 , < : % # + O . .             . . . X X X X X X X + + + + + + + + + + + # # # # # % : : : : : < < < < , , , , , , , , , 4 4 4 4 4 4 4 4 4 3 3 3 3 3 3 3 4 4 6 6 6 6 6 w t t t t y u u y i i i i i i g g g i i i i i i i i y y y u y y t t t t w w 6 6 6 6 6 6 6 5 5 5 5 5 5 5 5 5 3 3 3 3 3 3 3 3 3 3 3 3 3 3 3 3 3 3 3 6 6 6 6 6 6 6 6 6 6 6 9 9 9 9 9 9 9 6 6 6 6 6 6 6 6 4 4 4 4 4 4 3 3 3 3 3 3 3 3 3 > > > > > > > > - > - - - - - ; ; = = - - - - - 1 3 3 3 3 5 6 w t u g g l l m M F L I ..O.:.,.e.t.y.d.V.C.~.(.`.`.XX&X7X5X5X5XtXiXaXaXaXaXaX2X2X2X2X2X2X2X2X2X2X2X2X2X:X;X;X;X5X5X5X6X7X6X7XOX|.{.{.C.C.Z.i.t.3.>.=.T ! G D z k IXIXIXIXIXIXIXIXIXIXIXIXIXIXIXIXIXIXIXIXIXIXIXIXIXIXIXIXIXIXIXIXIXIXIXIXIXIXIXIXIXIXIXIXIXIXIXIXIXIXIXIXIXIXIXIXIXIXIXIXIXIXIXIXIXIXIXIXIXIXIXIXIX",
"IXIXIXIXIXIXIXIXIXIXIXIXIXIXIXIXIXIXIXIXIXIXIXIXIXIXIXIXIXIXIXIXIXIXIXIXIXIXIXIXIXIXIXIXIXIXIXIXIXIXIXIXIXIXIXIXIXIXIXIXIXIXIXIXIXIXIXIXIXIXIXIXIXIXIXM L I ..O.,.e.y.s.W.'.`.`.7X7X5X6XyXhXlXlXzXxXxXxXxXxXzXzXzXlXlXhXhXhXuXeXeXqX+X X}.H.D.h.4.2.-.R G D k i 9 0 , : : # # + O . .           . . . . X X X X X + + + + + + + + + + + # # # # # % % : : : : : < < < < , , , , , , 4 4 4 4 4 4 4 4 4 4 4 3 3 3 3 3 3 3 4 4 6 6 6 6 6 w t t t u u i i i g g g g k k k x l l k k k k k k k k k g g i i i y u u y t t t t w w 6 6 6 6 6 6 6 5 5 5 5 5 5 3 3 3 3 3 3 3 3 3 3 3 3 3 3 3 5 5 3 5 5 6 6 6 6 6 6 6 6 6 6 6 6 9 9 9 9 9 9 9 6 6 9 6 6 6 6 6 4 4 4 4 4 4 3 3 3 3 3 3 3 3 3 3 > > > > > > > > - - - - - - ; ; ; ; - - - - - 3 3 3 3 5 6 w t u g g h l n m F L I ..O.:.,.<.e.i.d.V.~.(.(.`.`.`.&X7X5X5XtXyXaXaXaXaXaXaXaXaX2X2X2X2X2X2X2X2X2X;X;X;X;X;X5X5X5X5X7X7X7XOX|.{.].C.Z.Z.u.t.3.>.=.T T G D z k IXIXIXIXIXIXIXIXIXIXIXIXIXIXIXIXIXIXIXIXIXIXIXIXIXIXIXIXIXIXIXIXIXIXIXIXIXIXIXIXIXIXIXIXIXIXIXIXIXIXIXIXIXIXIXIXIXIXIXIXIXIXIXIXIXIXIXIXIXIXIXIXIX",
"IXIXIXIXIXIXIXIXIXIXIXIXIXIXIXIXIXIXIXIXIXIXIXIXIXIXIXIXIXIXIXIXIXIXIXIXIXIXIXIXIXIXIXIXIXIXIXIXIXIXIXIXIXIXIXIXIXIXIXIXIXIXIXIXIXIXIXIXIXIXIXIXIXIXIXM L I ..O.,.e.y.s.W.Q.`.`.$X7X5X6XyXyXhXlXlXzXzXzXzXzXzXzXlXlXhXhXuXuX0X0XqX8XOX X{.D.k.p.2.;.+.T G D k y 0 , < : % # + + O . .           . . X X X X X + + + + + + + + + + + # # # # # # % % % : : : : : < < < , , , , , 4 4 4 4 4 4 4 4 4 4 4 4 3 3 3 3 3 3 5 6 5 6 6 6 6 w w t t u u i g g g g k l l l x x x x N N x x x z z z l l l l l k g g g i i i u u u u t w w w w 6 6 6 6 6 6 5 5 5 5 5 5 5 3 3 5 5 5 3 3 3 3 3 5 5 5 5 5 5 5 6 6 6 6 6 6 6 6 6 6 6 9 9 9 9 9 9 9 9 9 9 9 9 6 6 6 6 6 6 4 4 4 4 4 4 3 3 4 4 3 3 3 3 3 3 3 > > > > > > > - - - - - = - - - - - - - - - 3 3 3 5 6 w t u u g g l l m M L I ..O.O.:.,.e.y.u.V.!.(.(.`.`.`.&X7X5X5XtXiXaXaXaXaXaXaXaXaXaXaXaXaX2X2X2X2X;X;X;X;X;X;X5X5X5X6X7X7XOX|.{.{.~.C.Z.u.t.3.>.=.X.T G D z k IXIXIXIXIXIXIXIXIXIXIXIXIXIXIXIXIXIXIXIXIXIXIXIXIXIXIXIXIXIXIXIXIXIXIXIXIXIXIXIXIXIXIXIXIXIXIXIXIXIXIXIXIXIXIXIXIXIXIXIXIXIXIXIXIXIXIXIXIXIXIXIXIX",
"IXIXIXIXIXIXIXIXIXIXIXIXIXIXIXIXIXIXIXIXIXIXIXIXIXIXIXIXIXIXIXIXIXIXIXIXIXIXIXIXIXIXIXIXIXIXIXIXIXIXIXIXIXIXIXIXIXIXIXIXIXIXIXIXIXIXIXIXIXIXIXIXIXIXIXM L I ..O.,.e.y.s.W.Q._.`.$X&X5X5XyXyXlXlXlXzXzXzXzXzXzXzXfXsXpXyXyX6X6X6X6XOX|.{.].D.p.4.2.-.T P D z s y 0 , : : # # + O . . .         . . . X X + + + + + + + + + + + + + # # # # # # # % % : : : : : < < < , , , 4 4 4 4 4 4 4 4 4 4 4 4 4 4 4 3 3 3 3 5 6 5 6 6 6 6 w w t t u u g g g k l l l z m N N N H H H H H H H H H H H N N m m m z l l l k g g g g i i u u u w w w w w w w 6 6 6 5 5 5 5 5 5 5 5 5 5 5 5 5 5 5 5 5 5 5 5 5 6 6 6 6 6 6 6 6 6 6 6 6 t 9 t 9 9 9 9 9 9 9 9 9 9 9 6 6 6 6 6 4 4 4 4 4 4 4 4 4 4 4 3 3 3 3 3 > > > > > > > > - - - - = - - - - - - - - - - - 3 3 5 6 w w t u u g g l m M L I ....O.:.,.<.t.y.s.!.~.(.(.`.`.`.7X5X5XyXpXsXsXsXsXsXaXaXaXaXaXaXaXaXaX;X;X;X;X;X;X5X5X5X5X6X7X7XOXOX|.(.~.C.V.V.u.3.>.=.X.T G D z k s IXIXIXIXIXIXIXIXIXIXIXIXIXIXIXIXIXIXIXIXIXIXIXIXIXIXIXIXIXIXIXIXIXIXIXIXIXIXIXIXIXIXIXIXIXIXIXIXIXIXIXIXIXIXIXIXIXIXIXIXIXIXIXIXIXIXIXIXIXIXIXIX",
"IXIXIXIXIXIXIXIXIXIXIXIXIXIXIXIXIXIXIXIXIXIXIXIXIXIXIXIXIXIXIXIXIXIXIXIXIXIXIXIXIXIXIXIXIXIXIXIXIXIXIXIXIXIXIXIXIXIXIXIXIXIXIXIXIXIXIXIXIXIXIXIXIXIXIXB L | o.#.,.e.d.s.!.Q._.`.&X&X5XtXyXyXsXlXlXzXzXzXzXzXzXfXfXsXyXyX6X6X7X7X7X|.|.{.].Z.p.2.-.X.T G D k i 9 4 < : # # + O O . . .         . . X X X + + + + + + + + + + + # % % % # # % % % : : : : : : < < , , , 4 4 4 4 4 4 4 4 4 4 4 4 4 4 4 4 4 3 3 3 5 6 6 6 6 w w w t u u u g g g l l n m m m M F H H H Y Y Y Y Y Y Y Y Y H H H H H F F F m m m z l l l l g g g g u u u u u w w w w w w 6 6 5 5 5 5 5 5 5 5 5 5 5 5 5 5 5 5 5 5 6 6 6 6 6 6 6 6 6 6 6 6 6 w t t t t t t 9 9 9 9 9 9 9 6 6 6 6 6 6 4 4 4 4 4 4 4 4 4 4 4 4 3 3 3 3 > > > > > > > - - - - = - - - - - - - - - - - - 3 3 3 6 6 w w t u u g l n M L P I ....O.:.<.t.u.a.V.~.~.(.(.`.`.7X5X5XyXyXyXsXsXsXsXsXsXsXsXaXaXaXaXaXtXtX;X;X;X5X5X5X5X6X6X7X7XOX|.(.~.C.V.V.u.t.<.:.X.T G D z k k IXIXIXIXIXIXIXIXIXIXIXIXIXIXIXIXIXIXIXIXIXIXIXIXIXIXIXIXIXIXIXIXIXIXIXIXIXIXIXIXIXIXIXIXIXIXIXIXIXIXIXIXIXIXIXIXIXIXIXIXIXIXIXIXIXIXIXIXIXIXIXIX",
"IXIXIXIXIXIXIXIXIXIXIXIXIXIXIXIXIXIXIXIXIXIXIXIXIXIXIXIXIXIXIXIXIXIXIXIXIXIXIXIXIXIXIXIXIXIXIXIXIXIXIXIXIXIXIXIXIXIXIXIXIXIXIXIXIXIXIXIXIXIXIXIXIXIXIXL I | o.#.,.y.d.s.!.).).$X&X&X;XtXyXyXsXfXlXzXzXzXzXfXfXfXsXsXyXtX5X5X5X7XOX|.|.~.C.f.g.1.-.X.P F z k y 9 4 < = # # O O O . . .       . . X X X + + + & & & & & + + + # % % % % % % % % : : : : : < < < , , , 4 4 4 4 4 4 4 4 4 4 4 4 6 4 6 6 6 6 6 5 5 6 6 6 w w w w u u u u g g h l n m m M F L L U U Y Q Q @.@.@.@.@.@.Q Q Q Q E U U U U P F F F M m m m l l l l g g g u u u u u w w w w w w w 6 5 5 5 5 5 5 5 5 5 5 5 5 5 5 5 5 6 6 6 6 6 6 6 6 6 6 6 6 6 t t t t t t t t t t 9 9 6 6 9 6 6 6 6 6 6 4 4 4 6 4 4 4 4 4 4 4 4 3 3 3 3 > 3 > > > > > > - - - - = = - - - - ; ; ; - - - 3 3 3 5 6 6 w w u u g l n M F L I T ..O.:.<.t.y.a.V.~.~.(.(.`.|.7X5X6XyXyXyXyXyXsXsXsXsXsXsXsXsXaXyXyXtXtXtX5X5X5X5X6X6X6X7X7XOX|.(.(.!.B.B.u.t.<.:.X.T P F m l k IXIXIXIXIXIXIXIXIXIXIXIXIXIXIXIXIXIXIXIXIXIXIXIXIXIXIXIXIXIXIXIXIXIXIXIXIXIXIXIXIXIXIXIXIXIXIXIXIXIXIXIXIXIXIXIXIXIXIXIXIXIXIXIXIXIXIXIXIXIXIXIX",
"IXIXIXIXIXIXIXIXIXIXIXIXIXIXIXIXIXIXIXIXIXIXIXIXIXIXIXIXIXIXIXIXIXIXIXIXIXIXIXIXIXIXIXIXIXIXIXIXIXIXIXIXIXIXIXIXIXIXIXIXIXIXIXIXIXIXIXIXIXIXIXIXIXIXB L | o.#.,.e.y.a.B.Q.)._.#X&X&X;XtXyXyXsXfXlXzXzXzXfXfXfXsXsXaXyXtX5X5X7X7X|.`.(.~.C.p.g.1.O.T P F z k y 9 , : = # + O O . . . .       . . X X X + & & & & & & & % % % % % % % % % % : : : : : : : < < , , , 4 4 4 4 4 4 4 4 4 4 4 4 4 6 6 6 6 6 5 5 5 5 5 6 w w w w e u u f g g h n n M M F L L U R R @.@.@.@.@.@.@.@.@.@.@.@.@.@.@.@.+.+.R R P P L F F F M m m n l l h g g g u u u u u w w e w w w w w 6 w 6 5 5 5 5 5 5 5 5 5 5 5 5 6 6 6 6 6 6 6 6 6 6 6 6 w w w w w w t t t 9 9 6 6 6 6 6 6 6 6 6 6 4 4 4 6 6 4 4 4 4 4 4 3 3 4 3 3 3 3 3 > > > > > > > > - - - - - - - - - - - - - - 3 3 3 3 5 5 6 w t u g l n m M L P I ..O.:.<.t.y.a.V.~.~.(.(.`.|.7X7XyXyXyXyXyXyXyXsXsXsXsXsXsXsXyXyXyXtXtXtX5X5X5X6X6X6X6X7XOXOX`.(./.B.B.u.t.3.>.O.T P F m l k IXIXIXIXIXIXIXIXIXIXIXIXIXIXIXIXIXIXIXIXIXIXIXIXIXIXIXIXIXIXIXIXIXIXIXIXIXIXIXIXIXIXIXIXIXIXIXIXIXIXIXIXIXIXIXIXIXIXIXIXIXIXIXIXIXIXIXIXIXIXIXIX",
"IXIXIXIXIXIXIXIXIXIXIXIXIXIXIXIXIXIXIXIXIXIXIXIXIXIXIXIXIXIXIXIXIXIXIXIXIXIXIXIXIXIXIXIXIXIXIXIXIXIXIXIXIXIXIXIXIXIXIXIXIXIXIXIXIXIXIXIXIXIXIXIXIXM L I | o.#.,.e.y.s.!.Q.)._.#X&X&X;XtXyXsXsXfXzXzXzXzXfXfXfXsXaXaXtXtX;X&X&X$X`.`.(.~.C.i.3.:.X.T P D z s t 4 > : # # + O O . . . .     . . . X X + + & & & & & & % % % % % % % % % : : : : : : : : < < < , , , 4 4 4 4 4 4 4 4 4 4 4 4 4 6 6 6 6 5 5 5 5 5 5 6 w w w u u u f g h l n n M F L L I I R +.@.@.%.%.;.;.;.;.9.;.;.;.;.;.;.%.%.@.+.+.+...T I P P L F F M m m n l l h g g g f u u u e w e e w w w w w w w 6 6 5 5 5 5 5 5 5 5 5 5 6 5 5 6 6 6 6 6 6 6 6 6 6 6 6 6 6 6 6 6 6 6 6 6 6 6 6 6 6 6 6 6 6 4 4 4 6 4 4 4 4 4 4 4 4 4 4 4 4 3 3 3 > > > > > > > > > > > - - - - = = - - - - 3 3 3 3 3 5 5 6 w u u g l l m M F P I ..O.>.<.t.y.a.V.!.~.(.`.|.7X7X6XyXyXyXhXhXhXlXlXlXlXlXsXsXsXsXyXyXtXtXyXyXyX6X6X6X6X7X7XOX`.(./.W.B.V.u.t.>.=.T P F m z k IXIXIXIXIXIXIXIXIXIXIXIXIXIXIXIXIXIXIXIXIXIXIXIXIXIXIXIXIXIXIXIXIXIXIXIXIXIXIXIXIXIXIXIXIXIXIXIXIXIXIXIXIXIXIXIXIXIXIXIXIXIXIXIXIXIXIXIXIXIXIXIX",
"IXIXIXIXIXIXIXIXIXIXIXIXIXIXIXIXIXIXIXIXIXIXIXIXIXIXIXIXIXIXIXIXIXIXIXIXIXIXIXIXIXIXIXIXIXIXIXIXIXIXIXIXIXIXIXIXIXIXIXIXIXIXIXIXIXIXIXIXIXIXIXIXM L I | o.#.,.r.y.d.s.!.'.).#X%X&X&X;XtXaXsXfXfXfXzXfXfXfXfXfXaXaXaXtX;X&X&X&X`.`.`.(.!.d.i.<.:.X.T G m z i t 4 > : # # O O O O . . . . . . . X X + + & & & & % % % % % % % % % % % % : : : : : : < < < < , , , 4 4 4 4 4 4 4 4 4 4 4 4 4 4 6 6 6 5 5 5 5 5 5 5 6 w w e u u f g h l n m M L L I I ....+.+.%.2.2.9.9.9.9.9.9.9.9.9.9.9.9.2.2.2.;.;.%.+.+...T I I P L L F M m n l l h h g g g u u u u w w e w w w w w w w w w 6 5 5 5 5 5 5 5 5 5 5 5 6 6 6 6 6 6 6 6 6 6 6 6 6 6 6 6 6 6 6 6 6 6 6 6 6 6 6 6 6 4 4 4 4 4 4 4 4 4 4 4 4 4 4 4 4 4 4 4 3 3 3 > > > > > > > > > > > > - - - - - - > - 3 3 3 3 3 5 5 6 w u u g l l m M F L I ..#.>.<.y.y.a.V.~.~.`.`.|.7X7X6X6XuXuXhXhXuXlXlXlXlXlXlXsXsXyXyXyXyXyXyXpXpXpXwX6X6X7XOX`.(./.W.B.B.u.t.<.=.X.P G m z k IXIXIXIXIXIXIXIXIXIXIXIXIXIXIXIXIXIXIXIXIXIXIXIXIXIXIXIXIXIXIXIXIXIXIXIXIXIXIXIXIXIXIXIXIXIXIXIXIXIXIXIXIXIXIXIXIXIXIXIXIXIXIXIXIXIXIXIXIXIXIXIX",
"IXIXIXIXIXIXIXIXIXIXIXIXIXIXIXIXIXIXIXIXIXIXIXIXIXIXIXIXIXIXIXIXIXIXIXIXIXIXIXIXIXIXIXIXIXIXIXIXIXIXIXIXIXIXIXIXIXIXIXIXIXIXIXIXIXIXIXIXIXIXIXB L I | o.#.,.e.y.d.s.!.Q.'._.#X%X&X;X;XaXaXsXsXfXfXfXfXfXfXfXfXaXaXaX;X&X&X&X$X`.`.'./.V.a.t.<.=...I F m l i t 4 > : # # + O O O . . . . . . . X X + & & & % % % % % % % % % % % : : : : : : : : : < < < < , , , 4 4 4 4 4 4 4 4 4 4 4 4 4 4 4 3 3 3 3 5 5 5 5 5 w w e u u f g h h n n M L L I | ..o.+.%.;.2.2.9.l.l.l.l.l.l.l.l.l.l.l.0.0.4.2.2.2.2.-.%.+.X.....I I P L L F M m n l l h g g g f u u e e w w w w w w w w w w w w 5 5 5 5 5 5 5 5 5 5 5 5 5 6 6 6 6 6 6 6 6 6 6 6 6 6 6 6 6 6 6 6 6 6 6 6 6 6 4 4 4 4 4 4 4 4 4 4 4 4 4 4 4 4 4 4 4 4 4 4 4 4 4 4 3 3 > > > > > > > > > > - - - > > 3 3 3 3 3 3 5 6 w t u g g h l m M F P T o.#.,.e.t.y.a.V.~.~.`.|.|.7X7X6X6XuXuXuXuXlXlXlXlXlXlXlXsXyXyXyXyXyXpXpXpXhXhXwX6X7XOXOX`./.W.B.B.u.t.<.:.X.T P D z k IXIXIXIXIXIXIXIXIXIXIXIXIXIXIXIXIXIXIXIXIXIXIXIXIXIXIXIXIXIXIXIXIXIXIXIXIXIXIXIXIXIXIXIXIXIXIXIXIXIXIXIXIXIXIXIXIXIXIXIXIXIXIXIXIXIXIXIXIXIXIXIX",
"IXIXIXIXIXIXIXIXIXIXIXIXIXIXIXIXIXIXIXIXIXIXIXIXIXIXIXIXIXIXIXIXIXIXIXIXIXIXIXIXIXIXIXIXIXIXIXIXIXIXIXIXIXIXIXIXIXIXIXIXIXIXIXIXIXIXIXIXIXIXB L I | o.#.,.e.y.y.a.s.!.Q.)._.#X&X;X;XaXaXaXsXsXfXfXfXfXfXfXfXfXaXaX;X;X&X&X&X$X`.`.'.!.B.a.t.,.O...P F m l i t 4 > : # # # O O O O . . . . . X X + + & & % % % % % % % % % % % : : : : : : : : : < < < , , , , , 4 4 4 4 4 4 4 4 4 4 4 4 4 3 3 3 3 3 5 5 5 5 5 5 w w u u f g h h n n M L L I ....O.O.-.2.2.2.l.l.h.h.h.h.h.h.h.h.h.h.h.h.h.l.l.g.4.2.2.1.-.%.+.X.....I I P L F M m n n l l h g g f u u u u u u e e e w w w w w w w w 5 5 6 5 5 5 5 5 5 5 5 5 5 5 5 5 5 6 6 6 6 6 6 6 6 6 6 6 6 6 6 6 6 6 6 6 4 4 4 4 4 4 4 4 4 4 4 4 4 4 4 4 4 4 4 4 4 4 4 4 4 4 4 4 4 4 4 > > > > > > > > > > > 3 3 3 3 3 3 3 3 5 6 w t u g g h l n M L I ..O.#.,.e.t.y.a.V.~.(.`.|.vX7X6X6X0X0XuXuXhXlXlXlXlXlXlXlXhXhXyXyXhXhXhXhXhXhXhX6X7XOXOX`./.W.W.B.V.u.<.:.X.T P F z k IXIXIXIXIXIXIXIXIXIXIXIXIXIXIXIXIXIXIXIXIXIXIXIXIXIXIXIXIXIXIXIXIXIXIXIXIXIXIXIXIXIXIXIXIXIXIXIXIXIXIXIXIXIXIXIXIXIXIXIXIXIXIXIXIXIXIXIXIXIXIXIX",
"IXIXIXIXIXIXIXIXIXIXIXIXIXIXIXIXIXIXIXIXIXIXIXIXIXIXIXIXIXIXIXIXIXIXIXIXIXIXIXIXIXIXIXIXIXIXIXIXIXIXIXIXIXIXIXIXIXIXIXIXIXIXIXIXIXIXIXIXIXL L I | o.#.,.e.y.y.a.s.!.Q.).).#X%X&X;X;XaXaXaXsXsXfXfXfXfXfXfXfXdXaXaX;X;X&X&X&X_._.).Q.!.B.u.e.>.O...P F m k i t 4 > : = # # + O O O . . . . X X X + & & % % % % % % % % % % : : : : : : : : : < < < < < , , , 4 4 4 4 4 4 4 4 4 4 4 4 4 4 3 3 3 3 5 5 5 5 5 5 w w w e u f f h h n n M L L I ..o.O.#.1.1.2.l.l.h.h.k.k.k.k.D.k.k.k.k.k.k.k.k.k.h.h.g.g.g.2.1.1.-.%.O.O.....I I L F M M m n n l h g g f u u u u u u u u e w w w w w w w w w 6 6 5 5 5 5 5 5 5 5 5 5 5 5 5 6 6 6 6 6 6 6 6 6 6 6 6 6 6 6 6 6 6 6 6 4 4 4 4 4 4 4 4 4 4 4 4 4 4 4 4 4 4 4 4 4 4 4 4 4 4 4 4 4 4 4 4 4 3 3 3 3 > > > > 3 3 3 3 3 3 3 3 5 6 w w u u u g g l m M L I ..O.:.,.e.t.y.d.C.~.(.|.|.|.7X7X0X0X0XuXuXlXlXlXlXlXlXhXhXhXhXhXhXhXhXcXcXhXhXhX7X7XOX`._.^.W.B.B.u.t.>.O.T P F m l IXIXIXIXIXIXIXIXIXIXIXIXIXIXIXIXIXIXIXIXIXIXIXIXIXIXIXIXIXIXIXIXIXIXIXIXIXIXIXIXIXIXIXIXIXIXIXIXIXIXIXIXIXIXIXIXIXIXIXIXIXIXIXIXIXIXIXIXIXIXIXIX",
"IXIXIXIXIXIXIXIXIXIXIXIXIXIXIXIXIXIXIXIXIXIXIXIXIXIXIXIXIXIXIXIXIXIXIXIXIXIXIXIXIXIXIXIXIXIXIXIXIXIXIXIXIXIXIXIXIXIXIXIXIXIXIXIXIXIXIXIXL L I | o.#.,.r.y.d.s.s.!.Q.'.)._.#X%X:X;X;XaXaXaXsXsXfXfXfXfXfXfXdXdXaX2X;X;X&X%X#X_.).).Q.W.s.y.<.:.O.T P F m k i t 4 > : = # # # + + O O . . X X X + + & % % % % % % % % % : : : : : < < < : < < < < < , , , , 4 4 4 4 4 4 4 4 4 4 4 4 4 4 3 3 3 5 5 5 5 5 5 5 w w e e u f g h h n n M L L I ..o.#.:.1.1.g.g.h.k.k.k.D.F.D.D.D.D.D.D.D.D.D.D.D.D.k.k.k.h.p.g.g.2.1.1.1.#.O.o...T I L L F M M m n l l h g g f f f f u u u u u e w w w w w w w w 6 6 6 5 5 5 5 5 5 5 5 5 5 5 5 5 6 6 6 6 6 6 6 6 6 6 6 6 6 6 4 6 6 4 4 4 4 4 4 4 4 4 4 4 4 4 4 4 4 4 4 4 4 4 4 4 4 4 4 4 4 4 4 4 4 4 4 4 4 4 3 3 3 > > 3 3 3 > 3 3 3 3 3 5 6 w w t u u g g l m M L I ..O.#.,.<.t.y.f.~.~.(.|.|.|.vX7XqXqX0XuXuXjXjXjXjXjXjXhXhXhXhXhXcXcXcXcXcXhXhX6X7XOXXX`.^.W.W.B.u.t.<.=...I F m l IXIXIXIXIXIXIXIXIXIXIXIXIXIXIXIXIXIXIXIXIXIXIXIXIXIXIXIXIXIXIXIXIXIXIXIXIXIXIXIXIXIXIXIXIXIXIXIXIXIXIXIXIXIXIXIXIXIXIXIXIXIXIXIXIXIXIXIXIXIXIXIX",
"IXIXIXIXIXIXIXIXIXIXIXIXIXIXIXIXIXIXIXIXIXIXIXIXIXIXIXIXIXIXIXIXIXIXIXIXIXIXIXIXIXIXIXIXIXIXIXIXIXIXIXIXIXIXIXIXIXIXIXIXIXIXIXIXIXIXIXL L I | o.#.,.r.y.d.s.!.!.Q.'.)._.#X%X%X:X:X2XaXaXaXsXsXfXfXfXfXfXfXdXaXaX2X;X:X&X%X#X_.).^.Q.B.a.y.<.:...I P F z k y t 4 > : = # # # + + + + O + + + + + + % % % % % % % : : : : : : : : < < < < < < < < , , , , , , 4 4 4 4 4 4 4 4 4 4 4 4 3 3 3 3 5 5 5 5 5 5 w w e e u f h h n n M B L L | o.O.#.,.<.g.g.p.f.k.k.D.D.[.[.[.[.[.[.[.[.[.[.[.[.[.[.D.D.D.k.k.f.p.g.g.g.2.1.1.#.O.o...I I L L M M m n n l h g g g g g g g f u u u u u t w w w w w w 6 6 6 6 6 5 5 5 5 5 5 5 5 5 5 5 6 6 6 6 6 6 6 6 6 4 6 6 4 4 6 4 4 4 4 4 4 4 4 4 4 4 4 4 4 4 4 4 4 6 6 4 4 6 4 4 4 4 4 4 9 9 0 4 4 4 4 4 4 4 4 4 3 3 3 3 > > 3 3 3 3 3 3 5 6 w w w u u g g l m F L I ..O.#.:.<.e.y.f.~.~.].{.|.|.|.qXqXqXqXuXuXuXjXjXjXjXjXjXhXjXjXjXjXjXjXjXhXhXhX7X7XXX`._.^.W.B.V.u.<.:.O.T P F m IXIXIXIXIXIXIXIXIXIXIXIXIXIXIXIXIXIXIXIXIXIXIXIXIXIXIXIXIXIXIXIXIXIXIXIXIXIXIXIXIXIXIXIXIXIXIXIXIXIXIXIXIXIXIXIXIXIXIXIXIXIXIXIXIXIXIXIXIXIXIXIX",
"IXIXIXIXIXIXIXIXIXIXIXIXIXIXIXIXIXIXIXIXIXIXIXIXIXIXIXIXIXIXIXIXIXIXIXIXIXIXIXIXIXIXIXIXIXIXIXIXIXIXIXIXIXIXIXIXIXIXIXIXIXIXIXIXIXL L I | o.o.#.,.r.y.s.s.!.!.Q.'.)._.#X#X%X-X:X2X2XaXaXaXaXfXfXfXfXfXfXdXdXaX2X2X:X:X%X#X_.).).Q.!.B.a.e.,.O...I L m l k y t 4 > : = # # # # + + + + + + + + + % % % % % % % : : : : : : : < < < < < < < < , , , , , 4 , 4 4 4 4 4 4 4 4 4 4 4 4 4 3 3 3 5 5 6 6 6 w w e e e u f h h n n M B L I | o.#.,.,.r.i.p.f.f.k.D.].[.[.[.}.}. X X X X X}.}.}.}.}.[.[.[.].].D.D.k.f.p.p.g.g.2.1.1.O.o...I I P L L M M m n l l h h h g g g g g g f u u u u u u t w w w w 6 6 6 6 6 6 6 5 5 5 5 5 5 5 6 6 5 6 6 6 6 6 6 6 6 6 4 4 6 4 4 4 4 4 4 4 4 4 4 4 4 4 4 4 4 4 6 6 6 6 9 9 9 9 9 9 9 9 9 9 0 0 4 4 4 4 4 4 4 4 3 3 3 > > > > > > 3 3 3 3 5 6 6 w w t u i g l m M L I T ..O.:.,.e.i.f.C.~.].{.|.|.|. XqXqX9XuXuXuXuXuXjXjXjXjXjXjXjXjXxXcXcXcXhXhX6X7XXXXX_.^.^.W.B.a.t.<.=...I F m IXIXIXIXIXIXIXIXIXIXIXIXIXIXIXIXIXIXIXIXIXIXIXIXIXIXIXIXIXIXIXIXIXIXIXIXIXIXIXIXIXIXIXIXIXIXIXIXIXIXIXIXIXIXIXIXIXIXIXIXIXIXIXIXIXIXIXIXIXIXIXIX",
"IXIXIXIXIXIXIXIXIXIXIXIXIXIXIXIXIXIXIXIXIXIXIXIXIXIXIXIXIXIXIXIXIXIXIXIXIXIXIXIXIXIXIXIXIXIXIXIXIXIXIXIXIXIXIXIXIXIXIXIXIXIXIXIXL I | ..o.#.,.e.r.y.s.M.!.Q.'.).)._.#X#X%X%X-X:X1X2X2XaXaXaXfXdXfXfXdXdXdXdXaX2X2X:X%X%X#X_.).'.Q.W.s.y.e.:.O.T P F m l g y 9 4 > > = = # # # # # + + + + + + & % % % % % % % : : < < < < < < , < < < < < , , , , , 4 4 4 4 4 4 4 4 4 4 4 4 4 4 4 3 3 3 5 5 6 6 w w e w e u u f h n n M B L I | o.o.#.,.e.r.i.f.f.C.].].].[.}. X X X X X X X X X X X X X X X X X{.{.].].D.D.k.f.f.p.g.g.1.1.#.O.....I I L L F M m n n l l l l l l l h g g g g i u u u u u t w w w w w w 6 6 6 6 6 5 5 5 5 6 6 6 6 6 6 6 6 6 6 4 6 6 4 4 6 4 4 4 4 4 4 3 3 3 4 4 4 4 4 4 4 4 4 6 6 9 9 9 9 9 9 9 9 9 9 9 9 9 0 4 4 4 4 4 4 4 4 3 3 > > > > > > > > 3 3 3 5 6 6 6 w w u i g l m M L P I ..O.#.,.e.i.f.C.C.].].{. X X XqXqX9XuXeXuXuXuXjXjXjXjXjXjXxXxXkXcXcXhXhX6X7X7XXX.X_.^.W.B.B.u.<.>.O.T P F m IXIXIXIXIXIXIXIXIXIXIXIXIXIXIXIXIXIXIXIXIXIXIXIXIXIXIXIXIXIXIXIXIXIXIXIXIXIXIXIXIXIXIXIXIXIXIXIXIXIXIXIXIXIXIXIXIXIXIXIXIXIXIXIXIXIXIXIXIXIXIX",
"IXIXIXIXIXIXIXIXIXIXIXIXIXIXIXIXIXIXIXIXIXIXIXIXIXIXIXIXIXIXIXIXIXIXIXIXIXIXIXIXIXIXIXIXIXIXIXIXIXIXIXIXIXIXIXIXIXIXIXIXIXH U U I ..o.#.#.,.e.y.y.s.!.!.Q.).)._._.#X#X%X%X*X-X:X1X2X2XaXaXaXdXdXdXdXdXdXdXaX2X2X:X:X%X%X#X).).Q.!.B.a.y.<.#...I L F m l g y 9 4 > > = = # # # # # # + + + + # % % % % : : : : : , , , , , , , , < , , , , , , , , 4 4 4 4 4 4 4 4 4 4 4 4 4 4 4 3 3 3 5 5 5 6 w w w e e u f f h h n M B L I | o.#.#.,.r.i.f.f.f.~.].].].{. X X X X XqXqXqXqXqX+X+X+X X X X X X X X X|.].].].].D.k.f.f.p.g.g.1.#.O.o...| I I L L M M m n n n n n l l l l h g g g g g i u u u t t w w w w 6 6 6 6 6 6 5 5 5 5 6 6 6 6 6 6 5 5 6 4 6 4 4 4 6 4 4 4 4 3 3 3 3 3 4 4 4 4 4 4 4 4 4 6 4 9 9 9 9 9 9 9 9 9 9 9 9 9 0 0 0 4 4 4 4 4 4 3 3 > > > > > > > > 3 3 3 3 3 5 6 6 w t u i g l m M F L I ..O.#.,.r.p.f.f.D.].].[. X X XqXqX9XAXeXAXAXFXjXjXjXFXFXFXFXxXxXcXcXhXwX6X7X&XXX_.).^.W.B.a.t.<.:.X.T P F IXIXIXIXIXIXIXIXIXIXIXIXIXIXIXIXIXIXIXIXIXIXIXIXIXIXIXIXIXIXIXIXIXIXIXIXIXIXIXIXIXIXIXIXIXIXIXIXIXIXIXIXIXIXIXIXIXIXIXIXIXIXIXIXIXIXIXIXIXIXIX",
"IXIXIXIXIXIXIXIXIXIXIXIXIXIXIXIXIXIXIXIXIXIXIXIXIXIXIXIXIXIXIXIXIXIXIXIXIXIXIXIXIXIXIXIXIXIXIXIXIXIXIXIXJ Y Y E E E Y E Y U R ..o.O.#.,.e.r.y.d.s.!.!.'.).)._.#X#X#X#X%X*X*X-X-X1X1X2X2XdXdXdXdXdXdXdXdXaX2X2X2X:X-X%X#X_.).'.Q.!.s.d.y.,.#...I L M m l g u 9 4 > > : = # # # # # # # # # % % % % % : : : , < , , , , , , , , , , , , , , , , , 4 4 4 4 4 4 4 4 4 4 4 4 4 4 4 3 3 3 3 5 5 5 6 w w e e u f f h h n M B L | ..o.#.$.e.r.i.f.f.~.].].].|.|. X X X+XqXqXqXqXqXqXqXqXqXqX9X9X9XqXqXqX X X X X|.].].].].D.k.f.p.g.g.1.1.#.O.....I I L L F M M m m m N N N m l l l l l g g g g i u u u t w w w w w 6 6 6 5 6 5 5 5 5 5 6 6 6 6 6 6 6 6 3 3 4 4 6 4 4 4 4 4 4 3 3 4 4 4 4 4 4 4 4 4 4 6 6 9 9 9 9 9 9 9 9 9 9 9 9 9 9 9 4 4 4 4 4 4 4 4 3 > > > > > > > > > 3 3 3 3 3 3 6 6 w t u g g l m m F L I ..O.:.,.g.g.p.f.D.D.].[. X X+XqXqX9XAXAXAXFXFXFXFXFXFXFXFXxXxXxXcXhXwX6X5X&XXX.X_.).^.W.B.u.<.>.O...I F IXIXIXIXIXIXIXIXIXIXIXIXIXIXIXIXIXIXIXIXIXIXIXIXIXIXIXIXIXIXIXIXIXIXIXIXIXIXIXIXIXIXIXIXIXIXIXIXIXIXIXIXIXIXIXIXIXIXIXIXIXIXIXIXIXIXIXIXIXIXIX",
"IXIXIXIXIXIXIXIXIXIXIXIXIXIXIXIXIXIXIXIXIXIXIXIXIXIXIXIXIXIXIXIXIXIXIXIXIXIXIXIXIXIXIXIXIXIXIXIXIXIX~ ^ ) ( ( @.@.@.@.@.@.@.+.%.:.,.,.r.y.y.a.s.!.!.'.).)._.#X#X#X#X%X*X*X*X=X,X1X1X2X2X2XdXdXdXdXdXdXdX2X2X2X1X:X-X%X#X_.).'.Q.!.s.d.e.,.O...I L M m l g y 9 4 > > : = = # # # # # # # % % % % % % : < , , , , , , , , , , , , , , , , , , , , 4 4 4 4 4 4 4 4 4 4 4 4 4 4 3 3 3 3 3 5 5 5 6 w w e u u f h h n M B L | o.o.#.,.e.r.i.f.f.~.].].|.|.|. X X XvXqXqXqXqX9X9X9X9X9X9X9XqXqX9XqXqXqXqXqX X X X|.{.].].].D.k.f.p.g.g.1.1.%.O.....I I L L F F M M M M M M N m m l l l l l g g g g u u u u t w w w 6 6 6 6 6 5 5 5 5 5 5 5 6 6 5 5 4 6 3 3 4 4 4 4 3 3 4 4 4 3 3 3 4 4 4 4 4 4 4 4 4 6 6 6 9 9 9 9 9 9 9 9 9 9 9 9 9 9 4 4 4 4 4 4 4 4 3 3 > > > > > > > 3 3 3 3 3 3 3 6 6 6 w t u g g l m m F L I ..O.:.1.g.g.p.f.D.D.[.[. X X+X9XAXAXAXAXAXFXFXFXFXFXFXFXFXxXkXcXhXhXwX5X&X&X.X.X_.^.W.B.a.t.<.:.X.T P F IXIXIXIXIXIXIXIXIXIXIXIXIXIXIXIXIXIXIXIXIXIXIXIXIXIXIXIXIXIXIXIXIXIXIXIXIXIXIXIXIXIXIXIXIXIXIXIXIXIXIXIXIXIXIXIXIXIXIXIXIXIXIXIXIXIXIXIXIXIX",
"IXIXIXIXIXIXIXIXIXIXIXIXIXIXIXIXIXIXIXIXIXIXIXIXIXIXIXIXIXIXIXIXIXIXIXIXIXIXIXIXIXIXIXIXIXIXIXIX~ ^ ) ( &.6.6.6.6.6.;.2.;.;.2.1.1.r.y.y.d.s.M.!.Q.'.)._.#X#X#X#X%X%X%X*X*X=X=X,X,X1X1X2X2X2X2XdXaXaX2X2X2X2X2X3X:X-X%X#X).).Q.!.!.s.y.r.,.O...I F m l l i y t 4 3 > : = = = = # # # # # % % % % : : : < , , , , , , , , , , , , , , , , , , , , 4 4 4 4 4 4 4 4 4 4 4 4 4 3 3 3 3 3 3 3 5 5 w w e u u f h h n n B L | ..o.#.,.e.r.i.f.f.].].{.|.|.|. X XvXqXqXqXqXuXuXuXuXuXuXuXuXuXuXuXuXuXuXqXqXqXqX X X X X|.{.].].].D.f.p.g.g.1.1.%.O.o...I I L L L F F F F H H H N N m m l l l l l g g g i u u t t t w w 6 6 6 6 6 5 5 5 5 5 5 5 5 5 3 3 3 5 5 5 4 4 4 4 3 4 4 4 3 3 3 4 4 4 4 4 4 4 4 6 6 4 6 9 9 9 9 9 9 9 9 9 9 9 9 9 0 4 4 4 4 4 4 4 4 4 3 3 > > > > > 3 3 3 3 3 3 3 3 3 6 6 6 t u i g k l n m F L I ..O.:.1.4.g.p.k.D.D.[.}. X X+X9XAXAXAXAXFXFXFXFXFXFXFXFXxXxXcXhXhXwXwX5X&X&X.X.X).^.W.B.u.e.>.O...I F IXIXIXIXIXIXIXIXIXIXIXIXIXIXIXIXIXIXIXIXIXIXIXIXIXIXIXIXIXIXIXIXIXIXIXIXIXIXIXIXIXIXIXIXIXIXIXIXIXIXIXIXIXIXIXIXIXIXIXIXIXIXIXIXIXIXIXIXIXIX",
"IXIXIXIXIXIXIXIXIXIXIXIXIXIXIXIXIXIXIXIXIXIXIXIXIXIXIXIXIXIXIXIXIXIXIXIXIXIXIXIXIXIXIXIXIXIXIX~ ) ) ( 6.6.9.0.0.9.0.0.4.2.2.g.g.i.d.d.s.M.!.!.Q.'.)._.#X#X#X%X%X%X*X*X*X*X=X=X,X,X1X1X1X1X2X2X2X2X2X2X2X2X2X2X3X:X%X%X#X).).Q.!.B.a.y.e.:.O.| P F m l k g u t 4 3 > > : = = = : % % % % % % % : : : < < , , , , , , , , , , , , , , , , 4 , 4 4 4 4 4 4 4 4 4 4 4 4 3 3 3 3 3 3 3 3 3 3 5 5 w w u u f g h n n M L I | o.#.,.r.r.i.f.f.].].|.|.|. X XvXvXqXqXqXqXuXuXuXuXuXuXuXuXuXuXuXuXuXuXuXuXuXqXqXqXvX X X X|.{.].].D.k.f.p.g.2.1.1.%.+.X...I I P L L L L U U U H H F N m m m z l l l k g g i u u u t t w w 6 6 6 6 6 6 6 6 5 5 5 5 5 3 3 3 5 5 3 4 4 4 3 3 4 4 3 3 3 4 3 4 4 4 4 4 4 4 4 4 4 4 6 9 9 9 9 9 9 9 9 9 9 9 0 4 4 4 4 4 4 4 4 4 4 4 4 3 > > 3 4 3 3 3 4 4 3 3 3 4 4 6 6 w t u i g k l l m F L I ..O.-.1.4.g.p.k.D.].[. X X X+XAXAXAXAXSXGXFXFXFXFXFXFXFXxXcXcXhXwXtX5X&X&X&X.X_.^.W.B.u.t.<.:.X.T P F IXIXIXIXIXIXIXIXIXIXIXIXIXIXIXIXIXIXIXIXIXIXIXIXIXIXIXIXIXIXIXIXIXIXIXIXIXIXIXIXIXIXIXIXIXIXIXIXIXIXIXIXIXIXIXIXIXIXIXIXIXIXIXIXIXIXIXIXIX",
"IXIXIXIXIXIXIXIXIXIXIXIXIXIXIXIXIXIXIXIXIXIXIXIXIXIXIXIXIXIXIXIXIXIXIXIXIXIXIXIXIXIXIXIXIXIX^ ) ) 6.6.w.w.0.h.h.h.h.h.h.p.p.p.f.f.f.!.!.!.Q.'.)._._.#X#X%X%X%X*X*X*X*X*X*X=X=X=X,X,X1X1X2X2X1X2X2X2X2X2X2X2X1X3X:X%X%X#X).'.Q.!.s.a.y.e.#.o.I L F m l k g u t 6 3 > > : = = = : : : % % % % : : : : < , , , , , , , , , , , , , , , , , , 4 4 4 4 4 4 4 4 4 4 4 3 3 3 3 3 3 3 3 3 3 5 5 5 6 w u u f g h l n M L I | o.#.,.e.r.d.f.f.].].|.|. XvXvXvXqXqXqXqX0XuXuXuXuXuXuXuXuXuXuXuXuXuXuXuXuXuXuXuXuXqXqXqX X X X X{.].].D.k.f.p.g.2.1.1.%.O.X...I I U U U U U U H H H F F F m m m m z l l k g g i i u u t t t w 6 6 6 6 6 6 6 6 6 6 6 6 5 5 5 3 3 5 5 4 4 4 4 4 3 3 3 3 3 4 4 4 4 4 4 4 4 6 4 4 4 6 6 9 9 9 9 9 9 9 9 9 0 9 0 4 4 4 4 4 4 4 4 4 4 4 4 4 4 4 4 4 4 4 4 4 4 4 4 4 4 6 6 6 t y u i g g l l m F P T ..+.-.1.2.g.p.k.D.[.[.}. X+XBXAXAXAXSXSXFXFXFXFXFXFXFXxXxXcXhXpXwXtX5X&X&XXX.X_.^.W.B.u.t.>.O...I P IXIXIXIXIXIXIXIXIXIXIXIXIXIXIXIXIXIXIXIXIXIXIXIXIXIXIXIXIXIXIXIXIXIXIXIXIXIXIXIXIXIXIXIXIXIXIXIXIXIXIXIXIXIXIXIXIXIXIXIXIXIXIXIXIXIXIXIXIX",
"IXIXIXIXIXIXIXIXIXIXIXIXIXIXIXIXIXIXIXIXIXIXIXIXIXIXIXIXIXIXIXIXIXIXIXIXIXIXIXIXIXIXIXIXIX^ ) ) 6.6.w.q.j.j.F.D.D.D.D.D.D.C.C.C.~.~.~.'.'.'._._.#X#X%X%X%X*X*X*X*X*X*X=X=X=X=X=X,X,X,X1X1X2X1X2X2X2X2X2X2X2X2X:X:X%X%X_.).Q.!.!.s.d.y.,.#...I L M m l k g u t 6 4 > > > : : : : : : : : : : : : : < < , , , , , , , , , , , , , , , , 4 4 4 4 4 4 4 4 4 4 4 4 3 3 3 3 3 3 3 3 3 3 3 5 5 5 w w u f g h n n M L L | o.#.,.r.y.d.f.C.].].|.|. XvXqXqXqXqXqX0X0XuXuXuXuXuXuXuXjXuXuXuXuXjXjXuXuXuXuXFXuXuXuXqXqXqX X X X|.{.].].k.f.p.g.g.2.1.1.O.o.X.T I I U U U R U Y Y U L F F F F D m m m z l l k g g i i u u y t w w w 6 6 6 6 6 6 6 6 6 6 5 5 5 5 5 5 4 4 3 4 4 3 3 3 3 3 4 4 4 4 4 4 4 4 4 4 6 4 4 6 6 9 9 9 9 9 9 9 0 0 4 4 4 4 4 4 4 4 4 4 4 4 4 4 4 4 4 4 4 4 4 4 4 4 4 4 4 4 4 6 6 t t y u i g g l l m F P I ..+.-.1.2.g.h.k.D.[.}. X XBXBXAXAXAXSXFXFXFXFXFXFXFXxXxXcXhXpXpXwXtX5X&X&XXX`./.!.B.a.t.<.>.O...P F IXIXIXIXIXIXIXIXIXIXIXIXIXIXIXIXIXIXIXIXIXIXIXIXIXIXIXIXIXIXIXIXIXIXIXIXIXIXIXIXIXIXIXIXIXIXIXIXIXIXIXIXIXIXIXIXIXIXIXIXIXIXIXIXIXIXIXIX",
"IXIXIXIXIXIXIXIXIXIXIXIXIXIXIXIXIXIXIXIXIXIXIXIXIXIXIXIXIXIXIXIXIXIXIXIXIXIXIXIXIXIXIXIX~ ) ) 6.6.w.q.j.S.F.F.[.[.[.[.].].].~.(.(.(.`.`.`.$X#X#X%X%X%X*X*X*X*X=X=X=X=X=X=X=X=X=X>X<X,X1X1X1X1X2X2X2X2X2X2X2X3X:X:X%X#X_.).Q.!.M.a.y.r.,.#...I L M m l g i u t 6 4 > > > : : : : : : : : : : : < < < , , , , , , , , , , , , , 4 , 4 4 4 4 4 4 4 4 4 4 4 4 4 3 3 3 3 3 3 3 3 5 3 5 5 5 6 w w u f g h n n M L L | o.#.,.r.y.d.f.~.].].|.|.vXqXqXqX0X0X0X0XuXuXuXuXuXuXuXuXlXlXlXlXjXjXjXjXjXjXjXjXFXFXuXuXqXqXqXqX X X X|.].].D.k.f.p.g.2.1.1.%.O.o...T U U I R R U U U U U P L F F F F F m m z z l l k g g g i y u t t t w w w w 6 6 6 6 6 6 6 6 6 6 6 6 6 4 3 3 4 3 3 3 3 3 3 3 3 3 4 4 4 4 4 6 4 6 4 4 6 6 9 9 9 9 0 4 4 4 4 4 4 4 4 4 4 4 4 4 4 4 4 4 4 4 4 4 4 4 4 4 4 4 4 4 4 4 4 6 6 6 6 t t y u i g k l m F P I ..+.%.1.2.g.h.D.D.[.}.}. XmXBXAXAXAXSXFXFXFXFXFXFXkXcXcXhXhXpXpXiXtX5X&X&XXX`.(.!.V.u.t.<.:.X.T P IXIXIXIXIXIXIXIXIXIXIXIXIXIXIXIXIXIXIXIXIXIXIXIXIXIXIXIXIXIXIXIXIXIXIXIXIXIXIXIXIXIXIXIXIXIXIXIXIXIXIXIXIXIXIXIXIXIXIXIXIXIXIXIXIXIXIXIX",
"IXIXIXIXIXIXIXIXIXIXIXIXIXIXIXIXIXIXIXIXIXIXIXIXIXIXIXIXIXIXIXIXIXIXIXIXIXIXIXIXIXIXIXIX^ ) 6.6.w.q.j.S.F.G.}.}.}.}.}.{.|.{.|.`.`.`.$X$X&X&X&X&X-X:X-X-X-X-X=X=X=X=X=X=X=X=X=X>X>X<X,X1X1X1X1X2X2X2X2X2X2X2X:X:X-X%X#X).'.Q.!.s.d.y.e.$.o.| L F m n l g i u t 6 4 > > > > > : < : : : : : : < < < < , , , , , , , , , , , , 4 4 4 4 4 4 4 4 4 4 4 4 4 4 4 4 3 3 3 3 3 3 3 5 5 5 5 6 6 w w u u g h n M M L I | o.#.,.e.y.d.f.~.].].|.|.vXqXqXuXuXuXuXuXuXuXuXuXuXlXlXlXlXlXlXlXlXlXlXxXxXxXxXxXxXFXFXjXuXuXqXqXqXqX X X|.{.].].k.f.p.g.g.1.1.:.O.O.......T T T R R R R R P P P P P P F F F F D m m z l l l k g g i u u u u t t t t w w 6 6 6 6 6 6 6 6 6 6 6 3 3 4 3 3 3 3 3 3 3 3 3 3 4 4 4 4 6 4 6 4 4 6 6 6 9 6 4 4 4 6 4 4 4 4 4 4 4 4 4 4 4 4 4 4 4 4 4 4 4 4 4 4 4 4 4 4 4 4 4 4 4 4 6 6 6 t t t y y g k l m F L P T +.+.;.2.g.h.A.D.[.}.}. XmXBXAXAXSXSXFXFXFXFXxXkXjXcXhXhXpXpXpXpXtXtX5X7XXX`.(.C.C.i.g.1.-.+.R U IXIXIXIXIXIXIXIXIXIXIXIXIXIXIXIXIXIXIXIXIXIXIXIXIXIXIXIXIXIXIXIXIXIXIXIXIXIXIXIXIXIXIXIXIXIXIXIXIXIXIXIXIXIXIXIXIXIXIXIXIXIXIXIXIXIXIX",
"IXIXIXIXIXIXIXIXIXIXIXIXIXIXIXIXIXIXIXIXIXIXIXIXIXIXIXIXIXIXIXIXIXIXIXIXIXIXIXIXIXIXIX^ ) ( 6.w.q.j.S.F.[.}. X X+X XOX|.|.|.|.7X&X&X&X&X&X:X:X:X:X:X:X,X-X=X=X=X=X=X=X=X=X=X>X>X>X>X,X,X1X1X1X1X2X2X2X2X2X3X:X:X%X%X_.).Q.!.!.a.y.e.,.#.o.I L M m l h g i y t 6 4 3 > > < < < < : : : : : : < < < , , , , , , , , , , , 4 4 4 4 4 4 4 4 4 4 4 4 4 4 4 4 4 3 3 3 3 3 3 3 5 6 6 6 6 w w w u u g l n M B L I ..o.#.,.r.y.d.C.~.].{.|.|.vXqXqXuXuXuXuXuXuXuXuXuXuXlXlXlXlXlXlXlXlXlXcXcXcXcXxXxXxXxXFXFXFXjXuXqXqXqXqXvX X|.|.].].D.f.f.g.g.1.,.:.#.O...........T T ..T T R R I P P P P P P P F F F D m m m m z l l k g g i i i u u u t t t w w w 6 6 6 6 6 6 6 6 3 4 3 3 3 3 3 3 3 3 4 4 4 4 4 4 4 6 6 6 6 6 9 9 9 9 9 9 9 4 4 4 4 4 4 4 4 4 4 4 4 4 4 4 4 4 4 4 4 4 4 4 4 4 4 4 4 4 4 4 4 4 4 4 6 6 6 6 t t u i g l m m F P I +.+.;.2.l.h.k.F.F.[.}. XmXBXAXAXSXSXFXFXFXjXjXjXcXcXhXhXhXgXpXpXpXwX5X7X|.(.~.C.Z.p.g.2.-.+.R U IXIXIXIXIXIXIXIXIXIXIXIXIXIXIXIXIXIXIXIXIXIXIXIXIXIXIXIXIXIXIXIXIXIXIXIXIXIXIXIXIXIXIXIXIXIXIXIXIXIXIXIXIXIXIXIXIXIXIXIXIXIXIXIXIXIX",
"IXIXIXIXIXIXIXIXIXIXIXIXIXIXIXIXIXIXIXIXIXIXIXIXIXIXIXIXIXIXIXIXIXIXIXIXIXIXIXIXIXIXIX^ ) &.6.w.q.j.F.G.}. X+X+X9X8X8X8X6X7X7X5X;X;X;X;X;X:X:X2X2X1X1X1X,X,X>X>X>X>X=X=X=X>X>X>X>X>X<X,X1X1X1X2X1X2X2X2X2X:X:X:X%X#X_.).Q.!.s.d.y.e.$.O...L L M n l g g u t w 6 4 3 > > > < < < < < < < < < < < , , , , , , , , , 0 0 0 4 4 4 4 4 4 4 4 4 4 4 4 4 4 4 4 4 3 3 3 3 3 3 3 6 6 6 6 w w t u u g l n M L L | ..O.#.,.r.y.d.~.~.(.|.|.|.vXqXqXuXuXuXlXlXlXlXlXlXlXlXlXlXlXlXlXlXlXlXlXcXcXcXcXxXxXxXxXFXFXxXjXuXuXqXqXqXqX X|.|.].].C.f.f.p.g.e.,.:.#.O.o.................T T T T T T T T T P P P P P G F F F F D m m z l l k k g g g i y u t t t w w 6 6 6 6 6 6 6 5 6 4 3 3 3 3 3 4 3 4 4 4 4 4 4 4 6 6 6 6 6 6 9 9 9 9 6 6 4 4 4 4 4 4 4 4 4 4 4 4 4 4 4 4 4 4 4 4 4 4 4 4 4 4 4 4 4 4 4 4 4 4 4 4 4 6 6 6 6 t y i g l z m F F P R @.;.2.l.h.k.F.F.[.}.}.mXBXAXAXSXSXSXFXjXjXjXjXcXcXhXzXzXzXhXpXpXwX7XOX|.{.~.C.Z.p.g.2.-.+.R Y IXIXIXIXIXIXIXIXIXIXIXIXIXIXIXIXIXIXIXIXIXIXIXIXIXIXIXIXIXIXIXIXIXIXIXIXIXIXIXIXIXIXIXIXIXIXIXIXIXIXIXIXIXIXIXIXIXIXIXIXIXIXIXIXIX",
"IXIXIXIXIXIXIXIXIXIXIXIXIXIXIXIXIXIXIXIXIXIXIXIXIXIXIXIXIXIXIXIXIXIXIXIXIXIXIXIXIXIXIX^ ( 6.w.q.j.S.F.[.mX+X+X9XeXeX0X0X6X6X5XtXtX;X2X2X2X2X2X2X2X1X1X1X,X<X>X>X>X>X>X>X>X>X>X>X>X>X<X,X1X1X1X2X2X2X2X2X:X:X:X:X%X#X).'.!.!.s.y.r.e.#.o.| L M n l h g i u t w 6 4 3 > > > > > < < < < < < < , , , , , , , , 4 , , 4 0 0 0 0 4 4 4 4 4 4 4 4 4 4 4 4 4 4 4 3 3 3 3 3 3 3 6 6 w w w t u u g h n M L I | ..O.#.,.r.y.d.~.~.(.|.|.vXvXqX0XuXuXjXlXlXlXlXlXlXlXlXsXsXlXlXlXlXlXlXlXlXlXlXcXcXxXxXxXxXxXxXxXxXlXuXuXqXqXqXvX|.|.].].C.f.f.i.r.e.,.:.#.O.........T T T ..T T T T T T T T T T T T T T P P P P P G F F F m m m z l l k k g g i u y t t t w w 6 6 6 6 6 6 4 3 3 3 4 4 4 4 3 4 4 4 4 4 4 6 6 6 6 6 6 6 9 9 6 4 6 6 6 6 4 4 4 4 4 4 4 4 4 4 4 4 4 4 4 4 4 4 4 0 0 4 4 4 4 4 4 4 4 4 4 4 4 4 4 4 4 4 6 6 t y i g k l m F F U R @.;.2.l.h.k.F.F.[.}. X XBXAXAXAXSXeXjXjXjXjXcXcXcXcXcXcXcXzXhXhX6X7XOX|.{.].C.f.p.2.2.%.+.R IXIXIXIXIXIXIXIXIXIXIXIXIXIXIXIXIXIXIXIXIXIXIXIXIXIXIXIXIXIXIXIXIXIXIXIXIXIXIXIXIXIXIXIXIXIXIXIXIXIXIXIXIXIXIXIXIXIXIXIXIXIXIXIXIX",
"IXIXIXIXIXIXIXIXIXIXIXIXIXIXIXIXIXIXIXIXIXIXIXIXIXIXIXIXIXIXIXIXIXIXIXIXIXIXIXIXIXIXIX^ ( 6.w.q.j.S.G.}. X+X9XeXeXeXuXhXpXyXpXiXaX2X2X2X2X2X2X2X2X1X1X1X,X<X>X>X>X>X>X>X>X>X>X>X>X>X<X,X1X1X1X2X2X2X2X2X:X;X:X&X%X#X).Q.!.s.a.y.r.,.#.o.I L M n l g g u u t w 6 4 3 3 > > > > , , , < < < , , , , , , 0 0 0 0 0 0 0 0 0 0 0 4 4 4 4 4 4 4 4 4 4 4 4 4 4 3 3 3 3 3 3 3 5 6 6 w w t u u g h n M L I | ..O.#.,.r.y.d.C.~.(.|.|.vXvXqX0XuXuXuXlXlXlXlXlXlXlXsXsXsXsXsXfXsXsXfXfXlXlXlXlXlXcXxXxXxXxXxXxXxXlXlXuXuX0XqXqXvX|.|.].~.C.f.d.y.e.<.,.:.O.O.....T I I I I T T T I T T T T T T T T T T T T T T T T P P P P F F D m m z l l k g g i u u t t t w 6 6 6 6 6 6 5 3 3 3 4 4 4 4 4 4 4 4 4 4 6 6 6 6 6 6 6 6 6 6 6 6 6 6 4 6 4 4 4 4 4 4 4 4 4 4 4 4 4 4 4 4 4 0 4 0 0 4 4 4 4 4 4 4 4 4 4 4 3 3 3 3 3 4 4 6 6 t y i g k l m m F U Q @.;.9.l.h.k.D.F.[.}. X+X+X9XeXeXeXeXjXjXjXcXxXxXxXzXzXzXcXcXcXhX6X7XOX|.{.H.C.f.p.2.;.@.Q E IXIXIXIXIXIXIXIXIXIXIXIXIXIXIXIXIXIXIXIXIXIXIXIXIXIXIXIXIXIXIXIXIXIXIXIXIXIXIXIXIXIXIXIXIXIXIXIXIXIXIXIXIXIXIXIXIXIXIXIXIXIXIXIX",
"IXIXIXIXIXIXIXIXIXIXIXIXIXIXIXIXIXIXIXIXIXIXIXIXIXIXIXIXIXIXIXIXIXIXIXIXIXIXIXIXIXIXIX^ ( 6.w.0.j.F.G.}. X+X9XeXeXjXhXhXhXpXpXaXaXaX2X2X2X2X1X1X1X1X1X1X,X<X>X>X>X>X>X>X>X>X>X>X>X>X<X,X1X1X1X2X2X2X2X2X;X;X;X&X&X#X).Q.!.s.d.y.e.$.#.| L B M n h g g u u t 6 6 4 4 3 > > > > > , , , , , , , , , , 0 0 , 0 0 4 4 4 0 4 4 4 4 4 4 4 4 4 4 4 4 4 4 4 4 4 3 3 3 3 3 3 3 5 6 w w w u u g h l m M L I ..O.#.,.e.y.d.f.~.(.|.|.vXvX7X0X0XuXuXlXlXlXlXlXlXsXsXsXsXsXsXsXsXsXsXsXsXsXsXlXlXlXlXlXxXxXxXcXcXxXlXuXuXuX0XqXvXvX|.|.(.~.C.d.y.y.e.,.,.#.O.o...I I I I I I I I I I T T T T T ..X.X.X.X.X.X.X.X.T T T T T T P P F F D m m z l l g g i u u t t t w 6 6 6 6 6 5 3 3 3 3 3 3 3 4 4 4 4 4 4 4 4 6 6 6 6 6 6 6 6 6 6 6 6 4 4 4 4 4 4 4 4 4 4 4 4 4 4 4 4 4 4 4 4 0 0 0 4 4 4 4 4 4 , , , , 4 4 4 3 3 3 3 3 4 6 6 t y i g k l z m F Y +.@.;.9.l.h.k.D.F.}.}. X+X9X9XeXeXeXjXjXjXcXxXxXxXxXJXJXxXxXcXhX0X8XOX|.{.].D.Z.p.4.2.;.@.E E IXIXIXIXIXIXIXIXIXIXIXIXIXIXIXIXIXIXIXIXIXIXIXIXIXIXIXIXIXIXIXIXIXIXIXIXIXIXIXIXIXIXIXIXIXIXIXIXIXIXIXIXIXIXIXIXIXIXIXIXIXIXIX",
"IXIXIXIXIXIXIXIXIXIXIXIXIXIXIXIXIXIXIXIXIXIXIXIXIXIXIXIXIXIXIXIXIXIXIXIXIXIXIXIXIXIXIX^ ( 6.9.0.j.F.G.}. X9X9XeXjXjXcXhXhXsXsXaXaXaX2X2X2X2X1X1X1X1X1X,X,X>X>X>X>X>X>X>X>X>X>X>X>X>X,X,X1X1X1X2X2X2X2X2X;X;X;X&X&X_.).Q.!.s.y.r.e.#.o.| L M n l h g u u u w 6 6 4 4 3 3 > > , , , , , , , , , , , , 0 0 0 0 4 4 0 4 0 4 4 4 4 4 4 4 4 4 4 4 4 4 4 4 4 4 3 3 3 3 3 3 5 6 6 w w u u g g l n M L I ..O.#.,.e.i.f.f.~.~.{.|.|.vX7X0X0XuXuXuXlXlXlXlXlXsXsXsXaXaXaXaXaXaXaXsXsXsXsXsXfXlXlXlXlXlXxXxXcXcXlXlXuXuXuX0X7XvX|.|.(.~.~.s.a.y.e.e.,.:.#.o...| I I I I I I I I I I I T T T ..X.X.X.X.X.X.X.=.=.X.X.X.X.X.T T T P P G F F m m l l g g i u u t t w w 6 6 6 6 3 3 3 4 3 3 3 3 4 4 4 4 4 6 6 6 6 6 6 6 6 6 6 6 6 6 6 6 4 4 4 4 4 4 4 4 4 4 4 4 4 4 4 4 4 4 4 4 4 0 4 4 4 4 4 4 , , , , , 4 4 , 3 3 3 3 3 3 4 6 t t y y g k l m D U R @.@.;.2.l.h.k.D.[.}. X+X+X9XqXeXeXeXjXjXcXxXxXxXJXJXJXJXxXxXhXuX8X8XOX|.{.].D.f.p.2.2.@.Q E IXIXIXIXIXIXIXIXIXIXIXIXIXIXIXIXIXIXIXIXIXIXIXIXIXIXIXIXIXIXIXIXIXIXIXIXIXIXIXIXIXIXIXIXIXIXIXIXIXIXIXIXIXIXIXIXIXIXIXIXIXIXIX",
"IXIXIXIXIXIXIXIXIXIXIXIXIXIXIXIXIXIXIXIXIXIXIXIXIXIXIXIXIXIXIXIXIXIXIXIXIXIXIXIXIXIXIX^ ( 6.9.0.j.F.F.}. X+XqXeXjXhXcXhXsXsXsXaXaXdX2X2X2X2X1X1X1X1X1X,X<X>X>X>X>X>X>X>X>X>X>X>X>X<X,X1X1X1X1X2X2X2X2X2X;X;X;X&X&X`.).Q.B.a.y.r.,.#.o.| L M n h g g u u u w 6 6 4 3 3 3 > > , , , , , , , , , , , 0 0 0 0 0 0 0 0 0 0 4 0 0 4 4 4 4 4 4 4 4 4 4 4 4 4 3 3 3 3 3 3 3 5 6 w w u u g g l n M L I ..O.#.,.e.i.f.f.C.~.{.|.|.vX7X0X0X0XuXuXuXlXlXlXsXsXsXaXaXaXaXaXaXaXaXaXaXaXaXsXsXfXfXfXlXlXlXlXlXcXcXlXuXhXuX0X7X7XvX|.`.(.~.!.a.d.y.r.,.,.#.O.o...I I I L L L L P P P P I I T T ..X.X.O.=.=.=.=.=.=.-.-.-.-.-.X.X.X.T T P P F F D m l l g i i u u t t w 6 6 6 6 3 3 3 4 3 3 3 3 4 4 4 4 4 6 6 6 6 6 6 6 6 6 6 6 6 6 6 4 4 4 4 4 4 4 4 4 4 4 4 4 4 4 4 4 4 4 4 4 4 4 4 4 , , 4 4 , , , , 4 4 4 , , > > > 3 3 4 6 6 t t y y i k l m F U R @.;.;.4.l.h.A.D.[.}. X+X+X9XqXeXeXeXjXcXxXxXJXJXJXJXJXxXxXcXhX0X8XOX|.{.{.D.A.p.4.2.;.@.Q E IXIXIXIXIXIXIXIXIXIXIXIXIXIXIXIXIXIXIXIXIXIXIXIXIXIXIXIXIXIXIXIXIXIXIXIXIXIXIXIXIXIXIXIXIXIXIXIXIXIXIXIXIXIXIXIXIXIXIXIXIXIX",
"IXIXIXIXIXIXIXIXIXIXIXIXIXIXIXIXIXIXIXIXIXIXIXIXIXIXIXIXIXIXIXIXIXIXIXIXIXIXIXIXIXIXIXK ( 6.9.0.h.A.F.}. X9XqXeXhXhXcXlXsXsXsXaXdXdX2X2X2X1X1X1X1X1X,X,X>X>X>X>X>X>X>X>X>X>X>X>X>X<X,X1X1X1X1X2X2X2X2X2X;X;X&X&X$X`.'.!.s.d.y.e.,.#.o.I B n n h g f u u t w 6 6 4 3 3 3 3 4 , , 4 , , , , , , , 0 0 0 0 0 0 0 0 0 0 0 0 0 0 4 4 4 4 4 4 4 4 4 4 4 4 4 3 3 3 3 3 3 3 5 6 w u u g g h n m F P ..O.#.,.e.i.p.f.C.].].|.|.vX7X0X0XuXuXuXuXuXlXsXsXsXsXaXaXaX2X2X2X2X2X2X2XaXaXaXaXsXsXsXfXfXlXlXlXlXlXlXlXuXuX6X6X7XvX|.`.`.~.!.s.d.y.e.e.,.#.#.o...| I I L L L L L L L P P I I T ..X.X.O.=.=.=.:.1.1.1.2.2.2.2.2.-.-.+.X.X.T T P P F D m l l g g i u u t t w 6 6 6 5 3 6 6 6 6 3 3 3 4 4 4 6 6 6 6 6 6 6 6 6 6 6 6 6 6 6 4 4 4 4 4 4 4 4 4 4 4 4 4 4 , , , 4 4 4 4 4 4 , 4 , , 0 4 4 4 4 4 4 4 4 , , > > > > 3 3 4 6 6 t t y y i k l m F U R @.;.2.2.l.h.D.D.{.}. XOX+X8XqX0XeXjXcXxXxXJXJXJXJXJXJXxXcXjXuX8X+XOX X{.].D.f.p.2.;.@.Q E IXIXIXIXIXIXIXIXIXIXIXIXIXIXIXIXIXIXIXIXIXIXIXIXIXIXIXIXIXIXIXIXIXIXIXIXIXIXIXIXIXIXIXIXIXIXIXIXIXIXIXIXIXIXIXIXIXIXIXIXIXIX",
"IXIXIXIXIXIXIXIXIXIXIXIXIXIXIXIXIXIXIXIXIXIXIXIXIXIXIXIXIXIXIXIXIXIXIXIXIXIXIXIXIXIXIXK Q &.9.0.h.A.G.}. X+XqXeXhXhXhXlXsXsXsXaXdXdXdX2X2X1X1X1X1X1X,X<X>X>X>X>X>X>X>X>X=X=X>X>X>X,X,X1X1X1X2X2X2X2XaXaX;X;X&X&X$X`.Q.!.s.y.y.e.#.o.| L B n h g f u u u w w 6 6 4 3 3 3 > , , , 4 4 4 , , , , 0 0 0 0 0 0 0 0 0 0 0 0 0 0 4 4 4 4 4 4 4 4 4 4 4 4 3 4 3 3 3 3 3 5 5 6 w t u g g l n m F L I ..#.,.e.i.f.f.C.].].|.|.vXqX0X0XuXuXuXuXyXyXsXsXsXaXaXaX2X2X2X2X1X1X2X2X2X2X2XaXaXaXsXsXsXsXsXlXlXlXlXlXuXyX6X7X7XvX`.`.`.(.!.!.s.d.y.r.,.,.#.O.o.| I I L L L L L L L L L P I I T ..X.X.=.=.:.>.1.1.2.4.4.4.4.4.2.2.2.1.-.-.X.X.T T P F F m l l k g i u u t t 6 6 6 6 5 5 6 3 6 5 3 6 6 6 4 6 4 6 6 6 6 6 6 6 6 6 6 6 6 6 6 6 4 4 4 4 4 4 4 4 4 4 4 , , 4 4 4 4 , 4 , , , , 4 4 0 0 4 4 4 4 4 4 4 4 , , > > > > 3 4 4 6 6 6 t y y i k z N F U R @.%.2.2.p.h.D.].{.{.|.OX+X8X8XeXeXjXxXxXxXJXLXLXLXLXxXxXjXeX0X8X+XOX{.{.H.D.p.4.;.;.@.Q E IXIXIXIXIXIXIXIXIXIXIXIXIXIXIXIXIXIXIXIXIXIXIXIXIXIXIXIXIXIXIXIXIXIXIXIXIXIXIXIXIXIXIXIXIXIXIXIXIXIXIXIXIXIXIXIXIXIXIXIXIX",
"IXIXIXIXIXIXIXIXIXIXIXIXIXIXIXIXIXIXIXIXIXIXIXIXIXIXIXIXIXIXIXIXIXIXIXIXIXIXIXIXIXIXIXY Q &.6.9.h.A.D.[. X+XqX0XhXcXhXlXsXfXsXfXdXdXdX2X2X1X1X1X1X,X,X<X>X>X>X>X>X>X>X>X=X=X>X>X<X,X1X1X1X2XdXaXaXaXaXtX;X;X&X$X`.`.!.!.a.y.r.,.#.o.| L M n h g u u e w w w 6 6 4 3 3 3 4 4 4 4 4 4 4 4 , , , 4 4 0 0 0 0 0 0 4 0 0 0 0 0 4 4 4 4 4 4 4 4 4 4 4 3 3 4 3 3 5 5 5 5 6 w w u g g l n m F L I ..O.,.e.i.f.f.C.].].|.|.vXqX0XuXuXhXhXuXyXyXsXsXsXaXaXaX2X2X:X:X:X:X:X1X1X1X2X2X2XaXaXaXaXsXsXsXsXsXsXyXyXyXyX7XvXvX`.`.`.'.!.!.s.d.y.r.e.,.#.#.o.o.| I I L L L L L L L L L P I T T ..X.O.=.:.>.<.1.4.4.p.p.p.p.p.p.4.4.2.2.2.-.-.X...T P F F m z l k g g i u t w 6 6 6 6 6 6 5 6 6 6 6 6 4 6 6 6 6 6 6 6 6 6 6 6 6 6 6 6 6 6 4 4 4 4 4 4 4 4 4 4 4 4 , , 4 , , , , , , , , , 4 , 0 0 4 4 4 4 4 4 4 4 , , > > > > 3 3 4 6 6 6 6 t t u g l m F F P R +.%.1.2.p.f.D.].{.{.|.|.+X8X0XuXjXxXxXxXJXLXLXLXLXFXxXkXjXeX8X8X+X X{.{.D.A.p.2.;.@.Q E Y IXIXIXIXIXIXIXIXIXIXIXIXIXIXIXIXIXIXIXIXIXIXIXIXIXIXIXIXIXIXIXIXIXIXIXIXIXIXIXIXIXIXIXIXIXIXIXIXIXIXIXIXIXIXIXIXIXIXIXIX",
"IXIXIXIXIXIXIXIXIXIXIXIXIXIXIXIXIXIXIXIXIXIXIXIXIXIXIXIXIXIXIXIXIXIXIXIXIXIXIXIXIXIXIXK Q @.6.9.h.A.D.{. X+XqX0XhXhXlXlXlXfXfXfXfXdXdXdX2X1X1X1X1X,X,X>X>X>X>X>X>X>X=X=X=X=X>X>X,X,X1X2X2X2XaXaXaXaXtXtXtX&X&X$X`.(.!.s.d.y.,.#.o.| I B n h g f u u w w w 6 6 6 3 3 3 3 4 4 4 4 4 4 4 4 , , 4 4 4 4 0 0 0 0 4 4 0 0 0 0 4 4 4 4 4 4 4 4 4 4 4 3 3 4 6 6 5 5 5 6 6 w w u f h l n M L L I ..O.,.e.i.f.C.~.].{.|.|.vXqX0XuXhXuXuXuXyXyXsXsXaXaXaX2X2X2X1X:X-X-X-X-X-X:X1X1X2X2X2XaXaXaXaXaXyXyXyXyXyXyX5X7X$X$X`.`.(.'.!.!.s.s.y.y.e.,.,.#.O.o...| I L L L L L L L L L P I I T ..X.O.=.:.>.<.3.p.p.p.p.p.f.A.A.h.p.p.p.p.4.2.2.1.-.X.T T P F m m l l k g i u t w 6 6 6 6 6 6 6 6 6 6 6 6 6 6 6 6 6 6 6 6 6 6 6 6 6 6 6 6 6 6 6 4 4 4 4 4 4 4 4 4 4 , , , , , , , , , , , , , , , , , , 0 4 4 4 4 , , > > < < > > 3 3 3 3 4 6 6 6 t u g l z m F U R +.+.1.4.p.f.C.].].{.|.|.OX8X0XuXjXxXxXxXJXLXLXLXFXFXFXkXjXrXeX8X+X X{.].D.k.l.5.;.@.Q Y IXIXIXIXIXIXIXIXIXIXIXIXIXIXIXIXIXIXIXIXIXIXIXIXIXIXIXIXIXIXIXIXIXIXIXIXIXIXIXIXIXIXIXIXIXIXIXIXIXIXIXIXIXIXIXIXIXIXIXIX",
"IXIXIXIXIXIXIXIXIXIXIXIXIXIXIXIXIXIXIXIXIXIXIXIXIXIXIXIXIXIXIXIXIXIXIXIXIXIXIXIXIXIXIXY E @.;.9.l.k.D.{.|.+X8X0XhXhXlXlXzXzXfXfXfXfXdXdXdX2X1X1X1X,X,X>X>X>X>X>X>X=X=X=X=X=X=X,X,X1X1X2X2XdXaXaXaXyXyXtX5X7X$X`.`.(.!.s.y.r.,.#.o.| L M n h f u u w w w w 6 6 6 3 3 3 3 4 4 4 4 4 4 4 4 4 4 0 4 4 4 0 0 0 0 4 4 0 4 0 4 4 4 4 4 4 4 4 4 4 3 3 3 3 4 6 6 5 5 6 6 w w u f g l n M L L I ..O.:.e.i.d.C.~.].{.|.|.vX8X0XuXuXlXlXlXlXsXsXsXaXaXaX2X2X1X1X,X-X-X=X=X-X-X-X:X:X2X2X2XaXaXaXtXtXyXyXyX5X5X5X7X$X`.`.`.(.~.!.!.s.s.d.y.r.e.,.#.#.O.o.o.| | I L L L L L L L P I I T ..X.O.=.:.>.<.3.i.p.p.Z.A.D.D.D.D.D.D.A.A.p.p.p.4.2.1.=.O.X.T P F F m m l l g i u t w w 6 6 6 6 6 6 6 6 5 5 6 6 6 6 6 6 6 6 6 6 6 6 6 6 6 6 6 6 6 4 4 4 4 4 4 4 4 4 4 , , , , , , , , , , , , , , , , , , 0 , 4 4 , , , > > < > < > > > 3 3 3 3 4 6 6 t u g l z m F P I ..+.1.1.p.f.C.C.].{.|.|.OX8X0XhXjXxXxXxXLXLXLXLXFXFXFXkXeXeXrX9X+X X{.H.D.h.0.5.;.@.Q Y IXIXIXIXIXIXIXIXIXIXIXIXIXIXIXIXIXIXIXIXIXIXIXIXIXIXIXIXIXIXIXIXIXIXIXIXIXIXIXIXIXIXIXIXIXIXIXIXIXIXIXIXIXIXIXIXIXIXIX",
"IXIXIXIXIXIXIXIXIXIXIXIXIXIXIXIXIXIXIXIXIXIXIXIXIXIXIXIXIXIXIXIXIXIXIXIXIXIXIXIXIXIXIXY E W ;.2.l.k.D.].|.OX8X0XhXhXlXlXzXzXzXfXfXfXdXdXdX2X1X1X1X,X,X<X>X>X>X>X>X=X=X=X=X=X=X,X,X1X2X2XaXaXaXaXyXyXtXtX5X7X$X`.`.~.V.d.y.e.$.o.| I B n n h f u e e w w 6 6 6 3 3 4 3 4 3 4 4 4 4 4 4 4 4 0 0 0 0 0 0 0 0 0 0 0 0 4 0 4 4 4 4 4 4 4 4 4 3 3 3 3 3 5 5 6 6 6 w w w t u g h n M L L I ..O.:.<.y.d.C.~.~.{.|.|.vXqX0XuXuXlXlXlXlXsXsXsXaXaXaX2X2X1X1X,X-X=X=X=X=X=X=X-X1X1X2X2X2X2XaXtXtXtXtXtX5X5X5X$X$X$X`.`.'.!.!.!.s.s.d.y.r.e.,.$.#.#.O.o.o...| | I I I I L I I I I T ....O.O.:.>.<.3.t.i.p.Z.Z.C.D.D.D.H.H.D.D.D.D.A.f.p.p.4.1.1.O.X.T P P F D m l l g i u t w w 6 6 6 6 6 6 6 6 6 6 6 6 6 6 6 6 6 6 6 6 6 6 6 6 6 4 4 4 4 4 4 4 4 4 4 4 4 4 4 4 4 , , , , , , , , , , , , , , 0 0 0 0 , , , , < < > > > > > > > > > 3 3 3 6 6 t y g l l m F L I ..O.1.g.p.f.C.C.~.{.|.|.OX8XuXjXcXxXxXFXLXLXLXLXFXFXFXkXjXeX9X+X+X}.[.D.A.h.0.2.;.@.E Y IXIXIXIXIXIXIXIXIXIXIXIXIXIXIXIXIXIXIXIXIXIXIXIXIXIXIXIXIXIXIXIXIXIXIXIXIXIXIXIXIXIXIXIXIXIXIXIXIXIXIXIXIXIXIXIXIXIX",
"IXIXIXIXIXIXIXIXIXIXIXIXIXIXIXIXIXIXIXIXIXIXIXIXIXIXIXIXIXIXIXIXIXIXIXIXIXIXIXIXIXIXIXIXE Q ;.2.l.h.D.].|.|.8X0XuXhXlXlXzXzXzXzXfXfXfXdXdXdX2X1X1X1X,X<X>X>X>X>X=X=X=X=X=X=X=X,X1X1X2X2XaXaXaXaXyXtXtX5X7X7X$X`.`.~.s.d.y.,.#.o.| L B n h f u e e e w w 6 6 6 3 4 4 3 4 3 4 4 4 4 4 4 4 4 0 0 0 0 0 0 0 0 4 0 0 4 4 4 4 4 4 4 4 4 4 4 3 3 3 3 3 3 5 5 6 6 w w w w u f g n m M L I ..o.#.,.e.y.s.~.~.(.|.|.vX7X0XuXuXlXlXlXlXlXsXsXaXaXaX2X2X1X1X,X-X=X=X=X=X=X=X=X-X-X1X1X2X2X2XtXtXtXtX5X5X5X$X$X$X`.`.`.~.!.!.M.s.s.d.y.y.r.e.,.#.#.#.#.o.o.o...| | I I I I I I I ......O.O.:.>.<.<.t.t.i.f.Z.C.C.D.H.H.H.H.H.H.H.D.D.D.A.p.p.g.1.1.-.X.T I P F m m l k g u u t w w 6 6 6 6 6 6 6 5 5 4 4 6 6 6 6 6 6 6 6 6 6 6 6 6 4 4 4 4 4 4 4 4 4 4 4 4 4 4 4 4 , , , , , , , , , , , , , 0 , , 0 , , , , , < < < > > > > > > > > > 3 3 3 6 w y i g l l m F P I ..=.1.i.i.f.C.C.~.{.|.OX8X0XuXjXcXxXxXFXFXLXLXFXFXFXFXFXeXeX9X+X+X}.[.D.A.h.0.2.;.Q E H IXIXIXIXIXIXIXIXIXIXIXIXIXIXIXIXIXIXIXIXIXIXIXIXIXIXIXIXIXIXIXIXIXIXIXIXIXIXIXIXIXIXIXIXIXIXIXIXIXIXIXIXIXIXIXIXIX",
"IXIXIXIXIXIXIXIXIXIXIXIXIXIXIXIXIXIXIXIXIXIXIXIXIXIXIXIXIXIXIXIXIXIXIXIXIXIXIXIXIXIXIXIXE Q @.;.4.h.D.].{.|.7X0XuXhXlXlXzXzXzXzXfXfXfXfXdXdX2X1X1X1X,X,X,X>X>X=X=X=X=X=X=X=X-X,X1X2X2X2XaXaXaXaXyXtX5X5X7XvX`.`.(.~.d.d.r.,.#.o.| L M n h f u e e w w 6 6 6 6 3 4 4 4 4 4 4 4 4 4 4 4 4 4 4 0 0 4 0 4 4 0 0 0 0 4 4 4 4 4 4 4 4 4 4 4 3 3 3 3 3 3 5 6 6 6 w w w u u g h n M L I | o.#.,.e.y.a.V.~.(.|.|.vX7X0X0XuXlXlXlXlXlXfXsXsXaXaX2X2X1X1X,X-X=X=X=X=X=X=X=X=X-X-X1X:X:X2X;XtXtX5X5X5X&X$X$X$X`.`.(.~.!.!.M.s.s.d.y.y.r.e.,.,.#.#.#.#.O.o.o.o.........| | | | ......O.O.O.:.>.<.<.t.y.u.Z.Z.C.C.C.].].{.{.{.].].H.H.D.D.Z.f.p.p.2.1.+.X.T I P F m m l g i u t t w w w 6 6 6 6 5 3 3 3 3 3 6 4 4 6 6 6 6 6 6 6 6 6 6 6 6 4 4 4 4 4 4 4 4 4 4 4 4 4 , , , , , , , , , , , , , , 0 , , , , , , , < < < < > > > > > > > > > 3 3 4 6 t u i g l l m F P T O.:.<.i.i.f.C.~.(.{.|.OX8XhXhXjXkXxXxXFXFXLXFXLXFXFXFXFXSX9X9X+X X}.F.D.h.h.9.;.@.Q E IXIXIXIXIXIXIXIXIXIXIXIXIXIXIXIXIXIXIXIXIXIXIXIXIXIXIXIXIXIXIXIXIXIXIXIXIXIXIXIXIXIXIXIXIXIXIXIXIXIXIXIXIXIXIXIXIX",
"IXIXIXIXIXIXIXIXIXIXIXIXIXIXIXIXIXIXIXIXIXIXIXIXIXIXIXIXIXIXIXIXIXIXIXIXIXIXIXIXIXIXIXIXE Q @.;.4.h.A.D.{.|.7X6X0XhXhXlXlXzXzXzXzXfXfXfXfXdXdX2X2X1X,X,X,X>X=X=X=X=X=X=X=X=X,X1X1X2X2XaXaXaXaXyXtXtX5X5X7XvX|.`.(.~.d.y.e.,.o.| I L M n h f e w w w 6 6 6 6 5 3 4 4 4 4 4 4 4 4 4 4 4 4 4 4 0 0 0 0 4 4 4 4 0 0 4 4 4 4 4 4 4 4 4 4 3 3 3 3 3 3 3 5 6 6 w w w u u f g l M L L | o.O.:.,.e.d.s.!.(.`.|.|.7X6X6XuXhXlXlXlXlXfXfXsXaXaX2X2X1X1X,X=X=X=X=X=X=X=X=X=X=X-X:X1X:X:X;XtXtX5X5X5X&X&X$X$X`.`.(.~.!.M.s.s.d.y.y.r.r.e.,.$.#.#.#.#.#.#.O.O.O.o.o.................O.O.O.:.>.<.<.t.t.y.u.Z.C.C.C.~.].{.{.{.{.{.{.{.].].H.D.D.A.p.p.2.1.+.X.T I P F m l l g u u t t w w w 6 6 6 3 3 3 3 3 3 3 3 6 6 6 6 4 6 6 6 6 6 6 6 6 6 4 4 4 4 4 4 4 4 4 4 4 4 4 , , , , , , , , , , , , , , , , , , , , , > < < < < > > > > > > > > > 3 3 6 w t u g g l m m F I ..O.>.<.t.i.C.C.~.(.|.OX8X0XuXhXcXkXxXxXFXFXFXLXFXFXFXFXSXSX9X+X@X}.[.F.A.h.0.9.;.@.E H IXIXIXIXIXIXIXIXIXIXIXIXIXIXIXIXIXIXIXIXIXIXIXIXIXIXIXIXIXIXIXIXIXIXIXIXIXIXIXIXIXIXIXIXIXIXIXIXIXIXIXIXIXIXIXIX",
"IXIXIXIXIXIXIXIXIXIXIXIXIXIXIXIXIXIXIXIXIXIXIXIXIXIXIXIXIXIXIXIXIXIXIXIXIXIXIXIXIXIXIXIXH E @.;.2.p.k.D.].|.OX6X0XuXhXhXlXlXlXzXzXzXfXfXfXdXaX2X2X1X1X,X,X=X=X=X=X=X=X=X=X-X,X1X2X2X2XaXaXaXsXyXyX6X7X7XvX|.|.(.~.C.d.i.,.#.o.| I B M n g u e e w 5 5 6 6 6 6 3 3 3 3 4 4 4 4 4 4 4 4 4 4 4 4 0 4 4 4 4 0 0 0 4 4 4 4 4 4 4 4 4 4 4 3 3 3 3 3 3 3 5 6 6 w w w u f g h n M L I ..o.#.,.r.y.a.B.~.(.`.|.vX7X6XyXuXhXlXlXlXlXfXsXaXaX2X2X1X1X-X=X=X=X=X=X=X=X=X=X-X-X-X:X:X:X;XtXtXtX5X5X$X$X$X$X`.`.(.~.!.M.s.s.d.y.y.r.r.e.,.$.#.#.#.#.#.#.#.#.#.O.O.O.O.O.o.o.o.o.O.O.O.#.:.>.,.<.e.t.t.u.a.V.V.C.~.(.(.{.{.{.{.{.{.{.{.{.].H.D.D.f.p.g.2.1.-.X.T I L F m l g g u u t w w w 6 6 6 5 3 3 3 3 3 3 3 4 4 4 4 4 6 6 4 6 6 6 6 6 6 6 4 4 4 4 4 4 4 4 4 4 , , , , , , , , , , , , , , , , , , , , , , , , < < < < < < > > > > > > > 3 3 6 w t u u g g l m F L T X.:.,.e.i.d.C.C.~.{.|.OX6X0XuXhXcXcXxXFXFXFXLXLXFXFXFXFXSXAX9X+X X}.G.D.A.h.0.2.;.W Y H IXIXIXIXIXIXIXIXIXIXIXIXIXIXIXIXIXIXIXIXIXIXIXIXIXIXIXIXIXIXIXIXIXIXIXIXIXIXIXIXIXIXIXIXIXIXIXIXIXIXIXIXIXIXIX",
"IXIXIXIXIXIXIXIXIXIXIXIXIXIXIXIXIXIXIXIXIXIXIXIXIXIXIXIXIXIXIXIXIXIXIXIXIXIXIXIXIXIXIXIXH E @.;.2.g.f.D.].|.|.7X0X0XuXhXlXlXlXzXzXzXfXfXfXaXaX2X2X1X1X,X-X=X=X=X=X=X=X-X-X-X:X1X2X2XaXaXaXsXsXyXyX6X7X7XvX|.|.(.~.C.f.r.,.#.o.| L B n h g u e e w 5 5 6 6 6 6 3 3 3 3 4 4 4 4 4 4 4 4 4 4 4 4 4 4 4 4 4 0 0 4 4 4 4 4 4 4 4 4 4 4 4 3 3 3 3 3 3 3 5 6 w w w u u f h l M L L | o.#.,.e.y.d.s.!.(.`.`.vX7X7X6XyXyXlXlXlXfXfXsXaXaX2X2X1X,X-X=X=X=X=X=X=X=X=X=X=X-X-X:X:X:X;X;XtXtX5X5X$X$X$X`.`.`.~.~.!.M.s.d.y.y.r.r.e.e.$.$.#.#.#.#.#.#.#.#.#.#.#.#.#.#.O.O.O.O.O.O.#.:.:.>.,.<.<.t.t.y.u.a.B.V.V.~.~.(.{.{.|.|.|.|.|.{.{.{.{.].D.D.f.p.g.2.1.-.X.T P F m m l g i u u t w w w 6 5 5 3 3 3 3 3 3 3 3 4 4 4 4 4 6 4 6 6 6 6 6 6 6 6 4 4 4 4 4 4 4 4 4 4 , , , , , , , , , , , , , , , , , , , , , , , , > < < > > > > > > > > > 3 3 6 6 w t u i g l l m F I ..O.:.<.e.y.d.V.~.(.|.OX7X6X0XuXhXkXkXkXFXFXLXLXFXFXFXFXFXSXAX+X@X}.}.G.D.A.h.0.2.@.R G IXIXIXIXIXIXIXIXIXIXIXIXIXIXIXIXIXIXIXIXIXIXIXIXIXIXIXIXIXIXIXIXIXIXIXIXIXIXIXIXIXIXIXIXIXIXIXIXIXIXIXIXIXIXIX",
"IXIXIXIXIXIXIXIXIXIXIXIXIXIXIXIXIXIXIXIXIXIXIXIXIXIXIXIXIXIXIXIXIXIXIXIXIXIXIXIXIXIXIXIXH U Q %.2.4.p.D.].{.|.OX6X0X0XhXhXlXlXlXzXzXzXfXsXaXaX2X2X1X1X,X-X=X=X=X=X=X-X-X-X:X:X:X;X2XaXaXaXsXyXyX6X7X7XvX|.|.{.(.~.f.p.r.,.#...I L M n h f u w w 5 5 5 5 6 6 6 4 3 3 3 4 3 4 4 4 4 4 4 4 4 4 4 4 4 4 4 4 4 4 4 4 4 4 4 4 4 4 4 4 4 3 3 3 3 3 3 3 3 5 6 w w u u f g l n M L | o.#.:.,.e.y.a.!.!.'.`.$X&X7X5XyXyXyXsXsXsXfXsXaXaX2X2X1X,X-X=X=X=X=X=X=X=X=X=X=X=X-X-X:X:X:X;XtXtXtX5X5X$X$X`.`.`.~.~.!.M.s.y.y.r.r.e.,.$.$.#.#.#.#.o.O.#.#.#.#.#.:.:.:.:.:.:.:.#.:.:.#.:.>.,.<.<.<.e.t.y.u.u.V.B.B./.~.(.(.(.|.|.|.|.|. X X{.{.{.}.].D.D.k.p.g.2.1.+...T P F m l k g u u t t w w 6 5 5 3 3 3 3 3 3 3 3 3 3 4 4 4 6 4 6 6 6 6 6 6 6 6 6 4 4 4 4 4 4 4 4 4 , , , , , , , , , , , , , , , , , , , , , , , , , , > > > > > > > > > > 3 3 3 6 6 w t u i g l n M L I ..O.:.<.t.y.a.V.~.(.`.OX7X6X0XuXrXjXkXkXFXFXLXLXFXFXFXFXSXSXBX+X X}.[.F.A.h.l.5.;.R R G IXIXIXIXIXIXIXIXIXIXIXIXIXIXIXIXIXIXIXIXIXIXIXIXIXIXIXIXIXIXIXIXIXIXIXIXIXIXIXIXIXIXIXIXIXIXIXIXIXIXIXIXIXIX",
"IXIXIXIXIXIXIXIXIXIXIXIXIXIXIXIXIXIXIXIXIXIXIXIXIXIXIXIXIXIXIXIXIXIXIXIXIXIXIXIXIXIXIXIXIXU R +.-.2.p.f.D.].{.|.7X8X0X0XuXhXlXlXzXzXzXfXsXaXaX2X2X:X:X-X-X-X-X-X-X-X-X:X:X:X:X:X;XaXyXaXsXyXyXyX7X7X7X|.|.|.].~.~.f.g.e.:.O...I L M n h f e e w 5 5 5 5 6 6 6 4 3 4 3 3 3 4 4 4 4 4 4 4 4 4 4 4 4 4 4 4 4 4 4 4 4 4 4 4 4 4 4 4 4 3 3 3 3 3 3 3 5 5 w w u u f g h n M L I ..O.:.,.e.y.a.B.!.'.`.`.$X7X5XtXyXyXyXsXsXsXsXaXaX2X2X1X,X=X=X=X=X=X=X=X=X=X=X=X=X-X-X:X:X:X:X;XtXtX5X5X$X$X`.`.`.~.~.!.s.s.y.r.r.e.$.$.#.#.#.#.o.o.o.o.o.o.O.#.#.:.:.,.,.,.,.,.,.:.:.:.,.,.<.<.<.e.t.t.y.y.u.a.B.B.B.!./.(.(.`.|.OXOXOXOXOXOX+X+X X}.{.{.H.D.k.p.g.2.1.+...I P F m l g g u u t w w 6 5 5 3 3 3 3 3 3 3 3 3 3 3 3 4 4 6 6 6 6 6 6 6 6 6 6 6 4 4 4 4 4 4 4 4 , 4 , , , , , , , , , , , , , , , , , , , , , , , , > > > > > > > > > > 3 3 3 6 6 w w t u i g l m F P I ..O.:.<.t.u.V.V.~.(.`.OXOX8X8XrXuXjXkXFXFXFXLXFXFXFXFXSXSXAXBX+X X}.[.D.D.h.p.2.;.R P F IXIXIXIXIXIXIXIXIXIXIXIXIXIXIXIXIXIXIXIXIXIXIXIXIXIXIXIXIXIXIXIXIXIXIXIXIXIXIXIXIXIXIXIXIXIXIXIXIXIXIXIXIX",
"IXIXIXIXIXIXIXIXIXIXIXIXIXIXIXIXIXIXIXIXIXIXIXIXIXIXIXIXIXIXIXIXIXIXIXIXIXIXIXIXIXIXIXIXIXF U +.;.2.g.f.C.].{.|.|.6X0X0X0XuXjXcXlXzXlXlXfXsXyX;X:X:X-X-X-X-X-X-X-X-X-X:X:X:X;X;XtXtXyXyXyXyXyX6X6X7XvX|.|.{.].~.f.f.g.1.#.o.| L B n l g u w w 5 5 5 5 5 5 5 4 3 3 3 3 4 4 4 4 , 4 4 4 4 , , 4 4 4 4 4 4 4 4 4 4 4 4 4 4 4 4 4 4 3 3 3 3 3 3 3 3 5 6 w e u f g h n M L I ..O.#.,.e.y.a.s.W.!.'.`.$X&X&XtXtXyXyXyXsXaXaXaXaX2X2X1X,X=X=X=X=X=X=X=X=X=X=X=X=X=X-X-X:X:X;X;X;XtX5X5X7X$X`.`.(.~.~.!.s.d.y.r.e.$.$.#.#.o.o.o.o.o.| | o.o.o.O.#.#.:.,.,.,.<.<.<.<.<.<.<.<.<.e.e.t.t.y.y.y.u.a.a.B.B.W././.(.`.`.XXOXOXOXOXOX+X+X+X+X+X X}.{.H.D.k.h.g.2.1.+...I F m n l g g u u t w 6 6 5 3 3 3 3 3 3 3 3 3 3 3 3 3 6 6 6 6 6 6 6 6 6 6 6 6 4 4 4 4 4 4 4 4 4 , , , , , , , , , , , , , , , , , , , , , , , , , , , 4 > > > > > > > 3 3 3 5 6 6 w w t u g g l m F P I ..O.:.<.t.u.a.V.~.(.`.OXOX7X7XrXrXeXkXFXFXLXFXFXLXFXFXSXSXAXBX+X X}.[.D.D.h.4.2.+.T P D IXIXIXIXIXIXIXIXIXIXIXIXIXIXIXIXIXIXIXIXIXIXIXIXIXIXIXIXIXIXIXIXIXIXIXIXIXIXIXIXIXIXIXIXIXIXIXIXIXIXIXIX",
"IXIXIXIXIXIXIXIXIXIXIXIXIXIXIXIXIXIXIXIXIXIXIXIXIXIXIXIXIXIXIXIXIXIXIXIXIXIXIXIXIXIXIXIXIXH P R +.1.2.p.C.].{.|.|.qX8X0XeXuXjXjXcXlXlXlXsXyXtX;X:X-X-X*X*X*X*X*X-X-X-X:X:X;X;XtXtXtXyXyXyXyX6X6X7XvX|.|.|.].].C.f.p.g.1.O...I L M n h g u e w 5 5 5 5 5 5 3 3 3 3 3 4 4 3 4 , , 4 4 4 4 , , 4 4 4 4 4 4 4 4 4 4 4 4 4 4 4 4 4 4 3 3 3 3 3 3 3 3 5 6 w u f g h n m M L | o.#.e.e.y.a.s.W.Q.'._.$X&X&X;XtXtXaXyXaXaXaXaX2X2X1X1X,X=X=X=X=X=X=X=X=X=X=X=X=X=X-X-X:X:X;X;X;X;X;X5X&X$X`.`.(.~.~.M.d.y.y.r.,.$.$.o.o.|  . .| | | | | | | ..o.O.#.:.,.,.<.<.<.e.e.<.<.e.e.e.t.t.y.y.y.u.a.a.a.B.B.W.W.^./.`.`.XXXXOX7X7X8X8X8X8X8X8X+X+X X}.[.H.D.k.h.g.2.-.+.T P F m l l g g u u w w 6 5 3 3 3 3 3 3 3 3 3 3 3 3 3 6 6 6 6 6 6 6 6 6 6 6 6 4 4 4 4 4 4 4 4 4 , , , , , , , , , , , , , , , , , , , , , , , , , 4 , 4 , > > > > > > 3 3 3 3 5 6 6 6 w t u i g l m F P I ..O.:.<.t.u.B.V.~.(.`.|.OXOX8X8XrXeXFXFXFXFXLXPXFXFXGXSXSXAXBX+X@X}.}.H.D.p.4.-.X.T G IXIXIXIXIXIXIXIXIXIXIXIXIXIXIXIXIXIXIXIXIXIXIXIXIXIXIXIXIXIXIXIXIXIXIXIXIXIXIXIXIXIXIXIXIXIXIXIXIXIXIXIX",
"IXIXIXIXIXIXIXIXIXIXIXIXIXIXIXIXIXIXIXIXIXIXIXIXIXIXIXIXIXIXIXIXIXIXIXIXIXIXIXIXIXIXIXIXIXIXG R +.-.1.g.f.C.].{.|.|.qXqXqXeXuXjXlXcXlXlXyXyXtX;X&X%X%X%X%X%X%X%X%X%X&X&X;X;X;X5XtXyXyXyXyXuX0X0X7X|.|.|.{.].].C.f.g.1.%.o.| L M M n h f e e 5 5 5 5 5 5 3 3 3 3 3 3 4 4 3 4 4 4 4 4 4 4 4 4 4 4 4 4 4 4 4 4 4 4 4 4 4 4 4 4 4 4 3 3 3 3 3 3 3 5 5 w w u g h l m M L I o.#.,.y.y.a.B.!.Q.).`.$X&X&X;X;X;XaXaXaXaXaX2X2X2X1X1X,X>X=X=X=X=X=X=X=X=X=X=X=X=X=X-X:X:X:X;X;X;X;X&X&X&X$X`.(.~.~.s.d.y.y.r.,.#.#.o.| | I I L L L L L L I | | o.o.O.:.>.,.<.e.e.e.e.e.e.t.t.t.y.y.u.a.a.a.a.B.B.B.W.W.^.^._._.XXXX&X7X7X7X6XrXrXrXrX9X9X9X+X X}.[.H.D.k.h.4.2.-.+.I L M m l h g i u t w 6 5 3 3 3 3 3 3 3 3 3 3 3 3 3 3 4 6 6 6 6 6 6 6 6 6 6 4 4 4 4 4 4 4 4 4 4 , , , , , , , , , , , , , , , , , , , , , , , , , , 4 , > > > > > > > > 3 3 3 5 5 6 6 w w u g h n m L P I ..O.:.<.t.u.B.!.~.(.`.|.OXOX8X8XeXeXFXFXFXLXPXPXFXFXFXSXSXAX+X+X@X}.{.H.A.p.1.-.X.T G IXIXIXIXIXIXIXIXIXIXIXIXIXIXIXIXIXIXIXIXIXIXIXIXIXIXIXIXIXIXIXIXIXIXIXIXIXIXIXIXIXIXIXIXIXIXIXIXIXIXIX",
"IXIXIXIXIXIXIXIXIXIXIXIXIXIXIXIXIXIXIXIXIXIXIXIXIXIXIXIXIXIXIXIXIXIXIXIXIXIXIXIXIXIXIXIXIXIXF P ..+.1.g.f.C.].{.|.|.+XqXqXeXeXuXjXlXlXhXyXtX5X&X&X#X#X#X#X#X#X#X#X$X&X&X&X&X5X5XyXyXyXuXuX0X0X8X7X|.|.|.].].D.f.p.g.1.O...I L M n l g u e w 5 5 5 3 3 3 3 3 3 3 4 3 4 4 3 4 4 4 4 4 4 4 4 4 4 4 4 4 4 4 4 4 4 4 4 4 4 4 4 4 4 4 3 3 3 3 3 3 3 5 6 w u f g l n M L I ..#.,.r.y.a.s.!.Q.)._.`.&X&X;X;X:X;X2X2X2X2X2X2X1X1X,X,X>X>X=X=X=X=X=X=X=X=X=X>X=X=X-X-X:X:X;X;X;X;X&X&X&X$X`.`.(.~.!.d.d.y.r.,.#.o.o.| I L L B B B B B B L L I | ..o.O.#.:.,.<.e.e.t.t.t.y.y.y.y.u.a.a.a.a.B.B.B.B.W.W.^.^.)._..XXX&X&X5X6XwXwXhXrXrXeXrXrX9X9X+X X}.[.D.D.k.p.4.2.%.R U F m n l g g u u w 6 5 3 3 3 3 3 3 3 3 3 3 3 3 3 3 3 6 6 6 6 6 6 6 6 6 4 4 4 4 4 4 4 4 4 4 4 , , , , , , , , , , , , , , , , , , , , , , , , 4 4 4 , , > > > > > > > 3 3 3 3 5 5 6 6 w t u g l n M F P I ..O.>.<.y.a.B.!.~.(.(.|.OXOX8XrXeXFXFXFXLXPXPXPXFXGXFXSXSXAX+X+X@X{.H.C.p.4.>.=.T P F IXIXIXIXIXIXIXIXIXIXIXIXIXIXIXIXIXIXIXIXIXIXIXIXIXIXIXIXIXIXIXIXIXIXIXIXIXIXIXIXIXIXIXIXIXIXIXIXIXIX",
"IXIXIXIXIXIXIXIXIXIXIXIXIXIXIXIXIXIXIXIXIXIXIXIXIXIXIXIXIXIXIXIXIXIXIXIXIXIXIXIXIXIXIXIXIXIXF P T +.1.4.p.C.].{.|. X+XqXqX9XeXuXjXhXuXhXyX5X&X&X#X#X#X#X#X#X#X#X#X$X&X&X&X5X5X6X6XyXuXuX0X0XqX8XqX X|.|.].].D.f.p.g.1.O...I L M n h g u e w 5 5 5 3 3 3 3 3 3 3 3 3 4 4 4 4 4 4 4 4 4 4 4 4 , , 4 4 4 4 4 4 4 4 , , 4 4 3 3 3 3 3 3 3 3 3 3 3 5 w w u g h n M L L | o.#.e.y.d.s.!.Q.Q._.`.$X&X:X;X:X2X2X2X2X2X1X1X1X,X,X>X>X>X=X=X=X=X=X=X=X=X=X=X>X>X,X,X1X:X:X;X;X;X;X&X&X$X`.`.(.~.!.s.d.y.r.,.$.o.o.| I L B B B M M M M B B L L I | ..O.#.:.,.<.e.t.t.y.i.i.i.u.a.a.a.B.B.B.B.B.W.W.W.^.^.)._._..X&X&X&X5XwXwXwXhXhXjXjXeXeXeX9X+X+X X}.[.D.k.h.g.2.%.+.R L M m l h g u u w 6 5 3 3 1 1 1 3 3 3 3 3 3 3 3 3 3 3 6 6 6 6 6 6 6 4 4 4 4 4 4 4 4 4 4 4 4 , , , , , , , , , , , , , , , , , , , , , , , 4 4 , 4 4 , > > > > > > > 3 3 3 3 3 5 5 6 6 w u f h l m M L P T ..O.,.e.u.a.B.V.~.(.{.|.OX+X8XeXSXFXFXLXPXPXPXFXGXGXSXSXAX9X+X+X{.{.D.Z.p.1.=.X.T P IXIXIXIXIXIXIXIXIXIXIXIXIXIXIXIXIXIXIXIXIXIXIXIXIXIXIXIXIXIXIXIXIXIXIXIXIXIXIXIXIXIXIXIXIXIXIXIXIXIX",
"IXIXIXIXIXIXIXIXIXIXIXIXIXIXIXIXIXIXIXIXIXIXIXIXIXIXIXIXIXIXIXIXIXIXIXIXIXIXIXIXIXIXIXIXIXIXD P R X.-.1.p.f.C.].{.|. X+XqX9XuXeXuXuXuXuXyX5X&X$X#X#X#X#X#X#X#X#X#X$X&X&X5X5X5X6X6X0XuXuX0X0XqXqX X X|.{.].].D.f.g.1.-.o.I L M m n h g u w w 5 5 3 3 3 3 3 3 3 3 3 3 4 4 4 4 4 , 4 4 4 4 4 , , , 4 4 4 4 4 4 4 4 , , 3 > 3 3 3 3 3 3 3 3 3 3 5 6 w u f g l m M L I ..#.,.y.d.s.!.!.'.'.`.$X&X&X:X:X:X1X1X1X1X1X,X,X,X>X>X>X>X>X=X=X=X=X=X=X=X=X=X=X>X>X,X1X1X:X:X;X;X;X;X&X&X$X`.`.(.~.s.a.y.e.,.$.#.o.| I L B M M n n n n n M M B L L | ..o.#.:.,.<.g.i.i.i.i.i.i.d.a.V.V.B.B.B.W.W.!.W.Q.^.)._._..X%X&X&X4X5XwXpXpXgXcXcXkXkXjXeXeX9X+X X X[.D.D.k.p.4.;.+.R U F m l l g f u w w 5 3 3 1 1 1 1 3 3 3 3 3 3 3 3 3 3 6 6 6 6 6 6 4 4 4 4 4 4 4 4 4 4 4 4 4 , , , , , , , , , , , , , , , , , , , , , , , 4 4 4 4 4 4 4 > 3 > > > 3 3 3 3 3 3 3 5 5 6 w w u g h l m M L I ..O.:.<.t.u.a.V.V.(.(.{.OXOX8XrXSXFXFXLXPXPXPXPXPXGXSXSXSXAX9X+X@X{.H.Z.p.3.>.=.T T G IXIXIXIXIXIXIXIXIXIXIXIXIXIXIXIXIXIXIXIXIXIXIXIXIXIXIXIXIXIXIXIXIXIXIXIXIXIXIXIXIXIXIXIXIXIXIXIXIX",
"IXIXIXIXIXIXIXIXIXIXIXIXIXIXIXIXIXIXIXIXIXIXIXIXIXIXIXIXIXIXIXIXIXIXIXIXIXIXIXIXIXIXIXIXIXIXIXF P X.-.1.g.f.C.].{.|. X+X9XqX9XeXuXuXuX0X6X7X$X$X#X_._._._.#X#X#X#X$X$X&X7X5X6X6X6X0X0X0X0XqXqXqX X X X{.].D.f.p.g.1.%.X.I L M n n h f u w 6 5 3 3 3 3 3 3 3 3 3 3 3 3 4 4 4 4 , 4 4 4 4 , , , , , , , , , , 4 4 , > > > 3 3 4 3 3 3 3 3 3 5 5 6 w u g h n M L I | o.#.e.y.a.!.!.'.'.`.`.$X&X:X:X:X1X1X1X1X,X,X,X=X=X=X=X>X=X=X=X=X=X=X=X=X=X=X=X>X>X,X,X1X1X:X;X;X;X;X&X5X&X$X`.(.~.!.s.d.y.e.,.#.o.| I L B M n n n n n n n n n M B L I | ..O.:.,.1.g.i.i.i.i.i.f.f.V.V.V.!.W.W.!.W.W.Q.^.)._._..X.X%X&X4X4XtXwXpXhXhXcXcXcXkXkXeXeX9X+X X X}.[.D.k.h.4.2.+.+.U F M n l g g u w w 5 5 3 3 1 1 1 1 1 1 1 3 3 3 3 3 3 3 4 6 6 4 4 4 4 4 4 4 4 4 4 4 4 4 4 , , , , , , , , , , , , , , , , , , , , , , , , 4 4 4 4 4 4 4 4 3 3 3 3 3 3 3 3 3 3 3 5 5 5 6 w u g g l n m F L I ..O.>.<.t.u.V.V.~.~.{.|.OX+XrXeXSXFXFXLXPXPXPXPXPXFXSXSXSX9X+X+X{.].C.f.i.<.:.X.T P IXIXIXIXIXIXIXIXIXIXIXIXIXIXIXIXIXIXIXIXIXIXIXIXIXIXIXIXIXIXIXIXIXIXIXIXIXIXIXIXIXIXIXIXIXIXIXIXIX",
"IXIXIXIXIXIXIXIXIXIXIXIXIXIXIXIXIXIXIXIXIXIXIXIXIXIXIXIXIXIXIXIXIXIXIXIXIXIXIXIXIXIXIXIXIXIXIXF P T +.1.g.f.C.].{. X X XqXqX9X9XeXeX0X0X7X7X$X`._.).).).)._._.#X#X$X$X&X7X7X7X6X0X0X0X0XqXqXqXqX X X}.[.].D.f.p.g.1.O...I L M n l g f u w 5 5 3 3 3 3 3 3 3 4 4 3 3 3 4 4 4 , , 4 4 4 4 4 , , , , , , , , , 4 4 > > > > 3 3 3 3 3 3 3 3 5 6 6 w w u g l m M L I ..#.,.e.d.s.!.~.'.`.`.$X&X&X:X:X3X1X1X,X,X,X>X=X=X=X=X=X=X=X=X=X=X=X=X=X=X=X=X>X>X>X,X1X1X2X:X;X;X;X5X5X&X$X`.`.(.~.V.a.y.e.,.#.o.o.| L B n n n n n h h n n n n M M L L I ..O.#.1.1.g.p.p.p.p.f.f.C.C.C.!.!./.!.Q.Q.^.^.^.)._._..X%X%X&X4X4XiXpXpXhXhXcXcXcXkXkXjXeX9X9X+X X}.{.D.D.h.g.2.%.+.R U M N l h g u w w 5 5 3 3 1 1 1 1 1 1 1 1 3 3 3 3 3 3 3 6 6 4 4 4 4 4 4 4 4 4 4 , , 4 , , , , , , , , , , , , , , , , , , , , , , 4 , 4 4 4 4 4 4 4 4 4 4 3 3 3 3 3 3 3 3 3 3 3 5 5 6 w u u g h l n M F P I ..:.<.t.y.u.B.V.~.(.{.|.+X8XrXSXFXFXFXPXPXPXPXPXGXSXFXSX9X9X+X X{.C.Z.i.3.>.=.X.T G IXIXIXIXIXIXIXIXIXIXIXIXIXIXIXIXIXIXIXIXIXIXIXIXIXIXIXIXIXIXIXIXIXIXIXIXIXIXIXIXIXIXIXIXIXIXIXIX",
"IXIXIXIXIXIXIXIXIXIXIXIXIXIXIXIXIXIXIXIXIXIXIXIXIXIXIXIXIXIXIXIXIXIXIXIXIXIXIXIXIXIXIXIXIXIXIXF P T +.1.4.p.C.D.{.{. X X+X9XqX9X9XqX0X6X7X$X`._.).).).).).).)._._.$X$X$XvXvX7X6X0X0X0XqXqXqXqX+X X X}.[.].D.f.g.2.1.+...P F m n h g u u w 5 5 3 3 3 3 3 3 3 4 4 3 3 3 4 4 4 4 4 4 4 , , , , , , , , , , , , 3 3 > > > > > 3 3 3 3 3 3 3 5 6 6 w u u h n M L I ..O.:.e.y.d.!.~.(.`.`.$X&X&X&X;X:X1X1X,X,X>X=X=X=X=X=X=X=X=X=X=X=X=X=X=X=X=X=X=X>X>X,X,X1X1X2X;X;X;X5X5X&X&X$X`.`.(.!.s.d.y.e.,.#.o.| L B M n n h h h j j h h h n n M B L I | X.%.1.1.g.g.p.p.f.f.f.Z.C.C.~.~./././.^.^.).)._._..X%X%X&X4X4X4XiXiXgXpXhXcXxXxXkXkXjXeXeX9X+X X X[.[.D.k.h.4.;.+.R U H M n l g u u w 5 5 3 1 1 1 1 3 3 1 1 3 3 3 3 3 3 3 5 3 4 4 4 4 4 4 3 3 4 4 4 , , 4 , , , , , , , , , , , , , , , , , , , , , , 4 4 4 4 4 4 4 4 4 4 4 4 4 4 3 3 3 3 3 3 3 3 3 5 5 6 w w u f g h l m M L I ..O.:.<.t.t.u.V.C.~.{.{.OX+X9XeXSXFXFXFXPXPXPXPXFXFXFXSXeX9X+XOX{.H.Z.Z.u.3.>.=.X.T IXIXIXIXIXIXIXIXIXIXIXIXIXIXIXIXIXIXIXIXIXIXIXIXIXIXIXIXIXIXIXIXIXIXIXIXIXIXIXIXIXIXIXIXIXIXIXIX",
"IXIXIXIXIXIXIXIXIXIXIXIXIXIXIXIXIXIXIXIXIXIXIXIXIXIXIXIXIXIXIXIXIXIXIXIXIXIXIXIXIXIXIXIXIXIXIXIXP T X.-.1.i.f.D.].{. X X+X+X9XqX9XqXqX7XvX`.`.).'.Q.Q.'.'.'.).)._.`.$X$XvXvX7X7X8XqXqXqXqXqXqX X X X[.[.D.k.f.g.1.%.X.I L M m l h g u e w 5 5 3 3 3 3 3 3 3 4 4 3 3 3 4 4 4 4 4 4 4 , , , , , , , , , , , > > > > > > > > 3 3 3 3 3 3 3 5 6 6 w u g l m M L I ..#.,.r.d.f.~.(.`.`.$X&X&X&X;X:X1X1X1X,X,X>X=X=X=X=X=X=X=X=X=X=X=X=X=X=X=X=X=X>X>X>X,X1X1X2X2X2X;XtX5X&X&X&X`.`.'.~.V.a.y.e.,.#.o.| I L M n n h h f f f f f h h h n n M L L I ..+.%.1.2.g.g.p.f.f.f.C.C.~.~.~.(./.'./._.).)._._..X%X%X&X4X4X4XiXiXgXgXzXcXcXxXxXkXkXjXeX9X+X+X X}.[.D.D.h.l.2.+.+.U U M N l g f u e w 5 5 1 1 1 1 1 1 1 1 1 3 3 3 3 3 3 5 3 3 4 4 4 3 4 3 3 3 3 4 > , 4 4 4 4 4 , , , , , , , , , , , , , , , , , , 4 4 4 4 4 4 4 4 4 4 4 4 4 4 4 4 4 4 3 5 3 3 3 5 5 6 w w u u g g l l m M L I ..O.>.<.t.y.u.V.C.~.{.|.+X+X9XeXSXFXFXFXFXLXLXFXFXFXSXeXrX+X+X|.].C.Z.u.t.<.:.=.T P IXIXIXIXIXIXIXIXIXIXIXIXIXIXIXIXIXIXIXIXIXIXIXIXIXIXIXIXIXIXIXIXIXIXIXIXIXIXIXIXIXIXIXIXIXIXA ",
"IXIXIXIXIXIXIXIXIXIXIXIXIXIXIXIXIXIXIXIXIXIXIXIXIXIXIXIXIXIXIXIXIXIXIXIXIXIXIXIXIXIXIXIXIXIXIXIXF P ..-.1.g.f.D.].{.}. X X+XBXAXqXqXqX|.|.`.'.Q.Q.!.!.!.!.Q.Q.'.).`.`.`.|.vXvXqXqXqXqXqXqX9X+X X X}.[.D.D.k.p.2.1.O...I L M n l h g u w w 5 5 3 3 3 3 3 3 3 3 3 3 3 > 4 3 4 4 4 4 4 4 , 4 4 , , , > 4 4 > > > > > > > > > > 3 3 3 3 5 6 6 6 6 t u g l m L I ..O.:.<.i.f.~.~.(.`.`.$X&X&X;X;X2X2X1X1X,X>X>X>X=X=X=X=X=X=X=X=X=X=X=X=X=X=X=X=X>X>X>X,X1X1X2X2X2XtXtX5X&X&X&X`.`.(.!.s.y.e.<.:.O...I L B n n h f f f f f r f f f h h n n M L L U +.%.1.1.2.g.p.p.f.f.C.C.~.~.(.(.(.(._.'._._._..X%X%X&X4X4X4X4XiXiXgXgXzXcXxXxXxXxXkXjXeX9X9X+X X}.{.].D.k.g.2.;.@.R U F N n h g u w w 5 5 5 5 1 1 1 1 1 1 1 1 3 3 3 3 5 5 5 3 3 3 4 4 3 3 3 3 3 3 > > , 4 4 , , , , , , , 4 , , , , , , , , , , , , 4 4 4 4 4 4 4 4 4 4 4 4 4 4 4 4 4 6 6 5 5 3 3 5 5 5 6 w t u u g g l l m F L I ..O.:.<.t.t.u.V.C.].{.OX+X+X9XSXFXFXFXFXFXFXFXFXFXSXeXeX8X+XOX{.~.C.Z.u.t.<.:.X.T G IXIXIXIXIXIXIXIXIXIXIXIXIXIXIXIXIXIXIXIXIXIXIXIXIXIXIXIXIXIXIXIXIXIXIXIXIXIXIXIXIXIXIXIXIX` ",
"IXIXIXIXIXIXIXIXIXIXIXIXIXIXIXIXIXIXIXIXIXIXIXIXIXIXIXIXIXIXIXIXIXIXIXIXIXIXIXIXIXIXIXIXIXIXIXIXF P T X.1.4.p.Z.D.[.}.}. X+XBXBX9X+X+X|.|.`.'.Q.!.!.!.!.!.!.!.Q.Q.'.`.`.|.|.|.|. XqXqXqXqX+X X X}.[.[.D.k.p.g.1.-.X.T P F m l l g u u w w 5 5 3 3 3 3 3 3 3 3 3 3 3 > , 3 3 4 4 4 4 4 4 4 4 4 , 4 , > , > > > > > > > > > > 3 3 3 3 4 6 6 6 w t u g n M L I ..O.,.g.p.f.~.(.|.|.vX7X5XtXtX;X2X2X1X1X,X>X>X>X=X=X=X=X=X=X=X=X=X=X=X=X=X=X=X=X>X>X>X,X1X2X2X2XaXtX5X5X&X&X`.`.'.!.B.a.y.e.,.#.o.| I L M n h g f u e e e e e e f f h h n m M L U | +.%.2.1.g.g.p.f.f.C.C.~.~.(.(.(.(.`._._._._.%X%X&X&X4X4X4XiXiXgXgXfXzXzXcXxXxXxXkXjXeXeX9X+X X X}.[.D.k.h.4.2.+.@.U U M m l g f e e 5 5 5 5 2 1 2 1 1 1 1 1 3 3 3 3 5 5 5 5 5 3 3 3 3 3 3 3 3 3 3 3 4 4 4 4 4 4 4 4 4 , 4 4 , , , , , , , , , , 4 4 4 4 4 4 4 4 4 4 4 4 4 4 4 4 4 4 6 6 6 5 3 3 3 5 5 6 w w w u u g g l l m F P T ..O.:.<.3.t.u.C.C.{.|.OX+X+X9XSXSXFXFXFXFXFXFXFXFXkXeXrX+XOX|.(.~.V.V.u.t.<.=.X.T G IXIXIXIXIXIXIXIXIXIXIXIXIXIXIXIXIXIXIXIXIXIXIXIXIXIXIXIXIXIXIXIXIXIXIXIXIXIXIXIXIXIXIXIX` ",
"IXIXIXIXIXIXIXIXIXIXIXIXIXIXIXIXIXIXIXIXIXIXIXIXIXIXIXIXIXIXIXIXIXIXIXIXIXIXIXIXIXIXIXIXIXIXIXIXIXG T X.-.1.p.f.D.D.[.}.}. X+XBX+X X X|.|.(.!.!.s.s.s.s.s.s.!.!.!.!.(.`.|.|.|.|. X X X X X X X X}.[.D.D.h.g.2.1.%...I F m n l g g u u w 6 5 3 3 3 3 3 3 3 3 3 3 3 3 3 4 3 3 4 4 4 4 4 4 4 4 , , , , , , > > > > > > > > > > 3 3 3 4 6 6 6 6 w u i h n F P | O.:.1.g.f.C.~.|.|.vX7X5XtXtXyXaX2X2X1X1X<X>X>X>X=X=X=X=X=X=X=X=X=X=X=X=X=X=X=X=X>X>X>X,X1X2X2XaXiXtX5X&X&X$X`.`./.!.B.u.e.,.:.O...I L M n h g f e e e e e e e e e u f g h n n M L U ..+.%.1.2.g.g.p.f.f.C.C.~.~.(.(.(.`.`.`.`..X&X&X&X4X4X4XiXiXiXgXfXfXzXzXxXxXxXxXxXkXjXeX9X9X+X X}.{.[.D.k.l.2.;.+.R U L M n h f e e w 5 5 5 5 5 5 5 1 1 1 1 1 3 3 5 5 5 5 5 5 5 5 3 3 3 3 3 3 3 3 4 4 4 4 4 4 4 4 4 4 4 , , 4 , , , , , , , , , , 4 4 4 0 0 4 4 4 4 4 4 4 4 4 4 4 4 6 6 6 5 3 3 3 3 5 5 6 w w w u u u g h l m F P T ..O.:.>.3.t.i.Z.~.{.|.+X+X+X9XSXSXSXFXFXFXLXFXFXkXkXeX8XOXOX{.(.~.V.V.u.t.>.=.X.P IXIXIXIXIXIXIXIXIXIXIXIXIXIXIXIXIXIXIXIXIXIXIXIXIXIXIXIXIXIXIXIXIXIXIXIXIXIXIXIXIXIXIXA ` ",
"IXIXIXIXIXIXIXIXIXIXIXIXIXIXIXIXIXIXIXIXIXIXIXIXIXIXIXIXIXIXIXIXIXIXIXIXIXIXIXIXIXIXIXIXIXIXIXIXIXF T X.-.1.4.p.D.D.[.}.}. X X X X X X|.].~.!.s.a.d.d.d.d.s.s.s.!.!.~.(.(.{.|.|. X X X X X X X}.[.F.D.k.h.g.2.-.X.T L F m l l g g u t w 6 5 3 3 3 3 3 3 3 3 3 3 3 3 4 4 3 3 4 4 4 4 4 4 4 4 > > , , > > > > > > > > > > > > 3 3 3 6 6 6 6 6 t u g l m F I ..O.1.g.p.f.~.{.|.|.7X7X6XyXyXaXaXaX2X1X1X<X>X>X>X=X=X=X=X=X=X=X=X=X=X=X=X=X=X=X>X>X>X<X,X1X2X2XaXiXtX;X&X&X`.`.'.Q.W.a.y.e.>.O...I L F M l h f u e e w w w w w e w e u f g h n m M U U +.%.%.1.2.g.g.p.f.C.C.~.~.(.(.(.`.`.`.`.XX&X&X&X4X4X4XiXiXiXfXfXzXzXzXxXxXxXxXxXkXjXeX9X9X+X+X X}.[.D.k.h.4.2.%.+.U L M n h g u e e w 5 5 5 5 5 5 1 1 1 1 1 3 5 5 5 5 5 5 5 5 5 5 3 3 3 3 3 4 3 4 4 4 4 4 4 4 4 4 4 4 4 , 4 4 , , , , , , , , , 4 4 4 0 0 4 0 0 4 4 4 4 4 4 4 4 4 6 4 6 5 3 3 3 3 3 5 6 6 w w w t u u g h l m F P T ..O.:.>.3.i.Z.C.].{.OX+X+X9X9XeXSXFXFXFXLXFXFXkXkXeXrX8XOXOX(.(.~.V.V.u.3.>.=.T P IXIXIXIXIXIXIXIXIXIXIXIXIXIXIXIXIXIXIXIXIXIXIXIXIXIXIXIXIXIXIXIXIXIXIXIXIXIXIXIXIXIXA ` ",
"IXIXIXIXIXIXIXIXIXIXIXIXIXIXIXIXIXIXIXIXIXIXIXIXIXIXIXIXIXIXIXIXIXIXIXIXIXIXIXIXIXIXIXIXIXIXIXIXIXIXP T +.1.4.p.A.D.H.}.}.}. X X X X X{.].~.s.a.d.y.y.y.y.y.d.s.s.!.!.~.~.].{.|. X X X X X X}.}.[.D.D.k.h.4.1.%...I L M m l g g u u t w 6 5 3 3 3 3 3 3 3 3 3 3 4 4 4 4 3 3 4 4 4 4 4 4 4 , 3 > > , > > > > > > > > > > > > 3 3 3 6 6 6 6 w t u g l m L I ..O.1.g.f.C.].{.|.7X6X6XyXpXsXsXaXaX2X1X1X<X>X>X>X=X=X=X=X=X=X=X=X=X=X=X=X=X=X=X>X>X>X<X,X1X2X2XaXiXtX5X&X$X`.`.'.!.B.a.t.<.:.O...I L M n l g u e w w 5 5 5 5 5 w e w e u f g h n M F U U +.%.-.1.1.g.g.p.f.C.C.~.(.(.(.(.`.`.`.XX&X&X4X4XiXiXiXiXgXfXfXzXzXzXxXJXxXxXxXkXjXeXeXqX+X+X X}.{.].D.h.l.2.%.+.R U M M n h f e e w w 5 5 5 5 5 2 2 1 1 1 1 5 5 5 5 5 5 5 5 6 5 3 3 3 3 3 3 3 3 4 4 4 4 4 4 4 4 4 4 4 4 4 4 4 , , , , , , , , 4 0 0 0 4 4 4 0 4 4 4 4 4 4 4 4 4 6 6 6 6 3 3 3 3 3 5 6 6 w w w w t u u g l m M L P T X.O.:.<.t.i.Z.C.{.|.OX+X+X9X9XeXkXFXFXLXFXFXkXkXkXrX8XOXOX|.(.(.V.B.V.u.<.=.X.T G IXIXIXIXIXIXIXIXIXIXIXIXIXIXIXIXIXIXIXIXIXIXIXIXIXIXIXIXIXIXIXIXIXIXIXIXIXIXIXIXIXA ` ",
"IXIXIXIXIXIXIXIXIXIXIXIXIXIXIXIXIXIXIXIXIXIXIXIXIXIXIXIXIXIXIXIXIXIXIXIXIXIXIXIXIXIXIXIXIXIXIXIXIXIXP T X.1.2.p.k.D.D.[.}.}.}. X X X}.].~.V.a.d.y.y.r.r.y.y.y.d.s.s.!.~.~.].].{.{. X X X}.}.}.[.F.D.k.h.g.2.-.+...P F m l l g i u u w w 6 3 3 3 3 3 3 3 3 3 3 3 3 4 4 4 3 3 4 4 4 4 4 4 4 , > > > > > > > > > > > > > > > > > 3 3 6 6 6 6 w t u g l M L I X.:.1.p.f.C.].{.|.7X6XyXpXsXfXsXfXdXdX3X1X,X>X>X>X=X=X=X=X=X=X=X=X=X=X=X=X=X=X=X>X>X>X<X,X1X2X2XaXtXtX&X&X$X`._.Q.!.B.a.e.,.#.o.T I L M n h g u w w 5 5 5 5 5 5 5 w w w e u f g l n M L I ..X.%.%.1.2.g.g.f.f.C.~.~.(.(.(.`.`.`.XX&X&X5XtXiXiXiXgXfXfXzXzXzXJXJXJXJXxXxXkXjXeXeXqX9X+X X X{.].D.k.g.2.%.+.| U L M n h f e e e w 5 5 5 5 5 2 2 2 2 1 2 5 5 5 5 5 5 5 5 6 5 5 3 3 3 3 3 3 3 4 4 4 4 4 4 4 4 4 4 4 4 4 4 4 4 4 4 , , , 4 4 4 4 0 0 0 4 4 0 4 4 4 4 4 4 4 4 6 6 6 6 6 3 3 3 3 5 5 5 6 6 w w w w t u g g l m F L P T X.=.>.3.i.Z.C.~.{.|.OX+X+X9XrXkXkXFXFXFXFXxXkXkXrX8X8XOXOX|.(.(.V.V.u.t.>.=.T P F IXIXIXIXIXIXIXIXIXIXIXIXIXIXIXIXIXIXIXIXIXIXIXIXIXIXIXIXIXIXIXIXIXIXIXIXIXIXIXIXA ` ",
"IXIXIXIXIXIXIXIXIXIXIXIXIXIXIXIXIXIXIXIXIXIXIXIXIXIXIXIXIXIXIXIXIXIXIXIXIXIXIXIXIXIXIXIXIXIXIXIXIXIXG T X.-.2.p.h.A.F.F.}.}.}.}.}.}.{.].C.V.a.y.e.r.e.e.r.r.y.y.d.s.s.C.~.].].].{.}.}.}.}.}.}.[.F.D.h.h.4.2.-.X.T P F m l g g u u t w w 6 3 3 3 3 3 3 3 3 3 3 3 3 3 3 4 4 4 4 4 4 4 4 4 4 > , > > > > > > > > > > > > > > > > 3 3 4 6 6 6 w t u g l M P T O.:.1.p.f.C.].|.OX6X6XyXpXsXfXfXfXdXdX2X1X,X>X>X>X>X=X=X=X=X=X=X=X=X=X=X=X=X=X=X>X>X>X<X1X1X2X2XaXtX;X&X&X`._.'.Q.W.B.y.e.>.O...I P F m n h f u w 6 5 5 5 5 5 5 5 5 5 w e e u f g l n M L I ..X.O.%.1.1.g.p.f.C.~.~.(.(.(.`.`.`.XX&X5X5XtXpXgXgXgXfXfXzXzXzXJXJXJXJXxXxXkXjXeXeXqX9X+X+X X{.].D.k.g.2.2.%...I L M n h f e e e w w 5 2 2 2 2 2 2 2 2 2 2 5 5 5 5 5 5 5 5 5 5 5 3 3 3 3 3 4 4 4 4 4 4 4 4 4 4 4 4 4 4 4 , , , , , , 4 4 4 4 4 4 0 0 0 0 0 0 0 4 4 4 4 4 6 6 6 6 4 4 4 3 3 3 5 5 6 6 6 6 w w w w u u g l n m F P T ..X.=.<.t.i.Z.C.{.{.|.OX+X+XrXeXkXkXxXxXxXxXkXkXrXrX8XOXOXOX`.(.~.V.V.u.3.=.X.T G IXIXIXIXIXIXIXIXIXIXIXIXIXIXIXIXIXIXIXIXIXIXIXIXIXIXIXIXIXIXIXIXIXIXIXIXIXIXIXIXA ` ",
"IXIXIXIXIXIXIXIXIXIXIXIXIXIXIXIXIXIXIXIXIXIXIXIXIXIXIXIXIXIXIXIXIXIXIXIXIXIXIXIXIXIXIXIXIXIXIXIXIXIXIXT X.-.2.4.h.A.F.F.[.}.}.}.}.}.{.].C.d.y.e.e.,.,.,.,.e.r.y.y.d.a.f.C.C.].].].[.[.[.[.[.[.F.D.k.h.l.2.2.+...I L m m l g i u u t w 6 6 3 3 3 3 3 3 3 3 3 3 3 3 3 3 4 4 4 4 4 4 4 4 4 4 3 , > > > > > > > > > > > > > > > > 3 3 3 6 6 6 t t i g l F P ..O.:.1.p.f.D.{.|.7X6X6XhXhXsXfXfXfXfXdX2X3X,X>X>X>X>X=X=X=X=X=X=X=X=X=X=X=X=X>X=X>X>X>X<X1X1X2X2X2X;X;X&X&X`._.^.Q.B.a.y.<.:.O...I L F m l g u u w 5 5 5 5 5 5 5 5 5 5 5 w e e u f g l m M L I I ..+.#.1.1.p.f.f.C.~.~.(.(.(.`.`.OX7X5X5XwXpXgXpXgXfXzXzXzXzXxXJXJXJXxXxXkXjXeXeXqX8X+X+X X{.{.D.k.p.g.1.%...I L B n h f f e e e w w 5 2 2 2 2 2 2 2 2 2 5 5 5 5 5 5 5 6 6 5 5 5 5 5 3 3 4 4 4 4 4 4 4 4 4 4 4 4 4 4 4 , , , , , , 4 4 4 4 4 4 4 0 0 4 4 0 0 4 4 4 4 4 6 6 6 6 4 4 6 4 4 3 5 6 6 6 6 6 6 6 w w w u i g l m F F P T X.=.>.3.i.Z.Z.H.{.{.OXOX+X8XrXrXkXkXkXxXkXkXkXrXrX8X8XOXOXOX`.(.~.C.i.3.>.=.T ! G IXIXIXIXIXIXIXIXIXIXIXIXIXIXIXIXIXIXIXIXIXIXIXIXIXIXIXIXIXIXIXIXIXIXIXIXIXIXIXA ` ",
"IXIXIXIXIXIXIXIXIXIXIXIXIXIXIXIXIXIXIXIXIXIXIXIXIXIXIXIXIXIXIXIXIXIXIXIXIXIXIXIXIXIXIXIXIXIXIXIXIXIXIXP T -.2.4.h.A.F.F.G.[.}.}.}.}.[.D.C.d.y.e.,.,.$.$.,.,.e.r.y.y.d.d.f.C.C.].].].[.[.[.[.F.D.A.k.h.4.2.-.+.T P F m l g g i u t t w 6 6 3 3 3 3 3 3 3 3 3 3 3 3 3 3 4 4 4 4 4 4 4 4 4 4 3 > > > > > > > > > > > > - - > > > 3 3 4 6 6 6 t y i g m F P ..O.1.1.p.f.D.{.|.7X6X0XhXhXlXfXfXfXfXdXdX3X1X<X>X>X>X=X=X=X=X=X=X=X=X=X=X=X=X=X=X>X>X>X<X,X1X2X2X2X;X;X&X&X`.).^.!.B.a.y.<.:.O...I L F m l g u t w 6 5 5 3 3 5 3 5 5 5 5 5 w e e u f h n M M L I I ..O.#.1.1.p.f.Z.C.~.~.(.(.`.|.OX7X7X6XwXpXpXpXgXhXzXcXcXzXxXxXxXxXxXxXcXjXeXeXqX8X+X+X X{.{.].D.p.g.1.%.o.| L L M n h f r e e e w w w 2 2 2 2 2 2 5 5 5 5 5 5 5 5 5 5 5 5 5 5 5 5 4 4 4 4 4 4 4 4 4 4 4 4 4 4 4 4 4 4 4 4 4 0 4 4 4 4 4 4 4 4 4 4 4 4 4 4 4 4 4 6 6 6 6 6 6 6 6 6 6 6 6 6 6 6 6 6 6 6 6 6 w w u u g l l m F P P T X.=.>.t.i.Z.C.H.{.|.OXOX+X8XrXkXkXkXkXkXkXkXkXrX8X8XOXOXOX|.(.(.C.Z.i.3.=.X.T G IXIXIXIXIXIXIXIXIXIXIXIXIXIXIXIXIXIXIXIXIXIXIXIXIXIXIXIXIXIXIXIXIXIXIXIXIXIXIXIX` ",
"IXIXIXIXIXIXIXIXIXIXIXIXIXIXIXIXIXIXIXIXIXIXIXIXIXIXIXIXIXIXIXIXIXIXIXIXIXIXIXIXIXIXIXIXIXIXIXIXIXIXIXP T +.2.2.l.h.F.F.G.[.}.}.}.[.D.D.f.i.e.<.,.#.#.#.#.#.,.,.e.e.y.d.d.f.f.D.D.D.D.D.D.D.D.D.k.h.l.2.2.%...I P F m l g i u u t t w 6 6 3 3 3 3 3 3 3 3 3 3 3 3 3 3 4 3 4 4 4 4 4 4 4 4 3 > > , > > > > > > > > > - - > > > 3 3 4 6 6 6 t y i k m F P ..O.>.1.p.f.D.{.|.7X6X0XhXhXlXlXfXfXfXdXdX3X1X,X>X>X>X>X=X=X=X=X=X=X=X=X=X=X=X=X>X>X>X>X<X,X1X2X2X2X;X&X&X$X_.).Q.!.B.a.t.,.#.X.T P L M m l g u t w 6 5 5 3 3 3 3 3 5 5 5 5 5 w w e u g h n M M L I I ..O.:.1.g.p.f.Z.C.~.~.(.(.|.OX7X7X6XwXwXpXpXgXhXhXcXcXcXxXxXxXxXxXcXcXjXeXeXqX8X+X+X X|.{.].D.f.g.2.1.O...I L M n h f r r e e e e w w 2 2 2 2 2 5 5 5 w w w w w w w 6 6 6 6 6 6 6 6 6 4 4 4 4 4 4 4 4 4 4 4 4 4 4 4 4 4 4 0 4 4 4 4 4 4 4 4 4 4 4 4 4 4 4 4 4 6 6 6 6 6 6 6 6 6 6 6 6 6 6 6 6 6 6 6 6 6 6 w w u i g l m m F P T X.=.>.3.u.Z.C.C.H.{.|.OXOX8X8XrXkXkXkXkXkXcXcXrXrX8X8XOXOXOX|.{.H.C.p.3.1.-.T ! G IXIXIXIXIXIXIXIXIXIXIXIXIXIXIXIXIXIXIXIXIXIXIXIXIXIXIXIXIXIXIXIXIXIXIXIXIXIXIXS ",
"IXIXIXIXIXIXIXIXIXIXIXIXIXIXIXIXIXIXIXIXIXIXIXIXIXIXIXIXIXIXIXIXIXIXIXIXIXIXIXIXIXIXIXIXIXIXIXIXIXIXIXP T +.;.2.l.h.A.F.F.G.[.[.[.G.D.D.f.t.e.,.#.O.O.o.O.#.#.,.,.e.e.y.i.p.f.f.D.D.D.D.D.D.A.k.h.l.4.2.-.+.T P F m z l g i u t t w 6 6 6 3 3 3 3 3 3 3 3 3 3 3 3 3 3 3 3 3 4 4 4 4 4 4 4 4 4 > > > > > > > > > > > - - > > > 3 3 4 6 6 6 t u i k m F P ..O.>.3.p.f.D.{.|.OX8X0XuXhXlXlXfXfXfXfXdX2X3X,X>X>X>X>X=X=X=X=X=X=X=X=X=X=X=X=X>X>X>X>X<X,X1X2X2X2X;X&X&X`._.).Q.W.B.u.t.,.O...I P F M m l g u t w 6 5 3 3 3 3 3 3 3 5 5 5 5 5 w w e u g h n m M L P I ..O.:.1.g.i.f.Z.C.~.~.(.|.|.OX7X7X6XwXwXwXhXhXcXcXcXcXxXxXxXxXkXcXjXeXeXeXqX8X8X+X X|.{.].D.f.p.g.1.#.o.| L B n n j r r r e e e e w e 2 5 5 5 w w w w e e e e w w w w w 6 6 6 6 6 6 6 6 6 6 4 4 4 4 4 4 4 4 4 4 4 4 4 4 4 4 4 4 4 4 4 4 4 4 4 4 4 4 4 4 4 4 4 6 4 6 6 6 6 6 6 6 6 6 6 6 6 6 6 6 6 6 6 6 6 w t u g k l m D F P T X.=.>.t.u.V.C.C.(.(.oXOXOX8XrXrXkXcXkXkXcXcXrXrXrX8X8XOXOXOX{.{.C.Z.p.4.-.+.R ! IXIXIXIXIXIXIXIXIXIXIXIXIXIXIXIXIXIXIXIXIXIXIXIXIXIXIXIXIXIXIXIXIXIXIXIXIXIXIXS ",
"IXIXIXIXIXIXIXIXIXIXIXIXIXIXIXIXIXIXIXIXIXIXIXIXIXIXIXIXIXIXIXIXIXIXIXIXIXIXIXIXIXIXIXIXIXIXIXIXIXIXIXIXR R ;.2.0.h.h.A.F.F.G.[.G.F.D.k.p.t.<.:.O.o.o...o.o.O.#.:.,.<.e.t.i.p.f.f.k.k.k.k.k.h.h.l.9.2.;.+...T P F m l k i u y t t w 6 6 6 3 3 3 3 3 3 3 3 3 3 3 3 3 3 3 3 3 4 4 4 4 4 4 4 4 4 > > > > > > > > > > > - - > > > 3 3 4 6 6 6 t t i k z F P T O.:.3.p.f.D.].|.|.7X0X0XhXhXlXlXfXfXfXdX2X3X1X<X>X>X>X=X=X=X=X=X=X=X=X=X=X=X=X>X>X>X>X<X,X1X2X2X2X;X&X&X_._.).Q.W.a.y.e.>.O...I P F m z l g u t 6 6 5 3 3 3 3 3 3 3 3 3 3 5 5 5 w w u u g h l m M F L I ..O.:.1.g.i.p.f.C.~.~.].|.OXOX7X6X7X6XwXhXhXhXhXcXcXcXxXxXcXcXjXjXeXeXeXqXqX8X+XOX X X{.].C.p.g.,.#.o...I L M n h f r r r e e e e e w w w w e e e e e e e e w w w w w w w w w 6 6 6 6 6 6 6 6 4 4 4 4 4 4 4 4 4 4 4 4 4 , , 4 4 4 4 4 4 4 0 4 4 4 4 4 4 4 6 6 4 6 6 6 6 6 6 6 6 6 6 6 6 6 6 6 6 6 6 6 6 6 t u i g k l m D G P T =.>.3.t.V.V.V.C.(.(.OXOXOX8XwXhXkXcXkXcXcXkXrXrXrXrX8X+XOX|.{.H.D.Z.4.2.-.+.R G IXIXIXIXIXIXIXIXIXIXIXIXIXIXIXIXIXIXIXIXIXIXIXIXIXIXIXIXIXIXIXIXIXIXIXIXIXIXS ",
"IXIXIXIXIXIXIXIXIXIXIXIXIXIXIXIXIXIXIXIXIXIXIXIXIXIXIXIXIXIXIXIXIXIXIXIXIXIXIXIXIXIXIXIXIXIXIXIXIXIXIXIXP R @.;.9.0.h.A.S.F.F.G.F.F.A.h.p.<.>.#.o...| | | ....o.O.#.:.,.<.<.g.g.g.p.p.p.h.h.l.0.2.2.;.@.+.R P F m z k g y u t t w 6 6 6 6 3 3 3 3 3 3 3 3 3 3 3 3 3 3 4 4 4 4 4 4 4 4 4 4 4 4 , 3 3 > > > > > > > > > > > > > 3 3 4 6 6 6 t t i g l M P T X.:.1.p.f.C.].|.|.7X8X0XhXhXlXlXfXfXfXdXdX3X1X,X>X>X>X=X=X=X=X=X=X=X=X=X=X>X>X>X>X>X>X<X1X1X2X2X2X;X&X&X_.).^.!.B.a.y.<.:.O...I L F m l l g u t 6 6 3 3 3 3 3 3 3 3 1 3 1 3 3 5 5 w w u u g h l n M F L I ..O.:.1.g.i.p.f.C.C.~.{.|.|.OXOX7X6X7X0X0XhXhXhXhXcXcXcXcXkXjXeXeXrXeX9XqX8X8X+X X|.{.].C.f.g.e.,.#.o.| I B n n h f f r r r e e e e e e e e e e e e e e e u u u u u u u t t t t t 9 6 9 6 6 4 4 4 4 4 4 4 4 4 4 4 4 4 4 4 4 4 4 4 0 4 4 4 4 4 4 4 4 4 4 4 4 4 6 6 6 6 6 6 6 6 6 6 6 6 6 6 6 6 5 3 5 6 6 6 t u i g k z m D G T X.=.>.3.t.V.V.V.C.(.(.OXOXwXwXwXhXkXcXcXcXkXkXkXeXrXrX8X+X+X{.{.H.D.p.4.2.-.R ! IXIXIXIXIXIXIXIXIXIXIXIXIXIXIXIXIXIXIXIXIXIXIXIXIXIXIXIXIXIXIXIXIXIXIXIXIXIXA ",
"IXIXIXIXIXIXIXIXIXIXIXIXIXIXIXIXIXIXIXIXIXIXIXIXIXIXIXIXIXIXIXIXIXIXIXIXIXIXIXIXIXIXIXIXIXIXIXIXIXIXIXIXP R @.;.9.0.h.j.S.S.F.F.F.F.k.h.g.1.:.O...I I I I I | ..o.O.O.#.:.>.,.1.1.4.2.4.4.4.2.2.;.;.@.+.R P F D z l g i u y t t 6 6 6 6 6 3 3 3 3 3 3 3 3 3 3 3 3 3 4 4 4 4 4 4 4 4 4 3 3 4 4 4 3 3 > > > > > > > > - > > > > 3 3 4 4 6 6 t t u g l m P I X.=.1.g.p.C.].{.|.OX8X0X0XhXhXlXfXfXfXdXdX2X1X,X>X>X>X>X=X=X=X=X=X=X>X>X>X>X>X>X>X>X>X<X,X1X2X2X2X;X&X&X_.).^.!.B.a.y.<.:.X.T P F F m l k i y w 6 6 3 3 3 3 3 3 3 3 1 3 1 1 3 3 5 5 w w u u g h l n m F L I ..O.:.1.1.p.p.f.C.C.~.].{.|.OXOXOX7X8X6X0XrXhXrXhXhXkXkXjXjXeXeXeXrXeX9XqX9X8X+X X X{.].C.f.r.e.,.#.o.| B B n h h f f r r r e e e e e e r r e e f f f f f f f f f u u u u u y y t t 9 6 6 6 4 4 4 4 4 4 4 4 4 4 4 4 4 4 4 4 0 0 0 4 4 4 4 4 0 0 0 4 4 4 4 6 6 6 6 6 6 6 6 6 6 6 6 6 6 6 5 5 3 3 3 3 6 6 6 t u i g k z m D G T X.=.>.3.t.V.V.V.C.(.oXOXOXwX8XwXhXcXcXcXkXkXkXkXkXeXrX8X+X+X{.{.D.A.p.4.;.-.R ! IXIXIXIXIXIXIXIXIXIXIXIXIXIXIXIXIXIXIXIXIXIXIXIXIXIXIXIXIXIXIXIXIXIXIXIXIXb ",
"IXIXIXIXIXIXIXIXIXIXIXIXIXIXIXIXIXIXIXIXIXIXIXIXIXIXIXIXIXIXIXIXIXIXIXIXIXIXIXIXIXIXIXIXIXIXIXIXIXIXIXIXIXE W ;.6.9.0.j.j.S.S.S.F.A.h.h.4.1.O...T I L L L L I I | ....O.O.O.:.:.:.1.1.2.2.2.2.;.;.@.R R P F D m l k i y y t t 9 6 6 6 6 6 3 3 3 3 3 3 3 4 4 3 3 3 3 4 4 4 4 4 4 4 4 4 4 4 4 3 4 3 > > > > > > > > > > > > > > 3 3 4 4 6 6 6 t u g l m F I ..O.1.1.p.f.C.{.|.|.7X6X0XuXhXhXlXfXfXfXdXdX1X1X,X>X>X>X>X>X=X>X>X>X>X>X>X>X=X>X>X>X>X<X,X1X1X2X3X&X&X&X_.).Q.W.B.a.t.<.=.X.T P F m m l k i y w 6 6 3 3 3 3 3 3 3 3 3 3 3 3 3 3 3 5 6 w u u u g g l n m F L I ..O.:.1.1.g.i.p.f.C.~.].{.|.|.OXOXOX7X6X8XrXuXrXhXjXjXjXeXeXeXeXrXrXeXeX9X9X8XOX|.{.].C.f.y.e.,.#.o. .I B M n h h j r r r r e e e e r r r r f f f f f f g g g g g g g i i y u y t t 9 6 6 6 4 4 4 4 4 4 4 4 4 4 4 4 4 4 4 4 4 4 4 4 4 0 4 4 4 0 0 9 4 4 9 9 6 6 6 6 6 6 6 6 6 6 6 4 6 4 3 3 3 3 3 3 6 6 t y u y k k z D G ! T =.=.>.3.u.V.V.V./.(.oXOX7XwXwXhXgXkXkXkXkXkXkXkXkXeXrX8X+X X{.H.D.h.4.2.-.+.R IXIXIXIXIXIXIXIXIXIXIXIXIXIXIXIXIXIXIXIXIXIXIXIXIXIXIXIXIXIXIXIXIXIXIXIXIXb ",
"IXIXIXIXIXIXIXIXIXIXIXIXIXIXIXIXIXIXIXIXIXIXIXIXIXIXIXIXIXIXIXIXIXIXIXIXIXIXIXIXIXIXIXIXIXIXIXIXIXIXIXIXIXY Q @.6.9.0.j.j.S.S.S.S.j.h.l.2.1.O...I P L L L L L L I I ........O.O.O.O.-.-.-.-.+.+.+.R R P G F m z k g y y t t 9 6 6 6 6 6 4 4 3 3 3 3 3 4 4 4 3 3 3 4 4 4 4 3 4 4 4 4 4 4 4 3 3 3 3 3 > > > > > > > > > > - > > 3 3 3 4 6 6 6 t u i l m F P T O.:.1.p.f.C.].{.|.OX6X6X6XhXpXsXfXfXfXdXdX2X1X,X<X>X>X>X>X>X>X>X>X>X>X>X>X>X>X>X>X>X<X,X1X1X2X3X&X&X%X_.).Q.W.B.u.t.<.O...T P F m z l k i y 6 6 4 3 3 3 3 3 3 3 3 3 3 3 3 3 3 3 5 5 w w u u u g g l l m F L I ..O.O.:.1.3.i.p.f.C.~.(.{.{.|.|.OXOXOX8X8XrXrXeXeXjXjXeXjXeXeXeXeXeXeXeXqX9X+X X|.].~.C.d.y.e.$.#.o.| B B n n h j r r r r r r r r r r r f f j j h h h h h h h h h g g g i i y y t t 6 6 6 4 4 4 4 4 4 4 4 4 4 4 4 4 4 4 4 4 4 4 0 0 0 4 4 4 4 9 9 6 6 9 9 9 6 6 6 6 6 6 6 4 4 4 4 4 4 3 3 3 3 3 3 4 6 6 t y y i k k z D G T T =.>.3.3.u.V.V.V./.oXXX7X7XwXgXgXkXkXkXkXxXxXkXkXkXeXrX+X+X{.].D.A.p.4.;.-.R ! IXIXIXIXIXIXIXIXIXIXIXIXIXIXIXIXIXIXIXIXIXIXIXIXIXIXIXIXIXIXIXIXIXIXIXIXb ",
"IXIXIXIXIXIXIXIXIXIXIXIXIXIXIXIXIXIXIXIXIXIXIXIXIXIXIXIXIXIXIXIXIXIXIXIXIXIXIXIXIXIXIXIXIXIXIXIXIXIXIXIXIX! E W 6.6.w.q.j.j.S.S.S.j.h.0.2.-.X.T I L F F M F F L L P I I T T ......X.X.X.X.X.X...R T P G F m z l k i y y t 9 6 6 6 6 6 6 4 4 3 3 3 4 3 3 4 3 4 4 4 4 4 4 3 3 3 3 4 3 3 3 3 3 3 3 3 > > > > > > > > > > > > > > > 3 3 4 4 6 6 t y i k m F P T X.=.1.g.p.C.~.{.|.|.7X6X6X6XpXpXsXfXfXdXdX2X1X1X,X>X>X>X>X>X>X>X>X>X>X>X>X>X>X>X>X>X<X,X1X1X3X:X&X&X.X_.).Q.W.B.u.t.<.O...T P F m z l k y y 9 6 4 4 3 3 3 3 3 3 3 3 3 3 3 3 3 3 5 5 w w t u u u g g l n m F L I ....O.:.1.1.g.p.f.C.C.~.(.{.{.|.OXOXOX8X8XrXeXeXeXjXjXjXjXjXSXSXeXeXeXeXqX8X+X|.{.~.C.a.y.r.,.#.o. .B B M n h h h r r r r r r r r r f f h h h n n n l n l l l l l l k g i i y y t 9 9 6 4 4 4 4 4 4 4 4 4 4 , 4 4 4 4 4 4 4 4 0 0 0 4 4 4 4 9 9 9 9 9 9 9 6 6 6 6 6 6 6 6 6 6 4 4 4 3 3 3 3 3 3 3 6 6 9 t y y i k z D G ! T =.=.>.3.t.V.V.V./.(.XXOX7XwXwXhXkXzXkXxXxXxXxXxXkXeXrX+X+X}.}.H.D.A.4.2.;.@.R IXIXIXIXIXIXIXIXIXIXIXIXIXIXIXIXIXIXIXIXIXIXIXIXIXIXIXIXIXIXIXIXIXIXIXIXb ",
"IXIXIXIXIXIXIXIXIXIXIXIXIXIXIXIXIXIXIXIXIXIXIXIXIXIXIXIXIXIXIXIXIXIXIXIXIXIXIXIXIXIXIXIXIXIXIXIXIXIXIXIXIXIXE W &.6.w.q.q.j.S.S.j.j.h.9.2.-.X.T P L F M M M M F F L L P I I I I T T T T T T T T P P F F m z l k g y u t t 6 6 6 6 6 6 6 4 4 4 3 3 3 3 3 4 4 4 4 4 4 4 4 3 3 3 3 4 3 3 3 3 3 3 3 3 > > > > > > > > > > > > > > > 3 3 3 4 6 6 6 t y k l m L I ..O.:.3.i.f.C.(.|.|.OX7X6X6XyXpXsXfXfXfXdXdX2X2X1X,X>X>X>X>X>X>X>X>X>X>X>X>X>X>X>X>X<X,X1X1X3X:X&X&X.X_.).Q.W.B.u.t.<.O...I P F m z l g i y 9 6 4 4 3 3 3 3 3 3 3 3 3 3 3 3 3 3 5 6 6 w t t u u u g g l n m F L I T ..O.O.>.1.i.i.f.Z.C.C.(.{.{.|.OXOX8X8XrXrXeXeXeXjXFXFXFXFXFXFXFXSXeXeXqXqX|.{.~.~.s.d.y.e.$.#. . .B B n n h h h j r r r r r r j j h h h n n n n n n n n n n n l l k g i i u y t 9 6 4 4 4 4 4 , , 4 4 4 , , 4 4 4 4 4 4 0 0 0 0 4 4 4 0 9 9 9 9 9 9 9 6 6 6 6 4 6 6 6 4 4 4 4 4 3 3 > 3 3 3 3 4 6 6 9 t y i s k z D G T T =.=.>.3.u.V.V././.oXXX7XwXwXhXcXkXkXJXJXxXxXxXkXkXrX9X+X@X{.H.D.A.h.4.5.;.Q IXIXIXIXIXIXIXIXIXIXIXIXIXIXIXIXIXIXIXIXIXIXIXIXIXIXIXIXIXIXIXIXIXIXIXIXb ",
"IXIXIXIXIXIXIXIXIXIXIXIXIXIXIXIXIXIXIXIXIXIXIXIXIXIXIXIXIXIXIXIXIXIXIXIXIXIXIXIXIXIXIXIXIXIXIXIXIXIXIXIXIXIXY Q &.6.w.w.q.j.j.j.j.j.0.9.;.;.X.T P F M M M M M M M F F L L L P P P P P P P P P P G F D m z l k k i u y t 9 6 6 6 6 6 6 6 4 4 4 4 3 3 3 3 4 4 4 4 4 4 3 3 4 4 4 4 4 4 3 3 3 3 4 3 3 3 > > > > > > > > > > > > > > 3 3 3 3 4 6 6 t u g l m F P T X.:.1.g.p.C.~.{.|.|.OX7X6X6XpXpXfXfXfXdXdX2X1X1X1X,X>X>X>X>X>X>X>X>X>X>X>X>X>X>X>X>X,X1X1X2X;X&X&X.X_.).Q.W.B.u.t.<.O...T P F m z l k y y 9 6 4 4 4 4 3 3 3 3 3 3 3 3 3 3 3 3 6 6 6 w t t t u u u g g l n m F L P I ....O.:.<.t.i.f.C.C.C.~.(.{.|.OXOX8X8XrXeXeXeXSXFXFXFXFXFXFXFXFXSXeXqX8X|.|.(.~.s.d.y.r.$.$.o.| B B M n n h h h j r r r r j h h h n n n n n n M M M M M m m m l l k g i y y t 9 6 4 4 4 4 , , , , 4 4 4 4 4 4 4 4 4 4 4 4 0 4 0 0 0 0 0 9 9 9 6 9 6 6 6 6 6 4 6 6 4 4 4 4 4 3 3 3 3 3 3 3 3 4 6 6 9 t y y s k z D G ! T =.=.>.3.u.V.V././.oXXXOXwXwXhXgXzXkXJXJXLXLXFXkXkXeX9X+X@X}.H.H.D.h.4.5.;.W ! IXIXIXIXIXIXIXIXIXIXIXIXIXIXIXIXIXIXIXIXIXIXIXIXIXIXIXIXIXIXIXIXIXIXIXb ",
"IXIXIXIXIXIXIXIXIXIXIXIXIXIXIXIXIXIXIXIXIXIXIXIXIXIXIXIXIXIXIXIXIXIXIXIXIXIXIXIXIXIXIXIXIXIXIXIXIXIXIXIXIXIXY Q ( 6.w.w.q.q.j.j.j.j.0.9.;.@.+.T P F M m m m m m m M M F F F F F F F L P P G F F F D m z l k k i y y t t 6 6 6 6 6 6 6 4 4 4 4 4 3 3 3 3 4 4 4 4 4 3 3 3 3 4 4 4 4 4 3 3 3 3 4 3 3 3 > > > > > > > > > > > > > > 3 3 3 3 4 4 6 t y i k m F L I ..O.>.<.i.Z.C.~.{.|.|.OX7X6XyXpXsXfXfXfXdXdX2X2X1X1X,X>X>X>X>X>X>X>X>X>X>X>X>X>X>X>X,X1X1X2X;X&X&X.X_.^.Q.B.B.u.t.>.=.X.T P F D z l k y y 9 6 6 4 4 4 4 4 3 3 3 3 3 3 3 4 4 6 6 6 6 w t t t t u u u g g l n m M F L P I ..O.:.<.t.i.i.f.C.C.~.(.{.|.OX+X8X8XrXeXeXSXSXFXFXFXFXFXFXFXFXeXeXqXOX|.(.~.!.s.y.r.e.$.o. . .B B B n n h h h h h r h h h n n n M M M B B B B B L F F M m m m l k g i y t 9 6 4 4 4 3 > > , , 4 4 4 4 4 4 4 4 4 4 4 4 0 4 0 0 0 9 9 9 9 9 6 6 6 6 6 6 6 6 4 4 4 4 4 4 4 3 3 3 3 > > 3 3 4 4 6 9 9 t y i s k D D G T T =.=.>.3.u.V.V./.oXXXOX7XwXwXgXkXkXJXJXLXLXFXxXkXeXrX+X@X}.{.H.D.A.h.5.5.;.E IXIXIXIXIXIXIXIXIXIXIXIXIXIXIXIXIXIXIXIXIXIXIXIXIXIXIXIXIXIXIXIXIXIXIXIX",
"IXIXIXIXIXIXIXIXIXIXIXIXIXIXIXIXIXIXIXIXIXIXIXIXIXIXIXIXIXIXIXIXIXIXIXIXIXIXIXIXIXIXIXIXIXIXIXIXIXIXIXIXIXIXJ K ( 6.6.w.q.q.j.j.j.j.0.9.6.@.+.I P F m m m n n n m m m m m m m m m D F F F F D D m z z l k g i y y y t 9 6 6 6 6 6 6 6 4 4 4 4 4 4 4 4 4 4 4 4 4 4 4 3 3 4 4 4 4 4 4 3 3 3 4 4 3 3 3 3 3 > > > > > > > > > > > > 3 3 3 3 3 4 6 6 t i k l m F P T X.=.<.i.p.C.~.(.{.|.|.7X7X6XyXpXsXsXsXaXaXaX2X2X1X1X,X>X>X>X>X>X>X>X>X>X>X>X>X>X>X,X1X1X2X;X&X&X_._.^.W.B.B.u.t.>.=.X.T P F D z k k i y 9 6 6 4 4 4 4 4 4 4 4 4 4 4 4 4 6 6 6 6 w w t t t t t t u u g g l l m m M F L I ..O.:.>.<.t.i.i.Z.C.C.~.{.|.OX+X8X9X9XeXAXSXSXSXFXFXFXFXFXFXeXeXqXqX|.`.(.!.s.d.y.r.$.$.o. .B B B B n n n h h h h h h n n M B B B B B B L L L L L L L F F m z l k i y y t 6 4 4 3 3 > > > , , , 4 4 4 4 4 4 4 4 0 4 0 0 0 0 9 9 9 9 9 9 6 6 6 6 6 6 6 6 4 4 4 4 4 4 4 3 4 3 > > > 3 3 4 4 6 6 9 9 y y s k z D G ! T =.=.>.3.u.V.V./.`.oXXX7XwXwXhXkXkXJXJXLXJXJXxXkXkXrX+X+X}.{.H.D.A.h.4.5.;.Q E IXIXIXIXIXIXIXIXIXIXIXIXIXIXIXIXIXIXIXIXIXIXIXIXIXIXIXIXIXIXIXIXIXIXIX",
"IXIXIXIXIXIXIXIXIXIXIXIXIXIXIXIXIXIXIXIXIXIXIXIXIXIXIXIXIXIXIXIXIXIXIXIXIXIXIXIXIXIXIXIXIXIXIXIXIXIXIXIXIXIXJ K ) &.7.w.q.q.q.q.j.q.0.9.6.@.Q P P F m m l l l l l l l l m l l z z z m m m m z z z l k k g i y y y t 9 6 6 6 6 6 6 6 4 6 4 4 4 4 4 4 4 4 4 4 4 4 4 4 4 4 4 4 4 4 4 4 3 3 3 3 4 3 3 3 3 3 > > > > > > > > > > > > > 3 3 3 3 3 6 6 t u g l m F F P T O.:.<.i.f.C.~.~.{.|.|.7X7X6XpXsXsXsXsXaXaXaX2X2X1X1X,X<X>X>X>X>X>X>X>X>X>X>X>X<X,X1X1X3X;X&X&X.X_.^.W.B.B.u.t.>.=.X.T P F D z k k i t 9 6 6 4 4 4 4 4 4 4 4 4 4 4 4 4 6 6 6 6 6 w w w w w w w t t u i g g l l m m M L P T X.=.>.<.3.i.i.f.Z.C.].{. X+X+X+X9X9X9XAXSXSXFXFXFXFXFXFXFXeX0X8X|.|.(.Q.!.s.y.r.e.$.o. . .B B B B B n n n n n n n B B B B B B L I I I I I I I I U P L F N z x g i y t 6 4 4 3 3 > > > > , , 4 4 4 4 4 4 4 4 4 4 0 0 0 9 9 9 9 9 9 9 9 6 6 4 6 6 6 6 6 4 4 4 4 4 4 4 3 3 > > > > 3 4 4 4 6 9 9 9 y i s k D D ! T T =.=.>.t.V.V.V./.oXXXOXwXwXhXcXkXJXJXJXJXJXxXkXkXeX8X+X@X{.{.H.A.A.0.5.;.W E IXIXIXIXIXIXIXIXIXIXIXIXIXIXIXIXIXIXIXIXIXIXIXIXIXIXIXIXIXIXIXIXIXIXIX",
"IXIXIXIXIXIXIXIXIXIXIXIXIXIXIXIXIXIXIXIXIXIXIXIXIXIXIXIXIXIXIXIXIXIXIXIXIXIXIXIXIXIXIXIXIXIXIXIXIXIXIXIXIXIXIXK ) ( 7.7.w.q.q.q.q.q.w.9.6.@.Q U G F m m l l l l l l l l l l k k l l l l l l k k k k i i y y y t t 9 6 6 6 6 6 6 4 4 4 4 4 4 4 4 4 4 4 4 4 4 4 4 4 4 4 4 4 4 3 4 4 4 4 4 3 3 3 3 3 3 3 3 3 > > > > > > > > > > > > 3 3 3 3 3 4 6 w y i k l m F L I ..O.>.e.i.f.C.~.~.(.|.|.7X7X6XyXpXsXsXaXaXaXaX2X2X1X1X,X<X>X>X>X>X>X>X>X>X>X>X<X,X1X1X:X4X&X%X_._.^.W.B.B.u.t.>.=.X.T P D m z k k i t 9 6 4 4 4 4 4 4 4 4 4 4 4 4 4 6 6 6 6 6 9 9 9 6 w w w 6 w w t u u g g g l l m M F P T ..O.:.>.<.3.i.i.Z.C.].{.{.@X+X+X+X9X9XAXSXSXFXFXFXFXFXFXeXeX8XOX|.`.Q.!.M.s.y.r.e.$.$. . .B B B B B B B B B B B B B B I I | | | | | ..........R R U H H m l k i u t 6 6 4 3 > > > > 3 > 4 , , 4 4 4 4 4 4 4 4 0 0 9 9 9 9 9 9 9 9 9 9 6 4 4 4 6 6 6 4 4 4 4 4 4 4 3 > > > > > 3 4 4 4 4 4 9 9 9 y i k z D G ! T X.=.>.3.u.V.V./.`.XXXX7XwXwXgXkXJXJXJXJXJXLXxXkXeX9X+X+X}.}.H.D.A.h.0.5.;.Q E IXIXIXIXIXIXIXIXIXIXIXIXIXIXIXIXIXIXIXIXIXIXIXIXIXIXIXIXIXIXIXIXIXIX",
"IXIXIXIXIXIXIXIXIXIXIXIXIXIXIXIXIXIXIXIXIXIXIXIXIXIXIXIXIXIXIXIXIXIXIXIXIXIXIXIXIXIXIXIXIXIXIXIXIXIXIXIXIXIXIXJ ^ ) 7.7.w.q.q.q.q.q.w.w.6.@.Q E G D m z l l k k g g g g g g g g g g g g g i i i i y y y y t t 9 9 6 6 6 6 4 4 4 4 6 6 4 4 4 4 4 4 4 4 4 4 4 4 4 4 4 4 4 4 4 4 4 4 4 3 4 3 3 3 3 3 3 3 3 3 > > > > > > > > > > 3 > 3 3 3 3 3 4 6 6 t y g l l m F P I ..O.,.e.i.f.C.~.~.(.|.|.7X7X6XyXpXsXsXaXaXaX2X2X2X1X1X,X<X>X>X>X>X>X>X>X>X>X<X,X1X1X:X4X&X%X_.).^.W.B.B.u.t.>.=.T T G D m z k s i t 9 6 4 4 4 4 4 4 4 4 4 4 4 4 4 4 6 6 6 6 9 6 6 6 6 6 6 6 6 6 w w t u u i g g l l m F P I ..X.O.:.>.<.i.p.Z.C.].{.{.}.+X+X+X+X9X9XAXSXFXFXFXFXFXeXeX8X7X|.`.'.Q.!.s.s.y.r.z.$.$. . . .B B B B B B B B B B  . . . .o.o.o.o.o.o.O.O.O.+.+.+.R Y H H m x g i y 6 6 4 3 3 > > > > > > > 4 4 4 4 4 4 4 4 0 0 0 9 9 9 9 9 9 9 9 9 9 4 4 4 4 6 6 4 4 4 4 4 4 4 4 > > > > > > > 4 4 4 4 4 4 6 9 9 y s k D D G T T =.=.>.t.V.V.W./.oXXX5XwXwXhXkXJXJXJXJXJXLXFXkXeXrX+X+X@X}.[.H.A.A.0.9.5.W E J IXIXIXIXIXIXIXIXIXIXIXIXIXIXIXIXIXIXIXIXIXIXIXIXIXIXIXIXIXIXIXIXIX",
"IXIXIXIXIXIXIXIXIXIXIXIXIXIXIXIXIXIXIXIXIXIXIXIXIXIXIXIXIXIXIXIXIXIXIXIXIXIXIXIXIXIXIXIXIXIXIXIXIXIXIXIXIXIXIX~ ^ ) _ 7.8.8.q.q.q.q.w.w.6.&.Q E G D m z l k g g g g i i y u u u u u u y y y y y y y t t t 9 9 6 6 6 6 4 4 4 4 4 4 4 6 6 6 4 4 4 6 6 4 4 6 6 6 6 4 4 4 4 4 6 4 4 4 3 4 4 3 3 3 3 3 3 4 3 3 3 > > > > > > > > > 3 > > 3 3 3 3 4 6 6 t u i g l m m F P I X.:.<.e.i.f.C.~.~.(.|.|.7X6X6XyXyXpXpXaXaXaXaX2X1X1X1X,X<X>X>X>X>X>X>X>X>X,X1X1X1X:X4X&X&X_.).^.W.B.V.u.3.>.O.T T G D z z k s i t 9 6 4 4 4 4 4 4 4 4 4 4 4 4 4 4 6 6 6 6 6 6 6 6 6 6 6 6 6 6 6 6 w w t u u i g g l m F L P T ..X.O.:.<.i.i.Z.C.D.].{.{. X+X+X+X9X9XSXSXFXFXFXjXjXeX0X6X7X`.`.'.Q.!.s.d.y.r.z.$.$.o. . . . . .B B B B  . . . .o.o.#.#.#.#.#.#.#.#.%.%.%.+.+.E Y H N z k i y t 6 4 3 3 > > > > > > > > , 4 4 4 4 4 4 0 9 9 9 9 9 9 9 9 9 6 9 9 6 6 4 4 4 4 4 4 4 4 4 4 4 , > > > < > > > 4 , 4 4 4 4 4 4 9 y i k z D D G T T =.>.3.u.V.V./.`.XXXX7XwXgXkXJXJXJXJXJXLXLXxXkXeX9X+X@X}.}.G.F.A.h.0.9.;.Q Y IXIXIXIXIXIXIXIXIXIXIXIXIXIXIXIXIXIXIXIXIXIXIXIXIXIXIXIXIXIXIXIXIX",
"IXIXIXIXIXIXIXIXIXIXIXIXIXIXIXIXIXIXIXIXIXIXIXIXIXIXIXIXIXIXIXIXIXIXIXIXIXIXIXIXIXIXIXIXIXIXIXIXIXIXIXIXIXIXIX~ ^ ) _ 7.7.8.q.q.q.q.w.w.6.&.Q E H D m z l k k g i i y u u t t t t t t t t t t t t t t 9 9 6 6 6 6 6 6 4 4 4 4 4 4 4 6 4 6 6 6 6 6 6 6 6 6 6 6 6 6 6 6 6 6 6 4 4 4 3 4 4 4 4 3 3 3 3 4 4 3 3 > > > > > > > > > > > > 3 3 3 3 3 4 6 w y i g k l m M F P ..O.:.<.r.i.f.C.~.~.(.|.vX7X6X6XyXyXpXsXaXaXaXdX2X1X1X1X,X>X>X>X>X>X<X>X<X,X1X1X3X3X4X&X&X_.).^.W.B.V.u.3.>.X.T ! G D z z k s y 9 9 4 4 4 4 4 4 4 4 4 4 4 4 4 4 4 6 6 6 6 6 6 6 6 6 6 4 3 3 5 6 6 6 w w w t u u g g l m F F P I T ..O.=.>.i.i.f.C.C.].{.{.|.+X+X+X9XeXeXSXSXFXjXeXeX0X0X7X7X`.).'.!.!.s.d.r.r.z.z.$.o.o. . . . . . . . . .o.o.$.$.$.$.$.$.,.,.1.1.1.2.2.%.@.@.Y H H N l g u t 6 4 3 3 > > > > > > > > , 4 4 4 4 4 4 0 9 9 9 9 9 9 9 9 9 6 9 9 4 6 4 4 4 4 4 4 4 4 4 4 4 , , > > < > > > > , , , , 4 4 4 9 9 y s k z D G ! T X.=.3.t.V.V././.XXXX5XwXwXgXzXJXJXJXJXLXLXxXkXeX9X+X+X@X}.[.D.A.A.0.9.;.Q K J IXIXIXIXIXIXIXIXIXIXIXIXIXIXIXIXIXIXIXIXIXIXIXIXIXIXIXIXIXIXIXIX",
"IXIXIXIXIXIXIXIXIXIXIXIXIXIXIXIXIXIXIXIXIXIXIXIXIXIXIXIXIXIXIXIXIXIXIXIXIXIXIXIXIXIXIXIXIXIXIXIXIXIXIXIXIXIXIX~ ^ ) _ 7.7.8.b.b.q.q.w.w.6.6.W E H D m z k k g i i y u y t t t w w 6 w t t t 9 9 9 6 6 6 6 6 6 6 4 6 4 4 4 4 4 4 4 4 6 4 4 4 4 6 6 6 4 4 6 6 6 6 6 6 6 6 6 6 6 4 4 3 3 3 4 4 3 3 3 4 4 4 3 > > > > > > > > > > 3 > > > 3 3 3 3 4 6 w t u i g l l m M L I ..O.:.<.r.i.f.C.~.~.|.|.7X7X6X6XyXyXpXsXaXdXdXdX2X1X1X,X<X>X>X>X>X<X>X<X,X1X1X3X3X4X&X&X.X).^.W.B.V.u.3.:.X.T ! G D z k k i y t 9 4 4 4 4 4 4 4 4 4 4 4 4 4 4 4 4 6 6 6 6 6 6 6 6 4 4 3 3 3 5 6 6 6 6 w w t u u g k l m M F L P T ..X.=.<.t.i.f.Z.C.H.].{.{. X+X8X9XeXeXeXeXFXjXjXeX0X6X7X$X_.).'.!.M.s.d.r.r.z.z.$.$.$.o. . . . . .o.$.$.$.$.$.e.e.e.e.e.e.g.g.g.2.2.2.%.@.Q Y H N x g u t 6 4 3 3 > > > > > > 3 , 4 4 , 4 4 4 4 4 9 9 9 9 9 9 9 9 9 6 9 6 6 6 6 4 6 6 4 4 4 4 4 4 4 , , > > > > > > > , , , , , 4 4 4 0 y i k z D D G T X.=.>.t.V.V.W./.`.XXXXwXwXhXzXJXJXJXJXJXJXxXkXeXrX+X+X@X}.}.H.A.A.0.9.;.W E J IXIXIXIXIXIXIXIXIXIXIXIXIXIXIXIXIXIXIXIXIXIXIXIXIXIXIXIXIXIXIXIX",
"IXIXIXIXIXIXIXIXIXIXIXIXIXIXIXIXIXIXIXIXIXIXIXIXIXIXIXIXIXIXIXIXIXIXIXIXIXIXIXIXIXIXIXIXIXIXIXIXIXIXIXIXIXIXIXIX^ / _ 7.7.8.c.b.q.q.w.w.6.6.W E ! D m z k k k i i y y y t w 6 6 6 6 6 6 6 6 6 6 6 6 6 6 6 6 4 4 4 4 4 4 4 4 4 4 4 4 4 4 4 6 6 6 6 6 6 6 6 6 6 6 6 6 6 6 6 4 4 4 4 4 4 4 4 4 4 4 3 3 4 4 3 3 > > > > > > > > > 3 > 3 3 3 3 3 3 4 6 6 t u u g g l n m F L I o.#.,.e.r.i.f.C.~.(.|.|.7X7X6XyXyXpXsXsXdXdXdX2X1X1X1X,X>X>X>X<X<X>X<X,X1X1X3X3X4X&X&X.X).^.W.B.V.u.3.:.X.T P G D z k k i y 9 9 4 4 4 4 4 4 4 4 4 4 4 4 4 4 4 4 6 6 6 6 6 6 6 6 4 4 3 3 3 5 5 6 6 6 6 w w t u i g l l m m F F P I ..O.:.<.3.i.f.Z.C.C.].{.{.OX+X8X9XeXeXeXjXjXjXeX0X6X7X&X`._.).Q.!.M.s.d.r.r.r.z.z.$.$.$.o.o.o.$.$.$.$.z.e.e.r.r.r.r.r.g.g.g.g.g.2.2.%.@.@.Y H N l g i t 6 4 3 3 > > > > > 3 > > , 4 , 4 4 4 4 4 0 9 9 9 9 9 9 9 6 6 9 6 6 6 6 4 6 6 4 4 4 4 4 4 4 4 , > > > < < , , > > > , , , 4 4 9 9 i s k D D G T T =.>.3.V.V.V./._.XXXXwXwXgXzXJXJXJXJXJXJXJXkXeXrX+X+X@X}.}.G.A.A.h.0.6.W Q J J IXIXIXIXIXIXIXIXIXIXIXIXIXIXIXIXIXIXIXIXIXIXIXIXIXIXIXIXIXIXIX",
"IXIXIXIXIXIXIXIXIXIXIXIXIXIXIXIXIXIXIXIXIXIXIXIXIXIXIXIXIXIXIXIXIXIXIXIXIXIXIXIXIXIXIXIXIXIXIXIXIXIXIXIXIXIXIXIX~ / _ 7.7.8.c.b.q.q.8.w.6.6.W Q Y H D z k k g i y y y t t 6 6 6 6 6 6 6 6 6 6 6 6 6 4 4 4 4 4 4 4 4 4 4 4 4 4 4 4 4 4 4 4 4 6 6 6 6 6 6 6 6 6 6 6 6 6 6 6 6 4 4 4 4 4 4 3 3 4 3 4 4 4 4 3 3 4 4 3 3 > > > > > > 4 3 3 3 3 3 3 4 6 6 t t u i g g l n m L I ..O.#.,.e.i.d.f.~.~.|.|.7X7X7X6XyXyXpXsXfXdXdXdX2X1X1X,X<X>X>X<X<X<X,X1X3X3X3X3X4X&XXX.X).W.W.B.u.u.3.:.X.T P G D z k k i y 9 9 4 4 4 4 4 4 4 4 4 4 4 4 4 4 4 4 4 6 6 6 6 6 6 6 4 4 3 3 3 5 5 5 6 6 6 6 w w t u i g l l m m F F P I ..O.:.<.3.i.i.Z.Z.C.].{.|.OX+X8X9XeXeXeXeXjXjXuX0X6X7X&X`.).).Q.!.M.s.d.r.r.r.z.z.z.$.$.$.$.$.$.z.z.r.r.r.r.r.y.y.i.i.p.p.p.g.l.2.;.%.@.Y Y H V h i t 6 6 3 3 3 > > > > > > > > > , 4 4 4 4 4 4 6 9 9 9 9 9 6 6 6 6 6 4 4 6 4 6 6 4 4 4 4 4 4 4 4 , , > > < < , > > > > > > , 4 4 0 9 y s k z D G ! T =.>.3.u.V.B././.XXXX5XwXgXcXJXJXJXJXJXJXJXkXkX9X+X+X@X X}.G.F.A.h.0.6.W Q J J IXIXIXIXIXIXIXIXIXIXIXIXIXIXIXIXIXIXIXIXIXIXIXIXIXIXIXIXIXIXIX",
"IXIXIXIXIXIXIXIXIXIXIXIXIXIXIXIXIXIXIXIXIXIXIXIXIXIXIXIXIXIXIXIXIXIXIXIXIXIXIXIXIXIXIXIXIXIXIXIXIXIXIXIXIXIXIXIX~ / _ 7.7.8.b.b.q.q.8.w.6.6.( Q E H D z z k k i y u y t 6 6 6 6 6 6 4 6 6 6 6 4 4 4 4 4 4 4 4 4 4 4 4 4 4 4 4 6 4 4 4 6 6 4 6 6 6 6 6 6 6 6 6 6 6 6 6 6 6 6 6 4 4 4 4 4 4 4 4 3 4 4 4 4 4 3 3 4 4 4 3 > > > > 3 4 4 4 3 3 3 3 4 6 6 w t u u i g g l n M L I ..O.:.,.e.i.f.C.~.(.|.|.7X7X7X6XyXyXsXsXfXdXdX2X3X1X1X,X<X>X<X<X<X,X1X3X3X3X3X4X&XXX.X^.^.W.B.u.u.<.:.X.T P G D z k s i y 9 9 4 4 4 4 4 4 4 4 4 4 4 4 4 4 4 4 4 6 6 6 6 6 6 6 4 4 4 3 3 5 5 5 6 6 6 6 6 w t t u g g k l l m m F P I ..O.:.>.<.t.i.i.Z.C.(.{.|.OX+X8X9XeXeXeXjXjXjX0X6X6X7X$X_.).'.Q.!.M.s.d.y.r.r.r.z.z.z.z.z.z.z.r.r.r.r.y.y.y.y.d.f.f.f.f.p.l.l.9.2.@.@.Q Y H N l i t 6 6 3 3 3 > > > > > > > > > , , 4 4 4 4 4 6 6 9 9 9 6 6 6 6 6 6 6 4 6 4 6 6 4 4 4 4 4 4 4 4 , , > > > , , , > > > < > > , 4 0 9 y s k z D D P T X.=.3.u.V.V././.oXXX5XwXgXgXJXJXJXJXJXJXJXkXkX9X9X+X+X@X}.G.F.A.h.0.6.;.Q Y J IXIXIXIXIXIXIXIXIXIXIXIXIXIXIXIXIXIXIXIXIXIXIXIXIXIXIXIXIXIXIX",
"IXIXIXIXIXIXIXIXIXIXIXIXIXIXIXIXIXIXIXIXIXIXIXIXIXIXIXIXIXIXIXIXIXIXIXIXIXIXIXIXIXIXIXIXIXIXIXIXIXIXIXIXIXIXIXIX^ / _ 7.7.8.c.b.b.q.8.w.w.6.' W E ! D D z k k i y u y t 6 6 6 4 4 3 3 4 4 4 4 4 4 4 4 4 4 4 4 4 4 4 4 4 4 4 4 4 4 4 6 6 6 6 6 6 6 6 6 6 6 6 6 6 6 6 6 6 6 6 6 4 4 4 4 4 4 4 4 3 4 4 3 3 3 3 3 > > > > > > > 3 4 4 4 3 3 3 3 3 4 6 6 w t u u u u g h l m F L | o.O.:.,.r.i.f.~.~.(.|.|.7X7X6X6XyXpXsXdXdXdXdX1X1X1X,X<X<X<X<X,X,X1X3X3X3X3X4X&XXX.X^.W.B.B.V.u.3.=.X.T G F D z k s i t 9 6 4 4 4 , , 4 4 4 4 4 4 4 4 4 4 4 4 6 6 6 6 6 6 6 6 4 4 4 4 4 6 6 6 6 6 6 6 6 w t u u g g g l l m m F P I ..O.=.>.<.t.t.u.C.C.(.{.|.OX+X8X9XeXeXeXjXjX0X0X6X7X&X`._.).'.Q.!.M.s.d.y.r.r.r.r.r.r.r.r.r.r.r.y.d.d.d.d.d.d.f.f.f.k.k.k.l.l.9.;.@.@.Y H N l g u w 6 3 3 3 > > > > > > > > > > 4 4 4 4 4 4 6 4 6 9 9 9 9 9 6 6 6 6 6 6 4 4 4 4 4 4 4 4 4 4 , , , , > > > > > > > < < < > , 4 4 9 y i k z z D G T X.=.<.t.V.B.W.^..XXXXX5XwXgXcXJXJXJXJXJXkXkXkXeX9X+X+X@X}.G.F.A.h.0.9.;.W K J C IXIXIXIXIXIXIXIXIXIXIXIXIXIXIXIXIXIXIXIXIXIXIXIXIXIXIXIXIXIX",
"IXIXIXIXIXIXIXIXIXIXIXIXIXIXIXIXIXIXIXIXIXIXIXIXIXIXIXIXIXIXIXIXIXIXIXIXIXIXIXIXIXIXIXIXIXIXIXIXIXIXIXIXIXIXIXIX~ / _ 7.7.c.c.b.b.q.q.8.w.6.6.W E ! D D z k k s y y y t 6 6 6 3 3 3 3 3 3 3 3 3 3 3 3 4 4 4 4 4 4 4 4 4 4 4 6 4 4 6 6 6 6 6 6 6 6 6 6 6 6 6 6 6 6 6 6 6 6 6 6 6 4 4 4 4 4 4 4 4 4 3 3 3 4 4 4 4 3 > , , 4 4 4 4 4 4 3 3 3 3 4 4 6 6 w w w u u u u g h n M L I | o.O.:.<.r.f.f.~.(.`.|.|.7X7X6XyXpXsXaXdXdXdX2X1X1X,X,X,X<X,X1X1X1X3X3X3X3X4X&XXX.X^./.B.B.u.u.<.=.X.T G F D z k s i t 9 4 4 4 , , , 4 4 4 4 4 4 4 4 4 4 4 4 6 6 6 6 6 6 6 6 6 4 4 4 6 6 6 6 6 6 6 6 6 6 w t u u i g g k l l m F P I T X.O.:.<.<.t.u.V.C.(.{.|.OX+X8XqXeXeXeXeX0X0X6X6X7X&X`.).).'.Q.!.M.M.s.d.y.y.r.r.r.r.r.r.y.d.d.s.s.s.s.f.f.f.f.k.k.k.k.k.l.9.9.@.@.Y H N l g u w 6 3 3 3 > > > > > > > > > > 3 4 4 4 4 4 4 4 6 9 6 9 9 6 6 6 6 6 6 4 4 4 4 4 4 4 4 4 4 4 , , , , , , > > > , > < < < < > 4 4 9 t i s k z D G T T =.>.t.u.B.B.^._.XXXX5XwXgXgXzXJXJXJXJXkXkXkXeX9X+X+X@X}.}.F.A.h.0.9.6.W K J C IXIXIXIXIXIXIXIXIXIXIXIXIXIXIXIXIXIXIXIXIXIXIXIXIXIXIXIXIXIX",
"IXIXIXIXIXIXIXIXIXIXIXIXIXIXIXIXIXIXIXIXIXIXIXIXIXIXIXIXIXIXIXIXIXIXIXIXIXIXIXIXIXIXIXIXIXIXIXIXIXIXIXIXIXIXIXIX~ / _ 7.7.c.c.b.b.q.q.8.w.6.6.( Q E H D D z k s i y y t 6 6 4 3 3 3 3 3 3 3 3 3 3 3 3 3 3 4 4 4 4 4 4 4 4 6 6 6 4 6 6 6 6 6 6 6 6 6 9 9 9 9 6 6 6 6 6 6 6 6 6 6 4 4 4 4 4 4 4 4 4 4 4 3 4 4 4 4 3 3 3 3 4 4 4 4 4 4 4 3 4 4 4 4 6 6 6 w w w w u u u g h n M L I | o.#.:.e.i.f.C.~.(.|.|.|.7X5X5XyXpXaXdXdXdX2X1X1X1X,X,X,X1X1X3X1X3X3X3X4X4X&XXX_.^.W.B.B.u.t.<.=.X.T G D m z k s y t 9 4 4 4 > > > , , 4 4 4 4 4 4 4 4 4 4 4 6 6 6 6 6 6 6 4 4 6 6 6 6 6 6 6 6 5 6 6 6 w w t t u u i g g k l m F L P T ..O.=.>.<.t.u.V.C.(.{.|.|.+X8XqXeXeXeXeX0X0X6X7X7X$X`.).).'.Q.!.M.M.M.s.d.d.y.y.y.d.d.s.s.M.M.M.M.!.~.~.~.].].].D.k.k.h.l.9.;.@.Y H N l g u t 6 3 3 3 > > > > > > > > > > > 4 4 4 4 4 4 4 4 6 6 6 6 6 6 6 6 6 4 4 4 4 4 4 4 4 4 4 4 4 , , , , , , , , , , , < < < < > > 4 6 9 y i k z m F P T X.>.3.u.V.B.W.^..XXX&X5XgXgXzXJXJXJXJXkXkXkXeX9X+X+X@X}.}.H.A.A.0.9.6.W K J C IXIXIXIXIXIXIXIXIXIXIXIXIXIXIXIXIXIXIXIXIXIXIXIXIXIXIXIXIXIX",
"IXIXIXIXIXIXIXIXIXIXIXIXIXIXIXIXIXIXIXIXIXIXIXIXIXIXIXIXIXIXIXIXIXIXIXIXIXIXIXIXIXIXIXIXIXIXIXIXIXIXIXIXIXIXIXIX~ ^ _ 7.7.c.b.b.b.b.q.8.w.w.6.' W E ! D D z k s i y y t 6 4 3 3 3 > > > > > > > > > > > 3 3 4 4 4 4 4 4 4 6 6 6 4 6 6 6 6 6 6 6 6 6 9 9 9 9 6 6 6 6 6 6 6 6 4 6 6 4 4 4 4 4 4 4 4 4 4 4 4 4 4 4 4 4 4 4 4 4 4 4 4 4 4 3 4 4 4 4 6 6 6 6 w w w w w u u g h n M L L | o.#.,.e.i.f.C.~.(.`.|.|.7X7X5XiXiXaXdXdX2X2X1X1X1X1X1X1X3X3X3X3X3X3X4X4X&XXX_.^.W.B.B.u.t.>.=.T T G D z k k s y 9 9 4 4 3 > > > > , , > > 3 4 4 4 4 4 4 4 6 6 6 6 6 6 6 4 4 4 6 6 6 6 6 6 6 3 5 5 5 6 6 w w w t t u u i g l m M F P I T ..O.:.<.t.u.V.C.~.{.|.|.+X8XqXqXeXeX0X0X6X7X7X&X$X`._.).).'.Q.!.!.M.M.M.s.s.M.M.M.M.!.!.!.!.!.~.~.~.].].].].].D.k.k.l.9.9.@.@.U N n g u t 6 3 3 3 3 > > > > > > > > > > 4 4 4 4 4 4 4 4 6 6 6 6 6 6 6 6 6 4 4 4 4 4 4 4 4 4 4 4 4 4 4 , , , , , , , , , < < < > < > 4 4 9 y i k k z D G T X.=.<.u.V.B.W.^._..X&X4XwXgXgXJXJXJXJXkXkXkXeX9X+X+X@X}.}.G.A.A.0.9.;.W K J C IXIXIXIXIXIXIXIXIXIXIXIXIXIXIXIXIXIXIXIXIXIXIXIXIXIXIXIXIXIX",
"IXIXIXIXIXIXIXIXIXIXIXIXIXIXIXIXIXIXIXIXIXIXIXIXIXIXIXIXIXIXIXIXIXIXIXIXIXIXIXIXIXIXIXIXIXIXIXIXIXIXIXIXIXIXIXIX~ / _ ] 7.c.b.b.b.b.b.q.q.8.6.' ( E J H Z z k k i y t 9 6 4 3 3 > > > > > > > > > > > > > > 3 4 4 4 4 4 4 4 4 4 4 6 6 6 6 6 6 6 6 9 9 9 9 9 9 6 6 6 6 6 6 6 6 6 6 6 6 4 4 4 4 4 4 4 4 4 4 4 4 4 4 4 4 4 4 4 4 4 4 4 4 4 4 4 3 6 6 6 6 6 6 6 w w w e e f g h n M L L I ..#.,.r.i.f.~.~.(.`.|.|.7X5X5XiXiXdXdXdX2X3X3X3X1X1X3X3X3X3X3XdXiXiX4X&XXX_.^.W.B.B.u.t.>.=.T T G D z k k i y t 9 4 4 > > > > > > , , , , 4 4 4 4 4 4 4 6 6 6 6 6 6 6 4 4 4 4 4 6 5 3 3 3 3 3 3 5 5 6 6 6 6 w w w t u u g l l m F L P I ..O.:.<.t.u.V.C.~.].|.|.OX8XqX0X0X0X0X0X6X7X7X&X$X`._.).).).'.Q.Q.!.!.!.M.!.!.Q.Q.Q.'.'.'.(.(.(.(.].].].[.[.].D.k.h.0.9.@.@.Y H n l i t 6 5 3 3 3 3 > > > > > > > > > 3 4 4 4 4 4 6 6 6 6 6 6 6 6 6 4 4 4 4 4 4 4 4 4 4 4 4 4 4 4 4 , , , , , , , , < < < < < > > 4 4 9 t y i k z m F P T =.>.t.u.B.B.W.^..XXX&XiXgXgXzXJXJXJXkXkXkXeX9X+X+X@X X}.G.F.A.0.9.;.W K J J IXIXIXIXIXIXIXIXIXIXIXIXIXIXIXIXIXIXIXIXIXIXIXIXIXIXIXIXIXIX",
"IXIXIXIXIXIXIXIXIXIXIXIXIXIXIXIXIXIXIXIXIXIXIXIXIXIXIXIXIXIXIXIXIXIXIXIXIXIXIXIXIXIXIXIXIXIXIXIXIXIXIXIXIXIXIXIX~ / _ ] 7.c.b.b.b.b.b.q.8.w.6.6.( Q K H D Z k k s i t t 6 4 3 > > > > - - - - > > > > > > > 3 4 4 4 4 4 4 4 4 4 4 4 6 6 6 6 6 6 6 9 9 9 9 9 6 6 9 6 6 6 6 6 6 4 6 4 6 4 4 4 4 4 4 4 4 4 4 4 4 4 4 4 4 4 4 4 4 4 4 4 4 4 4 4 3 6 6 6 6 6 6 6 5 5 5 w w u f h h n M L L | o.#.,.i.d.f.~.~.(.`.`.OX7X5XtXiXiXdXdX3X3X3X3X3X3X3X3X3X3XdXdXiXiX4X&XXX_.^.W.B.V.u.3.>.=.T T G D z k s i y 9 6 4 4 > > > > > > , , , , 4 4 4 4 4 4 4 6 6 6 6 6 6 6 4 4 4 4 4 4 3 3 3 3 3 3 3 3 3 5 5 6 6 6 6 6 w w t u g l l m M F L I ..O.:.<.t.u.C.C.~.{.|.|.OX8XqX0X0X0X0X6X6X7X7X&X$X$X`.).).).).'.'.Q.Q.Q.Q.'.'.'.).).'.`.`.`.`.|.|.|.|.{.{.[.D.k.h.l.9.%.@.U H m l i t 6 6 3 3 3 3 3 3 > > > > > > > 3 4 4 4 4 4 6 6 6 6 6 6 4 4 6 6 4 4 4 4 4 4 4 4 4 4 4 4 4 4 4 4 , , , , , , , > < < > > > > , 4 9 9 y i k l m F P T O.>.3.u.V.B.W.^._..X&X4XiXgXgXzXJXJXkXkXkXeX9X+X+X@X@X}.G.F.A.0.9.;.W K J J IXIXIXIXIXIXIXIXIXIXIXIXIXIXIXIXIXIXIXIXIXIXIXIXIXIXIXIXIXIX",
"IXIXIXIXIXIXIXIXIXIXIXIXIXIXIXIXIXIXIXIXIXIXIXIXIXIXIXIXIXIXIXIXIXIXIXIXIXIXIXIXIXIXIXIXIXIXIXIXIXIXIXIXIXIXIXIX~ / _ ] x.c.b.b.b.J.b.q.8.8.6.6.' W K ! H Z z k s i y 9 6 4 3 > > > - - - - - - - > > > > > > 4 4 4 4 4 4 4 4 4 4 4 4 4 6 6 6 6 6 6 9 9 9 9 9 9 9 6 6 6 6 6 6 6 6 4 4 4 4 4 4 4 4 4 4 4 4 4 4 4 4 4 4 4 4 4 4 4 4 4 4 4 4 4 4 6 6 6 6 5 5 5 5 5 5 5 w e u f h n n M L I ..O.,.e.i.d.C.~.~.(.`.`.7X5X5XiXiXiXdX3X3X3X3X3X3X3X3X3X3XdXdXiXiX4X&XXX.X^.W.B.V.u.3.>.=.T P G D z k s i y 9 6 4 4 > > > > > > 3 3 3 4 4 4 4 4 4 4 4 6 4 6 6 6 6 6 6 6 4 4 4 4 3 3 3 3 3 3 3 3 3 3 5 5 5 5 5 5 6 6 w u u g h l n m F L I ..O.>.e.y.i.Z.C.].{.|. X+X8XqXqX0X0X0X6X7X7X7X7X$X$X$X_._.).).).).'.'.'.).).).)._._.`.`.`.|.|.|.|.|. X}.[.].k.h.l.9.%.@.U L m l g t 6 6 3 3 3 3 3 3 3 > > > > > > 4 4 4 4 4 4 6 4 6 6 6 6 4 4 6 6 6 6 6 6 4 4 4 4 4 4 4 4 4 4 4 4 , , , , , , , > > < < > > > > 4 6 9 y y g k z D P T X.:.<.t.a.B.W.^._..X&X4XiXgXgXzXJXJXkXkXkXeX9X+X+X+X@X}.G.D.A.0.9.6.W K J C IXIXIXIXIXIXIXIXIXIXIXIXIXIXIXIXIXIXIXIXIXIXIXIXIXIXIXIXIXIX",
"IXIXIXIXIXIXIXIXIXIXIXIXIXIXIXIXIXIXIXIXIXIXIXIXIXIXIXIXIXIXIXIXIXIXIXIXIXIXIXIXIXIXIXIXIXIXIXIXIXIXIXIXIXIXIXIX~ / _ ] x.c.b.b.J.J.J.b.q.q.8.6.' W E J H Z z k s i y 9 6 4 3 > > > - - - - - - - - > > > > > 3 4 4 4 4 4 4 4 4 4 4 4 4 4 4 6 6 6 6 6 6 9 9 9 9 6 6 6 6 6 6 6 6 6 4 4 4 4 4 4 4 4 4 4 4 4 4 4 4 4 4 4 4 4 4 4 4 4 4 4 4 4 4 4 6 6 6 6 5 5 5 5 5 5 5 w e u f g h n M M L | o.#.<.e.d.d.C.~.(.(.`.XX&X5XtXiX3X3X3X3X3X3X3X3X3X3X3XdXdXdXgXiX4X&XXX_.^.W.B.V.u.3.>.=.T P F m z k s y y 9 6 4 4 > > > > > > 3 3 3 3 4 4 4 4 4 4 4 4 4 6 6 6 6 6 6 6 6 6 4 4 4 3 3 3 3 3 3 3 3 3 3 3 3 5 5 5 5 6 6 w u u g h l n m F L I ..#.,.e.i.d.Z.C.].{.|. X+X8XqXqX0X0X0X6X7X7X7X7X&X$X$X$X#X_._.).).).).)._._._.$X$X$X$X`.|.|.|.|.|.|. X[.[.D.k.l.2.%.@.U L m l g u w 6 3 3 3 3 3 3 3 > > > > > > 4 4 4 4 4 4 4 4 6 6 6 4 4 4 6 6 6 6 6 6 4 4 4 4 4 4 4 4 4 4 4 4 4 , , , , , , , < < < > > > > 4 6 9 t y i k z m F I X.:.<.t.u.B.B.W.^..X.X&XtXgXgXcXzXkXkXkXkXeX9X+X+X+X@X}.G.D.A.0.9.6.Q K J C IXIXIXIXIXIXIXIXIXIXIXIXIXIXIXIXIXIXIXIXIXIXIXIXIXIXIXIXIXIX",
"IXIXIXIXIXIXIXIXIXIXIXIXIXIXIXIXIXIXIXIXIXIXIXIXIXIXIXIXIXIXIXIXIXIXIXIXIXIXIXIXIXIXIXIXIXIXIXIXIXIXIXIXIXIXIXIX~ / _ ] x.c.b.b.J.J.J.b.q.8.w.6.6.' Q E H D Z k k i y t 6 4 3 > > - - - - - - - - - > > > > > 4 4 4 4 4 4 4 4 6 6 6 4 4 6 6 6 6 6 6 6 6 6 6 6 6 6 6 6 6 6 6 6 4 4 4 6 4 4 4 4 4 4 4 4 4 4 4 4 4 4 4 4 4 4 4 4 4 4 4 4 4 4 4 6 4 6 6 5 5 5 5 5 5 5 5 5 e e u f h n n M L I ..#.,.e.y.d.V.V.~.(.`.`.&X&X4X4X4X3X3X3X3X3X3X3X3X3XdXdXdXdXiXiX4X&XXX_.^.W.B.V.u.3.>.=.T P F m z k i i t 9 6 4 3 > > > > > > 3 3 3 3 3 3 4 4 4 4 4 6 6 6 6 6 6 6 6 6 6 6 6 6 4 4 4 3 3 3 3 3 3 3 3 3 5 3 5 5 5 5 6 w w u f g h l n m F P ..O.#.,.e.i.f.C.D.].{.|. XqX8XqXqX8X8X6X6X7X7X5X7X7X&X$X$X#X_._._._._._.#X#X$X$X$X$X$XvX|.|.|.|.|.|.|.{.[.D.k.l.2.%.@.R L M l g u w 6 3 3 3 3 3 3 3 3 > > > > > 4 4 4 4 4 4 4 6 6 6 6 6 4 6 6 4 4 4 4 4 4 4 4 4 4 4 4 4 4 4 4 4 4 4 , , , , , , > < < > < > > 4 6 9 t y i k l m F P ..=.<.t.u.B.B.W.^._..X&X4XiXgXgXzXzXkXkXkXSXAX9X+X+X@X}.G.A.A.0.9.;.Q E J Z IXIXIXIXIXIXIXIXIXIXIXIXIXIXIXIXIXIXIXIXIXIXIXIXIXIXIXIXIXIX",
"IXIXIXIXIXIXIXIXIXIXIXIXIXIXIXIXIXIXIXIXIXIXIXIXIXIXIXIXIXIXIXIXIXIXIXIXIXIXIXIXIXIXIXIXIXIXIXIXIXIXIXIXIXIXIXIX~ / _ 7.x.c.b.b.J.J.J.b.q.q.8.6.6.' Q K ! D Z z k s y t 9 4 3 > > > > - > - - - - - > > > > > 4 4 4 4 4 4 4 4 4 4 6 4 4 4 6 6 6 6 6 6 6 6 6 6 6 6 6 6 6 6 6 6 4 6 4 4 4 4 4 4 4 4 4 4 4 4 4 4 4 4 4 4 4 4 4 4 4 4 4 4 4 4 6 6 6 6 6 5 5 5 5 5 5 5 5 5 w e e f g h n M B L | o.:.,.e.y.a.V.!.(.(.`.XX&X4X4X4X4X3X3X3X3X3X3X3XdXdXdXdXgXiXiX5X&XXX_.^.W.B.V.u.3.:.X.T P F z z k i y t 9 6 4 3 > > > > > > 3 3 4 3 3 3 4 4 4 4 4 6 6 6 6 6 6 6 6 6 6 6 6 6 6 6 4 4 3 3 3 3 3 3 3 3 3 3 3 3 5 5 5 w w u u f g h l n M L I ..O.:.<.t.i.f.C.].].{.|.+X+X8X8X8X8X8X6X6X6X7X7X7X7X&X$X$X$X$X#X#X#X#X#X$X$X&X&X&X7XvXvX|.|.|.|.|. X{.[.D.k.l.2.%.+.R L M l g u w 6 5 3 3 3 3 3 3 3 > > > > 3 4 4 4 4 4 4 4 6 6 6 6 6 4 4 4 4 4 6 6 4 4 4 4 4 4 4 4 4 4 4 4 4 4 4 , , , , 4 , > > < < < > > 4 6 9 t u i k l m F P ..O.>.t.u.a.B.W.^._..X&X4XiXgXgXcXzXkXkXkXSXAX9X+X@X X}.G.A.h.0.9.;.Q K J x IXIXIXIXIXIXIXIXIXIXIXIXIXIXIXIXIXIXIXIXIXIXIXIXIXIXIXIXIXIX",
"IXIXIXIXIXIXIXIXIXIXIXIXIXIXIXIXIXIXIXIXIXIXIXIXIXIXIXIXIXIXIXIXIXIXIXIXIXIXIXIXIXIXIXIXIXIXIXIXIXIXIXIXIXIXIXIX~ / _ 7.x.b.b.b.J.J.J.J.q.q.q.w.6.' W E J H Z x k s i t 9 6 4 3 > > > > > > - - - - - > > > > 3 4 4 4 4 4 4 4 4 4 6 4 4 4 4 6 6 6 6 6 6 6 6 6 6 6 6 6 6 6 6 6 6 6 4 4 4 4 4 4 4 4 4 4 4 4 4 4 4 4 4 4 4 4 4 4 4 6 6 4 6 6 6 6 6 6 6 5 5 5 5 5 5 5 5 5 w e e u f h l n M L I ..#.,.e.y.u.a.B.!./.`.XX&X&X4X4X4X4X3X3X3X3X3X3XdXdXdXdXdXgXwX5X&XXX_./.W.B.V.u.<.:.X.T P D z z k i y t 9 4 4 3 > > > > > > > 4 4 4 3 3 4 4 4 4 4 6 6 6 6 6 6 6 6 6 6 6 6 6 6 6 6 4 4 4 3 3 3 5 3 3 3 3 3 3 3 3 5 5 w w e u f g h l m M L I ..O.:.<.i.p.f.C.].{.|.|.|.+XqXqX8X8X8X0X6X6X7X7X5X7X&X&X$X$X$X$X$X$X&X&X&X&X&X7X7X7XvXvXvX|.|.|.|.{.].D.k.l.2.%.+.R L M l g u w 6 5 3 3 3 3 3 3 3 > > > > 3 3 4 4 4 4 4 4 4 6 6 6 6 6 4 4 4 4 6 4 4 4 4 4 4 4 4 4 4 4 4 4 4 4 4 4 4 4 4 4 , , > < < < > > 4 6 9 t y i g l m F P T O.>.<.y.a.B.W.^._..X%X4XiXgXgXcXzXkXkXkXSXAX9X+X@X X}.G.A.h.0.;.;.Q K H x IXIXIXIXIXIXIXIXIXIXIXIXIXIXIXIXIXIXIXIXIXIXIXIXIXIXIXIXIXIX",
"IXIXIXIXIXIXIXIXIXIXIXIXIXIXIXIXIXIXIXIXIXIXIXIXIXIXIXIXIXIXIXIXIXIXIXIXIXIXIXIXIXIXIXIXIXIXIXIXIXIXIXIXIXIXIXIX~ / _ 7.x.b.b.J.J.J.J.J.N.q.q.w.6.6.W Q K H Z Z k k i y 9 6 4 3 > > > > > > - - - - > > > > > 3 4 4 4 4 4 4 4 4 4 4 4 4 4 4 4 6 6 6 6 6 6 6 6 6 6 6 6 6 6 6 6 6 6 4 4 4 4 4 4 4 4 4 4 4 4 4 4 4 4 4 4 4 4 4 4 4 6 6 6 6 6 6 6 6 6 6 5 5 5 5 3 3 5 5 5 5 w e u f g h n m F L ..O.#.,.e.y.a.B.!.!./.`.XX&X&X4X4X4X3X3X3X3X3XdXdXdXdXdXgXgXwX5X&XXX_./.B.B.V.u.<.:.X.T G D z l k i y t 9 4 3 3 > > > > > 3 > 4 4 4 3 3 4 4 4 4 4 6 6 6 6 6 6 6 6 6 6 6 6 6 6 6 6 6 6 6 6 6 5 5 3 3 3 3 3 3 3 3 5 5 5 w w e u f g h l m F P ..o.O.>.<.i.p.f.C.].{.|.|.|. X+X+XqX8X8X8X6X6X7X7X5X7X7X&X$X$X&X&X&X&X&X&X5X5X5X5X7X7XvXvXvX|.|.|.{.].D.k.l.2.%.+.R L M l g u w 6 5 3 3 3 3 3 3 3 > > > > > 3 4 4 4 4 4 4 4 4 6 6 4 4 4 4 4 6 4 4 4 4 4 4 4 4 4 4 4 4 4 4 4 4 4 4 4 4 4 4 , , > > > > > 3 4 6 6 t u i g l z M L T O.:.<.t.a.B.W.^.)..X%X&X4XiXgXhXzXkXkXkXSX9X9X+X@X X}.H.A.h.0.;.@.Q Y H x IXIXIXIXIXIXIXIXIXIXIXIXIXIXIXIXIXIXIXIXIXIXIXIXIXIXIXIXIXIX",
"IXIXIXIXIXIXIXIXIXIXIXIXIXIXIXIXIXIXIXIXIXIXIXIXIXIXIXIXIXIXIXIXIXIXIXIXIXIXIXIXIXIXIXIXIXIXIXIXIXIXIXIXIXIXIXIX~ / _ 7.x.b.b.J.J.L.L.J.J.q.q.w.6.6.[ Q K ! H Z z k s y t 6 4 3 > > > > > - - - - > > > > > 3 4 4 4 4 4 4 4 4 4 4 4 4 4 4 4 4 4 4 6 6 6 6 6 6 6 6 6 6 6 6 6 6 6 4 4 4 6 4 4 4 4 4 4 4 4 4 4 4 4 4 4 4 4 4 6 4 4 6 6 4 4 6 6 6 6 6 6 5 5 5 5 3 3 3 3 5 5 w e e u f g h n M L I ..O.:.<.t.y.a.B.W./._..XXX&X&X4X4X3X3X4X3XiXdXdXdXdXfXgXgXwX5X&XXX`./.B.B.u.t.<.=.X.T G D z l k i y t 6 4 3 3 > > > > > > 3 3 3 3 4 4 4 4 4 4 6 6 6 6 6 6 6 6 6 6 6 6 6 6 6 6 6 6 6 6 6 6 6 5 5 3 3 3 3 3 3 3 3 5 5 w w w e u u f h n M L I ....#.:.<.i.p.f.C.].{.{.|.|.|. X XqX8X8X8X0X6X7X7X5X5X7X&X&X&X&X&X&X5XtXtXtX5X5X5X7X7X7XvX|.|.|.{.].D.k.p.2.-.+.U L M n g u w 6 6 3 3 3 3 3 3 3 > > > > 3 3 4 4 4 4 4 4 6 6 6 6 6 4 4 6 6 4 4 4 4 4 4 4 4 4 4 4 4 4 4 4 4 4 4 4 4 4 4 4 4 , > > > > > 3 4 6 6 t y y g k l m L I ..:.<.t.u.a.B.W.^._.%X&X4XwXgXhXzXkXkXkXeX9X9X+X+X X}.D.D.h.0.;.@.Q Y J x IXIXIXIXIXIXIXIXIXIXIXIXIXIXIXIXIXIXIXIXIXIXIXIXIXIXIXIXIXIX",
"IXIXIXIXIXIXIXIXIXIXIXIXIXIXIXIXIXIXIXIXIXIXIXIXIXIXIXIXIXIXIXIXIXIXIXIXIXIXIXIXIXIXIXIXIXIXIXIXIXIXIXIXIXIXIXIX~ / _ 7.x.b.b.J.L.L.L.L.J.N.q.w.w.6.' W E K H Z x k s i t 9 4 4 3 > > > > > - - > > > > > > 4 4 4 4 4 4 4 4 4 4 4 4 4 4 4 4 4 4 4 4 6 6 6 6 6 6 6 6 6 6 6 6 4 4 4 4 4 6 4 4 4 4 4 4 4 4 4 4 4 4 4 4 4 4 6 6 6 6 6 6 6 6 6 6 6 6 6 6 6 5 5 3 3 3 1 1 5 5 w e w e u f h l n M L I o.#.>.<.t.u.a.B.W.^._..X&X&X4X4X4X4X4XiXiXgXdXfXdXfXgXgXwX5X&XXX`./.B.B.u.t.<.=.X.P F m z k g i y t 6 4 3 3 > > > > > 3 3 3 3 3 4 4 4 4 4 4 6 6 6 6 6 6 6 6 6 6 6 6 6 6 6 6 6 6 6 6 6 6 6 6 5 3 3 3 3 3 1 1 3 3 5 5 5 w w w e u f h n M L I I ..O.:.<.g.p.f.C.].].{.|. X|.|. X+XqX8X8X6X6X7X7X5X5X5X5X5X5X5XtXtXtXyXtXtX5X5X7X7X7X7XvX|.|.|.].D.k.p.2.-.+.U L M n g u t 6 6 5 3 3 3 3 3 3 3 > > > 3 3 3 4 4 4 4 4 4 6 6 6 6 6 4 4 4 4 4 4 4 4 4 4 4 4 4 4 4 4 4 4 4 4 4 4 4 4 4 4 4 , > > > > > 3 4 6 6 t y u i g l m F I ..O.,.e.y.a.B.W.^._..X%X4XiXgXgXcXkXkXkXeX9X9X+X@X X}.D.D.h.0.;.@.Q Y H x IXIXIXIXIXIXIXIXIXIXIXIXIXIXIXIXIXIXIXIXIXIXIXIXIXIXIXIXIXIX",
"IXIXIXIXIXIXIXIXIXIXIXIXIXIXIXIXIXIXIXIXIXIXIXIXIXIXIXIXIXIXIXIXIXIXIXIXIXIXIXIXIXIXIXIXIXIXIXIXIXIXIXIXIXIXIXIX~ / _ 7.c.b.b.J.L.L.L.L.L.N.q.q.w.6.6.[ Q E ! H Z x s i t 9 6 4 3 3 > > > > > - > > > > > > 3 4 4 4 4 4 4 4 4 4 4 4 4 4 4 4 4 4 4 4 4 4 4 4 6 6 6 4 4 6 6 6 4 4 4 4 6 6 6 4 4 4 4 4 4 4 4 4 4 4 4 4 4 4 6 6 6 6 6 6 6 6 6 6 6 6 6 6 5 5 5 3 3 1 1 1 3 5 5 w w w e u g h n m L I ..O.#.,.<.t.u.B.B.W._._..X&X&X4X4X4XiXiXgXgXfXfXfXgXgXgXwX7XXXXX(./.V.V.u.t.>.=.X.P F m z k i y y t 6 4 3 3 > > > > > 3 4 3 3 4 4 4 4 4 4 4 6 6 6 6 6 6 6 6 6 6 6 6 6 6 6 6 6 6 6 6 6 6 6 6 3 3 3 3 3 1 1 1 1 1 5 5 5 5 5 w e e u g h n M L L I ..O.:.1.g.p.f.C.D.].].{.{. X|. X X+XqX8X6X6X7X7X5X5X5X5X5XtXtXyXyXyXyXyXtX6X6X7X6X7XvX|.|.|.].D.f.p.2.1.+.| L M n g u t 6 6 5 3 3 3 3 3 3 3 > > > 3 3 3 3 4 4 4 4 4 4 4 4 4 4 4 4 4 4 4 4 4 4 4 4 4 4 4 4 4 4 4 4 4 4 4 4 4 4 4 4 4 4 > > > > > 3 4 6 6 6 t u i g l m F P ..O.:.<.y.a.B.W.^.)..X%X&XtXwXgXcXkXkXeXeX9X+X+X@X}.[.D.A.h.0.;.@.Q J H x IXIXIXIXIXIXIXIXIXIXIXIXIXIXIXIXIXIXIXIXIXIXIXIXIXIXIXIXIXIX",
"IXIXIXIXIXIXIXIXIXIXIXIXIXIXIXIXIXIXIXIXIXIXIXIXIXIXIXIXIXIXIXIXIXIXIXIXIXIXIXIXIXIXIXIXIXIXIXIXIXIXIXIXIXIXIXIX~ / _ 7.c.b.b.J.L.L.L.L.L.L.q.q.w.w.6.' W E K H Z x k s y 9 6 4 3 3 > > > > > - - - > > > > 3 4 4 4 4 4 4 4 4 4 4 4 4 4 4 4 4 4 4 4 4 4 4 4 4 4 4 4 4 4 4 4 4 4 4 4 6 6 6 4 4 4 4 4 4 4 4 4 4 4 4 4 4 4 6 6 6 6 6 6 6 6 6 6 6 6 6 6 5 5 3 3 3 1 1 1 1 3 5 5 w w w u u g h n M L I ..O.:.<.e.y.a.B.W.^._..XXX&X&X4X4XiXgXgXgXfXfXfXgXgXgXtX7XXXXX(./.B.V.u.t.>.=...P F m l k i y y t 6 4 3 3 > > > > 3 3 4 4 4 4 4 4 4 4 4 6 4 6 6 6 6 6 6 6 6 6 6 6 6 6 6 6 6 6 6 6 6 6 6 6 3 3 3 3 3 3 1 1 1 1 3 3 5 5 5 5 w w e u g h n M L L I ..O.:.1.g.p.f.f.D.].].].{.{.|.|. XqXqXqX6X7X7X7X5X5X5XtXtXyXyXsXyXsXyXyXyX6X6X7X7X7XvX|.{.].].f.g.g.1.+.| L M n h u t w 6 5 3 3 3 3 3 3 3 > > > 3 3 3 4 4 4 4 4 4 4 4 4 4 4 4 4 4 4 4 4 4 4 4 4 4 4 4 4 4 4 4 4 4 4 4 4 4 4 4 4 4 4 , > > > > 3 3 6 6 6 t y u g l n M L I O.:.<.t.u.B.W.^.)._.%X&X4XwXgXgXkXkXeXSXAXBX+X@X}.}.D.D.h.4.;.W Q Y H x IXIXIXIXIXIXIXIXIXIXIXIXIXIXIXIXIXIXIXIXIXIXIXIXIXIXIXIXIXIX",
"IXIXIXIXIXIXIXIXIXIXIXIXIXIXIXIXIXIXIXIXIXIXIXIXIXIXIXIXIXIXIXIXIXIXIXIXIXIXIXIXIXIXIXIXIXIXIXIXIXIXIXIXIXIXIXIX~ / _ 7.c.b.b.J.L.L.L.L.L.L.N.q.q.w.6.' W E K H Z x k s y 9 6 4 4 3 > > > > > > - - > > > > 3 4 4 4 4 4 4 4 4 4 4 4 4 4 4 4 4 4 4 4 4 4 4 4 4 4 4 4 4 4 6 6 6 6 4 4 6 6 6 4 4 4 4 4 4 4 4 4 4 4 4 4 4 6 6 4 6 6 6 6 6 6 6 6 6 6 6 6 5 5 3 3 3 3 1 1 1 3 5 5 5 w w e u f g l m F P T ..O.>.<.t.u.B.W.^.)..XXX&X&X4XiXiXgXgXgXfXfXfXfXgXgXwX5XXXXX(./.B.V.u.3.>.O.T P F m l k i y y t 6 4 3 3 > > > 3 3 3 3 4 4 4 4 4 4 4 4 6 6 6 6 6 6 6 6 6 6 6 6 6 6 6 6 6 6 6 6 6 6 6 6 6 3 3 3 3 3 1 1 1 1 1 1 1 1 3 5 5 5 w e e u g h n M F L I ..O.:.1.g.p.f.f.D.D.].].].|. X|.|.vX7X7X7X7X5X5X5X5XtXtXyXpXsXsXsXpXpXyX6X6X5X5X7XvX|.{.].~.f.g.g.1.O.| L M n h u t w 6 5 3 3 3 3 3 3 3 > > > 3 3 3 4 3 4 4 4 4 4 4 4 4 4 4 3 4 4 4 4 4 4 4 4 4 4 4 4 4 4 4 4 4 4 4 4 4 4 4 4 4 4 , > > > > 3 3 4 6 6 w t u g g l M L I o.#.,.e.y.a.B.W.^._..X&X4XtXpXgXkXkXkXSXAX9X+X+X}.[.D.D.h.0.;.W E J H x IXIXIXIXIXIXIXIXIXIXIXIXIXIXIXIXIXIXIXIXIXIXIXIXIXIXIXIXIXIX",
"IXIXIXIXIXIXIXIXIXIXIXIXIXIXIXIXIXIXIXIXIXIXIXIXIXIXIXIXIXIXIXIXIXIXIXIXIXIXIXIXIXIXIXIXIXIXIXIXIXIXIXIXIXIXIXIX~ / _ 7.c.b.b.L.L.L.L.L.L.L.N.q.q.w.6.6.[ E E H H Z k s y 9 9 4 4 3 > > > > > > - - > > > 3 3 4 4 4 4 4 4 4 4 4 4 4 4 4 4 4 4 4 4 4 4 4 4 4 4 4 6 4 4 4 4 6 6 6 4 4 6 6 4 4 4 4 4 4 4 4 4 4 6 6 4 4 6 6 6 6 6 6 6 6 6 6 6 6 6 6 6 6 5 5 3 3 3 3 1 1 1 3 5 5 5 w w w u u g l n M L I ..O.:.<.e.y.a.B.W.^._..XXX&X4XtXwXgXgXgXfXfXfXfXgXgXwX7XXXXX(./.B.V.u.3.:.X.T P F z l k i y y 9 6 4 3 3 > > > 3 3 3 4 4 4 4 4 4 4 4 6 6 6 6 6 6 6 6 6 6 6 6 6 6 6 6 6 6 6 6 6 6 6 6 6 6 5 3 3 3 3 1 1 1 1 1 1 1 1 3 1 5 5 5 w w u f h l n M L L I ..O.:.1.g.g.p.f.f.D.].].].{.|.|.|.|.vX7X7X7X5X5X5XtXtXyXpXsXsXsXsXpXtXtX5X5X5X7XvX|.|.].~.f.i.g.:.O.| L M n h u u w 6 6 5 3 3 3 3 3 3 > > > 3 3 3 3 4 4 4 4 4 4 4 4 4 4 4 3 4 3 4 4 4 4 4 4 4 4 4 4 4 4 4 4 4 4 4 4 0 4 4 4 4 4 , > > > > 3 3 4 6 6 w t u i g l m L I ..#.,.e.y.a.B.!.^._..X&X4XtXwXhXkXkXSXSXAX9X+X+X X[.D.D.h.0.;.W E J H x IXIXIXIXIXIXIXIXIXIXIXIXIXIXIXIXIXIXIXIXIXIXIXIXIXIXIXIXIXIX",
"IXIXIXIXIXIXIXIXIXIXIXIXIXIXIXIXIXIXIXIXIXIXIXIXIXIXIXIXIXIXIXIXIXIXIXIXIXIXIXIXIXIXIXIXIXIXIXIXIXIXIXIXIXIXIXIX~ / _ 7.c.b.b.L.L.L.T.L.L.L.J.N.q.w.6.6.[ Q K J H Z x s y t 9 6 4 3 3 > > > > > > > > > > 3 3 4 4 4 4 4 4 4 4 4 4 4 4 4 4 4 4 4 4 4 4 4 4 4 4 4 4 4 4 4 4 4 4 6 4 6 6 6 4 4 4 4 4 4 4 4 4 6 6 6 4 4 6 6 4 6 6 6 6 6 6 6 6 6 6 6 6 5 5 5 5 3 3 3 1 1 1 1 5 5 5 5 w w w u g g n M L P T ..O.>.<.t.u.B.W.^._..XXX&X5XwXwXgXgXgXgXJXfXgXgXgXwX7XOXoX(./.B.V.u.3.:.X.T P D z l g i y t 9 6 4 3 3 > > 3 3 3 3 4 4 4 4 4 4 4 6 6 6 6 6 6 6 6 6 6 6 6 6 6 6 6 6 6 6 6 6 6 6 6 6 6 6 6 3 3 3 3 3 3 1 1 1 1 1 1 1 1 3 5 5 5 w e u g h n n M L P I ..O.:.1.g.g.p.f.f.D.D.].].|.|.|.|.|.|.7X7X7X5X5X5XtXyXpXsXaXaXaXiXtXtX5X5X5X7XvX|.|.~.~.f.g.e.:.O.| L M n h u t w 6 6 5 3 3 3 3 3 3 > > > > 3 3 3 4 4 4 4 4 4 4 4 4 4 4 3 3 3 3 4 4 4 4 4 4 4 4 4 4 4 4 4 4 4 4 0 0 0 4 4 4 4 4 > > > > 3 3 4 6 6 w t u u g l m L I ..O.,.e.y.a.B.!.^._..X%X4XtXwXhXkXkXSXSXAX9X+X@X}.[.D.D.h.5.;.W E J Z x IXIXIXIXIXIXIXIXIXIXIXIXIXIXIXIXIXIXIXIXIXIXIXIXIXIXIXIXIXIX",
"IXIXIXIXIXIXIXIXIXIXIXIXIXIXIXIXIXIXIXIXIXIXIXIXIXIXIXIXIXIXIXIXIXIXIXIXIXIXIXIXIXIXIXIXIXIXIXIXIXIXIXIXIXIXIXIX~ / _ 7.c.b.b.L.L.L.T.L.L.L.N.N.q.w.6.6.[ W K J H Z x s i t 9 6 4 4 3 3 > > > > > > > > > > 3 4 4 4 4 4 4 4 4 4 4 4 4 4 4 4 4 4 4 4 4 4 4 4 4 4 4 4 4 4 4 4 4 4 4 4 4 4 4 4 4 4 4 4 4 4 4 6 6 6 4 4 6 6 6 6 6 6 6 6 6 6 6 6 6 6 6 5 5 5 5 3 3 3 1 1 1 3 5 5 5 5 w w w u u g l m F P I ..O.:.<.t.u.B.W.^._..XXX&X&XwXwXgXgXgXgXJXJXcXgXgXwX7XOXoX(./.B.V.t.<.:.X.T G D z k g i y t 6 6 4 3 3 > > 3 3 3 4 4 4 4 4 4 4 6 6 6 6 6 6 6 6 6 6 6 6 6 6 6 6 6 6 6 6 6 6 6 6 6 6 6 6 5 5 3 3 3 3 3 3 1 1 1 1 1 1 1 1 5 5 5 w w u f g h n m M L I | o.#.:.1.g.p.g.p.f.f.D.].].{.{.|.|.|.|.vX7X7X5X5XtXtXyXiXaXaXiXiXtXtX5X5X5X7XvX|.(.(.~.f.i.e.:.O.| L M n h u u w 6 6 5 3 3 3 3 3 3 > > > 3 3 3 3 4 4 4 4 4 4 4 4 4 3 3 3 3 3 3 4 4 4 4 4 4 4 4 4 4 4 4 4 4 4 0 0 0 0 4 4 4 4 4 > > > > 3 3 3 6 6 w w u u g l n F I ..O.:.<.y.a.B.W.^._..X%X&XwXwXhXkXkXeXSXAX9X+X@X}.}.D.A.h.5.;.W E J Z x IXIXIXIXIXIXIXIXIXIXIXIXIXIXIXIXIXIXIXIXIXIXIXIXIXIXIXIXIXIX",
"IXIXIXIXIXIXIXIXIXIXIXIXIXIXIXIXIXIXIXIXIXIXIXIXIXIXIXIXIXIXIXIXIXIXIXIXIXIXIXIXIXIXIXIXIXIXIXIXIXIXIXIXIXIXIXIX~ / _ 7.c.b.b.L.L.T.L.L.L.L.S.N.q.w.w.6.' W E J H Z z k i y 9 6 4 4 3 3 3 > > > > > > > > 3 4 4 4 4 4 4 4 4 4 4 4 4 4 4 3 3 4 4 4 4 4 4 4 4 4 4 4 4 4 4 4 4 4 4 4 4 4 4 4 4 4 4 4 4 4 4 4 4 4 4 4 6 6 6 6 6 6 6 6 6 6 6 6 6 6 6 6 6 5 5 5 3 3 3 1 1 3 3 5 5 5 5 6 w w w u g l m M L I ..X.=.>.e.u.V.B.W.^._.XX&X5XwXwXgXgXgXcXJXJXcXgXgXwX7XOXoX(.!.B.u.t.<.:.X.T F m z k g y y t 6 6 4 3 3 3 > 3 3 3 4 4 4 4 6 6 6 6 6 6 6 6 6 6 6 6 6 6 6 6 6 6 6 6 6 6 6 6 6 6 6 6 6 6 6 6 6 3 3 3 3 3 3 1 1 3 3 1 1 1 1 5 5 5 w e u u f h l n m M L I ..o.#.:.1.1.g.g.p.f.f.D.].].].{.|.|.|.|.|.7X5X5X5XtXyXyXiXiXiXiXtXtX5X5X7X7X|.|.`.(.~.f.i.<.:.O...P F m l i t w 6 6 5 3 3 3 3 3 3 > > > > 3 3 3 3 4 4 3 3 4 4 4 4 3 3 3 3 4 4 4 4 4 4 3 4 4 4 4 4 4 4 4 4 4 0 0 0 0 4 4 4 4 4 3 > > > 3 3 3 6 6 w w u u g h n M L ..O.:.<.y.a.B.W.^.)..X%X&XwXwXhXcXeXSXSXAXBX+X@X}.[.D.A.h.5.;.W E J C x IXIXIXIXIXIXIXIXIXIXIXIXIXIXIXIXIXIXIXIXIXIXIXIXIXIXIXIXIXIX",
"IXIXIXIXIXIXIXIXIXIXIXIXIXIXIXIXIXIXIXIXIXIXIXIXIXIXIXIXIXIXIXIXIXIXIXIXIXIXIXIXIXIXIXIXIXIXIXIXIXIXIXIXIXIXIXIX~ / _ 7.c.c.b.L.L.T.T.L.L.L.S.N.q.w.w.6.' W E E H D x k s y 9 6 6 4 4 3 3 3 > > > > > > > 3 4 4 4 4 4 4 4 4 4 4 4 4 4 4 4 4 3 4 4 4 4 4 4 4 4 4 4 4 4 4 4 4 4 4 4 4 4 4 4 4 4 4 4 4 4 4 4 4 4 4 6 6 6 6 6 6 6 6 6 6 6 6 6 6 6 6 6 6 5 5 5 5 3 3 3 3 3 3 5 5 5 5 6 w w w u g h n M F P T ..O.>.<.t.V.B.W.^._.XXXX5XwXwXgXgXgXcXJXJXcXgXgXwX7XOX`.(.!.B.u.t.<.:.X.T F m l k g y y t 6 6 4 3 3 3 3 3 3 3 4 4 6 6 6 6 6 6 6 6 6 6 6 6 6 6 6 6 6 6 6 6 6 6 6 6 6 6 6 6 6 6 6 6 6 6 6 5 3 3 3 3 3 3 3 3 3 3 3 1 3 5 5 5 5 w e u f g h l n M M L I ..o.O.#.:.1.g.g.g.f.f.C.~.~.].].(.`.`.`.|.7X7X5X5XtXtXtXiXtXtXtXtX;X&X&X&X`.`.(.~.~.d.y.<.:.O...P F m l g t w 6 6 6 5 3 3 3 3 3 > > > > 3 3 3 3 4 4 3 3 4 3 4 4 3 3 3 3 4 4 3 3 4 4 3 4 4 4 4 4 4 4 4 4 4 0 0 0 4 4 4 4 4 4 3 > > > 3 3 3 6 6 w w t u g h n M L | o.#.<.t.a.a.B.^.)..X.X&X5XwXhXrXeXeXSXAX+X+X@X}.[.D.A.h.5.;.W E J H x IXIXIXIXIXIXIXIXIXIXIXIXIXIXIXIXIXIXIXIXIXIXIXIXIXIXIXIXIXIX",
"IXIXIXIXIXIXIXIXIXIXIXIXIXIXIXIXIXIXIXIXIXIXIXIXIXIXIXIXIXIXIXIXIXIXIXIXIXIXIXIXIXIXIXIXIXIXIXIXIXIXIXIXIXIXIXIXIX/ _ 7.c.b.b.L.L.L.L.L.L.L.S.N.q.0.9.6.6.W Q E ! D x k s y t 9 6 4 4 3 3 3 > > > > > > 3 3 3 4 4 4 4 4 4 4 4 4 4 4 4 3 4 4 4 4 4 4 4 4 4 4 4 4 4 4 4 4 4 4 4 4 4 4 4 4 4 4 4 4 4 4 4 4 4 4 4 4 6 6 6 6 6 6 6 6 6 6 6 6 6 6 6 6 6 6 5 5 5 3 3 3 3 3 3 3 5 5 5 5 5 6 w w u i g l m F L I ..O.:.<.t.u.B.W.^._.XXXX5XwXwXgXgXcXcXJXJXcXgXgXwX7XOX`.(.V.B.u.t.<.=.X.I F m l k i y y t w 6 3 3 3 3 3 3 3 4 4 6 6 6 6 6 6 6 6 6 6 6 6 6 6 6 6 6 6 6 6 6 6 6 6 6 6 6 6 6 6 6 6 6 6 6 6 6 5 3 3 3 3 3 3 3 3 3 3 3 3 5 5 5 5 w w e u f g h l n M M L I ....O.#.#.1.1.g.g.p.f.f.~.~.~.(.(.`.`.`.$X&X&X;X;X;X;X;X;X;X;X;X;X&X&X&X`.`.`.~.C.d.y.<.:.O.| P F m l u t w 6 6 6 5 3 3 3 3 3 > > > 3 3 3 3 3 3 4 3 3 3 3 4 3 3 3 3 3 3 4 3 3 3 3 3 3 4 4 4 4 4 4 4 4 4 4 6 6 6 6 4 4 4 4 3 > > > 3 3 3 6 6 w w t u g h n M L | o.#.,.e.y.a.B.W.)._..X&X5XwXwXrXeXeXAXAXBX+X@X}.}.D.A.h.9.5.W E J J x IXIXIXIXIXIXIXIXIXIXIXIXIXIXIXIXIXIXIXIXIXIXIXIXIXIXIXIXIXIX",
"IXIXIXIXIXIXIXIXIXIXIXIXIXIXIXIXIXIXIXIXIXIXIXIXIXIXIXIXIXIXIXIXIXIXIXIXIXIXIXIXIXIXIXIXIXIXIXIXIXIXIXIXIXIXIXIXIX/ _ 7.x.b.b.J.L.L.L.L.L.L.S.N.N.q.9.6.6.[ Q E ! D x k s y t 9 6 4 4 4 3 3 3 > > > > > 3 3 4 4 4 4 4 4 4 4 4 4 4 4 4 3 4 4 4 4 4 4 4 4 4 4 4 4 4 4 4 4 4 4 4 4 4 4 4 4 4 4 4 4 4 4 4 4 4 4 4 6 6 6 6 6 6 6 6 6 6 6 6 6 6 6 6 6 6 6 5 5 5 3 3 3 3 3 3 3 5 5 5 5 5 5 w w u u g l m M L P T X.=.>.t.u.B.B././.XXXX7XwXwXwXgXcXzXJXzXcXgXgXwX7XOX`.(.V.B.u.t.>.=.X.I F m l g i u y t 6 6 3 3 3 3 3 3 3 4 4 6 6 6 6 6 6 6 6 6 6 6 6 6 6 6 6 6 6 6 6 6 6 6 6 6 6 6 6 6 6 6 6 6 6 6 6 6 6 3 5 3 3 3 3 3 3 3 3 3 3 3 5 5 5 w e w u u f g h l n M M L I I ....o.O.#.1.g.g.i.f.f.f.~.~.~.(.(.`.`.$X&X&X&X;X;X;X;X;X;X;X&X&X&X&X`.`.(.~.V.d.y.<.:.O...P F m l u t w 6 6 6 3 3 3 3 3 3 > > > > 3 3 3 3 3 3 3 3 3 3 3 3 3 3 3 3 3 3 3 3 3 3 4 3 4 4 4 4 4 4 4 4 6 6 6 6 6 6 4 4 4 4 3 > > > 3 3 3 6 6 w w t u g h n M L | o.#.,.e.y.a.B.W.^._..X&X5XwXwXhXeXeX9X9X+X+X@X}.[.F.A.h.9.5.W E J J x IXIXIXIXIXIXIXIXIXIXIXIXIXIXIXIXIXIXIXIXIXIXIXIXIXIXIXIXIXIX",
"IXIXIXIXIXIXIXIXIXIXIXIXIXIXIXIXIXIXIXIXIXIXIXIXIXIXIXIXIXIXIXIXIXIXIXIXIXIXIXIXIXIXIXIXIXIXIXIXIXIXIXIXIXIXIXIXIX` _ ] x.b.b.J.L.T.T.L.L.L.L.S.N.q.w.6.6.[ W E J H Z k s y t 9 6 6 4 4 3 3 3 > > > > > 3 3 4 4 4 4 4 4 4 4 4 4 4 4 4 4 3 3 3 3 4 4 4 4 4 4 4 4 4 4 4 4 4 4 4 4 4 4 4 4 4 4 4 4 4 4 4 6 4 4 4 6 6 6 4 6 6 6 6 6 6 6 6 6 6 6 6 6 6 6 5 5 5 5 3 3 3 3 3 3 5 5 5 5 5 5 6 w w u g l l m F P I ..O.>.<.u.V.B././.XXXX7XwXwXgXgXcXzXJXzXgXgXwXwXOXOX`.(.V.V.u.3.>.=.T P F m l g i u t t 6 6 3 3 3 3 3 3 3 4 6 6 6 6 6 6 6 6 6 6 6 6 6 6 6 6 6 6 6 6 6 6 6 6 6 6 6 6 6 6 6 6 6 6 6 6 6 6 6 5 5 3 3 3 3 3 3 3 3 3 3 3 3 5 5 5 w e w e u u g g h n M M L L I I | ..o.#.:.1.e.g.i.d.f.f.~.~.~.'.`.`.$X&X&X&X;X4X4X4X;X&X&X&X&X&X`.`.'.(.V.d.y.<.:.O...P F m l i t w 6 6 5 3 3 3 3 3 3 > > > > 3 3 3 3 3 3 4 4 4 4 3 3 3 3 3 3 3 3 3 3 3 3 4 4 4 4 4 4 4 6 4 4 6 9 9 9 9 4 4 4 4 4 3 3 > > 3 3 3 6 6 w w u u g h n M L | o.#.,.e.y.a.B.W.^._..X&X&X7X6XrXrXrX9X+X+X+X@X}.[.F.A.h.9.5.@.Q J J x IXIXIXIXIXIXIXIXIXIXIXIXIXIXIXIXIXIXIXIXIXIXIXIXIXIXIXIXIXIX",
"IXIXIXIXIXIXIXIXIXIXIXIXIXIXIXIXIXIXIXIXIXIXIXIXIXIXIXIXIXIXIXIXIXIXIXIXIXIXIXIXIXIXIXIXIXIXIXIXIXIXIXIXIXIXIXIXIX^ _ ] x.b.b.J.L.L.T.L.L.L.L.S.N.q.w.9.6.;.W E E H Z z k i y 9 9 6 4 4 4 3 3 > > > > > 3 3 4 4 4 4 4 4 6 4 4 4 4 4 4 4 4 3 3 3 4 4 4 4 4 4 4 4 4 4 4 4 4 4 4 4 4 4 4 4 4 4 4 4 4 4 4 6 4 4 6 6 6 6 6 6 6 6 6 6 6 6 6 6 6 6 6 6 6 6 5 5 5 5 3 3 3 3 3 3 5 5 5 5 5 5 6 6 w t i g l m F L P T X.:.<.u.V.B.W.(.oXOXOXwXwXhXcXkXzXJXzXzXhXwXwXOXOX(.(.V.V.u.3.>.O.T P F z k g i u t w 6 6 3 3 3 3 3 3 4 4 6 6 6 6 6 6 6 6 6 6 6 6 6 6 6 6 6 6 6 6 6 6 6 6 6 6 6 6 6 6 6 6 6 6 6 6 6 6 6 6 5 5 3 3 3 3 3 3 3 3 3 3 3 3 5 5 5 w e w e u u f g h n n M M L L L I | ..o.#.,.e.r.r.d.d.s.V.!.!.'.`.`.&X&X&X&X&X:X-X:X&X&X&X&X&XXX`.'./.V.d.y.<.:.O...P F n h i t w 6 6 5 3 3 3 3 3 > > > > > > 3 3 3 3 3 3 4 3 3 3 3 3 3 3 3 3 3 3 3 3 3 4 4 4 4 4 4 4 6 4 6 6 9 9 9 9 6 6 4 4 4 3 3 > > 3 3 3 5 6 w w u u g h n M L | o.#.,.e.y.a.B.!.^.)._.XX&X7X7X8X8X8X+X+X+X@X X}.G.F.A.h.0.;.;.Q J J x IXIXIXIXIXIXIXIXIXIXIXIXIXIXIXIXIXIXIXIXIXIXIXIXIXIXIXIXIXIX",
"IXIXIXIXIXIXIXIXIXIXIXIXIXIXIXIXIXIXIXIXIXIXIXIXIXIXIXIXIXIXIXIXIXIXIXIXIXIXIXIXIXIXIXIXIXIXIXIXIXIXIXIXIXIXIXIXIX^ _ ] 7.c.b.J.L.L.T.L.L.L.L.S.N.q.0.9.6.6.[ Q E H Z x k i y t 9 6 6 4 4 3 3 3 > > > > 3 3 4 4 4 6 4 4 6 4 4 4 4 4 4 4 4 4 3 4 4 4 4 4 4 4 4 4 4 4 4 4 4 4 4 4 4 4 4 4 4 4 4 4 4 4 6 6 4 4 6 6 6 6 6 6 6 6 6 6 6 6 6 6 6 6 6 6 6 6 5 5 5 5 3 3 3 3 3 3 3 3 5 5 5 5 5 6 w t u g l m m F P T X.=.<.t.u.B.V.(.`.OXOXwXrXhXcXkXzXzXJXkXhXwX7XOXOX(.~.V.V.u.<.:.X.T P m z k g y y t w 6 6 3 3 3 3 3 3 4 4 6 6 6 6 6 6 6 6 6 6 6 6 6 6 6 6 6 6 6 6 6 6 6 6 6 6 6 6 6 6 6 6 6 6 6 6 6 6 6 6 5 6 3 3 3 3 3 3 3 3 3 3 3 3 3 5 5 5 w w w e u u f g h l n n M M B L L I | o.#.$.,.e.y.y.d.s.!.!.Q.)._.#X#X%X%X%X%X%X&X&X&X&X&X&X`.`._.!.V.d.y.<.:.O...L M n h u t w 6 6 5 3 3 3 3 3 > > > > > > 3 3 3 3 3 3 3 3 3 3 3 3 3 3 3 3 3 3 3 4 3 4 4 4 4 4 4 4 4 6 6 6 6 6 6 9 6 6 4 4 3 3 3 > 3 3 3 3 5 6 w w u u g h n M L | o.#.,.e.y.a.B.W.^.)._.XXXX7X7X8X8X+X+X+X+X@X}.}.G.F.A.h.0.9.;.Q K J x IXIXIXIXIXIXIXIXIXIXIXIXIXIXIXIXIXIXIXIXIXIXIXIXIXIXIXIXIXIX",
"IXIXIXIXIXIXIXIXIXIXIXIXIXIXIXIXIXIXIXIXIXIXIXIXIXIXIXIXIXIXIXIXIXIXIXIXIXIXIXIXIXIXIXIXIXIXIXIXIXIXIXIXIXIXIXIXIX^ _ ] 7.c.b.J.L.L.T.L.L.L.L.S.N.q.q.9.6.6.[ Q E ! D x k s y t 9 6 6 4 4 3 3 3 > > > 3 3 3 4 4 4 6 6 4 4 4 4 4 4 4 4 4 4 4 4 4 4 4 4 4 4 4 4 4 4 4 4 4 4 4 4 4 4 4 4 4 4 4 4 4 4 4 4 6 4 4 6 6 6 6 6 6 6 6 6 6 6 6 6 6 6 6 6 6 6 6 5 5 5 3 3 3 3 3 3 3 3 3 3 5 5 5 5 6 6 w u g l l m F P T X.=.>.t.u.B.V.(.`.OXOX8XrXrXcXkXkXzXkXkXhXwXwXOXOX(.~.V.V.t.<.:.X.T P m l k i u y t 6 6 6 3 3 3 3 3 3 4 6 6 6 6 6 6 6 6 6 6 6 6 6 6 6 6 6 6 6 6 6 6 6 6 6 6 6 6 6 6 6 6 6 6 6 6 6 6 6 6 6 6 5 3 3 3 3 3 3 3 3 3 3 3 3 5 5 5 5 5 w w w e u u f g h l n n n M M B L I | o.#.#.,.e.y.y.d.s.!.Q.'.)._.#X%X%X%X%X%X%X%X&X&X&X&X`._._.!.V.a.y.<.:.O...P M n g u t w 6 6 3 3 3 3 3 3 > > > > > > 3 3 3 3 3 3 3 3 3 3 3 3 3 3 3 3 3 3 3 4 4 3 3 4 4 4 4 4 4 6 6 6 6 6 6 6 6 6 4 4 3 3 3 > > 3 3 3 5 6 w w u u g h n M L | o.#.,.e.y.a.B.W.^.)._.XXXXOX7XOXOX+X+X+X@X@X}.[.G.F.A.h.0.9.;.Q K J C IXIXIXIXIXIXIXIXIXIXIXIXIXIXIXIXIXIXIXIXIXIXIXIXIXIXIXIXIXIX",
"IXIXIXIXIXIXIXIXIXIXIXIXIXIXIXIXIXIXIXIXIXIXIXIXIXIXIXIXIXIXIXIXIXIXIXIXIXIXIXIXIXIXIXIXIXIXIXIXIXIXIXIXIXIXIXIXIX` _ ] 7.c.b.J.L.L.L.L.L.L.L.S.S.N.q.w.6.6.[ Q E ! D x k s y t 9 6 6 4 4 3 3 3 > 3 > 3 3 4 4 4 6 6 6 6 6 4 4 4 4 4 4 4 4 4 4 4 4 4 4 4 4 4 4 4 4 4 4 4 4 4 4 4 4 4 4 4 4 4 4 4 4 4 4 6 6 4 6 6 4 6 6 6 6 6 6 6 6 6 6 6 6 6 6 6 6 6 5 5 5 3 3 3 3 3 3 3 3 3 3 3 5 3 5 5 6 w u g k l m F P I ..O.>.t.u.B.V.(.`.OXOX8XrXrXkXkXkXkXkXkXkXwXwXOXOX(.C.V.u.t.<.:.X.T L m l k i u t t 6 6 6 3 3 3 3 3 3 4 6 6 6 6 9 9 9 6 6 6 6 6 6 6 6 6 6 6 6 6 6 6 6 6 6 6 6 6 6 6 6 6 6 6 6 6 6 6 6 6 4 4 5 3 3 3 3 3 3 3 3 3 3 3 3 5 5 5 5 5 5 w e w e u u f g h h h n n n M M L I | o.#.#.,.e.r.y.d.s.!.Q.).)._.#X%X%X*X%X%X%X%X%X%X%X_.`._./.B.a.y.<.:.O...P M m l i t w 6 6 3 3 3 3 3 3 > > > > > > 3 3 3 3 3 3 3 3 3 3 3 3 3 3 3 3 3 3 3 3 3 3 3 4 4 4 4 4 6 4 4 6 6 6 6 6 6 4 4 4 3 3 > > > 3 3 3 5 6 w w u u g l n L I ..O.#.,.e.y.a.B.W.^.)._.XXXXOXOXOXOX+X+X@X@X}.}.[.H.F.A.h.0.9.6.W K J C IXIXIXIXIXIXIXIXIXIXIXIXIXIXIXIXIXIXIXIXIXIXIXIXIXIXIXIXIXIX",
"IXIXIXIXIXIXIXIXIXIXIXIXIXIXIXIXIXIXIXIXIXIXIXIXIXIXIXIXIXIXIXIXIXIXIXIXIXIXIXIXIXIXIXIXIXIXIXIXIXIXIXIXIXIXIXIXIX` _ ] 7.c.b.J.L.L.L.L.L.L.L.S.N.N.q.0.6.6.[ W E ! D z k s i t 9 6 6 4 4 3 3 3 3 3 > 3 3 4 4 4 6 6 6 6 4 4 4 4 4 4 4 4 4 4 4 4 4 4 4 4 4 4 4 4 4 4 4 4 4 4 4 4 4 4 4 4 4 4 4 4 4 4 4 6 4 4 6 6 4 6 6 6 6 6 6 6 6 6 6 6 6 6 6 6 6 6 5 5 5 3 3 3 3 3 3 3 3 3 3 3 3 3 5 5 6 w u g g l m F L I ..O.>.t.u.B.V.(.`.OXOX8XrXkXkXkXkXkXkXkXhXrXwXOXOX(.C.V.u.t.<.=.X.T F m l g i u t t w 6 6 3 3 3 3 3 3 4 6 6 6 9 9 9 9 9 6 6 6 6 6 6 6 6 6 6 6 6 6 6 6 6 6 6 6 6 6 6 6 6 6 6 6 6 6 6 6 4 5 3 5 3 3 3 3 3 3 3 3 3 3 3 3 3 5 5 5 5 5 w w w w e u f f f h h h h n n n B L I | o.o.#.$.e.r.y.d.M.!.Q.)._._.%X%X%X%X*X%X%X%X%X&X`.`._./.V.d.y.<.:.O...P F m l i t w 6 5 3 3 3 3 3 > > - - > > > > 3 3 3 3 3 3 3 3 3 3 3 3 3 3 3 3 3 3 3 3 3 3 4 4 4 4 4 6 4 6 6 6 6 6 6 6 6 4 4 3 3 > - - 3 3 3 5 6 w w u f g l n L I ..O.:.,.e.y.a.B.W.^.^._.XXXXXXOXOXOXOX@X@X}.}.}.[.H.D.A.h.0.9.6.W K J C IXIXIXIXIXIXIXIXIXIXIXIXIXIXIXIXIXIXIXIXIXIXIXIXIXIXIXIXIXIX",
"IXIXIXIXIXIXIXIXIXIXIXIXIXIXIXIXIXIXIXIXIXIXIXIXIXIXIXIXIXIXIXIXIXIXIXIXIXIXIXIXIXIXIXIXIXIXIXIXIXIXIXIXIXIXIXIXIX` / ] 7.c.c.J.L.L.L.L.L.L.L.S.S.N.q.w.5.6.[ W E Y H z k s i y t 6 6 4 4 3 3 3 > > > 3 3 4 4 4 4 4 6 6 4 6 4 4 4 4 4 4 4 4 4 4 4 4 4 4 4 4 4 4 4 4 4 4 4 4 4 4 4 4 4 4 4 4 4 4 4 4 4 6 4 4 6 6 4 4 6 6 6 6 6 6 6 6 6 6 6 6 6 6 6 6 6 5 5 3 3 3 3 3 3 3 3 3 3 3 3 3 5 5 6 w u i g l m F F I ..O.>.t.u.B.V.(.|.OXOX8XrXkXkXkXkXkXkXkXrXrX7XOX|.(.C.V.u.t.<.=.X.I F m l g i u t t 6 6 6 3 3 3 3 3 3 4 6 6 6 6 9 9 6 6 6 6 6 6 6 6 6 6 6 6 4 4 4 6 6 6 6 6 6 6 6 6 6 6 6 6 6 6 6 6 6 6 5 3 6 5 3 3 3 3 3 3 3 3 3 3 3 5 5 5 5 5 6 w w w w w u u f f f f j h h n n n B L I | o.o.#.$.e.r.y.s.!.Q.'.)._._.%X%X%X*X%X%X%X%X&X`.`.`.!.V.a.y.<.:.O...P F n l i t 6 6 3 3 3 3 3 3 > > - - - > > > 3 3 3 3 3 3 3 3 3 3 3 3 3 3 3 3 3 3 3 3 4 4 4 4 4 4 6 6 4 6 6 6 6 6 6 6 6 4 3 3 3 3 - - 3 3 3 5 6 w w u f g l M L I ..O.:.<.e.y.a.B.W.^.^._.`.XXoXOXOXOXOXOX{.}.}.}.{.H.A.A.h.0.9.6.( K K J IXIXIXIXIXIXIXIXIXIXIXIXIXIXIXIXIXIXIXIXIXIXIXIXIXIXIXIXIXIX",
"IXIXIXIXIXIXIXIXIXIXIXIXIXIXIXIXIXIXIXIXIXIXIXIXIXIXIXIXIXIXIXIXIXIXIXIXIXIXIXIXIXIXIXIXIXIXIXIXIXIXIXIXIXIXIXIXIX` / ] 7.c.c.J.J.L.L.L.L.L.L.L.S.N.q.w.9.6.;.W Q E H Z k s i y t 9 6 4 4 3 3 3 > > > 3 3 4 4 4 4 6 6 6 4 4 4 4 4 4 4 4 4 4 4 4 4 4 4 4 4 4 4 4 4 4 4 4 4 4 4 4 4 4 4 4 4 4 4 4 4 4 4 4 4 4 4 6 6 4 6 6 6 6 6 6 6 6 6 6 6 6 6 6 6 6 6 5 5 3 3 3 3 3 3 3 3 3 3 3 3 3 3 5 6 w u g g l m F F I ..O.>.3.u.V.C.(.|.OXOX8XrXkXkXkXkXkXkXkXrX8X7XOX|.(.C.Z.u.t.>.=.X.I F m l g i y t w 6 6 6 3 3 3 3 3 4 4 6 6 6 9 9 9 6 6 6 6 6 6 6 6 6 6 6 6 4 4 4 4 4 6 6 6 6 6 6 6 6 6 6 6 6 6 6 6 6 6 5 3 6 5 3 3 3 3 3 3 3 3 3 3 5 5 5 5 5 6 6 6 w w w w e e u f f f f f j h h n n B L I | o.o.#.,.r.y.d.s.!.Q.).)._.#X%X%X%X%X%X%X%X&X`.`.'./.V.a.y.<.:.O...P F m l i t 6 6 3 3 3 3 3 3 > > - - - > > > 3 3 3 3 3 3 3 3 3 3 3 3 3 3 3 3 3 3 3 3 4 4 6 6 4 4 6 6 4 6 6 6 6 6 6 6 6 4 3 3 3 3 - - 3 3 3 5 6 w t u g h n M L I ..#.:.<.t.y.a.B.W.^.^._.`.`.XXoXOX|.|.|.{.{.{.{.H.H.D.A.A.0.9.6.( K K J IXIXIXIXIXIXIXIXIXIXIXIXIXIXIXIXIXIXIXIXIXIXIXIXIXIXIXIXIXIX",
"IXIXIXIXIXIXIXIXIXIXIXIXIXIXIXIXIXIXIXIXIXIXIXIXIXIXIXIXIXIXIXIXIXIXIXIXIXIXIXIXIXIXIXIXIXIXIXIXIXIXIXIXIXIXIXIXIX~ / _ ] 8.c.b.J.L.L.L.L.L.L.L.S.N.q.w.9.6.;.W Q E H Z k k i y t 9 6 6 4 4 3 3 > > 3 3 3 4 4 4 4 4 4 4 4 4 4 4 4 4 4 4 4 4 4 4 4 4 4 4 4 4 4 4 4 4 4 4 4 4 4 4 4 4 4 4 4 4 4 4 4 4 4 4 4 4 6 6 6 6 4 6 6 6 6 6 6 6 6 6 6 6 6 6 6 6 6 6 5 3 3 3 3 3 3 3 3 3 3 3 3 3 5 5 6 w u g g l m F L I ..O.>.t.u.V.C.(.|.OXOX8XeXkXkXkXkXkXkXkXrX8XOXOX`.(.C.Z.u.3.>.O...P F m l g i u t w 6 6 6 3 3 3 3 3 4 4 6 6 6 9 9 9 9 9 6 6 6 6 6 6 6 6 6 6 6 6 6 6 4 6 6 6 6 6 6 6 6 6 6 6 6 6 6 6 6 6 3 3 3 3 3 3 3 3 3 3 3 3 5 5 5 5 5 5 5 5 6 6 w w e e w e u u u u f f f f j h n n B B I | o.#.$.e.r.y.s.!.!.'.)._.#X%X%X%X%X%X%X%X%X_.`.(./.V.d.i.<.:.O...P F n g u t 6 6 3 3 3 3 3 > > > > - - - > > > 3 3 3 3 3 3 3 3 3 3 3 3 3 3 3 3 3 3 4 3 3 4 4 4 6 6 6 6 6 6 6 6 6 6 6 4 4 3 3 3 > - - 3 3 3 6 6 w u u g l n M L I o.#.,.e.t.u.a.B.W.W.^./.`.`.`.`.`.{.{.{.{.{.{.H.H.D.A.A.A.0.9.6.' ) K J IXIXIXIXIXIXIXIXIXIXIXIXIXIXIXIXIXIXIXIXIXIXIXIXIXIXIXIXIXIX",
"IXIXIXIXIXIXIXIXIXIXIXIXIXIXIXIXIXIXIXIXIXIXIXIXIXIXIXIXIXIXIXIXIXIXIXIXIXIXIXIXIXIXIXIXIXIXIXIXIXIXIXIXIXIXIXIXIX~ / _ ] 7.c.b.J.J.L.L.L.L.L.L.S.N.q.q.9.6.6.[ Q E H Z z k i y t 9 6 6 4 4 3 3 > > 3 3 3 4 4 4 4 6 4 4 6 4 6 4 4 4 4 4 4 4 4 4 4 4 4 4 4 4 4 4 4 4 4 4 4 4 4 4 4 4 4 4 4 4 4 4 4 4 4 4 4 4 4 6 6 6 6 6 6 6 6 6 6 6 6 6 6 6 6 6 6 6 6 6 5 3 3 3 3 3 3 3 3 3 3 3 3 3 5 5 6 w u i g l m M L I ..O.>.t.u.V.C.(.|.OXOX8XrXeXkXkXkXkXkXkXrX8XOXOX(.~.C.Z.i.3.:.O.T P F z k g u t t 6 6 6 6 3 3 3 3 3 4 4 6 6 6 9 9 9 9 9 6 6 6 6 6 6 6 6 6 6 6 6 6 6 6 6 6 5 6 6 4 4 4 4 6 6 6 6 6 6 6 6 3 3 3 3 6 4 3 3 3 3 5 5 5 5 5 6 6 6 6 6 6 6 w w w w e w e e e e e e e r f j h n M B B I  .o.#.$.r.y.d.s.!.Q.).)._.#X%X%X%X%X%X%X%X_.`.(.~.V.d.i.<.:.O.T P M n g u t 6 6 3 3 3 3 3 > > > - - - - > > > 3 3 3 3 3 3 3 3 3 3 3 3 3 3 3 3 5 4 4 3 3 4 4 4 6 6 6 6 6 6 6 6 6 6 6 4 4 3 3 3 > - - 3 3 5 6 w t u g g l m F I ..O.:.,.e.y.u.a.B.W.W./././.(.(.(.(.(.(.{.].].H.H.H.F.A.A.A.0.9.6.6.) ^ J C IXIXIXIXIXIXIXIXIXIXIXIXIXIXIXIXIXIXIXIXIXIXIXIXIXIXIXIXIX",
"IXIXIXIXIXIXIXIXIXIXIXIXIXIXIXIXIXIXIXIXIXIXIXIXIXIXIXIXIXIXIXIXIXIXIXIXIXIXIXIXIXIXIXIXIXIXIXIXIXIXIXIXIXIXIXIXIXA ` _ ] 7.8.b.J.J.L.L.L.L.L.L.S.N.q.q.w.6.6.[ Q E H D z k i y y t 9 6 6 4 3 3 3 > > 3 3 4 4 4 4 6 6 9 9 4 4 4 4 4 4 4 4 4 4 4 4 4 4 4 4 4 4 4 4 4 4 4 4 4 4 4 4 4 4 4 4 4 4 4 4 4 4 4 4 4 6 6 6 6 6 6 6 6 6 6 6 6 6 6 6 6 6 6 6 6 6 6 5 5 3 3 3 3 3 3 3 3 3 3 3 3 5 5 6 w t u g l m M F P T O.>.3.u.V.C.(.{.OXOX8XrXeXkXkXkXkXkXrXrX8XOXOX(.~.C.u.i.<.:.O.T P F l k i u t w 6 6 6 4 3 3 3 3 3 4 4 6 6 6 9 9 9 9 9 9 6 6 6 6 6 6 6 6 6 6 6 6 6 6 6 6 5 6 6 5 5 6 6 6 6 6 6 6 6 6 6 4 3 6 6 6 6 3 3 5 5 6 6 6 6 6 6 6 6 6 6 6 6 w w w w w e e w e e e e e e e f j h n n B B I  .o.#.,.r.y.s.!.!.'.)._.#X#X%X%X%X%X%X%X`.`.(.~.V.d.i.<.:.O.T P M z g u t 6 6 3 3 3 3 > > > > > > - > > > > 3 3 3 3 3 3 3 3 3 3 3 3 4 4 5 5 6 4 4 3 4 4 6 6 6 6 6 6 6 6 6 6 6 6 6 6 4 3 3 3 3 3 1 3 3 5 6 w u u g l n M L I ..O.:.<.e.y.u.a.B.B.!././././.(.(.~.~.~.H.C.D.H.D.D.A.A.A.A.0.0.w.6.( ^ K C IXIXIXIXIXIXIXIXIXIXIXIXIXIXIXIXIXIXIXIXIXIXIXIXIXIXIXIXIX",
"IXIXIXIXIXIXIXIXIXIXIXIXIXIXIXIXIXIXIXIXIXIXIXIXIXIXIXIXIXIXIXIXIXIXIXIXIXIXIXIXIXIXIXIXIXIXIXIXIXIXIXIXIXIXIXIXIXA ` / ] ] 8.c.b.J.J.L.L.L.L.L.S.S.N.q.w.9.6.6.W E ! H z k s y y t 9 6 6 4 3 3 3 > > 3 3 4 4 4 4 6 9 9 9 0 6 4 4 4 4 4 4 4 4 4 4 4 4 4 4 4 4 4 4 4 4 4 4 4 4 4 4 4 4 4 4 4 4 4 4 4 4 4 4 4 6 6 6 6 6 6 6 6 6 6 6 6 6 6 6 6 6 6 6 6 6 6 5 5 3 3 3 3 3 3 3 3 3 3 3 3 5 5 6 w t u g l m M F P T O.:.3.u.Z.C.(.{.OX+X8XrXeXeXkXkXkXrXrX8X7XOX|.(.C.V.u.t.<.=.X.T P m l g i u t w 6 6 6 3 3 3 3 3 3 4 4 6 6 6 9 9 9 9 9 9 6 6 6 6 6 6 6 4 4 4 4 6 6 6 6 5 5 5 5 5 5 5 6 6 6 6 6 6 4 6 6 4 4 6 6 6 6 4 6 6 6 6 6 6 6 6 6 6 6 6 6 6 6 6 6 w w w w w w w w w w w e e e f j h n n B B I | o.$.r.y.d.s.!.Q.).)._._.%X%X%X%X%X.X`.`.(.~.V.f.i.<.:.O.T P F l g u t 6 4 3 3 3 > > > > > > - - > > > > 3 3 3 3 3 3 3 4 4 4 4 4 6 6 5 6 6 6 6 5 6 6 6 6 6 6 6 6 6 6 6 6 6 6 6 6 4 3 3 3 3 3 3 3 5 6 w t u g g l m F P T X.#.>.<.t.y.u.B.B.V.!././././././.V.V.C.Z.C.C.C.D.D.A.A.A.A.q.0.w.6.' ) ~ J IXIXIXIXIXIXIXIXIXIXIXIXIXIXIXIXIXIXIXIXIXIXIXIXIXIXIXIXIX",
"IXIXIXIXIXIXIXIXIXIXIXIXIXIXIXIXIXIXIXIXIXIXIXIXIXIXIXIXIXIXIXIXIXIXIXIXIXIXIXIXIXIXIXIXIXIXIXIXIXIXIXIXIXIXIXIXIXIX` / ] ] 7.c.b.J.J.L.L.L.L.L.L.S.N.q.q.0.6.6.W Q E H Z k k i y t 9 6 6 4 3 3 3 > > 3 3 4 4 4 4 4 6 9 9 0 4 4 4 4 4 4 4 4 4 4 4 4 4 4 4 4 4 4 4 4 4 4 4 4 4 4 4 4 4 4 4 4 4 4 4 4 4 4 4 4 4 6 6 6 6 6 6 6 6 6 6 6 6 6 6 6 6 6 6 6 6 5 6 5 3 3 3 3 3 3 3 3 3 3 3 3 5 5 5 w t u g l m m F P T O.:.3.u.Z.C.(.{.OX+X+X9XrXeXeXeXeXrX8X8XOXOX|.(.C.Z.u.t.>.=...I L m l g u t t w 6 6 6 3 3 3 3 3 3 4 4 6 6 6 9 9 9 9 6 6 6 6 6 6 6 6 4 4 4 4 4 4 4 4 4 5 6 6 6 5 5 5 6 6 6 6 6 4 4 6 6 6 6 6 6 6 6 6 6 6 6 6 6 6 6 6 6 6 6 6 6 6 6 6 6 6 5 w w w w w 5 5 5 5 w e e e f j h n n B L | o.#.e.r.d.s.!.Q.'.)._._.%X%X%X%X%X.X`.`.(.~.V.f.i.<.:.O.T P F z k u t 6 4 3 3 > > > > > - - - - > > > > 3 3 3 3 3 3 3 3 3 3 3 3 3 5 5 6 6 5 6 6 4 4 4 4 6 6 6 6 6 6 6 6 6 6 6 6 4 3 3 3 3 3 3 3 5 6 w u i g l m M L I ..O.:.<.<.t.u.a.V.V.V.V././.!.!.B.B.B.B.V.V.Z.Z.Z.A.A.A.A.A.A.q.w.w.6.' ) ^ J IXIXIXIXIXIXIXIXIXIXIXIXIXIXIXIXIXIXIXIXIXIXIXIXIXIXIXIXIX",
"IXIXIXIXIXIXIXIXIXIXIXIXIXIXIXIXIXIXIXIXIXIXIXIXIXIXIXIXIXIXIXIXIXIXIXIXIXIXIXIXIXIXIXIXIXIXIXIXIXIXIXIXIXIXIXIXIXIXA ` _ ] 7.8.b.J.J.L.L.L.L.L.L.S.S.N.q.w.w.6.[ Q E H D z k i y y t 6 6 6 3 3 > > > 3 3 3 4 4 4 4 9 9 9 0 0 4 4 4 4 4 4 4 4 4 4 4 4 4 4 4 4 4 4 4 4 4 4 4 4 4 4 4 4 4 4 4 4 4 4 4 4 4 4 4 4 6 4 6 6 6 6 6 6 6 6 6 6 6 6 6 6 6 6 6 6 6 6 5 5 3 3 3 3 3 3 5 3 3 3 3 5 5 6 w t u g l m m F P T O.:.3.u.Z.C.(.{.OX+X+X9XeXeXeXeXeXrX8X8XOXOX(.~.C.d.t.<.>.O...I F m l g u t w 6 6 6 6 3 3 3 3 3 3 4 4 6 6 6 9 9 9 9 6 9 6 6 6 6 6 4 4 4 4 4 4 4 4 4 3 3 5 6 6 5 6 3 6 6 6 6 6 4 4 6 6 6 6 6 6 4 6 6 6 6 6 6 6 6 6 6 6 6 6 6 6 6 6 6 6 6 6 6 5 5 5 5 5 5 2 2 2 w e e r f h n n B B I o.#.,.r.y.s.!.Q.Q.).)._.#X%X%X%X%X.X`.`.(.~.V.f.i.<.:.X.T P D l g u t 6 4 3 3 > > > > - - - - - > > > > > 3 3 3 3 3 3 4 4 4 4 3 5 5 6 6 6 6 6 6 6 6 6 6 6 6 6 6 6 6 6 6 6 6 6 6 6 3 3 3 3 3 3 5 6 w t u g l l m F P T X.O.>.<.t.i.i.d.V.V.V.V.V.V.V.B.B.B.V.V.u.u.u.i.Z.Z.A.A.A.A.A.q.w.w.6.6.( ^ ~ IXIXIXIXIXIXIXIXIXIXIXIXIXIXIXIXIXIXIXIXIXIXIXIXIXIXIXIXIX",
"IXIXIXIXIXIXIXIXIXIXIXIXIXIXIXIXIXIXIXIXIXIXIXIXIXIXIXIXIXIXIXIXIXIXIXIXIXIXIXIXIXIXIXIXIXIXIXIXIXIXIXIXIXIXIXIXIXIXA ` / ] ] 8.c.b.J.L.L.L.L.L.L.L.S.N.q.0.9.6.;.W E H D z k s y y t 6 6 6 3 3 > > > 3 3 4 4 4 4 4 6 6 9 0 0 4 4 4 4 4 4 4 4 4 4 4 4 4 4 4 4 4 4 4 4 4 4 4 4 4 4 4 4 4 4 4 4 4 4 4 4 4 4 4 4 4 4 6 6 6 6 6 6 6 6 6 6 6 6 6 6 6 6 6 6 6 6 5 3 3 3 3 3 3 5 5 3 3 3 3 3 5 6 w t u g l m m F P T O.:.<.u.Z.C.].{.OX+X+X9X9XeXeXeXrXrX8X8XOX|.(.~.C.u.t.<.:.O...P F m l g u t w 6 6 6 5 3 3 3 3 3 3 4 4 6 6 6 6 9 9 6 6 6 6 6 6 6 6 4 4 4 4 4 4 4 6 3 3 4 3 6 4 3 4 4 4 4 6 6 6 6 4 6 6 6 6 4 4 4 6 6 6 6 6 6 6 6 6 6 6 6 6 6 6 6 6 6 6 5 6 5 5 5 5 5 5 2 2 2 2 5 w e r f j h n M B I  .o.$.r.y.a.s.!.Q.).)._._..X%X%X.X_.`.`.(.~.C.d.i.1.:.X.T P m l g u t 6 4 3 3 > > > > - - - - > > > > > 3 3 3 4 3 4 4 4 4 4 6 6 6 6 6 6 6 6 6 6 6 6 6 6 6 6 6 6 6 6 6 6 6 6 6 6 6 3 3 3 3 3 3 5 6 w u i g l m M L I ..O.:.1.3.i.i.i.Z.C.C.C.C.V.V.V.B.B.V.u.u.u.u.u.i.p.p.A.A.A.A.S.q.w.w.6.6.) ) ~ IXIXIXIXIXIXIXIXIXIXIXIXIXIXIXIXIXIXIXIXIXIXIXIXIXIXIXIXIX",
"IXIXIXIXIXIXIXIXIXIXIXIXIXIXIXIXIXIXIXIXIXIXIXIXIXIXIXIXIXIXIXIXIXIXIXIXIXIXIXIXIXIXIXIXIXIXIXIXIXIXIXIXIXIXIXIXIXIXIX~ / ] ] 8.c.b.J.J.L.L.L.L.L.L.S.N.q.q.9.6.6.W E ! D z k s y y t 6 6 6 3 3 3 > > 3 3 4 4 4 4 6 9 6 6 4 0 0 4 4 4 4 4 4 4 4 4 4 4 4 4 4 4 4 4 4 4 4 4 4 4 4 4 4 4 4 4 4 4 4 4 4 4 4 4 4 4 6 6 6 6 4 6 6 6 6 6 6 6 6 6 6 6 6 6 6 6 6 5 5 3 3 3 3 3 3 5 5 5 3 3 3 5 5 6 w t u g l m m F P T X.:.<.i.Z.C.].{. X+X+X9X9XeXeXrXrXrX8XOXOX|.(.~.V.u.t.<.:.O.T P F m g g u t w 6 6 6 3 3 3 3 3 3 3 3 4 4 6 6 6 9 9 6 6 6 6 6 6 6 6 4 4 4 4 4 4 4 6 4 4 4 4 6 4 4 4 4 4 4 4 6 6 6 6 4 4 6 6 6 4 6 6 6 6 6 6 6 6 6 6 6 6 6 6 6 6 6 6 6 6 5 6 5 5 5 5 5 5 1 1 2 2 2 w e e r f h n n B L  .o.$.r.y.d.s.!.Q.).)._._._..X%X.X_.`.`.(.~.V.i.i.1.:.X.T P m l g u t 6 3 3 > > > > > - - - - > > > > > 3 3 4 4 4 4 4 4 6 6 6 6 6 6 6 6 6 6 6 6 6 6 6 6 6 6 6 6 6 6 6 6 6 6 6 6 6 3 3 3 3 3 5 6 6 t u g l l m F P T X.-.1.1.g.p.f.f.Z.Z.C.C.C.V.V.B.V.V.u.u.t.t.3.3.3.3.p.p.h.A.A.S.q.q.w.6.6.) ) ^ J IXIXIXIXIXIXIXIXIXIXIXIXIXIXIXIXIXIXIXIXIXIXIXIXIXIXIXIX",
"IXIXIXIXIXIXIXIXIXIXIXIXIXIXIXIXIXIXIXIXIXIXIXIXIXIXIXIXIXIXIXIXIXIXIXIXIXIXIXIXIXIXIXIXIXIXIXIXIXIXIXIXIXIXIXIXIXIXIXA ^ _ ] 7.8.b.J.J.L.L.L.L.L.L.L.S.N.q.w.w.6.W Q ! H z l k i y t 6 6 6 3 3 3 > > > 3 4 4 4 4 4 9 9 9 0 0 0 4 4 4 4 4 4 4 4 4 4 4 4 4 4 4 4 4 4 4 4 4 4 4 4 4 4 4 4 4 4 4 4 4 4 4 4 6 6 6 6 6 6 6 6 6 6 6 6 6 6 6 6 6 6 6 6 6 6 6 6 6 6 5 3 3 3 3 3 3 3 3 3 3 3 3 5 6 w t u g l m m F P T O.:.<.i.Z.C.].{. XOX+X9X9XeXeXrXrX8X8XOXOX|.(.C.V.u.t.<.:...T P M n g g u w w 6 6 5 3 3 3 3 > 3 3 3 4 4 6 6 6 6 6 9 9 6 6 6 6 4 4 4 4 4 4 4 6 6 6 4 4 4 3 5 6 4 4 4 4 6 6 6 6 6 6 4 4 4 4 6 6 6 6 6 6 6 6 6 6 6 6 6 6 6 6 6 6 6 6 6 6 6 6 5 5 5 5 5 5 2 1 1 2 2 5 e e r f h n n B B | o.$.e.y.d.s.!.Q.'.)._._._.%X.X.X_.`._.(.~.V.i.i.1.:.X.T P m l g y 9 6 3 3 > > > > > > = = = > > > > > 3 3 4 4 4 4 4 6 6 6 6 6 6 6 6 6 6 6 6 6 6 6 6 6 6 6 6 6 6 6 6 6 6 6 6 6 6 5 3 3 3 3 5 6 w u i g l m F L P T X.-.1.4.i.p.f.Z.Z.C.C.C.C.C.V.V.u.u.t.t.3.3.<.<.3.3.3.p.p.h.h.j.q.q.w.w.6.' ) ^ J IXIXIXIXIXIXIXIXIXIXIXIXIXIXIXIXIXIXIXIXIXIXIXIXIXIXIXIX",
"IXIXIXIXIXIXIXIXIXIXIXIXIXIXIXIXIXIXIXIXIXIXIXIXIXIXIXIXIXIXIXIXIXIXIXIXIXIXIXIXIXIXIXIXIXIXIXIXIXIXIXIXIXIXIXIXIXIXIXIX` _ ] 7.8.b.J.J.L.L.L.L.L.L.L.S.S.q.0.w.6.@.Q Y H z z k i y y 9 6 6 3 3 3 > > > 3 4 4 4 4 4 9 9 9 9 0 0 4 4 4 4 4 4 4 4 4 4 4 4 4 4 4 4 4 4 4 4 4 4 4 4 4 4 4 4 4 4 4 4 4 4 4 4 6 6 6 6 6 6 4 4 6 6 6 6 6 6 6 6 6 6 6 6 6 6 6 6 6 6 5 3 3 3 3 5 5 5 3 3 3 3 3 5 6 w t u g l m m F P T O.:.<.i.Z.C.].{. XOX+X9X9X9XeXrX8X8X8XOX|.(.~.C.d.y.e.>.O...I L M n g u u w 6 6 6 5 3 3 3 3 3 3 3 3 3 4 4 6 6 6 6 9 6 6 6 6 6 6 4 4 4 4 4 4 4 6 6 4 4 4 4 4 6 4 4 6 4 6 6 4 6 6 6 4 6 6 6 6 6 6 6 6 6 6 6 6 6 6 6 6 6 6 6 6 6 6 6 6 6 6 6 5 5 5 5 5 5 1 1 1 1 2 5 e e e f j h n M B | o.$.e.y.d.s.!.Q.Q.)._._._.%X.X.X_.`.`.(.~.C.i.i.1.=.X.T G m l g y 6 6 3 3 > > > > > > = = = - > > > > 3 4 4 4 4 4 6 6 6 6 6 6 6 6 6 6 6 6 6 6 6 6 6 6 6 6 6 6 6 6 5 5 6 6 6 6 6 5 5 3 5 5 6 6 w u g k l m F P T X.-.1.1.g.p.p.f.Z.Z.C.C.C.Z.C.Z.u.u.t.t.<.<.>.>.>.>.>.3.4.4.h.h.j.q.q.w.w.6.' ) ^ ~ IXIXIXIXIXIXIXIXIXIXIXIXIXIXIXIXIXIXIXIXIXIXIXIXIXIXIXIX",
"IXIXIXIXIXIXIXIXIXIXIXIXIXIXIXIXIXIXIXIXIXIXIXIXIXIXIXIXIXIXIXIXIXIXIXIXIXIXIXIXIXIXIXIXIXIXIXIXIXIXIXIXIXIXIXIXIXIXIXIXIX/ ] ] 8.c.b.J.L.L.L.L.L.L.L.S.S.q.q.9.6.;.Q E H D z k i y y t 6 6 4 3 3 > > > 3 3 4 4 4 4 4 4 4 4 0 4 4 4 0 4 4 4 4 4 4 4 4 4 4 4 4 4 4 4 4 4 4 4 4 4 4 4 4 4 4 4 4 4 4 4 4 4 4 4 4 4 6 6 4 4 6 6 6 6 6 6 6 6 6 6 6 6 6 6 6 6 6 6 6 3 3 3 3 5 5 5 5 3 3 3 5 5 6 w t i g l m m F P T X.:.<.i.f.C.].{.|.+X+X9X9X9X9X9X8X8XOXOX|.(.~.V.a.t.<.>.O...I L M n g u u w 6 6 5 5 3 3 3 3 3 3 3 3 3 4 6 6 6 6 6 6 6 6 6 6 6 6 4 6 4 4 4 4 4 4 4 4 4 6 6 4 4 4 4 6 6 4 6 4 4 6 6 6 6 6 6 6 6 6 6 6 6 6 6 6 6 6 6 6 6 6 6 6 6 6 6 6 6 6 6 6 6 5 5 5 5 2 1 1 2 2 5 e e e f j n n M L | o.$.e.y.y.s.!.!.Q.)._._._._..X.X`.`.`.(.~.C.i.i.1.=.X.T F m l g y 6 6 3 3 > > > > > > > = = : > > > > 3 4 4 4 4 4 6 6 6 6 6 6 6 6 6 6 6 6 6 6 6 6 6 6 6 6 6 6 6 5 5 5 5 6 6 6 5 6 5 5 5 6 6 w t i g l m F P P T X.-.1.4.p.p.f.Z.Z.C.C.C.C.Z.Z.u.u.t.t.<.<.>.:.=.=.>.>.>.4.4.0.h.0.q.q.w.w.7.' ) ^ ~ IXIXIXIXIXIXIXIXIXIXIXIXIXIXIXIXIXIXIXIXIXIXIXIXIXIXIXIX",
"IXIXIXIXIXIXIXIXIXIXIXIXIXIXIXIXIXIXIXIXIXIXIXIXIXIXIXIXIXIXIXIXIXIXIXIXIXIXIXIXIXIXIXIXIXIXIXIXIXIXIXIXIXIXIXIXIXIXIXIXIX^ ] ] 8.8.b.J.J.L.L.L.L.L.L.L.S.N.q.w.6.6.W E H D z k g y y t 6 6 4 3 3 > > > 3 3 4 4 4 4 4 4 4 4 4 4 4 4 4 4 4 4 4 4 4 4 4 4 4 4 4 4 4 4 4 4 4 4 4 4 4 4 4 4 4 4 4 4 4 4 4 4 4 4 4 4 6 6 4 4 6 6 6 6 6 6 6 6 6 6 6 6 6 6 6 6 6 6 6 3 6 3 3 3 5 5 5 5 3 5 5 5 6 w u i g l m M F P T X.:.<.i.f.C.].{.|.+X+X+X9XqX9X9X8X8XOX|.|.(.~.V.a.t.<.:.O...I L m l g u t w 6 6 5 3 3 3 3 3 3 3 3 3 3 4 6 6 6 6 6 6 6 6 6 6 6 6 4 6 4 6 6 4 4 4 4 4 4 6 6 6 4 4 4 6 6 4 4 4 4 6 6 6 6 6 6 6 6 6 6 6 6 6 6 6 6 6 6 6 6 6 6 6 6 6 6 6 6 6 6 6 6 6 5 5 5 5 1 1 2 2 5 e e e f j n n B L | o.#.e.y.d.s.!.!.Q.)._._._._..X_.`.`.(.~.C.C.i.i.1.O.X.T F m l i y 6 6 3 3 > > > > > > > = - > > > > > 3 4 4 4 4 6 6 6 6 6 6 6 6 6 6 6 6 6 6 6 6 6 6 6 6 6 6 6 3 5 5 5 5 6 6 6 6 6 6 6 6 6 w w u g l l m F P T X.-.1.2.g.p.p.A.Z.Z.Z.C.Z.Z.Z.Z.u.u.t.<.>.:.=.O.O.=.=.=.>.4.4.0.0.0.q.q.q.w.w.6.) ) ^ IXIXIXIXIXIXIXIXIXIXIXIXIXIXIXIXIXIXIXIXIXIXIXIXIXIXIXIX",
"IXIXIXIXIXIXIXIXIXIXIXIXIXIXIXIXIXIXIXIXIXIXIXIXIXIXIXIXIXIXIXIXIXIXIXIXIXIXIXIXIXIXIXIXIXIXIXIXIXIXIXIXIXIXIXIXIXIXIXIXIXIX_ ] 7.8.b.J.J.L.L.L.T.T.I.L.S.S.q.0.w.6.W E ! D z l k i u t 6 6 6 3 3 3 > > 3 3 4 4 4 4 0 0 4 4 4 4 4 4 4 0 4 4 4 4 4 4 4 4 4 4 4 4 4 4 4 4 4 4 4 4 4 4 4 4 4 4 4 4 4 4 4 4 6 6 4 6 6 6 6 6 6 6 6 6 6 6 6 6 6 6 6 6 6 6 6 6 6 6 5 3 6 3 5 6 5 5 5 5 5 5 5 6 6 w u i g l m F L I T O.:.<.i.f.C.].{.{. X+X+X9X9X8X8X8XOXOX|.(.~.V.V.y.e.,.#.o...I F m l g u w w 6 5 5 3 3 3 3 3 3 3 3 3 3 4 4 6 6 6 6 6 6 6 6 6 6 6 4 6 6 4 4 4 4 4 4 4 6 6 6 4 4 4 4 6 4 6 6 4 6 6 6 6 6 6 6 6 6 6 6 6 6 6 6 6 6 6 6 6 6 6 6 6 6 6 6 6 6 6 6 6 6 6 5 5 5 5 3 2 2 2 5 e e e f j n n B L | o.#.e.y.y.s.!.Q.Q.).)._._._._._.`.`.(.~.C.C.i.i.>.O...I F m l g y 6 4 3 > > > > > > > > - - > > > > > 4 4 4 4 4 6 6 6 6 6 6 6 6 6 6 6 6 6 6 6 6 6 6 6 5 6 5 5 3 5 5 5 5 6 6 6 6 6 6 6 6 w w u i g l m F P T ..X.-.2.4.p.p.p.A.Z.Z.Z.Z.Z.Z.f.i.u.t.<.>.:.=.O.X.X.X.X.=.=.1.4.0.0.0.q.q.q.w.w.6.) ) ^ ~ IXIXIXIXIXIXIXIXIXIXIXIXIXIXIXIXIXIXIXIXIXIXIXIXIXIXIX",
"IXIXIXIXIXIXIXIXIXIXIXIXIXIXIXIXIXIXIXIXIXIXIXIXIXIXIXIXIXIXIXIXIXIXIXIXIXIXIXIXIXIXIXIXIXIXIXIXIXIXIXIXIXIXIXIXIXIXIXIXIXIXIX] ] 8.8.J.J.L.L.L.T.T.I.I.S.S.N.q.9.9.;.Q ! H D z k g y y t 6 6 3 3 3 3 3 3 3 4 4 4 4 4 0 4 4 0 4 4 4 4 4 4 4 4 4 4 4 4 4 4 4 4 4 4 4 4 4 4 4 4 4 4 4 4 4 4 4 4 4 4 4 4 4 6 6 4 4 6 6 6 6 6 6 6 6 6 6 6 6 6 6 6 6 6 6 6 6 6 6 5 3 6 5 5 5 5 5 5 5 5 5 6 6 6 t u g k l m F L I ..O.:.<.i.f.C.H.{.{. XOX+X+X+X8X+XOXOX|.|.(.~.V.a.y.e.:.O...I L M m l g u w w 6 5 5 3 3 3 3 > > > 3 3 3 4 4 6 6 6 6 6 6 6 4 6 6 4 4 6 6 4 4 6 4 4 4 4 4 6 6 4 4 6 6 6 6 6 6 4 6 6 6 6 6 6 6 6 6 6 6 6 6 6 6 6 6 6 6 6 6 6 6 6 6 6 6 6 6 6 6 w w 6 6 5 5 5 1 2 5 5 5 e e e f h n n B L | o.#.e.y.y.s.!.Q.Q.).)._._._._._.`.`.(.~.C.f.i.3.1.O...P F m l i y 6 4 3 > > > > > > > > : > > > > > 3 4 4 4 4 4 6 6 6 6 6 6 6 6 6 6 6 6 6 6 6 6 6 6 5 5 5 5 3 3 5 5 5 5 6 6 6 6 6 6 w w t t u g l m D G P T X.-.1.4.4.p.p.A.A.A.Z.Z.A.Z.f.p.i.t.<.>.:.O.X...T T T X.X.=.-.2.0.0.q.q.q.q.q.7.6.' ) ^ ~ IXIXIXIXIXIXIXIXIXIXIXIXIXIXIXIXIXIXIXIXIXIXIXIXIXIXIX",
"IXIXIXIXIXIXIXIXIXIXIXIXIXIXIXIXIXIXIXIXIXIXIXIXIXIXIXIXIXIXIXIXIXIXIXIXIXIXIXIXIXIXIXIXIXIXIXIXIXIXIXIXIXIXIXIXIXIXIXIXIXIXIX_ ] 8.8.b.J.L.L.L.T.U.U.I.L.S.S.q.0.9.;.Q E G D m l k i u t 6 6 3 3 3 3 3 3 3 4 4 4 4 4 4 4 4 4 4 4 4 4 4 4 4 4 4 4 4 4 4 4 4 4 4 4 4 4 4 4 4 4 4 4 4 4 4 4 4 4 4 4 4 4 4 6 6 6 4 6 6 4 6 6 6 6 6 6 6 6 6 6 6 6 6 6 6 6 6 6 6 5 3 3 3 5 5 5 5 6 6 6 6 6 6 w t u g l l m F P T ..O.>.<.i.f.C.C.{.{.|. X+X+X+X+XOX|.|.|.(.~.!.B.u.t.<.:.O...I L M n h f u w w 5 5 5 3 3 3 3 > > > 3 3 3 4 4 4 6 6 6 6 6 6 6 6 6 4 4 4 4 4 4 6 6 6 6 4 4 6 6 6 6 6 6 4 4 6 6 6 6 6 6 6 6 6 6 6 6 6 6 6 6 6 6 6 6 6 6 6 6 6 6 6 6 6 6 6 6 6 6 w 6 6 6 5 5 5 3 5 5 5 5 w e e f h n n M L | o.#.e.y.y.s.!.!.Q.).)._._._._._._._./.~.C.f.i.<.1.O...P F m k i y 6 4 3 > > > > > > > > : : > > < > 4 4 4 4 4 6 6 6 6 6 6 6 6 6 6 6 6 6 6 6 6 6 6 5 5 5 5 5 5 5 3 3 5 5 5 6 6 w w w w t u u g k z D F P T X.-.-.2.4.p.p.A.A.A.A.A.A.f.p.p.i.3.<.>.=.O.X.T T I I T T X.=.-.5.0.0.q.q.q.q.q.w.7.' ) ) ^ IXIXIXIXIXIXIXIXIXIXIXIXIXIXIXIXIXIXIXIXIXIXIXIXIXIXIX",
"IXIXIXIXIXIXIXIXIXIXIXIXIXIXIXIXIXIXIXIXIXIXIXIXIXIXIXIXIXIXIXIXIXIXIXIXIXIXIXIXIXIXIXIXIXIXIXIXIXIXIXIXIXIXIXIXIXIXIXIXIXIXIXIX] 7.8.b.J.L.L.L.T.T.U.I.I.S.S.j.0.9.;.@.R P F m z k g y y t 6 4 3 3 3 3 3 3 4 4 4 4 4 4 4 4 4 4 4 4 4 4 4 4 4 0 4 4 4 4 4 4 4 4 4 4 4 4 4 4 4 4 4 4 4 4 4 4 4 4 4 4 4 4 6 6 4 4 6 6 4 4 6 6 6 6 6 6 6 6 6 6 6 6 6 6 6 6 6 6 3 3 3 3 3 5 5 5 6 6 6 6 6 6 w t i g l m m F P T X.O.>.<.i.f.C.C.{.{.|.|. XOXOXOX|.|.|.(.(.!.B.a.y.e.,.#.o...I L M n h f u w w 5 5 5 3 3 3 3 - - > > 3 3 4 4 4 4 6 6 6 6 6 6 6 6 6 4 4 4 4 4 6 6 6 6 6 6 6 6 6 4 6 6 6 4 4 6 6 6 6 6 6 6 6 6 6 6 6 6 6 6 6 6 6 6 6 6 6 6 6 w 6 6 6 6 6 6 6 6 w w 6 6 5 5 5 3 5 5 5 5 w e e f h n n M L | o.#.,.r.y.s.B.!.Q.).)._._._._._._././.!.C.f.i.<.:.O.T P F m k i t 6 4 3 > > > > > > > > > : > < < > 4 4 4 4 4 6 6 6 6 6 6 6 6 6 6 6 6 6 6 6 6 6 5 5 5 5 5 5 5 3 3 3 3 5 5 6 w w w w t u i g k l m F P T X.=.-.2.4.p.p.Z.A.A.A.A.A.Z.p.p.p.3.<.>.=.O...T I P P P P T T X.-.5.0.0.q.q.q.q.q.8.7.6.) ) ^ IXIXIXIXIXIXIXIXIXIXIXIXIXIXIXIXIXIXIXIXIXIXIXIXIXIXIX",
"IXIXIXIXIXIXIXIXIXIXIXIXIXIXIXIXIXIXIXIXIXIXIXIXIXIXIXIXIXIXIXIXIXIXIXIXIXIXIXIXIXIXIXIXIXIXIXIXIXIXIXIXIXIXIXIXIXIXIXIXIXIXIXIX' ] 8.q.J.L.L.T.T.T.U.U.I.I.S.S.0.0.;.;.R R G D z l g i y t 6 6 3 3 3 3 3 3 4 4 4 4 4 4 4 4 4 4 4 4 0 4 4 4 0 0 4 4 4 4 4 4 4 4 4 4 4 4 4 4 4 4 4 4 4 4 4 4 4 4 4 4 4 4 4 4 4 6 6 6 6 6 6 6 6 6 6 6 6 6 6 6 6 6 6 6 6 6 6 6 4 3 3 3 3 6 6 6 6 6 6 6 6 w t u i k l m F F P T X.=.>.<.i.f.C.C.].{.{.|.|.|.|.|.|.|.`.(.~.!.B.a.y.e.,.#.o.| L L M n h f e w 5 5 5 3 3 3 3 3 - - > > > 3 3 3 4 4 4 4 6 6 6 6 6 6 4 6 6 4 4 4 6 6 6 6 6 6 6 4 6 6 4 4 6 6 6 6 6 6 6 6 6 6 6 6 6 6 6 6 6 6 6 6 6 6 6 6 6 6 6 6 6 6 w w 6 6 6 6 6 6 6 6 5 5 5 3 3 5 5 5 e e e f h n n M L | o.#.,.y.y.s.B.!.Q.).)._._._._._.'././.!.C.f.i.<.:.O.T P F z k i t 6 4 3 > > > > > > > > : : > < < > 4 4 4 4 4 6 6 6 6 6 6 6 6 6 6 6 6 6 6 6 6 6 6 5 5 5 5 5 3 5 3 3 5 5 5 6 w w t t u i g k l m F P T X.X.-.2.4.4.p.p.A.A.A.A.A.Z.p.p.p.3.<.>.=.O.X.T I P L F F P P T X.-.5.0.0.q.q.q.q.q.8.7.7.) ) ^ IXIXIXIXIXIXIXIXIXIXIXIXIXIXIXIXIXIXIXIXIXIXIXIXIXIXIX",
"IXIXIXIXIXIXIXIXIXIXIXIXIXIXIXIXIXIXIXIXIXIXIXIXIXIXIXIXIXIXIXIXIXIXIXIXIXIXIXIXIXIXIXIXIXIXIXIXIXIXIXIXIXIXIXIXIXIXIXIXIXIXIXIX' ] 8.q.J.J.L.T.T.T.U.U.U.I.S.S.j.0.5.;.+.R P F m l k i u t 6 6 3 3 3 3 3 3 4 4 4 4 4 4 4 4 4 4 4 4 4 4 4 4 0 4 4 4 4 4 4 4 4 4 4 4 4 4 4 4 4 4 4 4 4 4 4 4 4 4 4 4 4 4 4 4 4 6 4 4 6 6 6 6 6 6 6 6 6 6 6 6 6 6 6 6 6 6 6 6 6 3 3 3 3 6 6 6 6 6 6 6 6 w t u g k l m F L P T X.=.>.3.i.f.C.C.].{.{.|.|.|.|.|.|.|.(.~.!.B.s.d.y.,.:.O...I L B M n h u e w 5 5 5 3 3 3 3 - - - - > > 3 3 3 4 4 4 4 4 4 6 6 6 6 4 4 6 4 4 4 6 6 6 6 4 6 6 6 6 6 6 6 6 6 6 6 6 6 6 6 6 6 6 6 6 6 6 6 6 6 6 6 6 6 6 6 6 6 6 6 6 6 w w 6 6 6 6 6 6 6 6 5 5 5 3 3 5 5 5 e e r f h n n B L | o.#.,.y.y.s.B.!.Q.^.)._._._._._.'././.!.V.i.i.<.:.X.T P F z k i t 6 4 3 > > > > > > > > : : < < > , 4 4 4 4 4 6 6 6 6 6 6 6 6 6 6 6 6 6 6 6 6 6 5 5 5 5 5 3 3 3 3 3 5 5 5 6 w w t u i g g l m D G T T X.-.2.4.4.p.h.A.A.A.A.A.Z.p.p.p.3.3.>.:.O.X.T I P F F F F F P T T -.;.0.0.q.j.q.q.q.8.7.7.' ) ^ ~ IXIXIXIXIXIXIXIXIXIXIXIXIXIXIXIXIXIXIXIXIXIXIXIXIXIX",
"IXIXIXIXIXIXIXIXIXIXIXIXIXIXIXIXIXIXIXIXIXIXIXIXIXIXIXIXIXIXIXIXIXIXIXIXIXIXIXIXIXIXIXIXIXIXIXIXIXIXIXIXIXIXIXIXIXIXIXIXIXIXIXIX_ ] 8.8.J.J.L.T.T.Y.Y.Y.U.I.S.S.S.0.5.;.+.T P F m z k g y t 6 6 3 3 3 3 3 3 4 4 4 4 4 4 4 4 4 4 4 4 4 4 4 4 4 4 4 4 4 4 4 4 4 4 4 4 4 4 4 4 4 4 4 4 4 4 4 4 4 4 4 4 4 4 4 4 6 6 4 4 4 6 6 6 6 6 6 6 6 6 6 6 6 6 6 6 6 6 6 6 5 3 3 3 3 6 5 6 6 6 6 6 w t t i g l z m F P T ..X.=.>.i.i.f.C.C.].].{.{.{.|.|.{.|.(.(.~.!.B.a.y.e.,.#.O...I L M n n g u e w 5 5 3 3 3 3 - - - - - - > > 3 3 3 4 4 4 4 4 4 6 6 6 6 4 6 6 6 6 6 6 6 6 6 6 6 6 6 6 6 6 6 6 6 6 6 6 6 6 6 6 6 6 6 6 6 6 6 6 6 6 6 6 6 6 6 6 6 6 6 6 6 w 6 6 6 6 6 6 6 6 5 5 5 5 5 5 5 5 e e f f h n n B L | o.#.,.y.d.s.B.!.Q.^.)._._._._._.'.'.~.V.V.i.t.1.:.X.T P F z k i t 6 4 4 > > > > < < < > > > < < > , 4 4 4 4 4 6 6 6 6 6 6 6 6 6 6 6 6 6 6 6 6 5 5 5 5 5 5 3 3 3 3 3 3 5 5 6 w t u u i g l z m F P T X.-.-.2.4.p.h.A.A.A.A.A.Z.Z.p.p.3.3.>.:.=.X...I P F F M m D F G P T @.;.0.q.q.q.q.q.q.q.7.7.' ) ^ ~ IXIXIXIXIXIXIXIXIXIXIXIXIXIXIXIXIXIXIXIXIXIXIXIXIXIX",
"IXIXIXIXIXIXIXIXIXIXIXIXIXIXIXIXIXIXIXIXIXIXIXIXIXIXIXIXIXIXIXIXIXIXIXIXIXIXIXIXIXIXIXIXIXIXIXIXIXIXIXIXIXIXIXIXIXIXIXIXIXIXIXIX/ ] 7.8.J.J.L.T.T.Y.Y.Y.U.U.F.S.A.0.5.;.+.T P F D z l g i y w 6 3 3 3 3 3 3 4 4 4 4 4 4 4 4 4 4 4 4 4 4 4 4 4 4 4 4 4 4 4 4 4 4 4 4 4 4 4 4 4 4 4 4 4 4 4 4 4 4 4 4 4 4 4 4 4 6 4 4 4 4 6 6 6 6 6 6 6 6 6 6 6 6 6 6 6 6 6 6 3 3 3 3 3 6 5 6 6 6 6 6 w t u i g l m D F P T ..O.:.1.i.p.f.C.C.].].{.{.{.{.{.{.(.(.(.!.W.B.a.y.e.,.#.o...I L M n l g u w w 5 5 3 3 3 1 - - - - - - > > 3 3 3 4 4 4 4 4 4 4 6 6 6 4 6 6 6 6 6 6 6 6 6 6 6 6 6 6 6 6 6 6 6 6 6 6 6 6 6 6 6 6 6 6 6 6 6 6 6 6 6 6 6 6 6 6 6 6 6 6 w w w 6 6 6 6 w 6 6 5 5 5 5 5 5 5 w e e f f h n n B L | o.#.e.y.d.s.B.!.Q.^.)._._._._._./.'./.V.V.i.t.<.=.X.T P F z k y t 6 4 4 > > > < < < < < < > < < , , 4 4 4 4 4 6 6 6 6 6 6 6 6 6 6 6 6 6 6 6 6 5 5 5 5 5 5 5 3 3 3 3 3 5 5 6 w t u i g k l m F P T R -.;.5.4.4.h.A.A.A.A.A.A.Z.p.p.i.3.>.>.=.X...T P L F M m m m F F P R @.;.9.q.q.q.b.b.q.q.8.7.' ) ) ^ IXIXIXIXIXIXIXIXIXIXIXIXIXIXIXIXIXIXIXIXIXIXIXIXIXIX",
"IXIXIXIXIXIXIXIXIXIXIXIXIXIXIXIXIXIXIXIXIXIXIXIXIXIXIXIXIXIXIXIXIXIXIXIXIXIXIXIXIXIXIXIXIXIXIXIXIXIXIXIXIXIXIXIXIXIXIXIXIXIXIXIXIX] 7.8.J.L.L.T.T.Y.Y.Y.U.U.I.S.S.h.0.5.-.X.T P F m l k i u t 6 4 3 3 3 3 3 4 4 4 4 4 4 4 4 4 4 4 4 4 4 0 0 4 4 0 4 4 4 4 4 4 4 4 4 4 4 4 4 4 4 4 4 4 4 4 4 4 4 4 4 4 4 4 4 4 6 6 6 6 6 6 6 6 6 6 6 6 6 6 6 6 6 6 6 6 6 6 4 3 3 3 3 3 5 5 6 6 6 6 6 t t u i k l m F F P T X.O.:.1.g.p.f.C.C.~.].].{.{.{.{.(.(.(.!.W.B.s.a.y.e.,.#.o.| I L M n h g u w w 5 5 3 3 3 1 - - - - - - - > 3 3 3 3 4 4 4 4 4 6 6 6 6 6 6 6 6 6 6 6 6 6 6 6 6 6 6 6 6 6 6 6 6 6 6 6 6 6 6 6 6 6 6 6 6 6 6 6 6 6 6 6 6 6 6 6 6 6 6 6 6 6 w w w w w w 6 6 6 5 5 5 5 5 5 w e e f j h n M B I | o.$.e.y.d.s.B.!.Q.^.)._._._._._./././.V.V.u.t.<.=.X.T P D z k y t 6 4 3 > > > > < < < < < < < > , 4 4 4 4 4 4 6 6 6 6 6 6 6 6 6 6 6 6 6 6 6 5 5 5 5 5 5 5 3 3 3 3 3 3 5 5 w w t u g k l m D F P R +.;.2.5.4.h.h.A.A.A.A.A.A.Z.p.p.3.<.>.=.O.X.T P P F M m m m m D F P R @.6.9.q.q.q.m.b.b.q.8.7.' ) ) ^ IXIXIXIXIXIXIXIXIXIXIXIXIXIXIXIXIXIXIXIXIXIXIXIXIXIX",
"IXIXIXIXIXIXIXIXIXIXIXIXIXIXIXIXIXIXIXIXIXIXIXIXIXIXIXIXIXIXIXIXIXIXIXIXIXIXIXIXIXIXIXIXIXIXIXIXIXIXIXIXIXIXIXIXIXIXIXIXIXIXIXIXIX' 7.8.b.J.L.T.T.Y.Y.U.U.U.I.F.S.h.0.5.-.X.T P F m z k g u t 6 6 3 3 3 3 3 4 4 4 4 4 4 4 4 4 4 4 4 4 4 4 0 4 4 4 4 0 4 4 4 4 4 4 4 4 4 4 4 4 4 4 4 4 4 4 4 4 4 4 4 4 4 4 4 4 6 6 6 6 6 6 6 6 6 6 6 6 6 6 6 6 6 6 6 6 6 6 4 3 3 3 3 3 3 5 6 6 6 6 w t y y g k z m F P I T X.O.:.1.g.p.f.C.C.C.~.].].].].~.(.~.!.!.B.B.a.y.y.e.,.#.o.| I L M n h g u w w 5 5 5 3 3 1 - - - - - - - > > 3 3 3 4 4 4 4 4 6 6 6 6 6 6 6 6 6 6 6 6 6 6 6 6 6 6 6 6 6 6 6 6 6 6 6 6 6 6 6 6 6 6 6 6 6 6 6 6 6 6 6 6 6 6 6 6 6 6 6 6 6 t t t t w w w w 6 5 5 5 5 5 w e e f f h n n M L I | o.$.e.y.d.s.W.!.Q.^.)._._._._._././.!.B.V.u.t.>.=.X.T P F z k y t 6 4 4 > > > > < < < < < < < > , 4 4 4 4 4 4 4 6 6 6 6 6 6 6 6 6 6 6 6 6 5 5 5 5 5 5 5 5 3 3 3 3 3 3 5 5 w w u i g l z m H H E @.;.5.5.0.0.h.A.A.A.A.A.A.Z.p.p.3.3.>.=.=.X.T I P F F m m m m m D F P R @.6.9.q.q.b.L.b.b.q.8.7.' ) ) ^ IXIXIXIXIXIXIXIXIXIXIXIXIXIXIXIXIXIXIXIXIXIXIXIXIXIX",
"IXIXIXIXIXIXIXIXIXIXIXIXIXIXIXIXIXIXIXIXIXIXIXIXIXIXIXIXIXIXIXIXIXIXIXIXIXIXIXIXIXIXIXIXIXIXIXIXIXIXIXIXIXIXIXIXIXIXIXIXIXIXIXIXIX' ] 8.q.J.L.T.T.Y.Y.U.U.U.G.F.F.A.0.4.-.=.T T G F m l g i y w 6 3 3 3 3 3 4 4 4 4 4 4 4 4 4 4 4 4 4 4 4 4 4 4 4 4 4 4 4 4 4 4 4 4 4 4 4 4 4 4 4 4 4 4 4 4 4 4 4 4 4 4 4 4 4 6 6 6 4 4 6 6 6 6 6 6 6 6 6 6 6 6 6 6 6 6 6 4 3 3 3 3 3 3 6 6 6 6 6 t t u i g l m D F P T ..X.-.1.1.g.p.f.C.C.C.~.~.~.~.~.~.~.!.!.W.B.s.d.y.e.,.#.o.o.| L L M n h g u w w 5 5 5 3 3 1 - - - - - - - > > 3 3 3 3 4 4 4 4 4 6 6 6 6 6 6 6 6 6 6 6 6 6 6 6 6 6 6 6 6 6 6 6 6 6 6 6 6 6 6 4 4 6 6 6 6 6 6 6 6 6 6 6 6 6 6 6 w 6 w 6 t t t t t t t w w w w w 5 w w w e e f j h n n B L | o.#.,.r.y.a.s.W.Q.Q.^.)._._._._._././.!.B.a.y.e.>.O.X.T P D z k y t 6 4 3 > > > > > > > < < < > > > , 4 4 4 4 4 4 6 6 6 6 6 6 6 6 6 6 6 6 5 5 5 5 3 3 3 5 3 3 3 1 1 3 3 5 5 w t u i g l m D H Y Q @.;.2.9.0.h.h.A.A.A.A.A.Z.p.p.4.3.>.=.=.X.T T P F F m m m l z m D F P R @.6.w.q.q.L.L.b.b.b.8.7.' ) ) ^ IXIXIXIXIXIXIXIXIXIXIXIXIXIXIXIXIXIXIXIXIXIXIXIXIXIX",
"IXIXIXIXIXIXIXIXIXIXIXIXIXIXIXIXIXIXIXIXIXIXIXIXIXIXIXIXIXIXIXIXIXIXIXIXIXIXIXIXIXIXIXIXIXIXIXIXIXIXIXIXIXIXIXIXIXIXIXIXIXIXIXIXIX) ] 8.q.J.L.T.U.Y.Y.U.bXU.U.G.F.A.h.4.1.=.X.T P F m z k g u t 6 6 3 3 3 3 4 4 4 4 4 4 4 4 4 4 4 4 4 4 4 4 4 4 4 4 4 4 4 4 4 4 4 4 4 4 4 4 4 4 4 4 4 4 4 4 4 4 4 4 4 4 4 4 4 6 6 6 4 4 6 6 6 6 6 6 6 6 6 6 6 6 6 6 6 6 4 3 3 3 3 3 3 3 6 6 6 6 w t t u i k l m F G P T X.+.-.1.4.i.p.f.C.C.C.~.~.~.~.~.~.!.!.W.B.s.a.d.y.e.,.#.o.| | L L M n h h f e w 5 5 5 3 3 1 1 - - - - - - > 3 3 3 3 3 3 4 4 4 4 4 4 6 6 6 6 6 6 6 6 6 6 6 6 6 6 6 6 6 6 6 6 6 6 6 6 6 6 6 4 4 4 6 6 6 6 6 6 6 6 6 6 6 6 6 6 w w t t t t t t t y u u u t t w e e e e e e f f h n n M B I  .o.#.e.e.y.s.B.!.Q.^.).)._._._.).).^.Q.W.B.a.y.<.>.O...I F D z k y t 6 4 3 > > > > > > > < < < < , , , 4 4 4 4 4 4 6 6 6 6 6 6 6 6 6 6 6 6 5 5 5 3 3 3 3 5 3 3 3 1 1 1 3 5 5 w t u g k z N H Y Q Q ;.;.9.0.0.h.h.A.A.A.A.A.p.p.4.3.>.=.=.X.T T P F F m m n l l l m D F P Q ;.6.0.q.q.L.L.L.b.b.8.7.] _ ) ^ IXIXIXIXIXIXIXIXIXIXIXIXIXIXIXIXIXIXIXIXIXIXIXIXIXIX",
"IXIXIXIXIXIXIXIXIXIXIXIXIXIXIXIXIXIXIXIXIXIXIXIXIXIXIXIXIXIXIXIXIXIXIXIXIXIXIXIXIXIXIXIXIXIXIXIXIXIXIXIXIXIXIXIXIXIXIXIXIXIXIXIXIXIX' 7.8.b.L.T.T.Y.Y.bXbXbXU.G.G.A.A.p.1.>.=.X.T P F m l k i t w 6 6 3 3 3 4 4 4 4 4 4 4 4 4 4 4 4 4 4 4 4 4 4 4 4 4 4 4 4 4 4 4 4 4 4 4 4 4 4 4 4 4 4 4 4 4 4 4 4 4 4 6 6 6 6 6 4 4 6 6 6 6 6 6 6 6 6 6 6 6 6 6 6 6 6 4 3 3 3 3 3 3 3 4 6 6 6 w t y y g k z m F P R R +.-.1.1.4.p.p.f.C.C.C.~.~.~.~.~.!.!.B.B.s.a.d.y.r.e.$.#.o.| I L B M n n h f u w w 6 5 5 5 3 3 1 - - - - - > 3 3 3 3 3 3 3 4 4 4 4 6 6 6 6 6 6 6 6 6 6 6 6 6 6 6 6 6 6 6 6 6 6 6 6 6 6 6 6 6 6 6 4 4 6 6 6 6 6 6 6 6 6 6 6 6 t t t t t y y u u u u u u u u u u u e e e f f h n n M B L | | #.$.e.y.d.s.!.!.Q.^.).)._._._.).).^.W.W.B.a.t.<.:.O...P F m l k y t 6 4 4 > > > > > , < < < < < , , , 4 4 4 4 4 4 4 4 6 6 6 6 6 6 6 6 5 5 5 5 5 5 5 5 5 5 3 3 3 3 3 1 3 5 6 w u i g l m H H E Q @.;.9.0.0.0.h.h.A.A.A.A.h.p.4.4.>.=.=.X.T T P F F m m l l l l l m m F P Q ;.6.w.q.j.L.L.L.b.b.8.7.7._ ) ^ IXIXIXIXIXIXIXIXIXIXIXIXIXIXIXIXIXIXIXIXIXIXIXIXIXIX",
"IXIXIXIXIXIXIXIXIXIXIXIXIXIXIXIXIXIXIXIXIXIXIXIXIXIXIXIXIXIXIXIXIXIXIXIXIXIXIXIXIXIXIXIXIXIXIXIXIXIXIXIXIXIXIXIXIXIXIXIXIXIXIXIXIXIX) 7.8.b.L.L.T.Y.Y.bXNXbXbXG.G.D.A.p.3.>.=.X.T T G D m l g u t 6 6 6 4 3 4 4 4 4 3 3 3 4 4 4 4 4 4 4 4 4 4 4 4 4 4 0 4 4 4 4 4 4 4 4 4 4 4 4 4 4 4 4 4 4 4 4 4 4 4 4 6 6 4 6 6 6 4 6 6 6 6 6 6 6 6 6 6 6 6 6 6 6 6 6 4 3 3 3 3 3 3 3 3 6 6 6 t t u i g k z D F P R +.+.-.2.2.g.p.f.f.C.C.C.C.~.~.~.~.!.B.B.s.a.d.y.y.r.,.#.#.o. .I L B M n n h f u e w w 5 5 5 5 3 3 3 1 - > - > 3 3 3 3 3 3 3 3 3 3 4 4 6 6 6 6 6 6 6 6 6 6 6 6 6 6 6 6 6 6 6 6 6 6 6 6 6 6 6 6 6 4 4 4 4 4 6 6 6 6 6 6 6 6 6 6 t t t y y u u y i i g g g g g f u u u f f f h n n M B L I | o.#.,.r.y.a.s.W.Q.Q.).)._._._._.).).^.W.W.B.u.t.<.:.O.T P F m l g y t 6 4 4 > > > > , , , < < < > > , , 4 4 4 4 4 4 4 4 6 6 6 6 6 6 6 6 5 5 5 3 5 5 3 3 3 5 3 3 3 1 1 3 3 5 6 w u g k l m H E Q W ;.6.9.0.0.h.j.h.A.A.A.h.h.4.4.1.=.=.X.T T P F F m m l l l l l l m D F U Q ;.6.w.q.m.L.L.L.b.b.8.7.7._ ) ^ IXIXIXIXIXIXIXIXIXIXIXIXIXIXIXIXIXIXIXIXIXIXIXIXIXIX",
"IXIXIXIXIXIXIXIXIXIXIXIXIXIXIXIXIXIXIXIXIXIXIXIXIXIXIXIXIXIXIXIXIXIXIXIXIXIXIXIXIXIXIXIXIXIXIXIXIXIXIXIXIXIXIXIXIXIXIXIXIXIXIXIXIXIX) ] 8.q.J.L.T.Y.Y.NXMXMXbX}.G.H.D.Z.p.3.>.=.X.T P F m l g i t w 6 6 6 4 4 4 4 3 3 3 3 3 4 4 4 4 4 4 4 4 4 4 4 4 4 0 0 0 4 4 4 4 4 4 4 4 4 4 4 4 4 4 4 4 4 4 4 4 4 4 4 4 4 4 6 6 6 6 6 6 6 6 6 6 6 6 6 6 6 6 6 6 6 6 4 3 3 3 3 3 3 3 3 6 6 6 t t u i k l m F G U R +.%.;.2.4.g.p.f.f.C.C.C.C.C.~.~.~.B.s.s.a.a.d.y.r.e.,.#.o.| | I L B M n n h f f e w e w 6 5 5 5 3 3 3 1 3 - - 3 3 3 3 3 3 3 3 3 3 3 3 3 4 6 6 6 6 6 6 6 6 6 6 6 6 6 6 6 6 6 6 6 6 6 6 6 6 6 6 6 4 4 4 4 4 4 6 6 6 6 6 6 6 6 w t t t u u y i i g g g g g g g g g g f f g h h n n B B I | o.#.#.e.y.d.s.B.!.Q.^.).)._._._._.).^.^.W.B.B.u.t.<.:.X.T P F m l g y t 6 4 4 > > > > > , > > < < > > , , 4 4 4 4 4 4 4 4 4 4 6 6 6 6 4 6 5 5 3 3 5 3 3 3 3 3 3 3 3 3 3 3 3 5 6 w u g k z H H E Q @.6.6.9.0.0.h.j.h.j.h.h.h.4.4.2.1.=.X.T T P F F m m l l l l l l l m D G R W 6.w.q.q.L.L.L.L.b.b.8.7.7.) ) ^ IXIXIXIXIXIXIXIXIXIXIXIXIXIXIXIXIXIXIXIXIXIXIXIXIXIX",
"IXIXIXIXIXIXIXIXIXIXIXIXIXIXIXIXIXIXIXIXIXIXIXIXIXIXIXIXIXIXIXIXIXIXIXIXIXIXIXIXIXIXIXIXIXIXIXIXIXIXIXIXIXIXIXIXIXIXIXIXIXIXIXIXIXIX) ' 7.q.J.L.T.Y.Y.NXMXMXbX}.G.H.D.A.p.3.>.=.X.T P F m z k i y w 6 6 6 4 3 3 3 3 3 3 > > > 4 4 4 4 4 4 4 4 4 4 4 4 0 4 4 4 4 4 0 4 4 4 4 4 4 4 4 4 4 4 4 4 4 4 4 4 4 4 4 4 4 6 6 6 6 6 6 6 6 6 6 6 6 6 6 6 6 6 6 6 6 4 3 3 3 3 3 3 3 3 6 6 6 t y u i k l m F U R R @.;.2.2.4.p.p.f.C.D.C.C.C.C.C.C.V.B.s.s.a.d.y.y.r.,.$.#.o.| | I L B M n n h g f u e w w w 6 5 5 5 3 3 1 1 - 1 1 3 3 3 3 3 3 3 3 3 3 3 3 3 3 3 5 6 6 6 6 6 6 6 6 6 6 6 6 6 6 6 6 6 6 6 6 6 6 6 4 4 4 4 4 4 4 4 6 6 6 6 6 6 6 w t t t u u i i g g g l l l l l h h h h h h h n n M B L | | o.#.,.e.y.d.s.!.!.Q.).)._._._._._.).^.^.W.B.B.u.t.<.=.X.T P F m l g y t 6 4 3 > > > > > > > < < < > > , , 4 4 4 4 4 4 4 4 4 4 4 4 4 6 4 5 5 3 3 3 3 3 3 3 3 3 3 3 3 3 3 3 5 5 6 t u g l z H Y E Q @.6.6.0.0.0.0.j.j.h.h.0.0.4.2.1.-.X.T T P F F m m l l l k k l l l m D G E W 6.w.q.q.L.L.L.L.b.b.c.7.7.) ) ^ IXIXIXIXIXIXIXIXIXIXIXIXIXIXIXIXIXIXIXIXIXIXIXIXIXIX",
"IXIXIXIXIXIXIXIXIXIXIXIXIXIXIXIXIXIXIXIXIXIXIXIXIXIXIXIXIXIXIXIXIXIXIXIXIXIXIXIXIXIXIXIXIXIXIXIXIXIXIXIXIXIXIXIXIXIXIXIXIXIXIXIXIXIXIX' 7.8.b.L.T.Y.U.NXMXMXMX}.}.G.D.Z.p.t.3.>.=.X.T P F m l g u t w 6 6 5 3 3 3 3 3 > > > > 3 4 4 4 4 4 4 4 4 4 4 4 4 4 4 4 4 4 4 4 4 4 4 4 4 4 4 4 4 4 4 4 4 4 4 4 4 4 4 4 4 4 6 6 6 6 6 6 6 6 6 6 6 6 6 6 6 6 6 6 4 4 3 3 3 3 3 3 3 3 6 6 6 t y u i k l m H U R @.@.;.;.2.4.p.f.f.C.C.C.C.C.C.C.C.V.s.s.a.d.y.y.r.e.,.#.#.o.| | I L B M M n h h f u u e w w w 6 5 5 3 3 3 3 3 3 3 3 3 3 3 3 1 1 3 3 3 3 3 3 3 3 3 3 6 6 6 6 6 6 6 6 6 6 6 6 6 6 6 6 6 6 6 6 6 6 4 4 4 4 4 4 3 3 6 6 6 6 6 6 6 w t t u u i g g g k l l l l l l l l h h h n n n M B L I  .o.#.#.,.r.y.a.B.!.Q.^.).)._._._._._.).^.^.!.B.a.u.t.<.=.X.T P F m l g u 9 6 4 3 > > > > > , > > > > , , , , 4 4 4 4 4 4 4 4 4 4 6 6 6 6 5 5 3 3 3 3 3 3 3 5 3 5 3 3 3 3 3 3 5 5 w t i g l m H Y E W @.6.6.0.0.0.0.0.0.0.0.0.0.4.2.-.X.X.T P F F m m l l l k k k l l z m F P Q @.6.w.q.q.L.L.L.L.b.b.c.7.7._ ) ^ IXIXIXIXIXIXIXIXIXIXIXIXIXIXIXIXIXIXIXIXIXIXIXIXIXIX",
"IXIXIXIXIXIXIXIXIXIXIXIXIXIXIXIXIXIXIXIXIXIXIXIXIXIXIXIXIXIXIXIXIXIXIXIXIXIXIXIXIXIXIXIXIXIXIXIXIXIXIXIXIXIXIXIXIXIXIXIXIXIXIXIXIXIXIX) 7.8.b.L.I.U.U.bXMXMXMX}.}.G.H.C.Z.i.3.>.=.X.T P F m l g u t w 6 6 6 3 3 3 3 > > > > > > 4 4 4 4 4 4 4 4 4 4 4 4 4 4 4 4 4 4 4 0 4 4 4 4 4 4 4 4 4 4 4 4 4 4 4 4 4 4 6 6 4 4 6 6 6 6 6 6 6 6 6 6 6 6 6 6 6 6 6 4 3 3 3 3 3 3 3 3 3 6 6 6 t y u i k l m H Y E @.@.;.2.2.g.h.k.k.D.D.C.C.C.C.C.C.V.s.s.a.d.y.y.r.e.$.#.#.o.| | I L B B M n n h g f u u u w w w 6 5 5 3 3 3 3 3 1 - 1 - - - - - - 1 1 3 3 3 3 3 3 3 3 5 6 6 6 6 6 6 6 6 6 6 6 6 6 6 6 6 6 6 6 6 4 4 4 4 4 3 3 3 4 6 6 6 6 6 6 w t y u u g g g l l l n m m m n n n n n n n n M B L I | o.o.#.$.e.y.d.s.!.!.Q.).)._._._._._._.).^.^.!.B.a.y.e.>.O...I P F m l g u t 6 4 3 > > > > > , > > > > , , , , , 4 4 4 4 4 4 4 4 4 4 4 4 5 5 5 3 3 3 3 3 3 3 3 3 5 5 3 5 5 3 5 5 6 w u i g l m H Y E W ;.6.6.9.0.0.0.0.0.0.0.0.5.5.;.-.X.T P G F m z l l l g g g k l l z m F P Q @.6.w.q.j.L.L.L.L.b.b.c.7.] _ ^ ^ IXIXIXIXIXIXIXIXIXIXIXIXIXIXIXIXIXIXIXIXIXIXIXIXIXIX",
"IXIXIXIXIXIXIXIXIXIXIXIXIXIXIXIXIXIXIXIXIXIXIXIXIXIXIXIXIXIXIXIXIXIXIXIXIXIXIXIXIXIXIXIXIXIXIXIXIXIXIXIXIXIXIXIXIXIXIXIXIXIXIXIXIXIXIX) ] 8.q.L.I.U.Y.bXMXMXMXbX}.}.H.D.Z.i.t.3.:.O.X.T P D z k i u t w 6 6 3 3 3 3 > > > > > > 3 4 4 4 4 4 4 4 4 4 4 4 4 4 4 4 4 4 4 4 4 4 4 4 4 4 4 4 4 4 4 4 4 4 4 4 4 6 6 6 4 4 4 6 6 6 6 6 6 6 6 6 6 6 6 6 6 6 6 4 3 3 3 3 3 3 3 3 3 6 6 6 t y y i k z N H E Q @.;.;.2.2.l.h.k.D.D.D.D.D.C.C.C.C.V.s.s.d.y.y.r.r.,.$.#.o.o. .I I L L B M n n h h g f u u u w w w 6 5 5 3 3 3 3 1 1 1 - - - - - - - - 3 3 3 3 3 3 3 3 3 3 6 6 6 6 6 6 6 6 6 6 6 6 6 6 6 6 6 6 6 4 4 4 3 3 3 3 3 3 6 6 6 6 6 6 t t u u i g g l l l m m M M M M M n n n n n M B B L | | o.#.$.,.r.y.a.s.W.Q.Q.).)._._._._._._.).^.Q.W.B.a.y.e.>.O...I L F m k i y 9 6 4 3 > > > > , , , , > > < , , , , 4 4 4 4 4 4 4 4 4 4 4 3 4 3 3 3 3 3 3 3 3 3 3 5 5 5 5 5 5 5 5 5 6 w u i k l m H E Q W ;.6.9.9.0.0.0.0.0.0.9.9.5.;.-.X.T T P F m m l l k g g g g k l l m D G R Q ;.6.w.q.j.L.L.L.L.b.b.c.7.] _ ^ IXIXIXIXIXIXIXIXIXIXIXIXIXIXIXIXIXIXIXIXIXIXIXIXIXIXIX",
"IXIXIXIXIXIXIXIXIXIXIXIXIXIXIXIXIXIXIXIXIXIXIXIXIXIXIXIXIXIXIXIXIXIXIXIXIXIXIXIXIXIXIXIXIXIXIXIXIXIXIXIXIXIXIXIXIXIXIXIXIXIXIXIXIXIXIX) ] 7.q.J.L.U.Y.bXMXMXMXMX}.}.H.D.Z.Z.u.3.>.=.X.T P F m l g u t w 6 6 4 3 3 3 > > > > > > 3 4 4 4 4 4 4 4 4 4 0 0 0 4 4 4 4 4 4 4 4 4 4 4 4 4 4 4 4 4 4 4 4 4 4 4 4 6 6 6 4 4 4 6 9 9 9 6 6 6 6 6 6 6 6 6 6 6 6 4 3 3 3 3 3 3 3 3 3 6 6 6 t y y i k z H H E Q @.;.;.2.0.l.h.k.D.D.D.D.D.C.C.C.C.V.s.a.d.y.y.r.r.,.$.$.o.o.| | I L B B M M n n h h g g u u u t w w 6 5 5 3 3 3 3 1 1 1 1 - - - - - - 1 3 3 3 3 3 3 3 3 3 3 6 6 6 6 6 6 6 6 6 6 6 6 6 6 6 6 6 6 4 4 4 3 3 3 3 3 4 6 6 6 6 6 w t t u i g g l l m m m M F F L M M M M M M M B L I | | o.#.#.,.e.y.d.s.!.!.Q.).)._._._._._._._.).^.Q.W.B.a.y.e.>.O...I F F m l i y 9 6 4 3 > > > > , , , , , > < , , , , 4 4 4 4 4 4 4 4 4 4 3 3 4 3 3 3 3 3 3 3 3 3 3 5 5 5 5 5 5 5 5 5 6 w u i k l m H Y Q W ;.6.6.9.0.0.0.0.0.9.9.2.5.;.+.T T P F D m l l k g g g g k l l z m F P E Q 6.w.w.q.m.L.L.P.L.b.b.c.7.] _ ^ IXIXIXIXIXIXIXIXIXIXIXIXIXIXIXIXIXIXIXIXIXIXIXIXIXIXIX",
"IXIXIXIXIXIXIXIXIXIXIXIXIXIXIXIXIXIXIXIXIXIXIXIXIXIXIXIXIXIXIXIXIXIXIXIXIXIXIXIXIXIXIXIXIXIXIXIXIXIXIXIXIXIXIXIXIXIXIXIXIXIXIXIXIXIXIX^ ' 7.8.J.L.U.U.bXMXMXMX@X@X}.{.H.C.Z.u.t.<.>.O...I F m l g i t t 6 6 6 3 3 3 > > > > > > > 3 4 4 4 4 4 4 4 4 4 4 4 4 4 4 4 4 4 4 4 4 4 4 4 4 4 4 4 4 4 4 4 4 4 4 4 6 6 6 6 6 6 9 9 9 9 6 6 6 6 6 6 6 6 6 6 6 6 4 3 3 3 3 > > > 3 3 5 6 6 t y y i k z N H E Q @.;.9.9.0.h.h.k.D.D.D.D.D.D.C.C.C.s.s.a.d.y.y.r.e.$.$.#.o. .| | I L B B B M M n l h h g g f u u u w w 6 6 5 5 3 3 3 1 1 1 - - - - - 1 1 3 3 3 3 3 3 3 3 3 5 6 6 6 6 6 6 6 6 6 6 6 6 6 6 6 6 6 6 4 4 3 3 3 3 3 3 3 6 6 6 6 6 w t u u g g l l m m M F L L L L L L L L B B B L I | | o.#.#.,.e.r.y.d.s.W.Q.Q.).)._._._._._._._.).^.^.W.B.a.y.<.>.O...I L m z k i y 9 6 4 3 > > > > , , , > > > > , , , 4 4 4 4 4 4 4 4 4 4 4 4 3 3 3 3 3 3 3 3 3 3 3 5 5 5 5 5 5 5 5 5 6 6 t u i k z m H Y E W @.;.9.6.9.9.9.9.9.9.;.;.;.@.R T P F D m l l k g g g g g k l z m D G P R @.6.9.q.q.L.L.L.L.L.b.b.c.7._ _ ^ IXIXIXIXIXIXIXIXIXIXIXIXIXIXIXIXIXIXIXIXIXIXIXIXIXIXIX",
"IXIXIXIXIXIXIXIXIXIXIXIXIXIXIXIXIXIXIXIXIXIXIXIXIXIXIXIXIXIXIXIXIXIXIXIXIXIXIXIXIXIXIXIXIXIXIXIXIXIXIXIXIXIXIXIXIXIXIXIXIXIXIXIXIXIXIXIX) 7.8.q.L.I.U.bXMXMXMX@X@X}.{.H.C.Z.Z.u.3.>.=.X.T P F m l g u t w 6 6 5 3 3 > > > > > > > 3 4 4 4 4 4 4 4 4 4 4 4 4 4 4 4 4 4 4 4 4 4 4 4 4 4 4 4 4 4 4 4 4 4 4 4 4 6 6 6 6 6 9 9 9 9 9 6 6 6 6 6 6 6 6 6 6 6 4 3 3 3 3 > > > 3 3 5 6 6 t y y g k x H H E Q @.;.9.9.0.h.h.k.D.D.D.D.].].~.~.C.s.s.a.d.y.y.r.e.$.#.#.o.| | | I L L B B B M n n l l h h g g f u u w w w 6 6 5 5 3 3 3 1 1 1 1 1 1 3 3 3 3 3 3 3 3 3 3 5 5 6 6 6 6 6 6 6 6 6 6 6 6 6 6 6 6 6 4 4 4 3 3 3 3 3 3 3 6 6 6 6 w t t u i g l l m m F F L P I I I I I I I L I I I | o.o.#.#.,.e.r.y.d.s.!.!.Q.).)._._.#X%X%X_._._._.^.Q.W.B.a.y.<.:.O...P L M z k i y 9 6 4 3 > > > > , , , > > > > > , , 4 4 4 4 4 4 4 4 4 3 3 3 3 3 3 3 3 3 3 3 3 3 3 5 5 5 5 6 5 5 5 6 6 w t u i k z m H Y E Q @.;.6.9.9.9.9.9.;.;.;.@.@.R R P F D m l l g g g g g g k l l m D F P R W ;.6.0.q.j.L.L.L.L.L.b.b.c.7._ _ ~ IXIXIXIXIXIXIXIXIXIXIXIXIXIXIXIXIXIXIXIXIXIXIXIXIXIXIX",
"IXIXIXIXIXIXIXIXIXIXIXIXIXIXIXIXIXIXIXIXIXIXIXIXIXIXIXIXIXIXIXIXIXIXIXIXIXIXIXIXIXIXIXIXIXIXIXIXIXIXIXIXIXIXIXIXIXIXIXIXIXIXIXIXIXIXIXIX) ' 8.q.L.I.U.bXbXMXMX@X@X@X{.{.H.C.Z.V.u.3.>.=...I F m l g i u t 6 6 6 3 3 > - - > > > > 3 4 4 4 4 4 4 4 4 4 4 4 4 0 0 4 4 4 4 4 4 4 4 4 4 4 4 4 4 4 4 4 4 4 4 4 4 4 4 4 4 6 9 6 9 6 6 6 6 6 6 6 6 6 6 6 6 6 4 3 3 3 3 3 > 3 3 3 5 6 6 t y i g k x H Y Y Q @.;.9.9.l.h.k.A.D.D.D.].].].].~.C.V.s.a.d.y.r.r.e.$.#.#.o. .| | I L L L B B M M n n n l l l h g g g u u t w w w 6 5 5 5 3 3 3 3 3 3 3 3 3 3 3 3 3 5 5 5 6 6 6 6 6 6 6 6 6 6 6 6 6 6 6 6 6 6 6 4 4 3 3 3 3 3 3 3 5 6 6 6 6 w t u i g l l m m F L P I T ............| | | | | o.#.#.$.e.r.r.y.d.s.!.!.Q.).)._._.#X%X%X%X%X_._._.^.^.W.B.a.y.<.:.O.T P F m l k i y 6 6 4 3 > > > > , , > > > > , , , , 4 4 4 4 4 4 4 4 3 3 3 3 3 3 3 3 3 3 3 3 3 3 3 3 5 5 5 5 5 5 5 6 6 w t u i k z m H H E Q Q @.;.;.;.;.;.;.;.@.@.Q Q R P F D m l k g g g g g g g l l z m F G T R ;.;.9.0.q.S.L.L.L.L.L.b.b.c.7._ / ~ IXIXIXIXIXIXIXIXIXIXIXIXIXIXIXIXIXIXIXIXIXIXIXIXIXIXIX",
"IXIXIXIXIXIXIXIXIXIXIXIXIXIXIXIXIXIXIXIXIXIXIXIXIXIXIXIXIXIXIXIXIXIXIXIXIXIXIXIXIXIXIXIXIXIXIXIXIXIXIXIXIXIXIXIXIXIXIXIXIXIXIXIXIXIXIXIX^ ' w.q.S.I.I.U.bXMX@X@X@X@X@X{.{.H.C.Z.u.t.<.:.O.T P F m l g u t w 6 6 3 3 > - - - > > > 3 4 4 4 4 4 4 4 4 4 4 4 4 4 0 4 4 4 4 4 4 4 4 4 4 4 4 4 4 4 4 4 4 4 4 4 4 4 4 4 4 4 9 6 6 6 6 6 6 6 6 6 6 6 6 6 6 6 4 3 3 3 > > > 3 3 3 3 6 6 t y i g k x H Y Q @.@.;.9.0.h.h.k.D.D.D.[.].].].].~.C.V.s.a.d.y.y.r.e.$.#.o.o.o.| | I L L L L B B M M M m n n n l l l g g g u u u w w w w 6 6 5 5 5 5 5 5 5 5 5 5 5 5 6 6 6 6 6 6 6 6 6 6 6 6 6 6 6 6 6 6 6 6 6 6 4 3 3 3 3 3 3 3 3 6 6 6 6 w t u u g l l m M F L I U ..X.O.O.O.#.#.O.o.o.o.o.#.#.$.,.e.r.y.y.d.s.!.!.Q.'.)._._.%X%X%X%X%X%X_._._.^.^.W.B.a.y.<.:.O.T P F m l k i y 6 6 4 3 > > > > > , > > > > > , , , 4 4 4 4 4 4 4 4 3 3 3 3 3 3 3 3 3 3 3 3 3 3 3 3 3 5 5 5 5 5 6 6 6 w t u i k l m D H Y E Q @.@.;.;.;.@.@.Q Q Q E Y G F D m l k g g i i i g g k l z m D G P R @.;.9.0.q.j.S.L.L.L.L.L.b.b.8.7._ ^ ~ IXIXIXIXIXIXIXIXIXIXIXIXIXIXIXIXIXIXIXIXIXIXIXIXIXIXIX",
"IXIXIXIXIXIXIXIXIXIXIXIXIXIXIXIXIXIXIXIXIXIXIXIXIXIXIXIXIXIXIXIXIXIXIXIXIXIXIXIXIXIXIXIXIXIXIXIXIXIXIXIXIXIXIXIXIXIXIXIXIXIXIXIXIXIXIXIX^ ) 6.w.q.S.I.U.bXMX@X+X@X@X@X{.{.(.C.C.Z.u.t.>.=.X.T F m l g i u t 6 6 3 3 > - - - - > > 3 3 4 4 4 4 4 4 4 4 4 4 4 4 4 4 0 4 4 4 4 4 4 4 4 4 4 4 4 4 4 4 4 4 4 4 6 4 4 4 4 6 9 9 9 6 6 6 6 6 6 6 6 6 6 6 6 6 4 3 3 3 > > - 3 3 3 3 6 6 t y i g x x H Y Q @.@.6.9.0.h.h.A.D.D.D.[.[.].].].].~.C.s.a.d.y.y.r.e.$.$.o.o. . .| I I I L L L L B M M M M m m m n l l l g g g u u u u t w w w w 6 6 6 6 6 6 6 6 6 6 6 6 6 w w w w w 6 6 6 6 6 6 6 6 6 6 6 6 6 4 3 3 3 3 3 3 3 3 3 6 6 6 6 w t u i g l m M F L I T +.+.%.%.1.,.,.,.#.#.#.#.#.$.,.e.r.r.y.y.d.s.!.!.Q.'.)._._.%X%X%X%X%X%X%X.X_._.^.Q.W.B.a.t.<.:.X.T P F m l k i y 6 6 3 3 > > > > > > > > > > > > > , 3 4 4 4 4 3 3 3 4 3 3 3 3 3 3 3 3 3 3 3 3 3 3 3 3 3 5 5 5 5 6 6 6 w t u i k l z D G ! E Q Q Q @.@.W Q Q Q E Y H H H m m l k g g i u u i g g k l m D F P T R ;.;.9.0.q.S.S.L.I.L.L.L.b.c.7.7._ ^ IXIXIXIXIXIXIXIXIXIXIXIXIXIXIXIXIXIXIXIXIXIXIXIXIXIXIXIX",
"IXIXIXIXIXIXIXIXIXIXIXIXIXIXIXIXIXIXIXIXIXIXIXIXIXIXIXIXIXIXIXIXIXIXIXIXIXIXIXIXIXIXIXIXIXIXIXIXIXIXIXIXIXIXIXIXIXIXIXIXIXIXIXIXIXIXIXIX^ ) 6.w.q.S.F.U.}.@X@X@X@X@X@X@X{.{.~.C.C.u.t.<.:.O.T P F m l g u t w 6 3 3 > - - - - > > > 3 4 4 4 4 4 4 4 4 4 4 6 4 4 0 0 4 4 4 4 4 4 4 4 4 4 4 4 4 4 4 4 4 4 4 6 4 4 6 6 6 9 9 9 6 6 6 6 6 6 6 6 6 6 6 6 6 3 3 3 3 - - - 3 3 3 3 6 6 t t u g x x H Y Q @.@.6.9.0.h.h.A.D.F.F.[.[.[.].].].~.C.s.s.d.y.y.r.,.$.$.o.o. . .| I I I I L L L L L B M M M M M m m n l l l g g g g u u u u t w w w w w w w w w w w w w w w w w t t w w w 6 6 t 6 6 6 6 6 6 6 4 3 3 3 3 3 3 3 3 3 6 6 6 w w t u g k l m F L I T +.+.%.2.1.1.1.e.e.,.,.,.,.,.e.r.r.y.y.d.s.s.!.!.Q.Q.).)._.%X%X%X%X%X%X%X%X.X_._.).Q.W.B.a.t.<.:.X.I P F m l k i y 6 6 4 3 > > > > > > > > > > < > > , > 4 4 4 4 3 4 3 3 3 3 3 3 3 3 3 3 3 3 3 3 3 3 3 3 3 5 5 5 5 6 6 6 6 t u i k l z D F G ! E Q Q Q Q Q Q E E Y H H D m z l k g g u u u u i g g l l m F G T T @.;.9.0.0.j.S.L.L.I.L.L.L.b.c.7.7._ ^ IXIXIXIXIXIXIXIXIXIXIXIXIXIXIXIXIXIXIXIXIXIXIXIXIXIXIXIX",
"IXIXIXIXIXIXIXIXIXIXIXIXIXIXIXIXIXIXIXIXIXIXIXIXIXIXIXIXIXIXIXIXIXIXIXIXIXIXIXIXIXIXIXIXIXIXIXIXIXIXIXIXIXIXIXIXIXIXIXIXIXIXIXIXIXIXIXIXK ) 6.w.q.S.F.G.}.}.@X@X+X@X@XOX|.{.{.C.C.Z.u.3.>.O...P F m l g i t w 6 5 3 > - - - - > > 3 3 4 4 4 4 4 4 4 4 4 4 6 4 4 9 9 0 0 4 4 6 6 4 4 4 4 4 4 4 4 4 4 4 4 4 6 6 4 6 6 6 9 9 9 9 6 6 6 6 6 6 6 6 6 6 6 6 3 3 3 3 - - - - 3 3 3 6 6 w t u g x x H Y Q @.&.6.9.0.h.k.A.F.F.[.[.{.{.].].].~.~.s.s.d.y.y.r.e.$.$.o.o. . .| | | I I L L L L L L L L F F M M M m m n l l l l g g g g u u u u u u u u t u t t t t t t t t t t t t t t t t t t 6 6 6 6 6 6 3 3 3 3 3 3 3 3 3 5 5 6 6 w t u i g l m M L P U +.+.%.2.2.g.g.g.r.e.e.r.r.e.r.r.y.y.y.d.s.s.!.!.Q.'.).)._.#X%X%X%X%X%X%X%X%X%X_._.).Q.W.B.a.t.<.:...I P F m l k i t 6 6 4 3 > > > > > > > > > > > > > , 3 4 4 4 4 4 4 3 3 3 3 3 3 3 3 3 3 3 3 3 3 3 3 3 3 3 3 5 3 5 5 6 6 6 t y i g k z m D G G ! E E R E E Y Y H H H D m z l k g i u u u u u i g g l m m F P T +.;.;.9.0.q.S.S.L.L.I.L.L.L.b.c.7.] _ ` IXIXIXIXIXIXIXIXIXIXIXIXIXIXIXIXIXIXIXIXIXIXIXIXIXIXIXIX",
"IXIXIXIXIXIXIXIXIXIXIXIXIXIXIXIXIXIXIXIXIXIXIXIXIXIXIXIXIXIXIXIXIXIXIXIXIXIXIXIXIXIXIXIXIXIXIXIXIXIXIXIXIXIXIXIXIXIXIXIXIXIXIXIXIXIXIXIXK ^ ' 6.q.S.S.G.}.}.@X@X+X+X+XOXOX|.{.~.C.Z.u.t.<.=.X.I F m l k i u t 6 5 3 - - - - - - > > 3 4 4 4 4 4 4 4 4 4 6 9 9 0 9 9 0 0 0 4 6 6 6 6 4 4 4 4 4 4 4 4 4 4 4 6 6 6 6 6 6 6 9 9 6 6 6 6 6 6 6 6 6 6 6 6 6 4 3 3 3 > - - - 3 3 3 6 6 t t u i x x H Y Q @.&.9.9.0.h.k.F.F.F.[.[.[.{.{.].].].~.V.s.a.y.y.r.e.$.$.o.o. . .| | | I I I L L L L L L L L L L F F M M m m m n l l l h g g g g i i i u u u u u u u u u u u y y y t t t t t t t t 6 6 6 6 6 6 3 3 3 3 3 3 3 3 3 5 6 6 6 w t u i g l m F L I ..+.%.2.2.g.g.p.p.i.y.y.y.y.y.y.y.y.d.s.s.M.!.!.Q.Q.).)._.#X%X%X%X%X%X%X%X%X%X%X_._.).Q.W.B.a.t.<.:.X.I P F m l g i t 6 6 4 3 > > > > > > > > > > > > > > 3 4 4 4 4 4 4 3 3 3 3 3 3 3 3 3 3 3 3 3 3 3 3 3 3 3 3 3 3 3 5 6 6 6 w t y i k l z D F G G ! ! ! ! ! H H H D m z z l k g i i u u u u u i g k l m F G T T +.;.5.0.0.j.S.S.L.I.I.L.L.L.b.c.7.] _ ~ IXIXIXIXIXIXIXIXIXIXIXIXIXIXIXIXIXIXIXIXIXIXIXIXIXIXIXIX",
"IXIXIXIXIXIXIXIXIXIXIXIXIXIXIXIXIXIXIXIXIXIXIXIXIXIXIXIXIXIXIXIXIXIXIXIXIXIXIXIXIXIXIXIXIXIXIXIXIXIXIXIXIXIXIXIXIXIXIXIXIXIXIXIXIXIXIXIXJ K ( 6.0.S.F.G.}.}.@X@X+X+X+XOXOX|.{.(.C.C.Z.i.3.:.O.T P F m l g u t 6 6 3 > - - - - - > > 3 3 4 4 4 4 4 4 4 4 4 4 4 6 9 9 9 4 4 4 4 6 6 6 6 6 4 4 4 4 4 4 4 4 4 4 4 4 4 4 4 6 9 9 6 6 6 6 6 6 6 6 6 6 6 6 6 3 3 3 3 > - - - 3 3 5 6 6 w t u i x x H Y Q @.&.6.0.0.h.k.F.F.F.[.}.}.[.[.].].].~.C.s.a.y.y.r.e.$.$.o.o. .| | | I I I I I I L L L L L L L L L L L F F M M m m m n l l l h g g g g g g g g i i i i i y y u u u u y y t t t t w 6 6 6 6 6 6 3 3 3 3 3 > 3 3 3 3 5 6 6 w t u g l l M L P T +.%.2.2.l.g.p.f.f.f.d.d.d.y.y.y.d.d.s.s.!.!.!.Q.'.).)._.#X#X%X%X%X%X-X-X&X&X%X%X_._.).Q.W.B.a.y.<.:.O.T P F m l g i y 6 6 3 3 > > > > > > > > > > > > , 4 4 4 4 4 4 3 3 3 3 3 3 3 3 3 3 3 3 3 3 3 3 3 3 3 3 3 3 3 3 3 5 6 6 6 w t u i k k z z D D F G G G G H D D m m z l l k g i u u u t t u u g g l z m F P T +.;.5.9.0.j.A.S.S.I.I.I.L.L.J.b.8.7._ _ ~ IXIXIXIXIXIXIXIXIXIXIXIXIXIXIXIXIXIXIXIXIXIXIXIXIXIXIXIX",
"IXIXIXIXIXIXIXIXIXIXIXIXIXIXIXIXIXIXIXIXIXIXIXIXIXIXIXIXIXIXIXIXIXIXIXIXIXIXIXIXIXIXIXIXIXIXIXIXIXIXIXIXIXIXIXIXIXIXIXIXIXIXIXIXIXIXIXIXJ K ( 6.9.j.S.F.G.}.@X@X+X+X+X+XOXOX|.{.~.C.Z.i.t.>.O...P F m l g u t w 6 3 3 - - - - - > > 3 3 4 4 4 4 4 4 4 4 4 4 4 6 9 9 6 6 4 4 4 4 6 6 4 6 4 4 4 4 4 4 4 4 4 4 4 4 6 4 4 6 6 6 6 6 6 6 6 6 6 6 6 6 6 6 6 3 3 3 3 > - - - 3 3 3 6 6 w t u i x x H Y Y @.@.9.0.0.h.j.F.F.F.}.}.}.}.[.{.].].~.~.B.s.d.y.r.e.$.#.o.o. . .| | | I I I I I L L L L I I I I I P P L L L F F F M m m m m n l l l l l l k g g g g g g i i i i i u u y y t t t w 6 6 6 6 6 6 3 3 3 > > - 3 3 3 5 5 6 w t u u g l m F L I ..+.%.2.l.l.p.k.f.f.f.f.f.s.s.a.a.s.s.M.!.!.!.Q.'.).)._._.#X%X%X%X%X-X-X-X-X&X%X%X.X_.).^.!.B.a.y.<.:.X.T P F m l g i t 6 6 3 3 > > > > > > > > < > > > > 4 4 4 4 4 4 4 3 3 4 4 3 3 3 3 3 3 3 3 3 3 3 3 3 3 3 3 3 3 3 3 5 5 6 6 w t y y g k l z m D D D F D D D m m z l l k g g i u u u t t u u u g k l m F P T T +.;.5.0.0.A.S.S.S.I.I.I.L.L.J.b.8.7._ / ~ IXIXIXIXIXIXIXIXIXIXIXIXIXIXIXIXIXIXIXIXIXIXIXIXIXIXIXIX",
"IXIXIXIXIXIXIXIXIXIXIXIXIXIXIXIXIXIXIXIXIXIXIXIXIXIXIXIXIXIXIXIXIXIXIXIXIXIXIXIXIXIXIXIXIXIXIXIXIXIXIXIXIXIXIXIXIXIXIXIXIXIXIXIXIXIXIXIXIXK W 6.9.0.A.F.G.}.}.@X+X+X+X+X+XOX|.{.{.C.C.f.i.<.=.X.I L m l k i u w 6 3 3 - - - - - > 3 3 3 4 4 4 4 4 4 4 4 6 6 6 6 9 9 9 9 4 4 4 4 4 4 4 4 6 4 4 4 4 4 4 4 4 4 6 4 6 6 6 6 6 6 6 6 6 6 6 6 6 6 6 6 6 6 6 4 3 3 3 > - - - 3 3 3 6 6 w t u i k x H Y Y @.&.9.9.0.h.j.F.F.[.}.}.}.}.}.}.{.].].~.!.s.d.y.r.e.$.$.o.o.o. .| | | | | | I I I I I I I I I I I I I I I I P P P L F F F M M N N m N N z l l x l k k k k g g g i i y u y y t t w 6 6 6 6 6 4 3 3 3 3 > > 3 3 3 5 6 6 w t u g g l m F I ..+.%.2.2.l.h.k.k.D.].~.~.C.!.s.s.s.M.!.!.!.Q.'.'.).)._.#X#X%X%X%X%X-X-X-X-X-X&X%X%X_._.).^.!.B.a.y.<.:.O.T P F m l g i t 6 6 3 3 > > > > > > > > < > > > > 3 4 4 4 4 4 4 3 3 4 4 3 3 3 3 3 3 3 3 3 3 3 3 3 3 3 3 3 3 3 3 3 5 6 6 6 t y u i g k l z z m m D m m z z z k k g g i i u u u t t t u u i g l m m F P R +.;.2.9.0.j.S.S.S.S.I.I.I.L.L.b.b.8.7._ ^ ~ IXIXIXIXIXIXIXIXIXIXIXIXIXIXIXIXIXIXIXIXIXIXIXIXIXIXIXIX",
"IXIXIXIXIXIXIXIXIXIXIXIXIXIXIXIXIXIXIXIXIXIXIXIXIXIXIXIXIXIXIXIXIXIXIXIXIXIXIXIXIXIXIXIXIXIXIXIXIXIXIXIXIXIXIXIXIXIXIXIXIXIXIXIXIXIXIXIXIXJ Q ;.9.0.A.A.H.}.}.@X+X+X+X+X+XOXOX|.{.].C.Z.p.3.1.O.T P F m l g u t 6 5 3 - - - - - > 3 3 3 4 4 4 4 4 4 4 4 6 6 6 6 9 9 9 0 4 4 4 6 4 4 4 4 6 6 6 6 4 4 4 4 4 4 6 6 6 6 4 6 6 6 6 6 6 6 6 6 6 6 6 6 6 6 6 4 3 3 3 > - - - 3 3 3 6 6 w t u i k x H Y Y @.&.9.9.0.h.j.F.F.[.}.}.}.}.}.}.{.{.].~.!.B.a.y.y.r.e.$.$.o.o. . . .| | | | | | | | | | | ..............T T T T I I P P U L U H H H H H H N N N z l l l l k k k g g i y u y t t w 6 6 6 6 6 4 3 3 3 > 3 3 3 3 3 5 6 w t u i g l m F L I X.%.2.2.l.l.k.k.D.].].].~.~.~.!.!.!.!.!.Q.'.'.).).)._.#X#X%X%X%X%X-X-X-X-X4X-X&X%X%X.X_.).^.!.B.a.y.<.:.O.T P F m l g i t 6 6 3 3 > > > > > > > > > > > > > 3 4 4 4 4 4 4 4 4 4 3 3 3 3 3 3 3 3 3 3 3 3 3 3 3 3 3 3 3 3 3 3 5 6 6 6 w t u y i k k l z z z z z z l k k g g i u u u u t t w t t u u g k l m F P R +.;.5.5.0.h.A.S.F.F.F.I.I.I.L.L.b.q.8.7._ ^ ~ IXIXIXIXIXIXIXIXIXIXIXIXIXIXIXIXIXIXIXIXIXIXIXIXIXIXIXIX",
"IXIXIXIXIXIXIXIXIXIXIXIXIXIXIXIXIXIXIXIXIXIXIXIXIXIXIXIXIXIXIXIXIXIXIXIXIXIXIXIXIXIXIXIXIXIXIXIXIXIXIXIXIXIXIXIXIXIXIXIXIXIXIXIXIXIXIXIXIXJ E W 5.0.h.D.H.{.}.@X+X+X+X+X+X+XOXOX{.{.C.C.f.i.1.=...I F m l g i u w 6 3 1 - - - - > 3 3 3 3 4 4 4 4 4 4 4 4 4 6 6 4 4 4 4 9 6 4 4 6 6 4 4 4 4 6 6 6 4 4 6 6 6 6 6 6 6 6 6 6 6 6 6 6 6 6 6 6 6 6 6 6 6 6 4 3 3 3 > - - - 3 3 3 6 6 6 t y i k x N H Y Q @.6.9.0.h.j.F.F.[.}.}.}.}. X X X{.{.~.~.!.s.d.y.r.e.$.#.#.o.o.o. . . .| | | | | | ..........o.O.O.O.O.O.X.X.X.........R R U E E Y Y Y H H H H N N m z z z l l k k g i y u y t t w 6 6 6 5 3 3 3 3 1 1 3 3 3 5 6 w t u u g l l m L I ..%.1.2.g.p.k.k.D.].].].].].(.(.~.Q.Q.Q.'.'.).).)._._.#X%X%X%X%X%X-X-X:X:X:X:X-X-X%X%X.X_.).^.!.B.a.y.<.:.o.I P F m l k i t 6 6 3 3 > > > > > > > > > > > > > 3 3 3 4 4 4 4 4 4 4 3 3 3 3 3 3 3 3 3 3 3 3 3 3 3 3 3 3 3 3 3 5 5 6 6 6 w t y u i i g k k k l l k k k g i i u u u t t t t w w t u u u g l m F P P R @.;.5.0.h.A.S.F.F.G.I.I.I.I.L.L.q.q.7.7.) ^ IXIXIXIXIXIXIXIXIXIXIXIXIXIXIXIXIXIXIXIXIXIXIXIXIXIXIXIXIX",
"IXIXIXIXIXIXIXIXIXIXIXIXIXIXIXIXIXIXIXIXIXIXIXIXIXIXIXIXIXIXIXIXIXIXIXIXIXIXIXIXIXIXIXIXIXIXIXIXIXIXIXIXIXIXIXIXIXIXIXIXIXIXIXIXIXIXIXIXIXJ E W ;.5.h.A.H.{.{.OX+X+X+X+X+X+XOXOX|.{.].C.Z.p.3.:.O.T P F m l g u w 6 3 3 - - - - 3 3 3 3 3 3 4 4 4 4 4 4 4 4 6 6 4 4 4 4 9 6 6 4 9 6 6 6 4 4 4 4 6 6 6 6 4 4 6 6 6 6 6 6 6 6 6 6 6 6 6 6 6 6 6 6 6 6 6 4 3 3 3 3 - - - 3 3 3 5 6 6 t u i k x N H E Q @.6.9.0.h.k.F.F.[.}.}.}. X X X X X{.].(.!.B.s.y.y.r.e.$.$.#.o.o.o.o.o.o.o.o.o.o.o.o.o.O.O.O.O.O.O.=.:.:.=.-.-.-.%.%.%.+.@.@.@.Q Q Q Q Y Y Y Y H H H D N m m z l k k i i u y t t w 6 6 6 5 3 3 3 3 1 1 3 3 3 6 6 w u u g g l m F P ..+.%.1.g.p.k.k.D.].[.|. X|.|.|.`.`.'.).).).)._._.#X#X%X%X%X%X%X%X-X:X:X:X:X3X:X4X4X%X%X.X_.).^.!.B.a.y.<.:...I P F m l k i t 6 6 3 3 > > > > > > > > > > > > > 3 3 3 4 4 4 4 4 3 4 3 3 3 3 3 3 3 3 3 3 3 3 3 3 3 3 3 3 3 3 3 5 5 6 6 6 w t t y u i i i g k k k g g i y u u t w w w w w w w w t u u g g l m F P R +.;.5.0.h.A.S.F.F.G.I.I.I.U.I.L.L.q.8.7.7.) ~ IXIXIXIXIXIXIXIXIXIXIXIXIXIXIXIXIXIXIXIXIXIXIXIXIXIXIXIXIX",
"IXIXIXIXIXIXIXIXIXIXIXIXIXIXIXIXIXIXIXIXIXIXIXIXIXIXIXIXIXIXIXIXIXIXIXIXIXIXIXIXIXIXIXIXIXIXIXIXIXIXIXIXIXIXIXIXIXIXIXIXIXIXIXIXIXIXIXIXIXH ! Q ;.5.p.A.D.H.{.OXOX+X+X+X+X+X+XOXOX|.{.~.C.f.i.1.=...I L m l g i t w 5 3 1 - - - > 3 3 3 3 3 3 4 4 4 4 4 4 4 6 6 4 4 9 9 9 9 4 4 9 9 6 6 4 4 4 4 4 4 6 4 4 4 4 4 4 4 6 6 6 6 6 6 6 6 6 6 6 6 6 6 6 6 4 3 3 3 3 3 > - 3 3 3 3 6 6 6 t y i g x N H E Q @.6.9.0.h.j.F.F.[.}.}. X X X X X X X{.~.~.!.s.d.y.r.r.,.$.$.#.o.o.o.o.o.o.o.o.o.o.o.O.O.#.:.:.>.>.>.>.>.1.1.2.2.2.2.2.;.;.;.;.&.&.@.@.@.W Q E Y Y Y H H D m m z l k g i y u t t w 6 6 6 3 3 3 3 3 1 3 3 3 5 6 w u u g g l m M L I ..%.1.g.p.k.k.D.].[.|.|.|.|.|.|.`.`.`._._._.#X#X#X%X%X%X%X%X%X&X-X-X:X:X3X3X3X3X4X4X&X%X.X_.).^.!.B.a.y.<.:.o.I P F m l g i t 6 6 3 3 > > > > > > > > > > > > 3 3 3 3 4 4 4 4 4 3 4 3 3 3 3 3 3 3 3 3 3 3 3 3 3 3 3 3 3 3 3 3 3 5 6 6 6 6 w t t y u y i i i i i i y u t t w w w 6 w w w w w w t u u g l m F P R +.;.2.0.h.A.S.F.G.G.U.U.U.U.U.I.L.L.q.8.7.' ) ~ IXIXIXIXIXIXIXIXIXIXIXIXIXIXIXIXIXIXIXIXIXIXIXIXIXIXIXIXIX",
"IXIXIXIXIXIXIXIXIXIXIXIXIXIXIXIXIXIXIXIXIXIXIXIXIXIXIXIXIXIXIXIXIXIXIXIXIXIXIXIXIXIXIXIXIXIXIXIXIXIXIXIXIXIXIXIXIXIXIXIXIXIXIXIXIXIXIXIXIXH ! R -.2.4.Z.C.H.{.OXOXOX+X8X8X8X+X+XOXOX{.].C.Z.p.3.:.O.T P F m l g u w 6 3 3 3 3 3 3 3 3 3 3 3 3 3 4 4 4 4 4 4 6 6 6 6 6 9 9 9 4 4 9 9 9 9 4 4 4 4 4 4 4 4 4 4 4 4 4 4 4 6 6 6 6 6 6 6 6 6 6 6 6 6 6 6 6 3 3 3 3 3 - - 3 3 3 3 6 6 6 t y y g x N H E Q @.6.9.0.h.j.F.F.[.}.}. X X X X X X|.|.{.~.!.B.s.y.y.r.e.$.$.$.#.#.o.o.o.o.o.o.O.O.#.#.#.:.>.,.<.<.<.3.1.4.4.g.4.0.0.0.0.9.9.9.9.9.9.6.6.&.&.W Q E Y Y H H F D m z l k g i u y t w 6 6 6 3 3 3 3 1 3 3 3 3 5 w t u i g l n m L I ..O.1.g.g.p.k.D.].[.|. X XvXvXvXvXvX$X$X$X#X#X#X%X%X%X%X%X%X:X-X-X4X:X3X2X3X3X3X3X3X4X&X%X.X_.).^.!.B.a.y.<.:.O.T P F m l g i t 6 6 3 3 > - > > > > > > > > > > 3 3 3 4 4 4 4 4 4 3 4 3 3 3 3 3 3 3 3 3 3 3 3 3 3 3 3 3 3 3 3 3 3 5 5 6 6 6 w t t y y y u u y y u u y t t w 6 6 6 6 6 6 w w w w u u g g l m F P +.%.2.5.0.h.A.F.F.G.U.U.U.U.U.I.I.L.S.q.8.7.' ) ^ IXIXIXIXIXIXIXIXIXIXIXIXIXIXIXIXIXIXIXIXIXIXIXIXIXIXIXIXIX",
"IXIXIXIXIXIXIXIXIXIXIXIXIXIXIXIXIXIXIXIXIXIXIXIXIXIXIXIXIXIXIXIXIXIXIXIXIXIXIXIXIXIXIXIXIXIXIXIXIXIXIXIXIXIXIXIXIXIXIXIXIXIXIXIXIXIXIXIXIXZ G R +.1.4.p.C.H.{.|.OXOX+X8X8X8X8XOXOXOX|.{.~.C.f.g.>.O...I F m l g u t 6 5 3 3 3 3 3 3 3 3 3 3 3 3 3 4 4 4 4 4 4 6 4 4 4 9 9 9 4 4 4 4 0 0 6 6 6 4 4 4 6 6 6 4 4 4 4 4 6 6 6 6 6 6 6 6 6 6 6 6 6 6 6 6 6 4 3 3 3 3 - - 3 3 3 3 6 6 6 t y i g x N H E Q @.;.9.0.h.k.F.F.}.}.}. X X+X+X X X X|.|.(.!.!.s.d.y.y.r.,.$.#.#.#.#.#.#.#.#.#.#.#.#.:.:.,.<.<.<.e.i.p.p.p.h.h.h.h.h.h.h.j.j.0.0.w.w.9.w.6.6.&.&.W Q E E H H H D m z k g i u y t w 6 6 5 3 3 3 3 1 3 3 3 5 5 w t u g h l m F L I ..:.1.g.p.f.D.].].{. X XvXqX7X7X7X7X7X$X$X&X%X%X%X%X%X-X:X-X:X:X:X3X3X2X3X3X3X3X3X3X4X&X%X.X_.).^.W.B.a.y.<.:.O.T P F m l g i t 6 5 3 3 > - - > > > > > > > > > 3 3 3 4 4 4 4 4 4 4 6 3 3 3 3 3 3 3 3 3 3 3 3 3 3 3 3 3 3 3 3 3 3 5 6 6 6 6 6 w w t t t t y y y t t w w 6 6 5 5 5 5 5 6 w w w e u u g l m F P T +.;.2.0.h.A.F.F.G.G.U.U.U.U.U.U.I.L.S.q.w.7._ ) ^ IXIXIXIXIXIXIXIXIXIXIXIXIXIXIXIXIXIXIXIXIXIXIXIXIXIXIXIXIX",
"IXIXIXIXIXIXIXIXIXIXIXIXIXIXIXIXIXIXIXIXIXIXIXIXIXIXIXIXIXIXIXIXIXIXIXIXIXIXIXIXIXIXIXIXIXIXIXIXIXIXIXIXIXIXIXIXIXIXIXIXIXIXIXIXIXIXIXIXIXD G R X.-.1.p.Z.C.{.|.OXOXOX8X8X8X8X8XOXOXOX{.~.C.Z.i.1.=.X.T P M m k i t 6 5 3 3 3 3 3 3 3 3 3 3 3 3 3 4 4 4 4 4 4 6 4 4 4 4 9 9 6 9 6 4 4 9 9 6 6 4 4 4 6 6 4 4 4 6 4 4 6 6 6 6 6 6 6 6 6 6 6 6 6 6 6 6 6 4 3 3 3 3 - - 3 3 3 3 6 6 6 t y y g x m H E Q @.;.9.0.h.k.F.F.}.}. X XBX+X+X+X+X X|.{.(./.!.!.s.d.y.r.e.,.$.$.#.#.#.#.#.#.#.#.#.:.:.,.<.<.e.t.i.i.p.p.k.k.k.k.k.k.j.j.j.j.j.j.j.j.q.q.w.w.6.6.&.@.Q Q E Y H F D z l k i y y t w 6 6 5 3 3 3 3 1 3 3 3 5 6 w u i g l n M F I ..O.1.1.g.f.k.D.].{.|. X XqXqX0X6X7X5X5X&X&X&X&X&X&X:X:X-X:X:X3X2X3X2X2X3X3X3X3X3X3X3X;X&X%X.X_.).^.W.B.a.y.<.:.O.T P F m l g i t 6 5 3 3 - - - - > > > > > > > > 3 3 3 4 4 4 4 4 4 4 6 3 3 3 3 3 3 3 3 3 3 3 3 3 3 3 1 3 3 3 3 3 5 5 6 6 6 6 6 6 w w w w t t t t t w w 6 5 5 5 5 5 5 5 5 w w w u u g g l m F P +.%.;.2.h.h.S.F.G.G.U.bXU.U.U.U.U.I.L.S.q.w.7._ ) ~ IXIXIXIXIXIXIXIXIXIXIXIXIXIXIXIXIXIXIXIXIXIXIXIXIXIXIXIXIX",
"IXIXIXIXIXIXIXIXIXIXIXIXIXIXIXIXIXIXIXIXIXIXIXIXIXIXIXIXIXIXIXIXIXIXIXIXIXIXIXIXIXIXIXIXIXIXIXIXIXIXIXIXIXIXIXIXIXIXIXIXIXIXIXIXIXIXIXIXIXD F T T =.3.i.Z.C.(.|.OXOXOX8X8X8X8X8X8XOXOX{.(.C.Z.i.<.:.O.T P F m l g u w 6 3 3 3 3 3 3 3 3 3 3 3 3 3 3 4 4 4 4 4 6 6 6 6 6 6 9 9 9 6 6 9 9 9 6 4 4 4 4 6 6 4 4 4 4 4 4 6 6 6 6 6 6 6 6 6 6 6 6 6 6 6 6 6 4 3 3 3 3 3 3 3 3 3 3 6 6 6 w t y g l m H Y Q @.;.9.0.h.k.F.F.}.}. X X+XBX+X+X+X X|.|.`.(.!.W.s.a.y.y.r.e.,.$.$.#.#.#.#.#.#.#.:.:.,.,.<.e.t.t.i.f.f.D.A.A.F.F.F.F.F.F.F.I.S.S.S.j.j.j.q.q.w.w.6.6.@.W Q E ! G D m l k i y y t w 6 6 3 3 3 1 1 1 1 3 3 5 w t u g h l m F L I ..#.1.g.p.f.D.].].|. X XvXqXqX0X0X6X6X5X5X&X&X&X:X:X:X:X:X:X3X3X3X2X2X3X3X3X3X3X3X3X3X4X&X%X.X_.).^.W.B.a.y.<.:.O.T P F m l g i t 6 5 3 3 - - - - > > > > > > > > 3 3 3 4 4 4 4 4 6 6 6 6 3 3 3 3 3 3 3 3 3 3 3 3 3 3 3 3 3 3 3 3 5 5 5 6 6 6 6 6 6 6 w w w w w w w 6 6 5 5 5 3 3 5 5 5 5 w w w u u g l n M L T +.-.2.0.h.A.F.F.G.U.bXbXbXbXU.U.U.I.S.N.q.w.7._ ) ~ IXIXIXIXIXIXIXIXIXIXIXIXIXIXIXIXIXIXIXIXIXIXIXIXIXIXIXIXIX",
"IXIXIXIXIXIXIXIXIXIXIXIXIXIXIXIXIXIXIXIXIXIXIXIXIXIXIXIXIXIXIXIXIXIXIXIXIXIXIXIXIXIXIXIXIXIXIXIXIXIXIXIXIXIXIXIXIXIXIXIXIXIXIXIXIXIXIXIXIXz D P T =.3.i.Z.C.~.{.OXOXOX8X8X8X8X8X8XOXOX|.(.C.C.i.t.>.O...I F m l g u w 6 5 3 3 3 3 3 3 3 3 3 3 3 3 3 4 4 4 4 4 4 6 6 6 6 6 9 9 9 6 6 9 9 9 9 4 4 4 4 6 6 4 4 4 6 4 6 6 6 6 6 6 6 6 6 6 6 6 6 6 6 6 6 6 4 3 3 3 3 3 3 3 3 3 3 6 6 6 w t u g l m H H E @.;.9.0.h.k.F.F.}.}. X X+XBX+X+X+X+X X|.|.`.Q.!.!.s.d.y.y.r.e.,.,.$.$.$.$.#.#.:.,.,.,.<.e.t.t.i.f.f.D.D.F.F.F.G.U.U.U.U.I.I.I.I.I.I.L.m.j.j.q.w.w.6.6.@.W Q E H F m z k g y y t 6 6 5 3 3 3 1 1 1 1 3 5 5 w u u g l m M L I ..O.:.1.g.f.C.].].].|. X XqXqX0X0X0XyX6X5X5X;X;X;X;X:X:X;X2X2X2X2X2X3X3X3X3X3X2X3X3X3X3X4X&X%X.X_.).^.W.B.a.y.e.:.O...P F m l g i t 6 5 3 3 - - - - > > > > > > > > 3 3 3 4 4 4 4 6 6 6 6 6 3 3 3 3 3 3 3 3 3 3 3 3 3 3 3 3 3 3 3 3 5 5 5 6 6 6 6 6 6 6 6 6 6 6 6 6 6 6 5 5 5 3 3 3 3 5 5 6 w w u u g h l m F P T +.1.2.l.h.S.F.G.U.bXbXbXbXbXU.U.U.I.S.N.q.w.7.) ^ ~ IXIXIXIXIXIXIXIXIXIXIXIXIXIXIXIXIXIXIXIXIXIXIXIXIXIXIXIXIX",
"IXIXIXIXIXIXIXIXIXIXIXIXIXIXIXIXIXIXIXIXIXIXIXIXIXIXIXIXIXIXIXIXIXIXIXIXIXIXIXIXIXIXIXIXIXIXIXIXIXIXIXIXIXIXIXIXIXIXIXIXIXIXIXIXIXIXIXIXIXz D P T =.3.u.V.C.(.(.OXOXOX8X8X8X8X8X8XOXOX|.{.~.C.u.t.<.=.X.T P F m l i t w 6 5 5 3 3 3 3 3 3 3 3 3 3 3 3 4 4 4 4 4 6 6 6 6 4 4 6 6 6 6 6 9 9 0 4 4 6 4 4 4 4 6 4 6 6 6 6 6 6 6 6 6 6 6 6 6 6 6 6 6 6 6 6 4 3 3 3 3 3 3 > 3 3 3 5 6 6 w t u g k m H H E @.;.9.0.h.h.A.G.}.}. X+XBXBXBX+X9X+X+XOX|.`./.Q.!.B.s.d.y.y.r.e.e.,.,.,.,.,.,.,.,.,.<.e.t.t.y.i.f.D.D.F.F.G.[.bXbXbXbXbXnXnXU.U.I.I.I.I.L.j.q.q.w.6.6.6.@.Q E ! G D z k g i y t 6 6 5 3 3 3 1 1 3 3 3 5 6 w u g l n m F P I ..#.1.g.p.f.C.].].{.|. X XqXqX0X0XuXyXyXtXtX5X;X;X;X;X3X2X2X2X2X2X2X3X3X3X3X3X3X3X3X3X3X4X&X%X.X_.).^.W.B.B.y.e.:.O...P F m l g i t 6 5 3 3 > - - - - > > > > > > > 3 3 3 4 4 4 6 6 6 5 6 3 3 3 3 3 3 3 3 3 3 3 3 3 3 3 3 3 3 3 3 5 5 5 6 6 6 6 6 6 6 6 6 6 6 6 6 6 6 6 5 5 3 3 3 1 3 5 5 w e e u f g l n M L T X.-.2.4.h.A.F.G.G.bXbXbXMXMXbXbXU.U.I.L.N.q.w.6.) ^ ~ IXIXIXIXIXIXIXIXIXIXIXIXIXIXIXIXIXIXIXIXIXIXIXIXIXIXIXIXIX",
"IXIXIXIXIXIXIXIXIXIXIXIXIXIXIXIXIXIXIXIXIXIXIXIXIXIXIXIXIXIXIXIXIXIXIXIXIXIXIXIXIXIXIXIXIXIXIXIXIXIXIXIXIXIXIXIXIXIXIXIXIXIXIXIXIXIXIXIXIXz D P T =.<.u.V.V.~.(.OXOXOX8X8XrXrX8X7X8XOXOX{.~.C.Z.i.<.:.O.T P F m l g u w 6 6 5 5 3 3 3 3 3 3 3 3 3 3 3 4 4 4 4 4 6 6 6 6 4 4 6 6 6 6 9 9 9 9 4 4 6 4 4 4 6 6 6 6 6 6 6 6 6 6 6 6 6 6 6 6 6 6 6 6 6 6 6 4 3 3 3 3 3 1 3 3 3 3 5 6 6 w y y g k z F U E @.;.;.9.h.h.A.F.}.}. X+XBXBXBX9X9X9X8XOX|.`.`.Q.Q.W.s.a.d.y.y.r.r.e.,.,.,.,.,.,.<.e.e.e.t.y.i.f.D.D.D.F.[.[.bXbXbXbXnXnXnXnXnXnXY.U.U.I.I.L.j.q.w.w.6.6.@.W Q Y G D z k g i y t 6 6 5 3 3 3 3 1 3 3 5 6 w u u g l m M L I ..O.:.e.g.f.C.~.].].|.|. XvX8X0X0XuXuXyXyXtXtXtX;X;X;X;X2X2X2X3X3X3XaX3X3X3X3XaXdX3X3X3X3X4X&X%X_._.).^.W.B.a.y.<.:.O...P F m l g i t 6 5 3 3 > - - - - > > > > > > > 3 3 3 4 4 4 6 6 6 5 6 5 5 3 3 3 3 3 3 3 3 3 3 3 3 3 3 3 3 5 5 5 6 6 6 6 6 6 6 6 6 6 6 6 6 6 6 6 5 5 5 3 3 3 1 1 5 5 5 w w u u g h l m F P ..O.1.2.p.h.A.F.G.bXbXbXMXMXMXnXbXU.U.I.L.q.q.w.6.) ^ ~ IXIXIXIXIXIXIXIXIXIXIXIXIXIXIXIXIXIXIXIXIXIXIXIXIXIXIXIXIX",
"IXIXIXIXIXIXIXIXIXIXIXIXIXIXIXIXIXIXIXIXIXIXIXIXIXIXIXIXIXIXIXIXIXIXIXIXIXIXIXIXIXIXIXIXIXIXIXIXIXIXIXIXIXIXIXIXIXIXIXIXIXIXIXIXIXIXIXIXIXz D P T =.<.t.V.V./.(.oXOXOX7X8XrXrXwX8X7XOXOX|.(.~.V.u.t.<.=.X.I L M l g i t w 6 6 5 5 5 3 3 3 3 3 3 3 3 3 3 4 4 4 6 4 4 4 6 4 4 4 6 9 9 9 9 9 9 6 6 6 6 4 4 4 4 6 6 6 6 4 6 6 6 6 6 6 6 6 6 6 6 6 6 6 6 6 3 3 3 3 3 3 > 3 3 3 3 5 6 6 w t u i k z D U R @.@.;.9.h.h.A.F.}.}. X+XBXBXAXAX9X9X8X8XOX|.`.'.Q.!.W.s.s.d.y.y.y.r.r.e.e.e.e.e.e.e.t.y.y.u.f.C.D.D.F.[.}.bXbXbXbXnXnXnXnXnXnXnXnXY.U.T.I.L.j.q.q.w.6.6.;.W Q ! G D z k g i y t w 6 5 5 3 3 3 3 3 5 5 w w u g l m M L I ..O.#.1.i.f.C.~.].].{.|.|.|.qX0X0XuXuXyXyXyXyXyXtXtX;X2X2X2XaX3XaXaXaXaXaXaXdXaXdXdX3X3X3X4X4X&X&X_._.).^.W.B.a.y.<.:.O...P F m l g i t 6 5 3 3 3 - - > - > > - > > > 3 3 3 3 3 3 4 6 6 6 5 6 5 5 5 5 5 5 5 5 5 5 5 5 5 5 5 5 5 5 6 6 6 6 6 6 6 6 6 6 6 6 6 6 6 6 6 5 5 5 5 3 3 3 1 1 1 5 5 w e e u g h l m M L I X.=.1.g.h.A.F.G.}.bXbXMXMXMXMXMXbXU.U.I.L.q.q.w.6.) ^ ~ IXIXIXIXIXIXIXIXIXIXIXIXIXIXIXIXIXIXIXIXIXIXIXIXIXIXIXIXIX",
"IXIXIXIXIXIXIXIXIXIXIXIXIXIXIXIXIXIXIXIXIXIXIXIXIXIXIXIXIXIXIXIXIXIXIXIXIXIXIXIXIXIXIXIXIXIXIXIXIXIXIXIXIXIXIXIXIXIXIXIXIXIXIXIXIXIXIXIXIXz D P T =.>.t.u.B./.(.`.OX7X7XwXwXrXrXwX7X7XOXOX(.~.C.d.t.<.:.O...P F m l g u t w 6 6 6 5 5 3 3 3 3 3 3 3 3 3 4 4 4 4 4 4 4 4 6 6 4 6 9 9 9 9 9 9 6 6 6 6 6 4 4 6 6 6 4 4 4 6 6 6 6 6 6 6 6 6 6 6 6 6 6 6 6 3 3 3 3 3 3 3 3 3 3 3 5 6 6 w t u i k z D G R +.@.;.9.l.h.A.F.[.}. X+X+XBXAXAXAX9XqXqX7XOX`.`.).Q.!.W.B.s.a.d.y.y.y.y.e.e.e.e.t.y.y.y.u.f.C.D.D.G.[.[.bXbXbXbXMXVXVXNXNXNXnXnXnXnXY.U.I.I.L.q.q.w.6.6.6.W Q E G D z l g y y t w 6 5 5 5 5 5 5 5 5 w w u g l n M L I ....O.,.g.p.f.C.~.].{.|.|.|.7X7X0XuXuXhXyXyXyXyXyXtXtX2X2XaXaXaXaXaXaXaXaXaXaXaXdXdXdXaX3X3X4X4X&X.X_._.^.^.W.B.a.y.<.:.O.T P F m l g i t 6 5 3 3 3 - - - - > > - > > > 3 3 3 3 3 3 3 5 6 5 5 6 6 5 5 5 5 5 5 5 5 5 5 6 6 6 6 6 6 6 6 6 w w w w w w w w w w 6 6 6 6 5 5 5 5 5 3 3 1 1 1 1 5 5 w w u f g l n M L I ..O.>.4.p.A.D.F.[.bXbXMXMXMXMXMXMXbXU.U.I.L.q.q.w.6.) ^ J IXIXIXIXIXIXIXIXIXIXIXIXIXIXIXIXIXIXIXIXIXIXIXIXIXIXIXIXIX",
"IXIXIXIXIXIXIXIXIXIXIXIXIXIXIXIXIXIXIXIXIXIXIXIXIXIXIXIXIXIXIXIXIXIXIXIXIXIXIXIXIXIXIXIXIXIXIXIXIXIXIXIXIXIXIXIXIXIXIXIXIXIXIXIXIXIXIXIXIXz D P T =.>.t.u.B.W./.`.OX7X7XwXwXwXhXwXwX7XOXOX|.(.C.V.u.t.<.=.X.T P F m k i u t w 6 6 6 6 5 3 3 3 3 3 3 3 3 3 3 4 4 4 4 4 6 6 6 6 6 6 9 9 9 9 9 4 4 4 4 6 6 6 6 6 6 4 4 4 6 6 6 6 6 6 6 6 6 6 6 6 6 6 6 6 6 3 3 3 3 3 3 3 3 3 3 6 6 6 w t u i k z D G U Q @.;.5.0.h.A.D.[.}. X+X+XBX9X9X9X9XeX0X8X7XOX`.`.).^.Q.!.W.B.s.a.a.d.y.y.y.y.y.y.y.u.a.d.Z.C.D.[.[.}.bXbXbXMXVXVXVXNXNXNXNXnXnXnXnXY.U.I.I.L.q.q.w.6.6.6.W Q ! G D z k g y y t 6 6 5 5 5 5 5 5 5 w w u f h n M L I ....O.1.g.g.f.C.~.{.{.|.|.|.7X7X6X0XuXhXyXpXsXsXsXaXaXaXaXaXaXaXaXdXdXdXdXdXaXaXdXdXdXdXaXiX4X4X4X&X.X_.).^.W.W.B.u.t.<.:...I P F m l g u t 6 5 3 3 - - - > > 3 > > > > > 3 3 3 3 3 3 4 6 6 6 6 6 6 6 6 5 5 6 6 6 6 6 w 6 w w w w w t t t t t t t t t t t w w w 6 6 5 5 5 5 5 3 3 1 1 1 1 5 5 5 e e u g h n M F P T O.:.<.i.f.D.D.[.}.bXMXMXVXVXMXMXMXMXbXU.I.S.q.q.w.' ) ^ J IXIXIXIXIXIXIXIXIXIXIXIXIXIXIXIXIXIXIXIXIXIXIXIXIXIXIXIXIX",
"IXIXIXIXIXIXIXIXIXIXIXIXIXIXIXIXIXIXIXIXIXIXIXIXIXIXIXIXIXIXIXIXIXIXIXIXIXIXIXIXIXIXIXIXIXIXIXIXIXIXIXIXIXIXIXIXIXIXIXIXIXIXIXIXIXIXIXIXIXz D P T O.>.t.u.B.W./.`.XX7X7XwXwXwXhXwXwX6X7XOXOX(.~.C.d.u.3.>.O...I F m l g u u t w 6 6 6 5 3 3 3 3 3 3 3 3 3 3 4 4 4 4 4 6 4 6 6 6 6 6 9 9 9 9 6 4 4 4 6 6 6 6 4 4 4 4 6 6 6 6 6 6 6 6 6 6 6 6 6 6 6 6 6 6 3 3 3 3 3 3 3 3 3 3 6 6 6 w t y i k l m F U R @.;.2.0.h.A.D.[.}. X+X+XBX9XAXAXeXrXrX0X6X7XXXXX_.).^.Q.W.W.B.B.s.a.a.a.a.a.a.a.a.a.V.C.C.D.].[.}.}.bXbXbXMXVXVXVXVXNXNXNXnXnXnXnXY.U.I.I.L.q.q.w.6.6.@.W E Y G D z k i u t w 6 6 5 5 5 5 5 5 w w u u g l m F P I ..#.1.1.i.f.C.~.{.|.|.|.|.7X7X6X6XyXyXsXsXsXsXsXaXaXaXaXaXaXaXaXdXdXdXdXdXdXdXdXaXdXdXdXiXiX4X4X4X&X.X_.).^.W.B.B.u.t.<.O...I L F m l g u t 6 5 3 3 1 - - > > 3 > > - > > 3 3 3 3 3 3 3 5 6 6 6 6 6 6 6 6 6 6 6 w w w w w t t t t y u u u u u i u u u u u t t w 6 6 5 5 5 5 3 3 3 1 1 1 1 5 5 w w u f h l m M L I ..=.<.i.p.Z.D.[.}.}.MXMXVXVXVXVXNXMXMXbXU.I.S.q.q.w.6.) ^ J IXIXIXIXIXIXIXIXIXIXIXIXIXIXIXIXIXIXIXIXIXIXIXIXIXIXIXIXIX",
"IXIXIXIXIXIXIXIXIXIXIXIXIXIXIXIXIXIXIXIXIXIXIXIXIXIXIXIXIXIXIXIXIXIXIXIXIXIXIXIXIXIXIXIXIXIXIXIXIXIXIXIXIXIXIXIXIXIXIXIXIXIXIXIXIXIXIXIXIXz D P T O.>.t.u.B.W.^._.XX7X7XwXwXwXpXpXwXwX7X7XOX|.(.C.V.u.t.<.:.X.T P F l k g u t w w 6 6 5 3 3 3 3 3 3 3 3 3 3 4 4 4 4 4 4 4 4 6 6 6 6 9 9 9 6 6 6 4 6 6 6 6 6 4 4 6 4 6 6 6 6 6 6 6 6 6 6 6 6 6 6 6 6 6 5 3 3 3 3 3 3 3 3 3 3 6 6 6 6 t y i k l m F P R @.;.2.4.h.A.D.[.}. X+X+XAXAXAXAXSXeXeXuX0X7X7XXXXX_.).).^.Q.!.W.W.B.B.B.B.B.B.B.B.V.C.C.].].{.}.}.}.bXbXMXMXVXVXVXVXNXNXnXnXnXnXY.U.I.I.L.j.q.w.w.6.6.W Q E ! D m l k i u t w 6 6 5 5 5 5 5 w w e u g h n M L I ..O.:.<.i.p.f.~.~.|.|.|.vX7X7X6X6X6XyXyXyXsXsXsXaXaXaXaXaXaXaXaXaXdXdXdXdXdXfXdXdXdXdXdXdXdXiXiX4X&X&X.X_.^.^.W.B.B.u.t.<.O...I L M m l g u t 6 5 3 3 1 - - - > 3 > 1 - - 3 3 3 3 3 3 3 3 3 5 5 5 5 5 6 6 6 6 6 w w w w t t u u u u i i i i i g g g g s s p p t t w 6 5 5 5 5 3 3 1 1 1 1 1 2 5 w e u g h n M L I ..O.>.<.i.Z.D.H.[.}.}.MXBXVXVXVXVXVXMXMXbXU.U.L.N.q.w.6.) ^ J IXIXIXIXIXIXIXIXIXIXIXIXIXIXIXIXIXIXIXIXIXIXIXIXIXIXIXIXIX",
"IXIXIXIXIXIXIXIXIXIXIXIXIXIXIXIXIXIXIXIXIXIXIXIXIXIXIXIXIXIXIXIXIXIXIXIXIXIXIXIXIXIXIXIXIXIXIXIXIXIXIXIXIXIXIXIXIXIXIXIXIXIXIXIXIXIXIXIXIXz D P T O.>.t.u.B.W.^._.XX&X7XwXwXpXpXhXhXwXwX7XOX|.(.~.C.d.t.<.>.O...P F m l g u u w w w 6 5 3 3 3 3 3 3 3 3 3 3 3 4 4 4 4 4 4 4 6 6 6 6 9 9 9 6 6 6 4 6 6 6 6 6 6 4 6 6 6 6 6 6 6 6 6 6 6 6 6 6 6 6 6 6 6 5 3 3 3 3 3 3 3 3 3 3 6 6 6 6 t y i k l m F P R @.;.2.4.h.A.D.[.}. X+X+XAXAXAXSXSXFXjXjXuXwX6X7X&XXX_._.).).^.Q.Q.!.!.W.W.B.B.B.V.~.~.].].{.[.}.}.mXbXbXMXMXVXVXVXVXNXnXnXnXnXY.U.I.I.L.S.q.q.w.6.6.@.Q E ! G D z k g i y t w 6 5 5 5 5 5 w e w u f h l M L I ..O.:.,.r.i.f.C.~.{.|.|.|.7X7X7X6X6XyXyXyXsXsXsXaXaXaXaX2X2X2X2X2XaXdXdXdXdXfXfXfXfXfXdXdXdXdXiXiXtX&XXX.X_.^.W.W.B.a.y.e.>.O...I L M n l g u w 6 5 3 3 1 1 1 1 3 3 3 - - - 3 3 3 3 3 3 3 3 3 3 5 5 5 5 5 6 6 6 w w w w u u u u i i g g g k k j x x x x x s s s p t t w 6 5 5 5 5 3 1 1 1 1 2 5 5 w e f h n m M L I ..O.<.t.i.C.H.].}. XBXBXBXVXVXVXVXVXVXMXnXU.U.L.S.q.w.6.) ^ J IXIXIXIXIXIXIXIXIXIXIXIXIXIXIXIXIXIXIXIXIXIXIXIXIXIXIXIXIX",
"IXIXIXIXIXIXIXIXIXIXIXIXIXIXIXIXIXIXIXIXIXIXIXIXIXIXIXIXIXIXIXIXIXIXIXIXIXIXIXIXIXIXIXIXIXIXIXIXIXIXIXIXIXIXIXIXIXIXIXIXIXIXIXIXIXIXIXIXIXz D P T O.>.t.u.B.W.^._.XX&X5XwXwXpXgXgXhXhXwX7XOXOX{.~.C.V.u.t.<.=.X.I L m l g g u t w w 6 5 3 3 3 3 > 3 3 3 3 3 3 3 4 4 4 4 4 6 6 6 4 6 6 9 6 6 6 6 6 6 6 6 6 6 6 6 6 6 6 6 6 6 6 6 6 6 6 6 6 6 6 6 6 6 6 5 3 3 3 3 3 3 3 3 3 5 6 6 6 6 t t i g l m F P R +.;.2.4.h.A.D.[.}. X+X+XAXAXSXSXFXFXkXkXjXhXwX6X7X&XXX.X_._._.).^.^.^.^.Q.W./.~.~.~.].{.{.}.}.}.}.mXbXbXMXMXMXVXVXnXnXnXnXbXY.U.I.I.L.S.j.q.w.6.6.@.Q Q E H D m z k i u t w w 6 5 5 5 5 w e w u f g h n M L | o.#.,.e.i.f.C.~.].|.|.|.7X6X6X6X6X6XyXyXyXyXaXaXaXaX2X2X2X2X2X2X2X2XdXdXdXdXfXfXfXfXfXfXfXdXiXiXiX4X&X&XXX_.^.W.B.B.a.y.<.:.O.T P F m n l g u w 6 5 3 3 1 1 - 1 3 3 3 1 3 3 > > > 3 3 3 3 3 3 3 5 5 5 5 5 5 6 6 w w t u u u i g g g g k x x x x x x x x x x x v p p t w w 6 5 5 5 3 1 1 1 2 2 5 w e u f h n M L I ..O.:.<.y.Z.C.].}. X@XBXBXBXCXVXVXVXVXVXMXnXU.U.S.S.q.7.6.) ^ J IXIXIXIXIXIXIXIXIXIXIXIXIXIXIXIXIXIXIXIXIXIXIXIXIXIXIXIXIX",
"IXIXIXIXIXIXIXIXIXIXIXIXIXIXIXIXIXIXIXIXIXIXIXIXIXIXIXIXIXIXIXIXIXIXIXIXIXIXIXIXIXIXIXIXIXIXIXIXIXIXIXIXIXIXIXIXIXIXIXIXIXIXIXIXIXIXIXIXIXz D P T O.>.t.u.B.W.^.)..X&X&XwXwXpXpXhXgXhXwX7X7XOX|.(.~.C.u.t.<.:.O.T P F m l g u u t w 6 6 3 3 3 3 > > 3 3 3 3 3 3 4 4 4 4 4 6 4 6 4 6 6 6 6 6 6 6 6 6 6 6 6 6 6 6 6 6 6 6 6 6 6 6 6 6 6 6 6 6 6 6 6 6 5 5 3 3 3 3 3 3 3 3 3 5 5 6 6 6 w t y g l m F P R +.;.2.2.p.A.D.[.}. X+X+X9XAXAXSXFXFXFXkXcXcXhXwX5X5X&X&XXX.X_._._._._.'./.(.(.(.].{.{.{.{.}. X}.}.mXbXbXbXbXbXbXnXbXbXbXU.U.I.I.L.L.S.j.q.0.6.6.&.Q Q E ! H D z k g i y t w 6 5 5 5 5 w e w e u f h n M L I ..#.:.e.i.p.f.~.].{.|.|.7X6X6X6X6X6XyXyXyXyXyXyXaXaX;X:X2X:X3X2X2X2X2XaXdXdXdXfXfXfXfXfXfXfXdXiXiXiXtX&XXX`._.^.W.B.B.u.t.<.:.X.T P F m l h g u w 6 5 3 3 1 1 1 1 3 1 3 1 3 3 > - 3 3 3 3 3 3 3 3 5 5 5 5 5 5 6 w w t u u u i g g k l x l x N N N N N N N c x c v v p p t w 6 5 5 5 5 5 1 2 2 5 5 w e f g l n M L I ..O.,.t.u.C.C.].{. X@XBXBXBXCXVXVXVXVXVXMXMXU.U.L.S.q.w.6.) ^ J IXIXIXIXIXIXIXIXIXIXIXIXIXIXIXIXIXIXIXIXIXIXIXIXIXIXIXIXIX",
"IXIXIXIXIXIXIXIXIXIXIXIXIXIXIXIXIXIXIXIXIXIXIXIXIXIXIXIXIXIXIXIXIXIXIXIXIXIXIXIXIXIXIXIXIXIXIXIXIXIXIXIXIXIXIXIXIXIXIXIXIXIXIXIXIXIXIXIXIXz D P T O.<.t.a.B.W.^.)..X&X&X5XtXpXgXgXgXhXhX6X7XOX|.{.~.C.Z.i.<.>.O...I F m l g g u t w w 6 5 3 1 1 - - 3 3 3 3 3 3 3 4 4 4 4 4 4 6 4 6 6 6 6 6 4 6 6 6 6 6 4 4 6 6 4 6 4 6 6 6 6 6 6 6 6 6 6 6 6 6 6 6 5 5 3 3 3 3 3 3 3 3 3 3 5 6 6 6 w t y g l m F P R +.+.1.2.p.h.D.[.}. X+X+X9XAXSXSXFXFXFXxXxXcXcXhXwXwX5X&X&X&X&XXXXX`.`.`.`.`.`.|.{.{.{.{.}. X}. X}.mXmXbXbXbXbXbXbXbXbXU.I.I.I.S.S.j.j.q.0.6.6.@.Q Q E ! H D z z k i u t w w 6 5 5 5 w w e e u f h l n M L | o.#.,.e.i.f.C.~.].{.|.7X7X6X6X6X6XyXyXtXyXyXaXaX;X;X:X:X:X:X1X3X3X2X2X2XdXdXdXdXfXfXfXfXfXfXgXgXiXtX5X&XXX`./.W.W.B.B.u.t.<.=...I L F m l g g u w 6 5 3 1 1 1 1 1 3 3 3 > 3 > - - 1 1 1 1 3 3 3 3 3 5 5 5 5 6 6 w w t u i g g k l x z x N N H H J J J J J N c c c v v p p t w 6 5 5 5 5 5 5 5 5 w e e f h n M L I ..O.:.<.t.a.C.~.{.{.@X+XBXBXCXCXCXCXVXVXVXMXMXbXU.L.S.q.w.6.) ^ ~ IXIXIXIXIXIXIXIXIXIXIXIXIXIXIXIXIXIXIXIXIXIXIXIXIXIXIXIXIX",
"IXIXIXIXIXIXIXIXIXIXIXIXIXIXIXIXIXIXIXIXIXIXIXIXIXIXIXIXIXIXIXIXIXIXIXIXIXIXIXIXIXIXIXIXIXIXIXIXIXIXIXIXIXIXIXIXIXIXIXIXIXIXIXIXIXIXIXIXIXz D P T O.<.t.a.B.W.^.)..X&X&X5XtXpXgXgXhXgXhXwX7XOX|.{.].C.Z.i.i.<.:.X.T L m l l g u u t w 6 5 3 1 1 - - 3 3 3 3 3 3 3 4 4 4 4 4 4 6 4 4 6 6 6 6 4 4 6 6 4 4 4 4 4 4 4 4 4 6 6 6 6 6 6 6 6 6 6 6 6 6 6 6 5 5 5 3 3 3 3 3 3 3 3 3 5 6 6 6 w t u g l m F P T T +.;.2.p.h.D.H.}. X+X+X9XAXSXSXFXFXFXJXxXxXcXgXpXwXtXwX5X7X&X&X&XXXXXXX|.|.|.|.|.|.|. X X X X X}.}.bXbXbXbXbXbXbXU.I.I.F.S.S.j.j.q.q.0.6.6.W Q Q Y H D D z z k g i y t w 6 5 5 5 5 w e e u f g h n M L I ..#.,.e.y.d.C.~.~.{.|.|.7X6X6X6X6XyXyXtXtXyXtXaX;X:X:X:X:X:X:X:X1X3X3X2X2XaXdXdXdXfXfXfXfXfXgXgXgXiXtX5X&XXX`./.W.B.B.a.y.e.>.O...I L M m l g g u w 6 5 3 3 1 1 1 3 3 3 3 3 3 3 - - 1 1 1 1 3 3 3 3 3 5 5 5 5 6 w w t u i g g k l z m N H H H H J J J J J J J J c c c v v p t e w 5 5 5 5 5 5 5 5 w e u g h n M L I ..#.,.e.u.V.C.(.{.{.+X+XBXBXCXCXCXCXVXVXVXMXMXbXU.L.S.q.w.7._ ^ ~ IXIXIXIXIXIXIXIXIXIXIXIXIXIXIXIXIXIXIXIXIXIXIXIXIXIXIXIXIX",
"IXIXIXIXIXIXIXIXIXIXIXIXIXIXIXIXIXIXIXIXIXIXIXIXIXIXIXIXIXIXIXIXIXIXIXIXIXIXIXIXIXIXIXIXIXIXIXIXIXIXIXIXIXIXIXIXIXIXIXIXIXIXIXIXIXIXIXIXIXz F P T O.<.t.a.B.W.^._..X&X&X5XwXpXgXgXhXhXhXhX7XOXOX|.{.].C.f.i.3.>.O.T P F m l g g u u w 6 5 3 3 3 - - 3 3 3 3 3 3 3 3 4 4 4 4 4 4 6 6 6 6 6 6 6 4 6 4 4 4 6 6 6 6 6 4 4 6 6 6 6 6 6 6 6 6 6 6 6 6 6 6 6 5 3 3 3 3 3 3 3 3 3 5 5 5 6 6 w t u g l m F G P T +.-.2.4.p.D.H.}.}.@X+X9X9XAXSXFXFXFXLXJXxXkXzXgXpXwXtXwX5X7X5X7X7X7XOXOXOX|.|.|. X X X X X}.}.}.}.}.}.bXbXbXG.G.F.F.S.S.j.j.q.0.0.9.6.6.W Q E Y H D D z z k k i u t w w 6 5 5 5 w e e u f g h n M L L ..O.:.e.y.d.f.C.~.{.|.|.7X6X6X6XyXyXyXtXtXtXtX;X;X:X:X:X:X:X-X-X-X-X:X3X2X3XaXdXdXfXfXfXfXfXgXgXpXiXtX5X&XXXXX/./.W.B.B.u.t.<.>.O.T P F m n l g u u w 6 5 3 3 1 1 1 3 3 3 3 3 1 1 1 1 1 1 1 3 3 3 3 3 5 5 5 5 6 w w t u i g g l l m N H H H Y Y Y Y Y Y Y Y J J J J c c x v p p e w w 6 5 5 5 5 w e e e f h n M L I ..O.:.<.t.a.V.~.(.|.OX+X+XBXBXCXCXCXCXVXVXVXVXMXbXU.I.S.q.w.7.) ^ ~ IXIXIXIXIXIXIXIXIXIXIXIXIXIXIXIXIXIXIXIXIXIXIXIXIXIXIXIXIX",
"IXIXIXIXIXIXIXIXIXIXIXIXIXIXIXIXIXIXIXIXIXIXIXIXIXIXIXIXIXIXIXIXIXIXIXIXIXIXIXIXIXIXIXIXIXIXIXIXIXIXIXIXIXIXIXIXIXIXIXIXIXIXIXIXIXIXIXIXk m F P ..=.<.t.a.B.W.^._..X&X&X5XiXgXgXhXhXhXhXhXrX8XOX|.{.{.D.C.f.g.1.:.X.I L M m l g g u t w 5 5 3 3 1 - 3 3 3 3 3 3 3 3 3 4 4 4 4 4 6 4 4 6 6 6 6 4 6 4 4 4 6 6 6 6 6 4 6 6 6 6 6 6 6 6 6 6 6 6 6 6 6 6 6 5 3 3 3 3 3 3 3 3 3 5 5 5 6 6 w t u i k z D F P T X.-.2.4.p.D.D.{.{. X+X+X9XeXSXFXFXLXJXJXxXkXzXhXgXpXwXwXwXwX7X7X7X7X7XOXOXOX|. X X X X X X}.}.}.}.[.G.G.F.F.F.F.S.j.j.j.0.0.9.9.6.6.;.W Q E ! H D z z k k g i y u t w w 6 6 5 w e w u f g h n M B L | o.#.,.y.d.s.C.~.(.|.|.vX6X6X6XyXyXyXyXyXtXtX;X;X:X:X:X:X:X-X-X-X-X-X:X:X2X3XaXaXdXfXfXfXsXgXgXpXpXtXtX5X&XXX`./.W.B.B.a.u.t.<.=...I L F m l h g u u w 5 5 3 3 1 1 1 3 3 3 3 3 1 1 1 1 1 1 1 3 3 3 3 5 5 5 6 6 w w t u i g l l m m H H H Y Y Y E Q Q ( ) Q ) Y Y J J c c c v v p p w w w w w w w e e e f h l n B L | o.#.,.e.u.B.V.(.{.OX+X+X+XAXAXAXAXCXCXCXVXVXVXMXbXU.I.S.q.w.7._ ^ ~ IXIXIXIXIXIXIXIXIXIXIXIXIXIXIXIXIXIXIXIXIXIXIXIXIXIXIXIXIX",
"IXIXIXIXIXIXIXIXIXIXIXIXIXIXIXIXIXIXIXIXIXIXIXIXIXIXIXIXIXIXIXIXIXIXIXIXIXIXIXIXIXIXIXIXIXIXIXIXIXIXIXIXIXIXIXIXIXIXIXIXIXIXIXIXIXIXIXIXl m F P X.:.<.u.B.B.Q.^._..X&X&XtXiXgXgXzXzXhXhXhXrX8XOXOX|.{.].D.f.p.g.1.+.T P F m l l g i u w 6 5 3 3 3 3 3 3 3 3 3 3 3 3 3 4 4 4 4 4 4 4 6 6 6 6 4 4 6 6 6 6 6 6 4 4 6 6 6 6 6 6 6 6 6 6 6 6 6 6 6 6 6 6 5 5 3 3 3 3 3 3 3 3 3 5 5 5 6 6 w w u i k l m F P T ..+.1.2.p.A.D.].{.{.+X+X9X9XeXkXFXFXJXJXxXkXzXcXgXgXwXwXwXwXwX7X7X7X7XOXOXOX|. X X X X X}.}.}.[.F.F.F.F.F.S.F.j.j.h.0.0.9.9.6.6.;.W Q Q E H H D z z k k i i y u t w w w w w w e w u f h h n M B L | o.#.,.e.d.s.V.~.(.(.|.|.7X6XyXyXyXyXyXyXyXtX;X;X;X:X:X:X:X-X-X-X-X-X-X:X:X2X3XaXaXaXfXfXsXpXpXpXpXwXwX7X7XXXXX(./.B.B.V.u.t.<.:.O...P F m n l g g u e w 6 5 3 3 1 1 3 3 3 3 3 3 3 1 1 1 1 1 1 3 3 3 5 5 5 6 w w w u u g g l l m N H Y Y Y Q Q Q W @.( ( ( ( ) ) ) Y J J c c v v p u w w w e e e e e e f g h n M L I o.O.,.e.y.a.B.~.(.|.OX+X+X9XAXAXAXAXDXCXCXVXVXVXMXbXU.I.S.q.w.7._ ) ~ IXIXIXIXIXIXIXIXIXIXIXIXIXIXIXIXIXIXIXIXIXIXIXIXIXIXIXIXIX",
"IXIXIXIXIXIXIXIXIXIXIXIXIXIXIXIXIXIXIXIXIXIXIXIXIXIXIXIXIXIXIXIXIXIXIXIXIXIXIXIXIXIXIXIXIXIXIXIXIXIXIXIXIXIXIXIXIXIXIXIXIXIXIXIXIXIXIXIXz D G T X.>.t.u.B.W.^.)._.XX&X&XtXpXgXhXzXcXcXcXhXrX0X8XOX|.{.{.D.D.f.p.4.-.X.T P F m l l g u t w 5 3 3 3 3 3 3 3 3 3 3 3 3 3 3 4 4 4 4 4 6 6 6 6 6 4 4 6 6 6 6 6 6 6 4 6 6 6 6 6 6 6 6 6 6 6 6 6 6 6 6 6 6 5 5 3 3 3 3 3 3 3 3 3 5 5 5 6 6 w w u i g l m F P P T X.-.1.p.p.C.H.{.{.OX+X+X9XrXkXkXxXJXJXJXzXzXcXgXgXwXwXwXwXwX7X7X7X7XOXOXOX|.|.}.}.}.}.}.}.[.F.F.F.F.F.j.j.h.h.l.0.9.9.6.;.@.@.W Q E Y H D z z k k s i y y y t t w w w w w e w u f h h n M L L | o.#.,.e.y.s.!.!.(.(.|.|.7X6X6XyXyXyXyXyXyXtXtX;X;X:X:X:X:X:X-X-X-X-X-X:X:X3X2XaXaXaXsXsXsXpXpXpXwXwX6X7X7XOXXX`././.B.V.u.t.<.>.O.X.I L F m l h g u u w w 5 5 3 3 1 1 1 3 3 3 3 3 3 1 3 1 1 1 3 3 3 3 5 6 6 w w t u u g g x N N H Y Y Y Q W @.&.&.&.&.6.6.&.&.( ) ) ) Y J c c x j v u u w w w e w e e f f h n M L I ..O.:.e.y.a.B./.(.`.OXOX8XrX9XAXSXSXDXAXCXCXCXVXVXMXbXU.I.L.q.w.7._ ) ~ IXIXIXIXIXIXIXIXIXIXIXIXIXIXIXIXIXIXIXIXIXIXIXIXIXIXIXIXIX",
"IXIXIXIXIXIXIXIXIXIXIXIXIXIXIXIXIXIXIXIXIXIXIXIXIXIXIXIXIXIXIXIXIXIXIXIXIXIXIXIXIXIXIXIXIXIXIXIXIXIXIXIXIXIXIXIXIXIXIXIXIXIXIXIXIXIXIXIXz D P T O.>.t.a.B.W.^._..XXX&X5XtXpXgXzXzXcXcXcXkXrXrXqX+X+X|.{.].D.A.p.g.2.+...I L M m l g g u w 6 5 3 3 3 3 3 3 3 3 3 3 3 3 3 4 4 4 4 4 6 6 6 6 6 6 4 6 6 4 6 6 6 6 4 6 6 6 6 6 6 6 6 6 6 6 6 6 6 6 6 6 6 6 5 5 5 3 3 3 3 3 3 3 5 5 6 6 6 6 w t u g l m D F P T X.-.1.4.p.Z.C.].{. X+X+X8XrXeXkXkXkXkXzXzXcXgXgXgXwXwXwXwXwX7X7X7XOXOXOX|.|.{.{.{.{.[.[.[.F.D.A.k.h.h.h.h.l.0.9.9.;.;.@.@.Q Q E E H H D z z k k i i y y y t t w w w w w w e u f g h n M L L | ..O.,.e.y.a.B.!.(.`.`.|.7X7X6XyXyXsXsXsXsXyXtX;X;X:X:X:X:X:X-X-X-X-X-X:X:X:X3X2XaXaXaXsXfXgXpXpXwXwX6X7X7XOXXX`.(./.B.V.u.t.3.<.:.O...P F m n l g g u u w w 5 5 3 3 1 1 3 3 3 3 3 3 3 3 1 1 1 1 3 3 3 5 6 w w t u u u g k l N H H Y Y Q W &.&.6.6.6.6.6.6.6.6.6.&.&.( ) Y J J c c x j u u u e e e e u f f h n M L I ..O.:.<.t.u.B.W./.`.OXOX8X8XrXeXSXSXSXSXAXAXCXCXCXVXMXbXU.I.L.q.w.7._ ) ~ IXIXIXIXIXIXIXIXIXIXIXIXIXIXIXIXIXIXIXIXIXIXIXIXIXIXIXIXIX",
"IXIXIXIXIXIXIXIXIXIXIXIXIXIXIXIXIXIXIXIXIXIXIXIXIXIXIXIXIXIXIXIXIXIXIXIXIXIXIXIXIXIXIXIXIXIXIXIXIXIXIXIXIXIXIXIXIXIXIXIXIXIXIXIXIXIXIXIXD F T X.=.<.u.B.B.W./._.XX&X&X5XwXpXgXzXcXcXxXxXcXjXeX8X8XOX X{.{.D.D.k.p.2.-.+.T P F m l l g u w 6 5 5 3 3 3 3 3 3 3 3 3 3 3 3 3 4 4 4 4 6 6 6 6 6 4 4 6 6 4 4 6 6 6 6 6 6 6 6 6 6 6 6 6 6 6 6 6 6 6 6 6 6 6 5 5 5 3 3 3 3 3 3 5 5 5 6 6 6 6 w t u g l z m F P T ..O.:.1.i.Z.C.H.{.{.OXOX+X8XrXkXkXkXkXkXgXgXgXgXwXwXwXwXwX7X7X7XOXOXOX|.|.{.{.{.].].D.D.D.D.k.h.h.l.l.0.9.9.9.;.;.@.@.Q E E Y H H H D z l k s i y y y t t w w w w w w w w u u g h n M B L I o.o.#.,.y.a.s.!.'.'.`.`.vX7X7X6XyXpXsXsXsXaXaX;X;X;X:X:X:X:X:X-X-X:X:X:X:X:X3X;XaXaXsXsXsXfXpXpXpXwX6X7X7X7XOXoX`.~.V.B.u.t.3.<.:.O...I L M m l g g u u u w w 5 5 3 3 1 1 1 3 3 3 3 3 3 3 1 1 1 3 3 3 5 6 w w t u u g g x x N H Y Y Q ( &.&.6.6.9.w.w.w.w.w.w.6.6.6.&.( Q Y J J N x j g u u u u u u u f f h h n M L | o.#.,.e.y.a.B./.(.oXOX7X8XrXeXeXeXSXSXSXSXAXAXCXCXVXMXbXU.I.L.q.w.7._ ) ~ IXIXIXIXIXIXIXIXIXIXIXIXIXIXIXIXIXIXIXIXIXIXIXIXIXIXIXIXIX",
"IXIXIXIXIXIXIXIXIXIXIXIXIXIXIXIXIXIXIXIXIXIXIXIXIXIXIXIXIXIXIXIXIXIXIXIXIXIXIXIXIXIXIXIXIXIXIXIXIXIXIXIXIXIXIXIXIXIXIXIXIXIXIXIXIXIXIXIXD G T X.:.3.u.B.!./.`.`.XX&X5XtXwXpXhXcXcXxXxXxXcXjXeX9X8X+X X X{.].D.A.p.g.1.+...I L M m l g u t w 5 5 3 3 3 3 3 3 3 3 3 3 3 3 3 4 4 4 4 6 6 6 6 6 6 6 6 4 4 4 6 6 6 6 6 6 6 6 6 6 6 6 6 6 6 6 6 6 6 6 6 6 6 5 5 5 3 3 3 3 3 3 5 5 5 6 6 6 6 w t u g k l m F P P T X.=.<.i.p.Z.C.{.{.OXOXOX8X8XrXkXcXgXgXgXgXgXwXwXwX4X&X&X&X&XXXOXOX|.|.{.].].].D.D.D.D.k.k.h.l.l.0.9.9.2.2.%.@.@.Q E E H H H H D m z k k i y y y t t 6 6 6 6 6 w w w w u u f h l M B L I ..o.#.,.e.y.s.W.!.'.`.`.$X7X7X6XyXyXpXsXsXsXaXaX;X;X:X:X:X:X:X-X:X:X:X:X:X:X3X;XiXaXaXsXsXfXfXpXpXwXwX6X7X7XOXXX`.(./.V.V.u.t.<.>.=.X.T P F m l l g g u u u w w 5 5 3 3 3 1 1 3 3 3 3 3 3 3 3 3 3 3 3 5 5 6 w t u u g j x x N H Y Y ( &.&.6.6.w.w.w.q.q.q.q.w.w.w.6.6.&.( Q Y J J N x k g i u u u u u f f h h n M L I ..O.,.e.y.a.B.!./.`.OXOX7X8XrXeXeXeXSXSXSXAXAXCXCXCXVXMXbXU.I.L.q.q.w.' ) ~ IXIXIXIXIXIXIXIXIXIXIXIXIXIXIXIXIXIXIXIXIXIXIXIXIXIXIXIXIX",
"IXIXIXIXIXIXIXIXIXIXIXIXIXIXIXIXIXIXIXIXIXIXIXIXIXIXIXIXIXIXIXIXIXIXIXIXIXIXIXIXIXIXIXIXIXIXIXIXIXIXIXIXIXIXIXIXIXIXIXIXIXIXIXIXIXIXIXIXD G T O.>.t.u.V.~.(.`.XXOX7X5XwXpXhXhXcXcXxXxXxXcXjXeXeX9X+X+X X{.{.D.D.h.g.2.-.+.I P F m l g g u w 6 5 3 3 3 3 3 3 3 3 3 3 3 3 3 4 4 4 4 4 6 6 6 6 6 6 6 6 6 6 6 6 6 6 6 6 6 6 6 6 6 6 6 6 6 6 6 6 6 6 6 6 6 5 5 5 5 3 3 3 3 3 5 5 5 6 6 6 6 w t u i k l m F F P T X.=.>.t.i.Z.C.~.{.|.OXOXOX8XrXrXgXgXgXgXwXwX4X4X4X&X&X&XXXXXXX`.`.(.(.(.~.C.C.C.C.f.k.h.h.l.9.2.2.2.2.%.%.@.+.Q Y H U H H D m z z k k i y y t t 6 6 6 6 6 6 6 w w w w u u g h n M L I | o.#.,.e.y.a.B.!.'.`.`.`.vX7X5X6XyXyXsXsXsXaXaX;X;X;X:X:X:X:X:X:X:X:X:X:X;X3X;XiXiXaXsXsXfXfXsXpXpXwX6X7X7XOXOX`.(.(.V.B.u.t.<.>.:.O...I P F m l g g u u u w w w 5 5 5 3 3 1 1 3 3 3 3 3 3 3 3 3 3 3 3 5 6 w t u i g j x x N H Y Q ( &.6.6.w.w.q.q.q.j.j.q.q.q.q.w.w.6.&.&.Q Y Y H N x k g g u u u u f f g h n n M L | o.#.<.t.a.a.B./.(.`.OX7X8XrXrXeXkXSXSXSXSXAXAXCXCXCXVXMXbXU.I.L.q.8.w.' ) ~ IXIXIXIXIXIXIXIXIXIXIXIXIXIXIXIXIXIXIXIXIXIXIXIXIXIXIXIXIX",
"IXIXIXIXIXIXIXIXIXIXIXIXIXIXIXIXIXIXIXIXIXIXIXIXIXIXIXIXIXIXIXIXIXIXIXIXIXIXIXIXIXIXIXIXIXIXIXIXIXIXIXIXIXIXIXIXIXIXIXIXIXIXIXIXIXIXIXIXD ! R -.1.p.Z.C.(.`.OXOX7X7X6XwXpXhXcXcXxXxXxXxXkXjXeXeX9X+X+X X}.{.].D.k.p.2.1.+.T P F M m l g u w 6 6 5 3 3 3 3 3 3 3 3 3 3 3 3 3 4 4 4 4 6 6 6 4 4 6 6 6 6 6 6 6 6 6 6 6 6 6 6 6 6 6 6 6 6 6 6 6 6 6 6 6 5 5 5 5 3 3 3 3 3 5 5 5 5 6 6 6 6 6 w u i g l m m F P T ..O.:.3.i.Z.C.C.(.{.OXOXOX7XwXwXwXwXwXwX4X4X4X&X&X.X.X.X.X.X_._./.(.~.C.C.C.Z.f.f.p.p.g.g.2.2.2.%.%.@.@.+.Q R Y U H F N m z x l k k i y y t t 6 6 6 6 6 6 6 6 w w w u u g h n M L L | o.#.,.e.e.d.s.W.Q.'.`.`.$X7X7X5X6XyXyXsXsXaXaXaX;X;X:X:X:X:X:X:X:X:X:X:X:X;X2XiXaXaXsXsXsXfXfXgXpXpXwX7X7XOXOXoX`.(.~.V.V.u.t.<.:.O.X.T P F m l l g g u u t w w w 5 5 5 3 3 1 1 1 3 3 3 3 3 3 3 3 3 3 5 5 6 w u u g x l N N J Y Q ( &.6.w.w.q.q.j.j.j.j.j.j.j.q.q.w.w.6.6.@.Q Y H H N l k g g u u u f f g h h n M L I ..O.,.e.y.a.B.!.(.`.OX7X7XrXrXrXeXkXeXSXSXSXAXAXCXBXBXBXMXbXU.I.L.q.q.w.' ) ^ IXIXIXIXIXIXIXIXIXIXIXIXIXIXIXIXIXIXIXIXIXIXIXIXIXIXIXIXIX",
"IXIXIXIXIXIXIXIXIXIXIXIXIXIXIXIXIXIXIXIXIXIXIXIXIXIXIXIXIXIXIXIXIXIXIXIXIXIXIXIXIXIXIXIXIXIXIXIXIXIXIXIXIXIXIXIXIXIXIXIXIXIXIXIXIXIXIXIXG R +.-.4.p.C.~.{.|.OXOX7X7X6XwXhXcXcXxXxXxXxXxXkXjXeXeXqX+X+X X}.[.[.D.D.h.4.2.+...I P F m l g u t w 6 6 5 5 5 5 3 3 3 3 3 3 3 3 3 4 4 4 4 6 6 6 6 4 6 6 6 6 6 6 6 6 6 6 6 6 6 6 6 6 6 6 6 6 6 6 6 6 6 6 6 5 5 5 5 3 3 3 3 3 5 5 5 5 6 6 6 6 6 w t u g l l m F L P T X.=.<.t.u.Z.C.~.(.{.OXOXOX7X7XwX5X4X4X4X&X.X.X.X.X.X.X_.^.^.^.W.W.V.V.d.d.i.i.p.p.g.2.1.-.%.+.@.@.+.R R U U U F N m z l l k k g i y y t w 6 6 6 3 3 5 5 6 6 w w u u f g l n M L | o.#.,.,.e.y.a.B.Q.'.`.`.`.&X7X5X5X5XtXyXpXsXaXaXaX;X;X:X:X:X:X:X:X:X:X:X:X;X2XaXaXaXsXsXsXsXsXsXhXhXwX6X7X7XOXOX`.(.~.V.V.u.t.<.:.=.X.T I L F m l g g u u u t w w w 5 5 5 3 3 3 1 1 3 3 3 3 3 3 3 3 3 5 5 6 w t u g g x N N J Y Y ( &.6.w.w.q.j.j.j.L.L.L.L.j.j.j.q.q.w.6.6.@.Q E H H m l k g g f f f f g h l n M B L | o.:.<.y.a.B.!.(.(.`.OX7XwXrXrXhXkXkXeXSXSXSXAXAXCXBXBXBXMXbXU.I.L.q.q.w.' ) ^ IXIXIXIXIXIXIXIXIXIXIXIXIXIXIXIXIXIXIXIXIXIXIXIXIXIXIXIXIX",
"IXIXIXIXIXIXIXIXIXIXIXIXIXIXIXIXIXIXIXIXIXIXIXIXIXIXIXIXIXIXIXIXIXIXIXIXIXIXIXIXIXIXIXIXIXIXIXIXIXIXIXIXIXIXIXIXIXIXIXIXIXIXIXIXIXIXIXIXG R +.-.4.p.D.].{.|.OXOX8X7XrXhXhXcXxXxXxXxXxXxXkXjXeXeX9X9X+X+X X}.[.H.D.k.g.2.-.X.T P L M m l g u w w 6 6 5 5 5 3 3 3 3 3 3 3 3 3 4 4 4 4 4 6 6 6 6 6 6 6 6 6 6 6 6 6 6 6 6 6 6 6 6 6 6 6 6 6 6 6 6 6 6 6 5 5 5 5 5 3 3 3 5 5 5 5 6 6 5 6 6 6 w t u g k l m m F P T X.=.>.3.u.V.V.C.~.(.`.oXOXOXOX&X&X&X&X.X.X.X.X.X_._.^.^.^.W.W.B.B.B.a.u.y.t.e.<.1.1.1.%.+.+.+.R R U U U L F M N n l l k g g i y u y t 6 6 6 5 3 3 3 3 5 6 w w t u f g h n M L I ..O.#.,.e.y.d.s.W.'.'.`.`.&X7X5X5X5XtXtXyXyXaXaXaX;X:X;X:X:X:X:X:X:X:X:X:X;XaXaXaXaXsXsXsXpXpXhXhXhXhX6X7X7XOXOX|.(.(.~.V.V.u.3.>.=.X...I P F m l k g u u u t w w w 6 5 5 5 5 3 3 1 1 1 3 3 3 3 3 3 3 5 5 5 w w u i g x x N J Y Y ( &.6.w.w.q.j.j.m.L.I.I.I.L.L.j.j.q.q.w.6.6.@.Q Y H N m l k g g g g g g h l n m M L I o.#.,.e.y.a.V.~.(.`.OX7X7XhXhXcXkXkXkXkXeXSXAXAXAXCXBXBXBXMXbXbXU.L.j.q.7.' ) ^ IXIXIXIXIXIXIXIXIXIXIXIXIXIXIXIXIXIXIXIXIXIXIXIXIXIXIXIXIX",
"IXIXIXIXIXIXIXIXIXIXIXIXIXIXIXIXIXIXIXIXIXIXIXIXIXIXIXIXIXIXIXIXIXIXIXIXIXIXIXIXIXIXIXIXIXIXIXIXIXIXIXIXIXIXIXIXIXIXIXIXIXIXIXIXIXIXIXIX! R -.2.4.A.D.{.{.OX+X+X8X8XrXuXhXcXcXxXxXxXxXFXFXFXeXeX9X9X+X+X X X}.[.D.D.p.4.1.%...T P F m l g u u w w 6 6 6 6 6 3 3 3 3 3 3 3 3 3 4 4 4 4 4 4 6 6 6 6 6 6 6 6 6 6 6 6 6 6 6 6 6 6 6 6 6 6 6 6 6 6 6 6 6 5 5 6 5 5 5 5 5 5 5 5 6 6 6 5 5 6 6 w w u i g l l m F L P T X.:.<.t.u.V.V.C.~.(.(.oXXXXXXXXX.X.X.X.X.X_.^.^.^.W.W.W.B.B.B.a.u.y.t.e.<.,.>.:.#.O.o...U U U U L F M M m n l l g g g u u u t t t 6 6 6 5 3 3 3 3 5 5 6 w w u f g h n M L I ..o.#.,.e.y.d.s.W.!.'.`.`.&X&X5X5X5X5XtXtXyXyXyXaXaX;X:X;X:X:X:X:X:X:X;X:X2XaXaXaXaXpXpXpXpXpXhXhXhXhXwX7X7XOXOX|.(.(.~.V.V.u.3.>.=.X...T P F m m l g i u u t w w w w 6 5 5 5 3 3 3 1 1 1 3 3 3 3 5 5 5 5 5 6 w t u g x x N J Y Y ( &.6.w.w.q.j.m.L.I.L.I.I.I.I.L.L.j.j.q.w.6.&.W E U F m m l l g g g g g h l n m M L I ..O.:.e.y.a.B.!.(.`.`.OX7XwXhXcXcXkXkXkXkXeXSXAXAXAXCXBXBXBXMXbXbXU.L.j.q.w.6.) ^ IXIXIXIXIXIXIXIXIXIXIXIXIXIXIXIXIXIXIXIXIXIXIXIXIXIXIXIXIX",
"IXIXIXIXIXIXIXIXIXIXIXIXIXIXIXIXIXIXIXIXIXIXIXIXIXIXIXIXIXIXIXIXIXIXIXIXIXIXIXIXIXIXIXIXIXIXIXIXIXIXIXIXIXIXIXIXIXIXIXIXIXIXIXIXIXIXIXIX! Q ;.5.0.A.D.}.{.+X+X8X8X8XrXeXeXjXkXkXxXFXFXFXFXFXSXeX9X9X+X+X+X X X[.[.D.h.p.2.1.O...I P F m l g u u t w w 6 6 6 6 3 3 3 3 3 3 3 3 4 4 4 4 4 4 4 6 6 4 6 6 6 6 6 6 6 6 6 6 6 6 6 6 6 6 6 6 6 6 6 6 6 6 6 6 5 6 5 5 5 5 5 5 5 6 6 6 6 5 5 6 6 w w u i g k l m m F P T X.=.>.<.t.u.V.V.V./.(.(.`.oX.X.X.X.X_._.^.^.W.W.W.B.B.B.B.a.u.y.t.<.,.:.:.#.O.O.....| I L L M M M M n n l h g g g u u u t t w w 6 6 6 5 3 3 3 3 3 5 5 w w u u g h n m F L | O.:.,.e.y.a.s.W.!./.`.`.&X&X&X5X5X5X5XtXyXiXyXyXtX;X;X;X;X:X:X:X:X;X;X;X;XtXaXaXpXpXpXpXpXpXhXhXhXhX6X6X7XOXOX|.(.~.~.C.Z.u.t.>.=.X...T P F F m l g i u t w w w w w w 6 5 5 5 5 3 3 1 1 1 3 3 3 5 5 5 5 5 6 w w u i x x N J J Y ( &.&.w.w.q.j.m.L.I.I.I.T.T.I.I.I.L.j.j.q.9.6.@.Q E P F m m l l g g g g h l n m M L I ..O.:.<.y.a.V.!.(.(.`.OX7X6XwXhXcXcXkXcXkXkXeXeXAXAXAXBXBXBXBXMXbXbXU.L.j.q.w.7.) ^ IXIXIXIXIXIXIXIXIXIXIXIXIXIXIXIXIXIXIXIXIXIXIXIXIXIXIXIXIX",
"IXIXIXIXIXIXIXIXIXIXIXIXIXIXIXIXIXIXIXIXIXIXIXIXIXIXIXIXIXIXIXIXIXIXIXIXIXIXIXIXIXIXIXIXIXIXIXIXIXIXIXIXIXIXIXIXIXIXIXIXIXIXIXIXIXIXIXIXY Q ;.5.0.A.D.[.}.@X+X+X9X9X9XrXeXjXkXkXFXFXFXFXFXFXSXSXAXAX9X9X+X+X X X[.D.D.h.g.1.:.O...I P F m l g u u t t w 6 6 6 5 3 3 3 3 3 3 3 3 4 4 4 4 4 4 6 6 4 4 6 6 6 6 6 6 6 6 6 6 6 6 6 6 6 6 6 6 6 6 6 6 6 6 6 6 6 6 6 5 5 5 5 6 6 6 6 5 5 5 6 6 w w t u g g l l m F F P T X.=.>.<.t.u.V.V.V.V.V././.^.^.^.^././.W.B.B.B.B.B.a.u.u.t.t.<.<.:.#.O.o.....| I I L L M M n n n l h h g g u u u w w w w 6 6 6 5 5 3 3 3 3 3 3 3 5 6 w u u g h n m F L I o.:.,.e.y.a.B.!.!./.`.`.&X&X5X5XtXtXtXtXtXyXiXiXiXtXtX;X;X;X;X:X:X;X;X;XtXtXyXiXpXpXpXpXpXpXhXhXhXhX6X6X7XOX|.{.{.~.C.C.Z.u.t.>.=.X.T I P F D m l k g u t w w w w w w w 6 5 5 5 5 3 3 1 1 1 3 3 5 5 5 5 5 6 w w t u g x N N J Y ) &.&.6.w.q.j.m.L.I.I.T.T.U.T.I.I.I.L.j.q.0.9.6.@.Q U G F m m l l l h h l l n m M L I | o.#.,.t.a.V.!.(.`.`.OX7X6XwXhXhXzXzXkXkXcXkXeXeX9XAXAXBXBXBXBXMXbXbXU.L.S.q.w.7.) ^ IXIXIXIXIXIXIXIXIXIXIXIXIXIXIXIXIXIXIXIXIXIXIXIXIXIXIXIXIX",
"IXIXIXIXIXIXIXIXIXIXIXIXIXIXIXIXIXIXIXIXIXIXIXIXIXIXIXIXIXIXIXIXIXIXIXIXIXIXIXIXIXIXIXIXIXIXIXIXIXIXIXIXIXIXIXIXIXIXIXIXIXIXIXIXIXIXIXIXJ Q ;.9.0.A.F.[. X@X+X+X+X9X9XeXeXeXFXFXFXFXFXFXFXFXFXSXAXAXAXAXBX+X+X X}.[.D.k.p.4.1.:.O...I L m l l g i u t t w w 6 5 3 3 3 3 3 3 3 3 3 3 4 4 4 4 4 6 6 6 6 6 6 6 6 6 6 6 6 6 6 6 6 6 6 6 6 6 6 6 6 6 6 6 6 6 6 6 6 6 5 5 6 6 6 6 5 5 5 5 5 6 6 w t u u g g l l m F L P T X.=.>.<.t.u.u.V.V.V.V.V.V.V.V.V.V.B.B.B.V.V.u.u.t.t.t.<.<.>.#.O.....| I I L L B M M n n h h h g f f f u e e w w 5 5 5 5 5 3 5 3 3 3 1 1 3 3 5 5 w w u g h n m F L I o.#.<.e.y.a.B.!./.'.`.`.&X5X5XtXtXiXiXiXiXiXiXaXaXaXaXaX;X;X;X;X;X;X;X;XtXyXyXyXpXpXpXyXyX6X6X0X0X0X7X6X8XOX|.{.(.~.C.C.Z.i.t.<.=.X.T P P F m m l k g u u w w 6 w 6 6 6 6 6 6 5 5 5 3 3 3 1 1 3 3 5 5 5 5 6 6 w w u i k x N J Y Q ) &.6.w.q.j.j.L.I.I.I.U.U.U.U.I.I.L.S.j.q.9.6.@.@.R P F F m m l l l l l n n M M L I | o.#.,.e.y.a.!.(.`.`.XX7X7X6XpXhXcXcXcXcXzXcXkXeXeXrX9XAXBXBXBXBXMXMXbXU.L.S.q.w.7.) ^ IXIXIXIXIXIXIXIXIXIXIXIXIXIXIXIXIXIXIXIXIXIXIXIXIXIXIXIXIX",
"IXIXIXIXIXIXIXIXIXIXIXIXIXIXIXIXIXIXIXIXIXIXIXIXIXIXIXIXIXIXIXIXIXIXIXIXIXIXIXIXIXIXIXIXIXIXIXIXIXIXIXIXIXIXIXIXIXIXIXIXIXIXIXIXIXIXIXIXJ Q ;.9.0.A.F.}.}. X+X+X+X9X9X9XeXeXFXFXFXFXFXFXFXFXFXSXSXSXAXAXAXBX+X+X X}.H.D.k.p.4.1.:.O...P F m l k g i u u t w 6 6 3 3 3 3 3 3 3 3 3 3 3 3 3 4 4 4 4 6 6 6 6 6 6 6 6 6 6 6 6 6 6 6 6 6 6 6 6 6 6 6 6 6 6 6 6 6 6 6 5 5 5 6 6 6 5 5 5 5 5 6 6 w w u u i g k l m m F P T T X.=.>.<.3.t.u.u.V.V.V.V.V.V.V.V.V.V.u.u.t.t.t.<.<.<.>.:.O.O...I I I L L B M M n n h h h f f f u e e w w w 5 5 5 5 3 3 1 1 1 1 1 1 1 1 1 3 5 6 w u g h l m M L I ..O.,.e.y.a.B.!./.'.`.`.&X5X5XtXiXiXpXpXsXpXsXaXaXaXaXaXaXiX;X;X;X;X;X;XtXyXyXyXpXpXpXhXuX0X0X0X0X8X8X8X7XOXOX{.{.~.C.Z.i.i.t.<.>.=.T T P F m z l k g i u t w 6 6 6 6 6 6 6 6 6 5 5 5 3 3 3 1 1 3 3 5 5 5 6 6 w w t u g x N H J Y ) &.6.6.w.q.j.L.I.I.I.I.U.U.U.I.I.I.L.j.j.0.9.6.@.Q U P F m m n l l l l l n m M L I I ..#.:.e.y.a.B.~.(.`.`.&X7X5XwXpXhXzXcXcXcXcXcXcXrXeXrX9X9XAXBXBXBXMXMXbXU.I.L.q.w.7._ ) IXIXIXIXIXIXIXIXIXIXIXIXIXIXIXIXIXIXIXIXIXIXIXIXIXIXIXIXIX",
"IXIXIXIXIXIXIXIXIXIXIXIXIXIXIXIXIXIXIXIXIXIXIXIXIXIXIXIXIXIXIXIXIXIXIXIXIXIXIXIXIXIXIXIXIXIXIXIXIXIXIXIXIXIXIXIXIXIXIXIXIXIXIXIXIXIXIXIXJ Q ;.6.0.A.F.G.}.@X+X+X+X+X9X9XAXSXFXFXFXFXFXFXFXFXFXFXSXSXSXSXAXAXBX+X@X X[.D.D.p.i.3.>.=.X.T P M m l g g u u t w 6 5 3 3 3 3 3 3 3 3 3 3 3 3 3 3 3 4 4 6 6 6 6 6 6 6 6 6 6 6 6 6 6 6 6 6 6 6 6 6 6 6 6 6 6 6 6 6 6 5 5 6 6 6 6 6 5 5 5 5 5 5 6 6 w t u u g g l l m m F P T ..X.=.:.>.3.t.t.u.u.u.V.V.V.u.u.u.u.t.t.3.<.<.>.:.:.O.O.....I P L L M M M n n h h g f f u e e e e e w 5 5 5 5 1 1 1 1 1 1 1 1 1 1 1 1 3 5 5 w w u g l n M L I ..O.:.<.y.a.B.!./.'.`.`.&X7X5XtXpXsXsXsXsXsXsXsXsXsXsXsXaXaXaXiXiXtXtXtXtXyXyXyXyXyXhXhXhXuX0X0X0X8X8X8XOXOX|.|.{.~.C.Z.f.i.t.<.>.=.X.T P F m z l k g i u t w 6 6 6 6 6 6 6 6 6 6 5 5 5 3 3 3 3 1 3 3 5 5 5 6 6 w t u i g x N H Y Q ( &.6.w.q.j.j.L.I.I.I.U.U.U.U.I.I.L.S.j.q.w.6.;.@.R P F F m m l l l l l n m M L L I ..O.:.<.e.y.B.!./.`.`.XX7X5X5XpXpXzXzXcXzXcXcXcXcXrXrXrX9X9X9XBXBXBXMXMXbXU.I.S.q.w.7._ ) ~ IXIXIXIXIXIXIXIXIXIXIXIXIXIXIXIXIXIXIXIXIXIXIXIXIXIXIXIX",
"IXIXIXIXIXIXIXIXIXIXIXIXIXIXIXIXIXIXIXIXIXIXIXIXIXIXIXIXIXIXIXIXIXIXIXIXIXIXIXIXIXIXIXIXIXIXIXIXIXIXIXIXIXIXIXIXIXIXIXIXIXIXIXIXIXIXIXIXIXQ [ 6.0.A.F.G.}.}.@X+X+XBX+XAXAXSXFXFXFXFXFXFXFXGXGXFXSXSXSXSXSXAXAXBX+X X}.[.D.Z.p.g.<.>.O...I F m n l g g u u w 6 5 3 3 3 1 1 3 > > 3 3 3 3 3 3 3 3 4 4 6 6 6 6 6 6 6 6 6 6 6 6 6 6 6 6 6 6 6 6 6 6 6 6 6 6 6 6 6 6 6 6 6 6 6 6 5 5 5 5 5 5 5 6 w w u u i g g l l m F L P T X.X.=.:.>.>.3.3.t.t.u.u.t.t.t.3.3.<.<.>.:.:.=.O.O.....I I L L M M M n n n h h g f f e e e e e w w 5 5 2 1 1 1 1 1 1 1 1 1 1 1 1 1 1 3 5 5 w u f h n M L P I o.#.,.e.a.B.!./.(.`.`.&X7X5XtXpXsXsXfXfXfXfXsXsXsXsXsXsXsXaXaXaXiXiXtXyXyXyXyXyXyXhXhXhXhX0X0X0X8X8X8XOXOX|.|.{.].C.Z.Z.i.t.<.>.=.X.T P F D m l k k i y y t w 6 6 6 6 6 6 6 6 6 6 5 5 5 3 3 3 3 1 3 3 5 5 5 6 w w t u i k x N J Y Q &.6.6.w.q.j.j.L.I.I.I.I.I.I.I.I.I.S.j.j.0.9.6.@.Q U P F m m n l l l l n m M F L I ..o.#.,.e.y.a.B./.(.`.XX&X7X5XtXpXpXzXzXzXzXzXzXhXhXhXrXrX9X9X9XAXBXBXMXMXbXU.I.L.q.w.7._ ) ~ IXIXIXIXIXIXIXIXIXIXIXIXIXIXIXIXIXIXIXIXIXIXIXIXIXIXIXIX",
"IXIXIXIXIXIXIXIXIXIXIXIXIXIXIXIXIXIXIXIXIXIXIXIXIXIXIXIXIXIXIXIXIXIXIXIXIXIXIXIXIXIXIXIXIXIXIXIXIXIXIXIXIXIXIXIXIXIXIXIXIXIXIXIXIXIXIXIXIXQ W 6.0.j.S.G.}.}.@X@XBXBXBXAXAXSXSXFXGXGXFXFXFXFXGXGXGXGXSXSXSXSXAXAXBX+X X[.D.D.f.p.t.<.:.O.T P F m l l g i u t w 6 3 3 3 3 - - - > > > 3 3 3 3 3 3 4 4 6 6 6 6 6 6 6 6 6 6 6 6 6 6 6 6 6 6 6 6 6 6 6 6 6 6 6 6 6 6 6 6 6 6 6 6 5 5 5 5 5 5 6 6 w w t u u i g k l m m F P P T ..X.=.=.:.>.>.<.3.3.3.3.<.<.>.>.:.:.=.O.X.X.....T I P L F M m n n n h h h f f u e e e e e w w 5 5 2 1 2 1 1 ; ; ; ; ; 1 1 1 1 1 3 5 5 w w u g l m F L I ..O.:.e.y.a.B.~.(.`.`.XX7X5X5XpXsXfXfXfXfXfXfXfXfXfXfXfXsXsXsXsXsXiXiXiXiXyXyXyXyXhXhXhXhXuX0X0XqX8X8X+XOX|.|.{.].C.C.Z.i.i.3.>.=.X.T T G D m z k k i i u t t 6 6 6 6 6 6 6 6 6 6 6 5 5 5 3 3 3 3 3 3 3 5 5 5 6 w t u u g k x H J Y ( &.6.w.w.q.j.j.L.I.I.I.I.I.I.I.I.L.S.j.0.9.6.@.@.R P F M m m l l l l n n m M L L I ..O.:.<.e.u.B.!./.`.`.&X&X5X5XiXgXfXfXzXzXzXzXzXhXhXhXhXrX8X9X9X+XBXBXBXMXbXbXI.L.q.q.w.' ) ~ IXIXIXIXIXIXIXIXIXIXIXIXIXIXIXIXIXIXIXIXIXIXIXIXIXIXIXIX",
"IXIXIXIXIXIXIXIXIXIXIXIXIXIXIXIXIXIXIXIXIXIXIXIXIXIXIXIXIXIXIXIXIXIXIXIXIXIXIXIXIXIXIXIXIXIXIXIXIXIXIXIXIXIXIXIXIXIXIXIXIXIXIXIXIXIXIXIXIXK W 6.9.0.S.F.G.}.}.@XBXBXBXBXAXSXSXFXGXGXFXFXFXFXGXGXGXGXGXGXGXSXSXAXBX+X X}.].D.C.f.i.<.>.O...I L M m l g g u t w 6 3 3 3 1 - - - - - - > > 3 3 3 3 4 4 6 6 6 6 6 6 6 6 6 6 6 6 6 6 6 6 6 6 6 6 6 6 6 6 6 6 6 6 6 6 6 6 6 6 6 6 6 5 5 5 5 5 6 6 w w t u u u g g l l m m F P P T T X.X.=.=.=.>.>.>.>.>.:.=.=.=.O.X.X.....T I I P L F M m n n l h h h g f f u e e e w w w 5 5 2 2 1 2 2 1 1 ; ; ; ; ; 1 1 1 1 5 5 5 w w u f h n M L I ..O.#.,.e.d.V.!.(.`.`.XX7X7X5XpXpXsXfXzXzXzXfXfXfXfXfXfXfXfXsXsXsXsXpXpXpXpXpXyXyXuXhXhXhXuX0X0XqX8X8X+X|.|.|.{.{.].C.Z.p.i.<.>.=.X.X.T P F m z k k i i y y t w 6 6 6 6 6 6 6 6 6 6 6 5 5 5 3 3 3 3 3 3 3 5 5 6 w w t u i g x N H Y Q ( &.6.w.w.q.j.j.S.I.I.I.I.I.I.I.S.S.j.j.w.9.;.@.R P F F m m l l l l l n m M F L I ..O.#.,.e.y.a.B././.`.XX&X&X5XtXiXgXfXfXfXfXfXfXfXgXpXhXhX0X8X9X9X9XBXBXBXMXbXbXI.L.q.q.w.' ) ~ IXIXIXIXIXIXIXIXIXIXIXIXIXIXIXIXIXIXIXIXIXIXIXIXIXIXIXIX",
"IXIXIXIXIXIXIXIXIXIXIXIXIXIXIXIXIXIXIXIXIXIXIXIXIXIXIXIXIXIXIXIXIXIXIXIXIXIXIXIXIXIXIXIXIXIXIXIXIXIXIXIXIXIXIXIXIXIXIXIXIXIXIXIXIXIXIXIXIXK W 6.w.0.A.F.G.}.}.bX@X@XBXBXBXAXSXSXGXGXGXGXGXGXGXGXGXGXGXGXGXGXSXSXAXBX+X X{.].C.Z.p.i.<.:.O.T P F m n l g i u w 6 5 3 3 1 - - - - - > > > > 3 3 3 4 4 6 6 6 6 6 9 9 9 9 9 6 6 6 6 6 6 6 6 6 6 6 6 6 6 6 6 6 6 6 6 6 6 6 6 6 6 6 6 5 5 5 5 6 6 6 w w t u u i g g l l m D F P P T T T X.X.=.=.=.=.=.=.=.X.X.X.X.T T T I P P L F F M m n l h h g g f f u u e e e w w w 5 2 2 2 2 2 1 1 1 ; ; ; ; ; 1 1 2 1 2 5 5 w e e f h n M L I ..o.#.,.e.y.a.!.(.`.`.`.7X7X5X6XpXsXfXzXzXzXzXfXfXfXfXfXfXfXsXsXsXsXsXpXpXpXpXpXuXuXhXhXhXuX0X0X0X8X+XOX X|.|.{.{.].C.Z.p.i.1.>.=.X.X.T P F m z k k i i y y t t 6 6 6 6 6 6 6 6 6 6 6 6 5 5 5 3 3 3 3 3 3 3 5 6 6 w w t u g g x N J Y Q ( &.6.w.q.q.j.j.S.S.I.I.I.I.L.S.j.j.q.0.9.6.@.Q R L F m m n l l l l n n m M L I | ..O.:.<.t.u.B.W./.`.`.&X&X&X5XiXiXgXfXfXfXfXfXfXfXgXpXpXhX0X8X9X9X+XBXBXBXMXbXbXU.L.j.q.w.6.) ^ IXIXIXIXIXIXIXIXIXIXIXIXIXIXIXIXIXIXIXIXIXIXIXIXIXIXIXIX",
"IXIXIXIXIXIXIXIXIXIXIXIXIXIXIXIXIXIXIXIXIXIXIXIXIXIXIXIXIXIXIXIXIXIXIXIXIXIXIXIXIXIXIXIXIXIXIXIXIXIXIXIXIXIXIXIXIXIXIXIXIXIXIXIXIXIXIXIXIXIXK ( 6.0.j.S.F.G.}.}.}.}.BXBXBXAXSXSXDXGXGXGXGXGXGXGXGXGXGXGXGXGXSXSXAXBX+X X{.{.H.C.Z.i.t.<.=...I P F m l l g u t 6 5 3 3 3 1 - - - - - - > > > 3 3 3 4 4 6 6 6 6 9 9 9 9 9 6 6 9 9 6 6 6 6 6 6 6 6 6 6 6 6 6 6 6 6 6 6 6 6 6 6 6 6 6 5 5 5 6 6 6 w w t t u u i g g l l m D F F P P T T T T X.X.X.X.X.T T T T T P P P F F F M m m n l h g g g f f u u e e e w w w 5 5 2 2 2 2 2 2 1 1 1 ; ; ; ; 1 1 2 1 2 5 5 w e e u g l m L I | o.O.:.<.y.a.B.~.(.`.`.&X7X5X6XpXpXfXzXzXzXzXzXfXfXfXfXfXsXfXsXsXsXsXpXpXpXhXhXuXuX0X0X0XeX0XqX0XqX+XOX X|.{.{.{.].C.Z.p.i.1.>.=.X.T T P G D z k k i y y y t t 6 6 6 6 6 6 6 6 6 6 6 6 6 5 5 3 3 3 3 3 3 3 3 5 6 6 w t u u g k x N J Y Q &.&.6.w.w.q.j.j.j.S.S.S.S.S.S.j.j.q.0.9.6.@.Q U P F m m n l l l l n n m M F L I ..O.:.<.e.y.a.B.!./.`.XX&X&X4X5XiXiXiXfXfXfXfXfXfXfXgXpXpXwX0X8X8X9X9XBXBXBXMXbXbXU.L.j.q.w.6.) ^ IXIXIXIXIXIXIXIXIXIXIXIXIXIXIXIXIXIXIXIXIXIXIXIXIXIXIXIX",
"IXIXIXIXIXIXIXIXIXIXIXIXIXIXIXIXIXIXIXIXIXIXIXIXIXIXIXIXIXIXIXIXIXIXIXIXIXIXIXIXIXIXIXIXIXIXIXIXIXIXIXIXIXIXIXIXIXIXIXIXIXIXIXIXIXIXIXIXIXIXK W 6.w.q.S.S.F.G.G.}.}.bXMXBXBXCXAXDXDXDXGXDXGXGXGXGXGXGXGXGXGXGXSXSXAX+X+X}.{.{.C.C.f.i.t.>.O...I L F m l l g u w 6 5 3 3 1 3 1 - 3 - - > > > 3 3 3 4 4 6 6 6 6 9 9 9 6 6 6 6 9 9 9 9 6 6 6 6 6 6 6 6 6 6 6 6 6 6 6 6 6 6 6 6 6 6 6 5 5 5 6 6 6 6 w w t t u u i g g l l m m D F F P P P T T T T T T T P P P G F F F m m m m l l l g g f u u u u e e w e w w 5 5 2 2 2 2 2 2 2 2 1 1 1 1 ; 1 1 1 2 1 2 5 w e e e f g h n M L | o.O.:.<.t.u.V.!.(.`.`.7X7X5X5XpXpXpXzXzXzXzXzXzXfXfXfXfXsXsXsXsXsXpXpXpXpXhXuX0X0X0X0X0X0X0X0XqX9X+X X X|.{.{.].D.D.Z.p.p.1.=.=.X.T T P G D z l k i y y y t t 6 6 6 6 6 3 3 5 6 6 6 6 6 6 5 5 3 3 3 3 3 3 3 5 5 6 w w t u i g x x N J Y Q &.&.6.w.w.q.j.j.j.j.j.S.j.j.j.j.0.0.9.6.@.@.U U F m m n l l l l l n n M M L I ..O.#.,.e.y.a.B.W./.`.`.&X&X4X5XiXiXiXaXdXfXfXfXfXfXfXsXgXpXwXrX8X8X9X9XBXBXBXMXbXbXU.L.j.q.w.6.) ^ IXIXIXIXIXIXIXIXIXIXIXIXIXIXIXIXIXIXIXIXIXIXIXIXIXIXIXIX",
"IXIXIXIXIXIXIXIXIXIXIXIXIXIXIXIXIXIXIXIXIXIXIXIXIXIXIXIXIXIXIXIXIXIXIXIXIXIXIXIXIXIXIXIXIXIXIXIXIXIXIXIXIXIXIXIXIXIXIXIXIXIXIXIXIXIXIXIXIXIXIXK ( 6.w.q.j.S.F.F.G.G.}.bXbXMXBXBXCXAXDXDXDXDXDXDXDXGXGXGXGXGXGXSXSXAX+X+X@X{.{.].C.C.f.i.<.:.O...I P F m l l i u w 6 5 3 3 3 3 3 3 3 > > > > 3 3 3 4 4 6 6 6 6 6 9 9 6 6 6 6 9 9 9 9 6 6 6 6 6 6 6 6 6 6 6 6 6 6 6 6 6 6 6 6 6 6 6 6 5 5 6 6 6 6 6 w w t t u u i i g k l l z m m D F F F F G G G G F F D D D m m z l l l k g g g u u u u w w e e e w w 5 5 2 2 2 1 2 2 2 2 2 2 1 1 1 1 1 1 1 2 2 2 w e e e u f h l n M L | o.#.,.e.y.u.a.!.(.(.`.7X7X5X6XwXpXpXfXzXzXzXzXfXfXfXfXfXfXsXpXpXpXpXpXpXpXpX0X0X0X0X8XqXqXqX8X8X+X+X X X}.{.].D.D.A.f.p.4.1.=.X.T T P G F D z k g y y y t 9 6 6 6 6 6 4 3 3 3 3 3 6 6 6 6 6 6 5 3 3 3 3 3 3 3 5 5 6 w w t u i g x x N J Y Q ( &.6.w.w.w.q.q.j.j.j.j.j.q.0.0.9.9.;.@.+.U U F M m n l l h h l l n M M L I ..O.#.,.e.y.a.B.W.!.`.`.XX&X5XtXiXiXiXaXdXdXfXfXfXfXfXfXsXgXpXwXrX8X8X9X9XBXBXBXBXMXbXU.L.j.q.w.6.) ^ IXIXIXIXIXIXIXIXIXIXIXIXIXIXIXIXIXIXIXIXIXIXIXIXIXIXIXIX",
"IXIXIXIXIXIXIXIXIXIXIXIXIXIXIXIXIXIXIXIXIXIXIXIXIXIXIXIXIXIXIXIXIXIXIXIXIXIXIXIXIXIXIXIXIXIXIXIXIXIXIXIXIXIXIXIXIXIXIXIXIXIXIXIXIXIXIXIXIXIXIXIX^ ' 6.w.0.j.S.S.S.F.G.G.}.bXMXBXBXBXBXAXAXAXDXDXDXDXGXGXGXGXSXSXSXAX9X+X+X@X X{.].~.C.f.t.<.:.O...I P F m l g i t w 6 6 5 3 3 3 3 3 > > > > 3 3 3 4 4 6 6 6 6 6 6 9 9 9 9 9 9 6 9 9 9 6 6 6 6 6 6 6 6 6 6 6 6 6 6 6 6 6 6 6 6 6 6 6 6 5 5 5 6 6 6 6 w w w t t u u i g g k k l z z z m m m m m m m m m z z l l l k g g g i i u u u w e w w w w w 5 5 5 5 5 2 2 1 2 1 1 1 2 2 2 2 2 1 1 2 2 2 2 2 w e e e f g h n n M L | o.#.,.e.y.a.V.V.~.`.`.7X7X5X6XpXpXpXgXfXfXzXzXfXfXfXfXfXgXgXgXpXpXpXpXpX6X6X6X0X0X8X8X8X8X+X+X+X X X X}.{.[.D.D.D.k.p.p.4.2.-.X.T T G F D z z k i y y t 9 9 6 6 6 6 4 4 4 3 3 3 4 4 4 4 6 6 6 5 3 3 3 3 3 3 3 3 3 5 6 w t t u i g x x H J Y Q ( &.6.6.9.w.0.q.q.q.0.0.0.0.9.9.6.;.@.+.U P F M m l l h h h h l n m M L L I ..#.,.e.y.a.B.B./.(.`.XX&X5XiXiXiXaXaXdXdXdXdXdXdXdXdXfXsXgXpXwX6X0X8X9X9XBXBXBXBXMXbXU.L.j.q.w.6.) ^ IXIXIXIXIXIXIXIXIXIXIXIXIXIXIXIXIXIXIXIXIXIXIXIXIXIXIXIX",
"IXIXIXIXIXIXIXIXIXIXIXIXIXIXIXIXIXIXIXIXIXIXIXIXIXIXIXIXIXIXIXIXIXIXIXIXIXIXIXIXIXIXIXIXIXIXIXIXIXIXIXIXIXIXIXIXIXIXIXIXIXIXIXIXIXIXIXIXIXIXIXIXIX) 6.6.w.w.q.j.j.S.S.F.G.}.bXbXMXBXBXBXCXCXAXAXDXDXDXDXSXSXSXSXSXAX9X+X+X+X+X X{.].C.Z.i.t.<.:.O...T P F m l g u t w 6 6 5 3 3 3 3 > > - > 3 3 3 3 4 4 6 6 6 6 6 6 9 9 6 6 6 9 9 9 9 6 6 6 6 6 6 6 6 6 6 6 6 6 6 6 6 6 6 6 6 6 6 6 5 5 5 5 6 6 6 6 6 6 w w t t y u y i i g k k k l l l z l z z l l l k k k g g i i i u u t t w w w 6 5 5 5 5 5 5 5 5 2 1 1 1 2 1 1 1 1 1 2 2 2 2 2 2 2 2 2 2 w e e r f h h n n M L I o.#.,.e.y.a.V.V.~.(.`.XX7X5XwXpXgXgXgXfXfXfXfXfXfXfXfXfXfXgXgXpXpXpX6X6X6X6X6X6X6X8X8X+X+XOX X X X X X}.[.[.D.D.k.h.p.g.2.2.-.X.T P G D m z k k i y t 9 6 6 4 4 4 4 4 4 4 3 3 3 3 4 4 4 4 4 4 6 3 3 3 3 3 3 3 3 3 3 6 6 w t y u i k x x H J Y Q ( &.6.6.6.9.w.w.w.9.9.9.9.9.6.;.@.@.Q R P F M m l l h h h h h n n M M L I ..O.:.<.t.u.B.B./.(.`.XX&X5XiXiXiXaXdXdXdXdXdXdXdXdXdXdXfXfXgXgXpXhX0X8X9X9X9XBXBXBXMXbXU.S.j.q.w.6.) ^ IXIXIXIXIXIXIXIXIXIXIXIXIXIXIXIXIXIXIXIXIXIXIXIXIXIXIXIX",
"IXIXIXIXIXIXIXIXIXIXIXIXIXIXIXIXIXIXIXIXIXIXIXIXIXIXIXIXIXIXIXIXIXIXIXIXIXIXIXIXIXIXIXIXIXIXIXIXIXIXIXIXIXIXIXIXIXIXIXIXIXIXIXIXIXIXIXIXIXIXIXIXIXIX) ' 6.6.w.w.q.q.j.S.F.G.U.bXbXbXMXBXBXBXBXAXAXDXDXDXSXSXSXSXSXSX9X9X+X+X+XOX|.{.].C.Z.i.t.<.:.O...T P F m k g u t w 6 6 6 3 3 3 3 > - > > 3 3 3 3 4 4 6 6 6 6 6 6 6 6 6 6 6 6 6 9 9 6 6 6 6 6 6 6 6 6 6 6 6 6 6 6 6 6 6 6 6 6 6 5 5 5 5 6 6 6 6 6 6 w w w t t t y u y i i i g g k k k k k k k k k g i i i y u y y t t w w w 6 5 5 5 5 5 5 5 3 3 1 1 1 2 2 2 1 1 1 1 2 2 2 2 2 2 2 2 2 2 w e e r f h n n M B L I ..#.,.e.y.a.V.!.~.(.`.`.7X5XwXpXpXgXgXfXfXfXfXfXfXfXfXfXdXgXiXiXiXtX5X5X6X6X6X6X6X7XqX+X X X X X X X}.[.[.[.D.D.k.h.p.4.2.1.-.+.T P F D z z k k i y t 9 6 4 4 4 4 4 4 4 4 3 3 3 3 4 4 4 4 4 4 4 4 3 3 3 3 3 3 3 3 3 3 5 6 w t u u g k x x H J Y Q ( ( &.6.6.6.6.9.9.9.9.6.6.;.@.@.Q R U L F M n l h h g g h h l n n M L I | o.:.<.t.y.a.B.!.(.`.`.&X5X5XiXiXdXdXdXdXdXdXdXdXdXdXfXfXfXfXsXgXpXhXrX0X9X9XAXBXBXBXMXbXU.I.j.q.w.6.) ^ IXIXIXIXIXIXIXIXIXIXIXIXIXIXIXIXIXIXIXIXIXIXIXIXIXIXIXIX",
"IXIXIXIXIXIXIXIXIXIXIXIXIXIXIXIXIXIXIXIXIXIXIXIXIXIXIXIXIXIXIXIXIXIXIXIXIXIXIXIXIXIXIXIXIXIXIXIXIXIXIXIXIXIXIXIXIXIXIXIXIXIXIXIXIXIXIXIXIXIXIXIXIXIXK ) ( 6.6.6.w.w.q.j.j.S.F.U.bXbXbXbXMXBXBXBXAXAXSXSXSXSXSXSXSXSX9X9X9X+X+X+XOX|.{.].C.Z.i.t.<.:.O...I F m l g i u t w 6 6 6 3 3 3 > - - > 3 3 3 3 3 4 4 6 6 6 6 6 6 6 6 6 6 6 6 6 6 6 6 6 6 6 6 6 6 6 6 6 6 6 6 6 6 6 6 6 6 6 6 6 5 5 5 6 6 6 6 6 6 6 6 6 w t t t y u u y y y i i i i i i i i i y y y y y y t t t w w 6 6 6 5 5 5 5 3 3 3 3 1 1 1 1 1 2 2 2 1 1 1 2 2 2 2 2 2 2 2 2 5 w e e e f h n n n B L I ..O.,.e.y.a.s.V.~.(.(.`.OX7X6XpXgXgXgXfXfXfXfXfXfXfXfXfXdXdXiXiXiXtX5X5X5X5X7X7X6X7X7XOX|. X X X X}.}.[.[.[.D.D.k.h.g.4.2.2.;.+.T P F D z z k s i y t 9 6 4 4 4 4 3 3 3 4 4 3 3 3 3 4 4 4 4 4 4 4 4 3 3 3 3 3 3 3 3 3 5 6 6 w t u u g k x x N J Y Y Q W ( &.&.6.6.6.6.6.;.@.@.@.Q E U U L F m m l h g g g g g h l n m M L I ..O.>.e.y.a.V.!.(.(.`.XX7X5XiXiXfXdXfXdXdXdXdXdXdXdXdXfXfXfXfXfXpXpXhXhXrXrX9XAXAXBXBXMXbXU.I.S.q.w.6.) ^ IXIXIXIXIXIXIXIXIXIXIXIXIXIXIXIXIXIXIXIXIXIXIXIXIXIXIXIX",
"IXIXIXIXIXIXIXIXIXIXIXIXIXIXIXIXIXIXIXIXIXIXIXIXIXIXIXIXIXIXIXIXIXIXIXIXIXIXIXIXIXIXIXIXIXIXIXIXIXIXIXIXIXIXIXIXIXIXIXIXIXIXIXIXIXIXIXIXIXIXIXIXIXIXIXK ^ ( ( 6.6.w.w.q.j.j.S.F.G.U.bXbXbXMXBXBXBXAXAXSXSXSXSXSXSXSX9X9X9X9X+X+X+XOX|.{.].C.f.i.3.>.=.X.T P F m l g i u t w 6 6 3 3 3 > > > > 3 3 3 3 3 4 4 4 4 6 6 6 6 6 6 6 6 6 6 9 9 6 6 6 6 6 6 6 6 6 6 6 6 6 6 6 6 6 6 6 6 6 6 6 6 6 6 6 6 6 6 6 6 6 6 6 6 6 w t t t y y y y y y y y y y y y y y y y y t t t 6 6 6 6 6 6 5 5 5 3 3 3 1 1 1 1 1 1 1 1 1 1 2 1 2 2 2 2 2 2 2 2 2 2 w w e e e f h n n M B L I ..o.#.e.y.d.d.V.~.(.(.|.OX7X6XwXpXgXfXfXfXfXfXfXfXfXfXdXdXdXiXiXiXtX5X5X7X7X7X7X7XOXOXOX|.|.|.{.{.{.[.[.[.[.D.D.k.h.l.2.2.;.%.+.R P G D z l k s i y t 9 6 4 4 4 4 3 3 4 3 3 3 3 4 4 4 4 3 4 4 4 4 4 4 4 3 3 3 3 3 3 3 3 5 6 6 w t u y g g x x N H J Y Y Q W ( &.&.&.@.@.@.@.@.Q E U U P F F m n l h g g f f g g h l n M L L I ..#.<.t.u.V.V.~.(.`.`.7X5X5XgXgXfXfXfXdXdXdXdXdXdXdXfXfXfXfXfXfXsXhXhXuXrXeX9XAXAXBXBXMXbXU.I.S.q.w.6.) ^ IXIXIXIXIXIXIXIXIXIXIXIXIXIXIXIXIXIXIXIXIXIXIXIXIXIXIXIX",
"IXIXIXIXIXIXIXIXIXIXIXIXIXIXIXIXIXIXIXIXIXIXIXIXIXIXIXIXIXIXIXIXIXIXIXIXIXIXIXIXIXIXIXIXIXIXIXIXIXIXIXIXIXIXIXIXIXIXIXIXIXIXIXIXIXIXIXIXIXIXIXIXIXIXIXIXIXK ) ( ( 6.6.w.q.j.j.S.F.F.G.bXbXbXbXBXBXBXAXAXSXSXSXSXSX9X9X9XrX9X9X+X+X+XOX{.{.C.Z.p.i.3.>.=.X.T P D z k g i y t t 6 6 3 3 3 > > > 3 3 3 3 3 3 4 4 4 4 6 6 6 6 6 6 6 6 6 9 9 6 6 6 6 6 6 6 6 6 6 6 6 6 6 6 6 6 6 6 6 6 6 6 6 6 6 6 6 6 6 6 6 6 6 6 6 6 6 w w t t t t t t y y y y y t t t t t t t 9 6 6 6 6 6 6 5 5 5 3 3 3 3 3 1 1 1 1 1 1 1 1 1 1 1 2 2 2 2 2 2 5 5 w w w e e e e f j n n M B L I ..o.#.,.e.y.d.C.~.(.(.`.|.OX7X6XpXgXgXfXfXfXfXfXdXdXdXdXdXiX3X4X4X4X4X4X&X&X7X7XOXOXOXOX|.|.|.{.{.[.[.[.[.D.D.D.k.h.l.2.;.;.@.+.R R G D z z k i y y t 9 9 4 4 4 > > > > > > 3 3 3 4 3 3 4 3 4 4 4 4 3 3 3 3 3 3 3 3 3 3 3 5 6 6 w t u y i g x x N H J Y Y Q Q Q W W W W W Q Q E Y ! P F F m m n l h g g f f f f g h n n M L I ..O.:.e.y.d.V.~.(.(.`.OX7X5XpXgXfXfXfXfXdXdXdXdXdXdXdXfXfXfXfXfXfXfXhXhXuXrXeXAXAXAXBXBXMXbXU.I.S.q.w.6.) ^ IXIXIXIXIXIXIXIXIXIXIXIXIXIXIXIXIXIXIXIXIXIXIXIXIXIXIXIX",
"IXIXIXIXIXIXIXIXIXIXIXIXIXIXIXIXIXIXIXIXIXIXIXIXIXIXIXIXIXIXIXIXIXIXIXIXIXIXIXIXIXIXIXIXIXIXIXIXIXIXIXIXIXIXIXIXIXIXIXIXIXIXIXIXIXIXIXIXIXIXIXIXIXIXIXIXIXIXK ^ ) ( &.6.w.w.q.j.j.S.F.G.G.}.bXbXBXBXBXBXAXAXAXAX9X9XrXrXrX9X9X9X+X+X+X X{.].C.Z.p.i.<.:.O...P F m l k g i u t t 6 5 3 3 3 > > 3 3 3 3 3 3 3 4 4 4 4 6 6 6 6 6 6 6 6 9 9 6 6 6 6 6 6 6 6 6 6 6 6 6 6 6 6 6 6 6 6 6 6 6 6 6 6 6 6 6 6 6 6 6 6 6 6 6 6 6 6 6 6 9 9 t t t t t t t t 9 9 9 9 9 6 6 6 6 6 6 6 5 5 5 3 3 3 3 3 3 1 1 1 1 1 1 1 1 1 1 1 1 1 2 2 2 5 w w e e e e e r f j n n M B L | | o.#.,.r.i.f.C.~.(.`.|.|.OX7X7XwXpXpXgXfXfXfXdXdXdXdXdXiX3X3X3X4X4X4X&X&X&X&XXXXX|.|.|.|.|.{.{.{.].].D.D.D.D.k.k.h.0.2.;.;.@.+.R P G F m l k i y y t 9 9 6 4 4 > > > > > > > > > > 3 > 3 3 3 4 4 4 4 4 4 3 3 3 3 3 3 3 3 3 5 6 6 w t y y i g x x x N H J Y Y Y Y E Q Q Q Q E Y U L F F m m n l l g g f f u u f f h h n M B L I ..O.,.e.i.C.C.~.(.`.|.7X7X6XpXgXfXfXfXfXfXdXdXdXdXdXdXfXfXfXfXfXfXzXhXhXeXrXeXAXAXAXBXBXMXbXU.I.S.q.w.6.) ^ IXIXIXIXIXIXIXIXIXIXIXIXIXIXIXIXIXIXIXIXIXIXIXIXIXIXIXIX",
"IXIXIXIXIXIXIXIXIXIXIXIXIXIXIXIXIXIXIXIXIXIXIXIXIXIXIXIXIXIXIXIXIXIXIXIXIXIXIXIXIXIXIXIXIXIXIXIXIXIXIXIXIXIXIXIXIXIXIXIXIXIXIXIXIXIXIXIXIXIXIXIXIXIXIXIXIXIXIXIXK ^ ) ( 6.w.w.0.j.j.S.F.F.G.[.}.}.@X+X+X+X+X9X9X9X9X9X9X9X9XrXrX9X+X+X+X{.{.H.D.A.p.p.1.:.X.T P F m l k g i u t w 6 3 3 3 3 3 3 3 3 3 3 3 3 3 4 4 6 6 6 6 6 6 6 6 6 6 6 6 6 6 6 6 6 6 6 6 6 6 6 6 6 6 6 6 6 6 6 6 6 6 6 6 6 6 6 6 6 6 6 6 6 6 6 6 6 6 6 6 6 6 6 6 6 6 6 6 6 6 6 6 6 6 6 6 6 6 6 6 6 4 4 3 3 3 3 3 3 3 3 3 3 3 1 3 3 1 2 3 2 1 2 2 2 2 5 5 w e e e e e r f j h n n B L I | o.o.#.,.e.i.f.C.~.~.{.|.|.OX7X7X6XwXpXpXgXgXfXgXgXiXiX3X3X3X3X4X4X&X&X&X&X&XXXXX`.`.`.|.|.{.{.{.].].D.D.D.k.k.k.h.h.4.2.2.@.@.R R P F D m z k i y t 9 9 9 4 4 4 > > < < < < < > > > > > > 3 > > 3 3 3 3 3 4 3 3 3 3 3 3 3 3 3 5 6 6 w t y y i g x x x N N H J J Y Y Y Y E Y H H F F D m m l l l h g g f u u u u f f h l n M L I ..O.:.<.i.f.C.~.(.|.|.OX7X6XwXpXfXfXfXfXfXfXfXdXdXdXdXfXfXfXfXfXfXzXzXcXhXeXeXeXAXAXAXBXBXMXbXU.F.j.q.w.6.) ^ IXIXIXIXIXIXIXIXIXIXIXIXIXIXIXIXIXIXIXIXIXIXIXIXIXIXIXIX",
"IXIXIXIXIXIXIXIXIXIXIXIXIXIXIXIXIXIXIXIXIXIXIXIXIXIXIXIXIXIXIXIXIXIXIXIXIXIXIXIXIXIXIXIXIXIXIXIXIXIXIXIXIXIXIXIXIXIXIXIXIXIXIXIXIXIXIXIXIXIXIXIXIXIXIXIXIXIXIXIXIXIX^ ) ( 6.6.w.q.j.j.j.S.F.G.[.}.}.@X@X+X+X+X+X+X+X8X8XrXrX9XrX9X9X+X+X X{.{.H.D.A.p.4.1.=.X.T P F m z k k i y y t 6 6 3 3 3 3 3 3 3 3 3 3 3 3 4 4 6 6 6 6 6 6 6 6 6 6 6 6 6 6 6 6 6 6 6 6 6 6 6 6 6 6 6 6 6 6 6 6 6 6 6 6 6 6 6 6 6 6 6 6 6 6 6 6 6 6 6 6 6 6 6 6 6 6 6 6 6 6 6 6 6 6 6 6 4 4 4 4 4 3 3 3 3 3 3 3 3 3 3 3 3 3 3 3 5 5 5 5 5 5 5 5 5 w e e e e f f f f h h n n B L I | o.$.$.1.g.g.f.C.~.].{.|.|.OX7X6X7X6XwXpXpXgXgXgXgXiX4X3X4X4X4X4X%X%X%X%X.X.X.X_._.`.(.(.(.(.].].].D.D.D.k.k.k.h.h.l.2.2.;.@.+.R Y U H D z l k i y t 9 6 4 4 4 4 > < > > > > > < < > > > > > > > > > 3 3 3 3 3 3 3 3 3 3 3 3 3 3 4 6 6 w t y u i g k x x x N J H H H H H H H H H D m m z l l g g g g f u u u u u u f g h n M L L I o.O.,.g.p.Z.~.].{.|.OX7X6X6XpXhXzXzXzXfXfXfXfXdXdXdXdXfXfXfXfXfXzXzXzXcXjXeXeXeXAXAXAXBXBXMXbXI.S.j.q.w.&.) ~ IXIXIXIXIXIXIXIXIXIXIXIXIXIXIXIXIXIXIXIXIXIXIXIXIXIXIXIX",
"IXIXIXIXIXIXIXIXIXIXIXIXIXIXIXIXIXIXIXIXIXIXIXIXIXIXIXIXIXIXIXIXIXIXIXIXIXIXIXIXIXIXIXIXIXIXIXIXIXIXIXIXIXIXIXIXIXIXIXIXIXIXIXIXIXIXIXIXIXIXIXIXIXIXIXIXIXIXIXIXIXIXIX^ ) ( 6.6.w.w.0.h.j.A.A.F.G.[.}.}.}.@X@X+X+X+X+X+X8X8XrX9X9X9X+X+X@X}.}.[.H.D.A.p.4.2.-.X.T P F D z z k g y y t 6 6 6 4 4 4 4 4 3 3 3 3 3 4 4 4 6 6 6 6 6 6 6 6 6 6 6 6 6 6 6 6 6 6 6 6 6 6 6 6 6 6 6 6 6 6 6 6 6 6 6 6 6 6 6 6 6 6 6 6 6 4 4 4 4 4 4 4 4 4 4 4 4 4 4 4 4 4 4 4 4 4 4 4 4 4 3 3 3 3 3 3 3 3 3 3 3 3 3 3 3 3 5 5 5 5 5 5 5 w w w e w e u f f h h n n n n B L | o.o.#.1.g.g.p.f.C.].].{.|.|.OX7X6X6X0XwXhXpXpXpXgXgXiX4X4X4X4X%X%X%X%X%X.X.X_._.).^.^././.~.~.~.C.C.C.C.f.h.h.g.g.4.2.2.;.@.@.Q U H H F m z k k i y 9 9 4 4 4 4 > > < > : : : : : > < < < > > > > > > > > > > 3 3 3 3 3 3 3 3 3 3 3 4 6 6 6 t t u y i g x x x x x N N N H H N N N m m l l l g g g u u u u u u e e u u f h l n M L I ..O.:.<.i.f.C.].{.|.OXOX8X6XhXhXzXzXzXzXJXfXfXfXfXfXfXfXfXfXfXfXfXzXzXcXhXeXeXeX9XAXAXBXBXMXbXbXF.S.j.w.6.( ) ~ IXIXIXIXIXIXIXIXIXIXIXIXIXIXIXIXIXIXIXIXIXIXIXIXIXIXIXIX",
"IXIXIXIXIXIXIXIXIXIXIXIXIXIXIXIXIXIXIXIXIXIXIXIXIXIXIXIXIXIXIXIXIXIXIXIXIXIXIXIXIXIXIXIXIXIXIXIXIXIXIXIXIXIXIXIXIXIXIXIXIXIXIXIXIXIXIXIXIXIXIXIXIXIXIXIXIXIXIXIXIXIXIXIX^ ) ( 6.6.6.9.9.0.0.h.A.A.D.H.[.}.{.{.{.OXOXOXOX+X+X+X+X9X9X+X+X+X@X X}.[.H.D.A.p.4.5.-.+.R P G D m z k k i y t 9 6 6 6 6 6 6 4 4 4 3 4 4 4 4 6 6 6 6 6 6 6 6 6 6 6 6 6 6 6 6 6 6 6 6 6 6 6 6 6 6 6 6 6 6 6 6 6 6 6 6 4 6 6 6 6 4 4 4 4 4 4 4 3 3 3 3 3 3 3 3 3 3 3 3 3 3 3 3 3 3 3 3 3 3 3 3 3 3 3 3 3 3 3 3 3 3 3 3 3 3 5 5 5 5 5 w w e e e e u f f h h n n n M B L I | o.$.%.g.g.g.f.f.D.].].|.|.OX8X8X8X0X0XhXhXhXpXpXpXiXiX4X4X4X%X%X%X.X.X.X.X_.).^.^.W.W.W.B.B.V.V.C.Z.f.f.p.g.g.4.2.2.;.2.%.@.+.E H H H m z l k i y t 9 6 4 4 > > < > : : : = = = : : : : > < < < > > > > > > > > > > > 3 3 3 3 3 3 3 3 4 6 6 6 t t y y i i k k x x x x x x x x z z l l l k g g u u u u u e e e e e e u f g h n M L I ..O.:.1.i.f.C.].{.|.OX+X8X8X0XhXcXcXzXzXzXJXzXfXfXfXfXfXfXfXfXfXfXzXzXcXcXjXeXrX9X9XAXBXBXBXMXbXU.F.S.q.w.7.) ^ ~ IXIXIXIXIXIXIXIXIXIXIXIXIXIXIXIXIXIXIXIXIXIXIXIXIXIXIXIX",
"IXIXIXIXIXIXIXIXIXIXIXIXIXIXIXIXIXIXIXIXIXIXIXIXIXIXIXIXIXIXIXIXIXIXIXIXIXIXIXIXIXIXIXIXIXIXIXIXIXIXIXIXIXIXIXIXIXIXIXIXIXIXIXIXIXIXIXIXIXIXIXIXIXIXIXIXIXIXIXIXIXIXIXIXIXIX( ( &.6.6.6.9.9.0.h.h.A.D.D.H.H.{.{.{.|.OXOXOX+X+X+X+X+X+X+X+X+X@X}.}.[.D.D.A.h.4.2.;.+.R R P H D z l k i y y t 9 6 6 6 6 6 4 4 4 4 4 4 4 4 6 6 6 6 6 6 6 6 6 6 6 6 6 6 6 6 6 6 6 6 6 6 6 6 6 6 6 6 6 6 6 6 6 6 6 6 6 4 4 4 4 4 4 4 4 4 3 3 3 3 3 3 3 3 3 > > > > > > > > 3 3 3 3 3 3 3 3 3 3 3 3 3 3 3 3 3 3 3 3 3 5 5 5 5 6 w w e e e u u f g h n n n M B B L I | o.%.1.g.g.p.f.k.D.].].|. X+X8XqXqX0X0XuXuXhXhXpXpXwXtX4X4X&X%X%X.X.X.X_.).^.^.^.W.W.B.B.B.B.V.a.u.u.i.i.g.4.2.2.2.;.%.@.@.+.E Y H H N z x k i i y t 9 4 4 > < > : : : = = = = = = = = : : : : : < < < < < < < < < > > > > > > 3 3 3 3 3 4 6 6 6 t t y y y i g k k k x x x x x x k k k g g i u u u w w w w e e e e e e u f h l n F L I ..#.>.g.p.f.D.{.{.|.+X8X8X0XuXjXcXxXxXzXJXJXJXzXfXfXfXfXfXfXfXzXzXzXcXcXjXeXrX9X9X+XBXBXBXmXbXbXG.S.j.q.w.6.) ~ IXIXIXIXIXIXIXIXIXIXIXIXIXIXIXIXIXIXIXIXIXIXIXIXIXIXIXIXIX",
"IXIXIXIXIXIXIXIXIXIXIXIXIXIXIXIXIXIXIXIXIXIXIXIXIXIXIXIXIXIXIXIXIXIXIXIXIXIXIXIXIXIXIXIXIXIXIXIXIXIXIXIXIXIXIXIXIXIXIXIXIXIXIXIXIXIXIXIXIXIXIXIXIXIXIXIXIXIXIXIXIXIXIXIXIXIXIX( &.&.&.&.;.;.;.5.4.p.p.Z.A.C.C.C.(.{.{.oXOXOX+X+X+X+XBXBXBXBX+X@X}.}.G.F.A.A.h.0.5.;.@.W R ! H D m z k i y y t t 9 6 6 6 6 4 4 3 3 3 4 4 4 4 6 6 6 6 6 6 6 6 6 6 6 6 6 6 6 6 6 6 6 6 6 6 6 6 6 6 6 6 6 6 6 6 6 6 4 4 4 4 4 4 4 4 4 3 3 3 3 3 3 3 3 3 > > > > > > > > > > > > > > 3 3 3 3 > > > > 3 3 3 3 3 3 3 3 5 5 5 6 w w w e u u u f h h n n M B L L I | o.o.%.1.g.p.f.k.k.].].{. X XqXqXqXeXeXeXeXjXhXhXhXpXwXwX5X4X&X%X%X.X.X_.).^.^.^.W.W.B.B.B.a.u.u.y.t.t.t.t.<.1.1.-.%.%.@.+.R R Y H H H m x k k i y y t 6 4 4 > > > : = = = = # # # # # # # = = : : : : : : : > > > > < < < > > > > > 3 3 3 3 4 6 6 6 t t y y y i i i g k k k k k k g g g i i u u t w w w w w w e e e e e u f g h n M L I ..O.:.<.p.f.C.].{. XOX8X8XeXrXeXjXcXxXxXJXJXJXzXzXzXzXzXzXzXzXzXzXcXcXcXjXjXeX9X9X9X+X+XBXBXbXbXG.F.S.q.w.7.( ) ~ IXIXIXIXIXIXIXIXIXIXIXIXIXIXIXIXIXIXIXIXIXIXIXIXIXIXIXIXIX",
"IXIXIXIXIXIXIXIXIXIXIXIXIXIXIXIXIXIXIXIXIXIXIXIXIXIXIXIXIXIXIXIXIXIXIXIXIXIXIXIXIXIXIXIXIXIXIXIXIXIXIXIXIXIXIXIXIXIXIXIXIXIXIXIXIXIXIXIXIXIXIXIXIXIXIXIXIXIXIXIXIXIXIXIXIXIXIXIXIX( W W W @.@.;.2.2.4.p.p.Z.Z.Z.C.H.(.{.|.OX+X+X+X+XBXBXBXBXBXBX@X}.}.G.G.F.A.h.0.5.;.;.@.Q E H D m l k i i y y t t 6 6 6 4 4 3 3 3 4 4 4 4 4 4 4 4 4 4 4 6 6 6 4 6 6 6 6 6 6 6 6 6 6 6 6 6 6 6 6 6 6 6 6 6 6 6 6 4 4 4 4 4 4 4 4 4 3 3 3 > 3 > 3 > > > > > > > > > > > > > > > 3 > > > > > - - - 3 3 3 3 3 3 3 3 5 5 w w w e e u u f g h n M M B L I | | o.%.%.2.g.p.k.k.].].[.}. X X+XqXqXeXeXjXjXjXjXjXhXhXwXwXwX4X&X&X%X.X.X_.^.^.W.W.B.B.B.B.a.u.y.t.t.<.<.<.<.>.>.:.O.X...+.R R U U H H N z x k i y y t 9 6 4 4 > > : = = = = # # # # # # # # # # # = : : : : : : : : : : > > > > > > > > > 3 3 3 4 6 6 6 t t t y y y y i i i g i i i i i i i u u t t w w 6 6 5 5 w w w e e e u f g l n M P T X.O.<.i.p.Z.D.{.{.+X+X8X9XrXeXjXkXxXxXJXJXJXJXJXxXzXzXzXzXzXzXcXcXcXcXjXjXeXeX9X9X+X+X+X@X}.}.G.F.S.j.w.w.6.( ^ J IXIXIXIXIXIXIXIXIXIXIXIXIXIXIXIXIXIXIXIXIXIXIXIXIXIXIXIXIX",
"IXIXIXIXIXIXIXIXIXIXIXIXIXIXIXIXIXIXIXIXIXIXIXIXIXIXIXIXIXIXIXIXIXIXIXIXIXIXIXIXIXIXIXIXIXIXIXIXIXIXIXIXIXIXIXIXIXIXIXIXIXIXIXIXIXIXIXIXIXIXIXIXIXIXIXIXIXIXIXIXIXIXIXIXIXIXIXIXIXIXIXQ Q Q Q R +.-.-.1.3.i.i.Z.Z.C.C.(.{.|.OX+X+X+X+XBXBXBXBXBXBXMXbX}.G.G.F.A.h.0.9.;.;.@.Q E ! D z z k s i y y t t 6 6 4 4 3 3 3 3 3 4 4 4 4 4 4 4 4 4 4 4 4 4 4 4 4 6 6 6 6 6 6 4 4 6 6 6 6 6 6 6 6 6 6 6 4 6 6 4 4 4 4 4 4 4 4 4 4 4 4 3 3 3 3 > > > > > > > > > > > > > > > > > > > > - - - 1 3 3 3 3 3 3 3 5 5 w w e u u u f g h n n M L L I | o.o.%.%.2.g.h.k.k.].[.[.}. X X+X9X9XeXSXFXFXFXjXkXjXjXhXwXwXwX&X&X.X.X.X_.^.^.W.B.B.B.B.a.u.y.t.e.<.<.>.>.:.:.=.O.O...T T P P P F F N m z k g i y y t 9 6 4 4 > > : = = = # # # # # # # # # # # # # # = = = : : : : : : : : > > > > > > > > 3 3 3 4 4 6 6 9 t t y y y y y y i i i y y y u u y t t w w 6 6 5 5 5 5 w w e w u u f g h n M L I ..O.:.<.i.f.C.H.{. X+X+X9XeXeXeXkXFXFXFXLXLXLXJXJXxXxXzXcXcXcXcXcXcXcXcXjXjXeXeX9X+X+XBXBX}.}.}.G.F.j.q.w.6.( ) ~ IXIXIXIXIXIXIXIXIXIXIXIXIXIXIXIXIXIXIXIXIXIXIXIXIXIXIXIXIXIX",
"IXIXIXIXIXIXIXIXIXIXIXIXIXIXIXIXIXIXIXIXIXIXIXIXIXIXIXIXIXIXIXIXIXIXIXIXIXIXIXIXIXIXIXIXIXIXIXIXIXIXIXIXIXIXIXIXIXIXIXIXIXIXIXIXIXIXIXIXIXIXIXIXIXIXIXIXIXIXIXIXIXIXIXIXIXIXIXIXIXIXIXIXIXY ! R R T X.=.>.>.3.t.V.Z.C.C.{.{.@X@X+X+X+XBXBXBXBXBXBXMXMXbXbXG.F.F.A.j.0.0.9.;.;.Q E H D z z k k i y y t 9 6 6 4 3 3 3 3 3 3 3 4 3 3 4 4 4 4 4 4 4 4 4 6 6 6 6 6 6 6 6 4 4 6 6 6 6 4 4 4 6 6 6 6 4 6 6 4 4 4 4 4 4 4 4 4 4 4 4 3 3 3 3 > > > > > > 3 3 3 3 3 3 3 3 > > 3 > > - - - - 1 3 3 3 3 3 3 5 5 6 w w u u u f g h n n M L L I | +.+.%.2.2.l.h.k.k.].[.[.}. X X+X9XAXAXSXFXFXFXFXFXjXjXeXhXwXwX5X&XXX.X.X_.^.W.W.B.B.B.a.u.y.t.e.<.>.:.=.O.O.O.O.X...T I P P F F F m m z l k g i y t t 6 6 4 4 > < : : = = # # # # # # # # # # # # # # # # # # = = = = = = : = : > > > > > > > 3 3 3 4 4 6 6 6 t t t y y y y y y y u u y y t t t t w w 6 6 5 5 5 5 5 5 w w e u u f h l m F P ..O.=.>.t.p.f.C.].{.+X+X9X9XeXSXFXFXFXFXLXLXLXLXLXJXxXxXxXxXcXcXjXcXjXjXjXjXFXSXAX9X+XBXBX}.}.}.G.F.S.j.w.6.6.) ^ J IXIXIXIXIXIXIXIXIXIXIXIXIXIXIXIXIXIXIXIXIXIXIXIXIXIXIXIXIXIX",
"IXIXIXIXIXIXIXIXIXIXIXIXIXIXIXIXIXIXIXIXIXIXIXIXIXIXIXIXIXIXIXIXIXIXIXIXIXIXIXIXIXIXIXIXIXIXIXIXIXIXIXIXIXIXIXIXIXIXIXIXIXIXIXIXIXIXIXIXIXIXIXIXIXIXIXIXIXIXIXIXIXIXIXIXIXIXIXIXIXIXIXIXIXIXIXG G T T T X.=.>.3.t.V.V.C.C.{.{.{.@X@X+X+XBXBXBXBXBXBXMXMXMXbXG.F.S.S.j.0.0.9.6.;.Q E H D z z k k i y y t 6 6 4 4 3 3 3 4 3 3 3 3 3 3 3 4 4 4 4 4 4 4 4 4 4 4 6 6 6 6 6 6 6 6 6 6 6 6 6 6 6 6 4 4 6 4 4 4 4 4 4 4 4 4 4 4 4 4 4 4 4 4 3 3 > > 3 3 3 3 3 3 3 3 3 3 3 3 3 > > > > > 3 3 3 3 3 3 3 5 5 5 w w u u u f g h l n M L L | ..+.%.%.2.g.l.h.k.D.[.[.}. X X XmXAXAXAXAXFXFXFXFXFXFXFXjXrXrXwX7X7XXXXX.X_.^.W.B.B.B.u.u.t.t.e.<.,.:.O.O.X.......T T I P P F F m m m l l l g i y y t 9 6 6 4 4 3 > > : = = # # # # # # # # # # # # # # # # # # # # # # = = = = = : : > > > > > > > 3 3 4 4 6 6 6 9 9 t t t y y y y y y y t t w w w w 6 6 5 5 5 5 5 5 5 6 w w u u f g l n M L I ..=.>.<.i.f.Z.D.{.{.+X+X9XeXSXSXFXFXFXFXFXLXLXLXLXFXxXxXxXcXcXjXjXjXjXjXjXeXSXAXAXBX+X@X}.}.}.G.F.S.j.q.w.6.( ^ ~ IXIXIXIXIXIXIXIXIXIXIXIXIXIXIXIXIXIXIXIXIXIXIXIXIXIXIXIXIXIXIX",
"IXIXIXIXIXIXIXIXIXIXIXIXIXIXIXIXIXIXIXIXIXIXIXIXIXIXIXIXIXIXIXIXIXIXIXIXIXIXIXIXIXIXIXIXIXIXIXIXIXIXIXIXIXIXIXIXIXIXIXIXIXIXIXIXIXIXIXIXIXIXIXIXIXIXIXIXIXIXIXIXIXIXIXIXIXIXIXIXIXIXIXIXIXIXIXIXD F G T T X.=.>.3.t.V.Z.C.H.{.{.}.@X@X+XBXBXBXBXBXVXVXMXMXbXbXU.F.S.S.S.0.0.9.;.;.Q ! H D z z k k i y y t 6 6 4 4 3 3 4 3 3 3 3 3 3 3 3 4 4 4 4 4 4 4 4 4 4 6 6 4 4 4 4 4 6 6 6 6 6 6 6 4 4 4 4 6 4 4 4 4 4 4 4 4 4 4 4 4 4 4 4 4 4 4 4 4 4 4 4 4 4 4 4 4 4 3 3 3 3 3 3 3 3 3 3 3 3 3 3 3 3 5 5 5 5 w e u f g g h l n M B L I ..+.%.%.2.l.l.h.k.k.[.[.}. X XmXAXAXAXAXAXGXGXFXFXFXFXFXFXeXrX8X7X7XXXXX.X_.^.W.B.B.V.u.u.t.<.<.<.>.=.O.....T I I I P P L F F m m l l l k g g i u y t 6 6 4 4 3 > > > : = = # # # # # # # + + + + + + + + # # # # # # # # # # = = = = : : > > > > > > 3 3 4 4 4 6 6 6 9 9 t t t t t t t t t t 6 6 6 6 6 6 5 5 5 5 5 5 5 5 w w u u f g h l m F P ..O.:.<.t.i.Z.C.H.{. X+X+X9XSXSXSXFXFXFXFXFXFXLXLXFXFXFXxXkXcXjXjXeXeXeXeXeXeXAXAXBX+X@X}.}.}.G.F.S.S.q.w.6.' ) ^ J IXIXIXIXIXIXIXIXIXIXIXIXIXIXIXIXIXIXIXIXIXIXIXIXIXIXIXIXIXIXIX",
"IXIXIXIXIXIXIXIXIXIXIXIXIXIXIXIXIXIXIXIXIXIXIXIXIXIXIXIXIXIXIXIXIXIXIXIXIXIXIXIXIXIXIXIXIXIXIXIXIXIXIXIXIXIXIXIXIXIXIXIXIXIXIXIXIXIXIXIXIXIXIXIXIXIXIXIXIXIXIXIXIXIXIXIXIXIXIXIXIXIXIXIXIXIXIXIXIXIXD F P T X.=.=.3.t.V.Z.C.H.H.{.}.@X@XMXMXBXBXVXVXVXVXMXMXbXU.U.I.S.S.S.q.0.9.;.@.Q ! G D D z k k i y y t 6 6 6 4 4 4 4 3 3 3 3 3 3 3 3 4 4 4 4 4 4 4 4 4 4 4 4 4 4 4 4 4 4 4 4 4 4 4 4 4 4 4 4 4 4 4 4 4 4 4 4 4 4 4 4 4 4 4 4 4 4 4 4 4 4 4 4 4 4 4 4 4 4 4 3 3 3 3 3 3 3 3 3 3 3 3 5 5 5 5 6 w w u f g h h n n M M L I ..+.%.2.2.l.l.h.k.k.[.[.}. XmXmXAXAXAXAXSXSXGXFXFXFXFXFXFXeXrXrX8XOXOXXX`._.^.W.B.B.V.u.t.3.<.>.:.=.O.X...I P P L L F F F M m m l l k g g i i u y t 6 6 4 4 3 3 > > > : : = = # # # # # # # # + + + + O + + + + + # # # # # # # # # = = = : : > > > > > > 3 4 4 4 4 6 6 6 9 9 9 t t t t t 6 6 6 6 6 6 6 6 5 5 5 3 3 5 5 5 5 w w u u g h l m F L I X.=.>.3.i.f.C.D.].{.@X+X+X9XAXSXFXFXFXFXFXFXFXFXFXFXFXFXFXjXjXeXeXeXeXeXeX9X9XAXBX+X@X}.}.}.G.F.F.S.j.q.w.6.( ^ K IXIXIXIXIXIXIXIXIXIXIXIXIXIXIXIXIXIXIXIXIXIXIXIXIXIXIXIXIXIXIXIX",
"IXIXIXIXIXIXIXIXIXIXIXIXIXIXIXIXIXIXIXIXIXIXIXIXIXIXIXIXIXIXIXIXIXIXIXIXIXIXIXIXIXIXIXIXIXIXIXIXIXIXIXIXIXIXIXIXIXIXIXIXIXIXIXIXIXIXIXIXIXIXIXIXIXIXIXIXIXIXIXIXIXIXIXIXIXIXIXIXIXIXIXIXIXIXIXIXIXIXIXIXD G T T =.=.>.3.i.Z.C.D.H.H.}.}.}.MXMXMXVXVXVXVXMXMXMXbXU.U.I.S.S.S.q.0.9.6.@.Q ! ! D D z z k i y y t 6 6 6 6 6 4 4 4 3 3 3 3 3 3 3 4 4 4 4 4 4 4 4 4 4 4 4 4 4 4 4 4 4 4 4 4 4 4 4 4 4 4 4 4 4 4 4 4 4 4 4 4 4 4 4 4 4 4 4 4 4 4 4 4 4 4 4 4 4 4 4 4 4 4 4 3 3 3 3 3 3 3 5 5 5 5 6 6 w w w u f g h l n m M L L I | +.%.2.2.l.l.k.k.k.[.[.}. XmXmXAXAXAXAXGXGXGXGXFXFXFXFXSXSXeXrX8XOXOXOX`././.W.B.B.u.u.3.<.>.:.O.O.X...T P L F F M m m m m z l l g g i i u y t t 6 6 6 4 3 > > > > > : = = # # # # # # # # + + + + + O O + + + + + + + # # # # # # # # = = = : : > > > > > 3 3 4 4 4 6 6 6 6 9 9 9 9 6 6 6 6 6 6 6 6 3 3 5 5 3 3 3 3 3 5 5 6 w t u g g l m M F P ..O.:.<.t.i.Z.C.H.{.{.@X+X+XAXAXSXFXFXFXFXFXFXFXFXFXFXFXFXFXeXeX9X9X9X9X9X9X+X+X+X+X@X}.}.G.G.F.F.S.j.q.w.6.' ) ^ IXIXIXIXIXIXIXIXIXIXIXIXIXIXIXIXIXIXIXIXIXIXIXIXIXIXIXIXIXIXIXIXIX",
"IXIXIXIXIXIXIXIXIXIXIXIXIXIXIXIXIXIXIXIXIXIXIXIXIXIXIXIXIXIXIXIXIXIXIXIXIXIXIXIXIXIXIXIXIXIXIXIXIXIXIXIXIXIXIXIXIXIXIXIXIXIXIXIXIXIXIXIXIXIXIXIXIXIXIXIXIXIXIXIXIXIXIXIXIXIXIXIXIXIXIXIXIXIXIXIXIXIXIXIXIXIXG P T X.=.>.3.4.p.Z.A.D.F.G.G.bXMXMXMXMXMXMXNXNXMXnXbXU.U.U.I.S.S.q.0.9.6.;.W R ! G D D z k k i y t t 9 6 6 6 6 4 4 4 3 3 3 3 3 4 4 4 4 4 4 4 4 4 4 4 4 4 4 4 4 4 4 4 4 4 4 4 4 4 4 4 4 4 4 4 4 4 4 4 4 4 4 4 4 4 4 4 4 4 4 4 4 4 4 4 4 4 4 6 6 6 6 6 6 6 6 6 6 6 6 6 6 6 w w w w t u u g g h n n M M L L I ..+.%.2.g.l.l.k.k.D.[.[.}. XmXmXAXAXAXAXGXGXGXGXGXGXGXFXSXSXAXeX9X+XOX|.(.(.W.B.B.V.u.t.<.>.=.O.X...T I P L F m m m l l l l k k g i y u y t t 6 6 6 4 3 3 > > > > = = = = = # # # # # # + + + + + + + + O O O O O O O O O O O # # # # # # # = = = : : > > < > > 3 4 4 4 4 6 6 6 6 6 6 6 6 6 6 6 4 3 3 3 3 3 3 3 3 3 3 3 3 3 5 6 w u i g l m m F P T X.:.<.t.i.Z.C.D.].{.@X@X+X+XAXAXSXSXSXSXSXSXSXSXSXSXSXSXAX9X9X9X+X+X+X+X+X+X+X@X@X X}.}.G.F.F.S.S.j.q.0.w.6.( ^ IXIXIXIXIXIXIXIXIXIXIXIXIXIXIXIXIXIXIXIXIXIXIXIXIXIXIXIXIXIXIXIXIXIX",
"IXIXIXIXIXIXIXIXIXIXIXIXIXIXIXIXIXIXIXIXIXIXIXIXIXIXIXIXIXIXIXIXIXIXIXIXIXIXIXIXIXIXIXIXIXIXIXIXIXIXIXIXIXIXIXIXIXIXIXIXIXIXIXIXIXIXIXIXIXIXIXIXIXIXIXIXIXIXIXIXIXIXIXIXIXIXIXIXIXIXIXIXIXIXIXIXIXIXIXIXIXIXIXIXG T T =.=.1.4.4.h.A.A.F.G.G.U.bXMXMXMXMXNXNXNXNXNXbXY.U.U.I.S.S.j.0.9.9.;.@.Q R ! G D z k k i y y t t 9 9 6 6 4 4 4 4 3 3 3 4 4 4 4 4 4 4 4 4 4 4 4 4 4 4 4 4 4 4 4 4 4 4 4 4 4 4 4 4 4 4 4 4 4 4 4 4 4 4 4 4 4 4 4 4 4 4 4 4 4 4 4 6 6 6 6 6 6 6 6 6 6 6 6 6 6 w w t t u u u u g g h l n M M L L I U ..+.%.2.l.p.k.k.k.D.[.[.}. XmXmXAXAXAXGXGXGXGXGXGXGXGXGXFXSXAXAX9X+XOX|.(.~.V.B.V.V.u.t.<.:.O.X.T T P P F F m m l l k g g g i i i u y t w 6 6 6 4 3 3 3 > > - = = = = = = # # # # # + + + + + + + + + + + O O O . O O O O O O O O O O # # # # # = = = : : > > < > > 3 4 4 4 4 4 4 6 4 4 4 6 4 4 3 3 3 3 3 3 3 3 3 3 1 1 3 3 3 5 6 w u g k l m F P T X.=.>.3.i.Z.C.D.H.}.}.@X+X+XBXAXSXSXSXSXSXSXSXSXSXSXAXAX9X+X+X+X+X+X@X X X X}.}.}.}.}.G.F.F.S.A.j.j.0.0.9.6.6.) IXIXIXIXIXIXIXIXIXIXIXIXIXIXIXIXIXIXIXIXIXIXIXIXIXIXIXIXIXIXIXIXIXIXIX",
"IXIXIXIXIXIXIXIXIXIXIXIXIXIXIXIXIXIXIXIXIXIXIXIXIXIXIXIXIXIXIXIXIXIXIXIXIXIXIXIXIXIXIXIXIXIXIXIXIXIXIXIXIXIXIXIXIXIXIXIXIXIXIXIXIXIXIXIXIXIXIXIXIXIXIXIXIXIXIXIXIXIXIXIXIXIXIXIXIXIXIXIXIXIXIXIXIXIXIXIXIXIXIXIXIXG ! T X.-.-.5.4.0.h.A.S.F.G.U.U.bXbXMXMXNXNXNXNXNXbXU.U.U.I.S.S.S.0.0.9.6.;.W Q ! G D z z k s i y y t t 9 6 6 4 4 3 3 3 3 3 3 4 4 4 4 4 4 , 4 4 4 4 4 4 4 4 4 4 4 4 4 4 4 4 4 4 4 4 4 4 4 4 4 4 4 4 4 4 4 4 4 4 4 4 4 4 4 4 4 4 4 6 6 6 6 6 6 6 6 6 6 6 w w w t u u u u i g g g l n m M L U U U ..+.%.%.2.g.l.k.k.k.D.[.[.}. XmXmXAXAXAXGXGXGXGXGXGXGXGXGXGXSXAXAX9X+X+X X{.~.C.V.V.u.t.3.>.=.X.T T P P F F m m l l g i i y u u y y t t 6 6 6 4 3 3 3 > > - - = = = = # # # # # # # + + O O O O O O O + O . . . . . . . . . . O O O O O O O O @ # # # = = = : : > < < > 3 4 4 4 4 4 4 4 4 4 4 4 4 3 3 3 3 > - - - - - - - 1 1 1 3 5 6 t u g l m D F P T X.>.3.i.Z.C.D.H.{.}.@X@X+X+XAXAXSXSXSXAXAXAXAXBXBXBXBX+X+X+X+X X X}.}.}.[.G.G.F.G.F.F.S.A.j.j.0.0.0.0.9.6.6.( IXIXIXIXIXIXIXIXIXIXIXIXIXIXIXIXIXIXIXIXIXIXIXIXIXIXIXIXIXIXIXIXIXIXIXIX",
"IXIXIXIXIXIXIXIXIXIXIXIXIXIXIXIXIXIXIXIXIXIXIXIXIXIXIXIXIXIXIXIXIXIXIXIXIXIXIXIXIXIXIXIXIXIXIXIXIXIXIXIXIXIXIXIXIXIXIXIXIXIXIXIXIXIXIXIXIXIXIXIXIXIXIXIXIXIXIXIXIXIXIXIXIXIXIXIXIXIXIXIXIXIXIXIXIXIXIXIXIXIXIXIXIXIXIX! T R +.;.;.5.0.0.A.S.F.G.U.U.U.bXbXNXNXNXNXNXNXbXU.U.U.I.S.S.S.q.0.9.9.;.;.Q R ! D D z k k i i y y t 9 6 4 4 3 3 3 3 > > 3 > > > > > > , , , 4 4 4 4 4 4 4 4 4 4 4 4 4 , 4 4 4 4 , , , , , , , , 4 4 4 4 4 4 4 4 4 4 4 4 4 4 4 6 6 6 6 6 6 6 6 w w w t t u u i g g g h l l n M M L U U +.+.+.%.2.2.l.l.k.k.D.].[.[.}. X XmXAXAXAXGXGXGXGXGXGXGXGXGXGXSXSXAXAX+X+X X{.].C.Z.V.u.t.3.>.=.X.T P P F D m z z l k g i u y t t t t 9 6 6 6 4 3 3 > > > - - = ; = # # # @ @ # # @ O O O O O O O O . O O . . . . . . . . . . . . . . O O O O O O O # # # # = = : : > > < > > 3 4 4 4 4 4 4 4 4 4 4 3 3 3 > > - - - - - - - - 1 1 1 3 5 6 t i g l m F P T X.=.1.p.Z.Z.D.H.{.}.@X@X+X+XBXCXCXSXAXAXAXBXBXBXBXBX+X+X@X X X}.}.}.G.F.D.D.A.A.A.A.A.h.h.0.0.0.0.9.9.w.6.6.6.IXIXIXIXIXIXIXIXIXIXIXIXIXIXIXIXIXIXIXIXIXIXIXIXIXIXIXIXIXIXIXIXIXIXIXIXIX",
"IXIXIXIXIXIXIXIXIXIXIXIXIXIXIXIXIXIXIXIXIXIXIXIXIXIXIXIXIXIXIXIXIXIXIXIXIXIXIXIXIXIXIXIXIXIXIXIXIXIXIXIXIXIXIXIXIXIXIXIXIXIXIXIXIXIXIXIXIXIXIXIXIXIXIXIXIXIXIXIXIXIXIXIXIXIXIXIXIXIXIXIXIXIXIXIXIXIXIXIXIXIXIXIXIXIXIXIXG ! R R [ ;.5.9.0.0.S.S.S.I.U.U.U.U.bXNXNXNXNXNXbXU.U.U.U.I.S.S.j.0.0.9.6.;.W E ! H D z z k s i y t 9 6 4 4 3 3 3 3 3 > > > > > > > > > , , , , , 4 4 , , , , , , , , , , , , , , , , , , , , , , 4 4 4 4 4 4 4 4 4 4 4 4 4 4 4 6 6 6 6 6 6 w w t t t u u g g g l l l n m M L U U +.+.@.%.%.2.2.l.l.k.k.k.[.[.[.}.}. XmXmXAXAXAXGXGXGXGXGXGXGXGXGXGXSXAXAX+X+X X{.{.C.Z.i.u.3.3.>.=.X.T P G D D z z l k k i y y t t 9 6 6 6 6 6 4 3 3 > > > > - = ; = = @ # @ @ @ @ # # O O O O O O O O O . . . . . . . . . . . . . . . . . . . O O O O O # # # # = = = = : > < > > > 4 4 4 4 4 4 4 4 4 3 3 3 > > - - - ; ; - - - - - - 1 3 5 6 t i k z D F P T =.-.4.p.A.D.H.{.}.@X@X@X+XBXCXCXCXAXCXCXCXBXBX+XBX+X@X X}.}.}.[.H.D.D.A.A.h.h.h.h.0.0.0.0.9.9.6.6.6.6.6.6.IXIXIXIXIXIXIXIXIXIXIXIXIXIXIXIXIXIXIXIXIXIXIXIXIXIXIXIXIXIXIXIXIXIXIXIXIXIXIX",
"IXIXIXIXIXIXIXIXIXIXIXIXIXIXIXIXIXIXIXIXIXIXIXIXIXIXIXIXIXIXIXIXIXIXIXIXIXIXIXIXIXIXIXIXIXIXIXIXIXIXIXIXIXIXIXIXIXIXIXIXIXIXIXIXIXIXIXIXIXIXIXIXIXIXIXIXIXIXIXIXIXIXIXIXIXIXIXIXIXIXIXIXIXIXIXIXIXIXIXIXIXIXIXIXIXIXIXIXIXIXG ! ! E [ ;.6.0.0.S.S.S.S.I.U.U.U.U.NXNXNXNXNXNXbXU.U.U.I.S.S.S.q.0.0.6.;.W E Y G D z z k s i y t 9 4 4 4 3 3 > > > > > < < > < < > < , , , , , , , , , , , , , , , , , , , , , , , , , , , , , , 4 , 4 4 4 4 4 4 4 3 3 3 4 6 6 6 6 6 w w t t u u i g g l l n m m M B U U E @.@.@.%.2.2.2.l.l.k.k.k.[.[.[.[.}. X XmXBXAXAXAXGXGXGXGXGXGXGXGXGXDXAXAXBX+X X{.{.H.C.Z.u.3.>.=.=.X.T T G D z z k k k i y y y t 9 6 6 6 6 4 4 4 4 3 > > > > = = ; = = # # @ @ @ @ O O O O O O O O O O O . . . . . . . . . . . . . . . . . . . . . O O O O O # # # # = = : : : > < > > > 4 4 4 4 4 4 4 3 3 3 3 > > - - - ; ; - - - - - - 3 3 5 w t g l m F P T X.-.2.4.A.D.H.H.}.@X@X@XBXBXBXBXCXCXCXCXBXBXBX+X+X@X}.}.}.G.G.F.D.D.A.h.h.0.0.0.9.9.9.9.6.6.6.6.6.6.6.6.IXIXIXIXIXIXIXIXIXIXIXIXIXIXIXIXIXIXIXIXIXIXIXIXIXIXIXIXIXIXIXIXIXIXIXIXIXIXIXIXIX",
"IXIXIXIXIXIXIXIXIXIXIXIXIXIXIXIXIXIXIXIXIXIXIXIXIXIXIXIXIXIXIXIXIXIXIXIXIXIXIXIXIXIXIXIXIXIXIXIXIXIXIXIXIXIXIXIXIXIXIXIXIXIXIXIXIXIXIXIXIXIXIXIXIXIXIXIXIXIXIXIXIXIXIXIXIXIXIXIXIXIXIXIXIXIXIXIXIXIXIXIXIXIXIXIXIXIXIXIXIXIXIXIXIX! E Q ;.6.9.0.q.S.S.S.I.I.U.U.U.bXNXNXNXNXnXbXU.U.U.U.I.S.S.j.q.0.9.6.W Q ! H D D z k s i y 9 6 4 4 3 3 > > > > > < < > > > < < < < , , , , , , , , , , , , , , , , < , , < < < < < , > > > > , , > 4 3 3 3 3 3 3 3 3 6 6 6 6 w w t t u u i g g l n m m M F U U U @.@.@.;.2.9.9.l.l.l.h.k.k.D.[.[.[.}. X X XmXAXAXAXAXGXGXGXGXGXGXGXGXAXAXAXBX+X+X}.{.].C.Z.i.3.>.=.=.X.T ! G D z z k k i i y y t t 6 6 4 4 4 4 4 4 4 3 > > > > = = = = = # # # @ @ O O O O O O O O O O . . . . . . . . . . . . . . . .   . . . . . . . . O O O O # # # # # = = = : > < < > > , 4 4 4 4 4 3 3 3 3 > > > - - ; ; ; - - - - - - 3 3 6 w u g l m F P T -.-.4.p.A.D.G.}.}.@X@XBXBXBXBXBXCXCXBXBXBXBXBX@X@X}.}.G.H.F.A.A.A.h.h.0.9.5.;.;.;.;.;.;.W W Q W W W IXIXIXIXIXIXIXIXIXIXIXIXIXIXIXIXIXIXIXIXIXIXIXIXIXIXIXIXIXIXIXIXIXIXIXIXIXIXIXIXIXIXIX",
"IXIXIXIXIXIXIXIXIXIXIXIXIXIXIXIXIXIXIXIXIXIXIXIXIXIXIXIXIXIXIXIXIXIXIXIXIXIXIXIXIXIXIXIXIXIXIXIXIXIXIXIXIXIXIXIXIXIXIXIXIXIXIXIXIXIXIXIXIXIXIXIXIXIXIXIXIXIXIXIXIXIXIXIXIXIXIXIXIXIXIXIXIXIXIXIXIXIXIXIXIXIXIXIXIXIXIXIXIXIXIXIXIXIXIXE Q [ 6.9.0.q.q.S.S.S.I.U.U.U.bXNXNXNXNXNXnXbXY.U.U.I.S.S.S.q.0.9.6.W Q ! ! D D z k s y t 9 6 4 4 3 3 > > > > > > : > > > < < < < < , , , , , , , , , , , , , , < < < < < < < < < < < > > > > > 3 3 3 3 3 3 3 3 3 6 6 6 w w t t u u i g g l n m M F U U U E @.@.@.2.9.9.l.l.l.h.h.k.k.D.[.[.[.}.}. X X XmXBXAXAXAXAXGXGXGXGXGXGXGXAXAXBXBX+X X{.].D.Z.i.3.>.=.=.X.T ! G D z k k s i y y t t 9 9 6 4 4 4 4 4 4 3 > > > > > : = = = = = # # # @ @ O O O O O O O O O . . . . . . . . . . . . .             . . . . . . . . O O O O # # # # = = : : : > < > > > , 4 4 4 3 3 3 3 3 > > > - - ; ; ; - - - - - 3 3 3 6 t u g z D G T R -.5.4.h.A.F.G.}.@X@XMXBXBXBXBXCXCXCXBXBXBXBX@X@X}.G.G.F.A.A.A.h.h.0.4.5.5.;.;.W Q E E E E K K IXIXIXIXIXIXIXIXIXIXIXIXIXIXIXIXIXIXIXIXIXIXIXIXIXIXIXIXIXIXIXIXIXIXIXIXIXIXIXIXIXIXIXIXIXIX",
"IXIXIXIXIXIXIXIXIXIXIXIXIXIXIXIXIXIXIXIXIXIXIXIXIXIXIXIXIXIXIXIXIXIXIXIXIXIXIXIXIXIXIXIXIXIXIXIXIXIXIXIXIXIXIXIXIXIXIXIXIXIXIXIXIXIXIXIXIXIXIXIXIXIXIXIXIXIXIXIXIXIXIXIXIXIXIXIXIXIXIXIXIXIXIXIXIXIXIXIXIXIXIXIXIXIXIXIXIXIXIXIXIXIXIXIXIXE [ ;.6.9.w.q.N.S.L.I.U.U.U.nXNXNXNXNXNXNXnXY.Y.U.U.I.S.S.q.0.9.6.W Q E H D D z k i y t 6 4 4 4 3 > > > > > : : : : : < < < < < < < < < , , , , , , , , < < < < < < < < < < < < < < > > > > 3 3 3 3 3 3 3 3 5 6 6 w w t u u u g g l l n M F L U U E @.@.@.;.9.9.l.l.l.h.h.k.k.k.D.[.[.[.}.}.}. X X X XmXAXAXAXAXAXGXGXGXGXAXAXAXBXBX X X}.].D.Z.p.3.>.=.=.T T P G D z k s i y t t 9 9 9 9 4 4 4 3 3 > > > > > > > > : = = = = = # # # # @ O O O O O O O O O . . . . . . . . . . . . . . .             . . . . . . . O O O O # # # # # = = = : : < < > > > , 4 4 4 4 3 3 > > > > - - = ; - - - - 1 3 3 3 5 6 t i k z F P R +.;.5.0.A.D.G.G.@X@XMXMXBXBXBXBXBXBXBXBXMXMX@X}.}.G.G.F.A.A.h.h.0.5.5.5.;.@.W E ! ! ! ! H H IXIXIXIXIXIXIXIXIXIXIXIXIXIXIXIXIXIXIXIXIXIXIXIXIXIXIXIXIXIXIXIXIXIXIXIXIXIXIXIXIXIXIXIXIXIXIXIX",
"IXIXIXIXIXIXIXIXIXIXIXIXIXIXIXIXIXIXIXIXIXIXIXIXIXIXIXIXIXIXIXIXIXIXIXIXIXIXIXIXIXIXIXIXIXIXIXIXIXIXIXIXIXIXIXIXIXIXIXIXIXIXIXIXIXIXIXIXIXIXIXIXIXIXIXIXIXIXIXIXIXIXIXIXIXIXIXIXIXIXIXIXIXIXIXIXIXIXIXIXIXIXIXIXIXIXIXIXIXIXIXIXIXIXIXIXIXIXE W [ 6.6.9.w.q.S.L.I.U.U.Y.nXNXNXNXNXNXNXNXnXY.U.U.I.S.S.q.0.9.6.@.Q ! ! D D z k i y 9 6 4 4 4 3 > > > : : : : : : : : < < < < < < < < < < < < < < < < < < < < < < < < < < < < < > > > > 3 3 3 3 3 3 5 6 6 6 6 w t u u g g g l l m M L U U R @.@.@.@.;.9.9.l.l.h.h.k.k.k.k.D.D.[.[.[.}.}.}. X X X X XmXAXAXAXAXAXAXAXAXAXAXBXBX X}.}.[.D.Z.p.3.>.=.X.T T G F D z k s y t 9 9 9 9 6 4 4 4 4 > > > > < < < < < : : : = = = # # # # # # O O O O O O O O O O . . . . . . . . . . . .                   . . . . . . . . O O O + # # # # # = = : : > < < > > > > > > 3 3 3 > > > > - - - - - - - 3 3 3 3 3 6 w y g l m F T R -.5.0.h.A.F.G.}.@XMXMXMXMXMXBXBXBXMXMXMXMX@X}.G.G.F.A.A.h.0.0.9.5.5.;.;.W E ! ! H H IXIXIXIXIXIXIXIXIXIXIXIXIXIXIXIXIXIXIXIXIXIXIXIXIXIXIXIXIXIXIXIXIXIXIXIXIXIXIXIXIXIXIXIXIXIXIXIXIXIXIXIX",
"IXIXIXIXIXIXIXIXIXIXIXIXIXIXIXIXIXIXIXIXIXIXIXIXIXIXIXIXIXIXIXIXIXIXIXIXIXIXIXIXIXIXIXIXIXIXIXIXIXIXIXIXIXIXIXIXIXIXIXIXIXIXIXIXIXIXIXIXIXIXIXIXIXIXIXIXIXIXIXIXIXIXIXIXIXIXIXIXIXIXIXIXIXIXIXIXIXIXIXIXIXIXIXIXIXIXIXIXIXIXIXIXIXIXIXIXIXIXIXIXQ W ' 6.6.w.q.S.S.I.U.U.Y.Y.nXNXNXNXNXNXNXnXnXY.U.I.S.S.q.0.9.6.;.Q R ! D D k s i y 9 9 6 4 4 3 > > > : : : : : : : : < : : : : < < < < < < < < < < < < : : : : < < < < < > < > > > 3 3 4 4 4 6 6 6 6 6 w t u u g g g l l n m M L P U +.@.@.@.%.2.9.9.l.h.h.k.k.k.k.D.D.D.[.[.[.[.}.}.}. X X X X X XmXAXAXAXAXAXAXAXBXBXmX X}.}.H.D.A.p.p.>.=.X.T ! G D D z k s y 9 9 9 4 4 4 4 4 4 , < < < > > > : : : : : : = = # # # # # # # O O O O O O O O O O . . . . . . . . . .                           . . . . . . . O O O O + # # # # # = = : : > < < < > > > > > > > > > > > - - - - - - > 3 3 3 5 6 6 t y k z D G R R ;.5.0.A.F.G.G.bXMXMXMXMXMXMXMXMXMXMXMXMX}.G.G.F.F.A.A.0.0.9.5.;.;.;.[ Q R ! IXIXIXIXIXIXIXIXIXIXIXIXIXIXIXIXIXIXIXIXIXIXIXIXIXIXIXIXIXIXIXIXIXIXIXIXIXIXIXIXIXIXIXIXIXIXIXIXIXIXIXIXIXIXIXIX",
"IXIXIXIXIXIXIXIXIXIXIXIXIXIXIXIXIXIXIXIXIXIXIXIXIXIXIXIXIXIXIXIXIXIXIXIXIXIXIXIXIXIXIXIXIXIXIXIXIXIXIXIXIXIXIXIXIXIXIXIXIXIXIXIXIXIXIXIXIXIXIXIXIXIXIXIXIXIXIXIXIXIXIXIXIXIXIXIXIXIXIXIXIXIXIXIXIXIXIXIXIXIXIXIXIXIXIXIXIXIXIXIXIXIXIXIXIXIXIXIXIXK Q W 6.6.w.q.N.L.I.I.U.Y.Y.nXNXNXNXNXNXNXNXnXY.U.I.S.S.q.0.9.6.;.W R ! G D k s i y t 9 6 4 4 4 > > : : : : : : : : : : : : : : : : : : : : : : : : : : : : : : < < < < > > > > 4 4 4 6 6 6 6 6 6 w t t u i g g l l m m M F L I ..+.+.%.2.2.2.9.l.l.h.k.k.k.k.D.D.D.[.].[.[.[.[.}.}.}. X X X X X X XmXBXBXAXBXBXBXmXmX}.}.[.D.D.k.p.4.1.=.T T G G D z k s i y 9 4 4 4 , , > < < < < : : : : : : : : : = = # # # # # # # # + O O O O O O O O O . . . . . . . . . . . .                             . . . . . . . O O O O # # # # # = = : : : > > < < < < > > > > > > > - - - - - - > 3 3 3 6 6 6 t y i k D F ! R ;.;.0.0.S.F.G.G.U.MXMXMXMXMXMXMXMXMXU.U.G.G.F.S.S.S.0.0.9.9.5.;.;.[ W E ! IXIXIXIXIXIXIXIXIXIXIXIXIXIXIXIXIXIXIXIXIXIXIXIXIXIXIXIXIXIXIXIXIXIXIXIXIXIXIXIXIXIXIXIXIXIXIXIXIXIXIXIXIXIXIXIXIXIX",
"IXIXIXIXIXIXIXIXIXIXIXIXIXIXIXIXIXIXIXIXIXIXIXIXIXIXIXIXIXIXIXIXIXIXIXIXIXIXIXIXIXIXIXIXIXIXIXIXIXIXIXIXIXIXIXIXIXIXIXIXIXIXIXIXIXIXIXIXIXIXIXIXIXIXIXIXIXIXIXIXIXIXIXIXIXIXIXIXIXIXIXIXIXIXIXIXIXIXIXIXIXIXIXIXIXIXIXIXIXIXIXIXIXIXIXIXIXIXIXIXIXIXIXK ) ' 6.w.q.q.L.L.I.T.Y.Y.nXNXNXNXNXNXNXNXbXY.U.I.S.S.j.0.9.9.;.W Q ! D D k k i y y 9 9 4 4 > > : : : : : : : : : : : : : : % : % : : : : : : : : : : : : : : < < < > > , 4 4 4 6 6 6 w t t t t u u g g l l m m M F L I I ..+.%.-.2.2.2.l.l.l.h.k.k.k.D.D.D.].].].].[.[.[.[.}.}. X X X X X X X X X XmXmXmXmXmXmX}.[.F.F.A.k.p.4.2.-.X.T G D z z k s y y 9 4 , < : : : : : : : : = = # # # # # # # # # # # # # + O O O O O O O O O . . . . . . . . . . . . . . . . .                             . . . . . . O O O O # # # # # # = = : : : : : > > > > > > > > > > - - - - - > 3 3 3 6 6 6 t y i k z D G R @.;.9.0.0.S.F.G.U.U.MXMXMXMXMXMXU.U.U.G.G.F.S.S.S.0.0.9.6.;.;.[ Q Q E ! IXIXIXIXIXIXIXIXIXIXIXIXIXIXIXIXIXIXIXIXIXIXIXIXIXIXIXIXIXIXIXIXIXIXIXIXIXIXIXIXIXIXIXIXIXIXIXIXIXIXIXIXIXIXIXIXIXIXIXIX",
"IXIXIXIXIXIXIXIXIXIXIXIXIXIXIXIXIXIXIXIXIXIXIXIXIXIXIXIXIXIXIXIXIXIXIXIXIXIXIXIXIXIXIXIXIXIXIXIXIXIXIXIXIXIXIXIXIXIXIXIXIXIXIXIXIXIXIXIXIXIXIXIXIXIXIXIXIXIXIXIXIXIXIXIXIXIXIXIXIXIXIXIXIXIXIXIXIXIXIXIXIXIXIXIXIXIXIXIXIXIXIXIXIXIXIXIXIXIXIXIXIXIXIXIXK ) ( 7.w.q.q.L.L.I.T.Y.Y.nXNXNXNXNXNXNXNXbXU.U.I.S.S.j.0.0.9.;.;.Q ! D D k k i y y 9 9 4 , > : : : : : : : : : % % % % % % % % % % % % % % % % % : : : : : : < < > > 4 4 4 4 6 9 t t y u u u i g g l n m M F L P I ..X.+.-.2.2.2.l.l.l.l.k.k.k.k.D.D.D.].].].].].].[.[.{.{.{. X X X X X X X X X X X X X X X}.[.F.D.k.h.l.4.2.-.X.T G D z k s i y 9 9 4 , < : : = = = = = # # # # # # # # # # # # # + O O O O O O O O . . . . . . . . . . . . . . . . . . . .                                 . . . . . . . O O O O # # # # # # = = = = : = : : : : > > > > - - - - - - - > 3 3 4 6 6 t y y s k m G ! R ;.;.9.0.S.S.F.G.U.U.U.U.U.U.U.U.U.U.F.F.S.S.q.q.0.9.6.6.' W Q Q E E IXIXIXIXIXIXIXIXIXIXIXIXIXIXIXIXIXIXIXIXIXIXIXIXIXIXIXIXIXIXIXIXIXIXIXIXIXIXIXIXIXIXIXIXIXIXIXIXIXIXIXIXIXIXIXIXIXIXIXIXIXIX",
"IXIXIXIXIXIXIXIXIXIXIXIXIXIXIXIXIXIXIXIXIXIXIXIXIXIXIXIXIXIXIXIXIXIXIXIXIXIXIXIXIXIXIXIXIXIXIXIXIXIXIXIXIXIXIXIXIXIXIXIXIXIXIXIXIXIXIXIXIXIXIXIXIXIXIXIXIXIXIXIXIXIXIXIXIXIXIXIXIXIXIXIXIXIXIXIXIXIXIXIXIXIXIXIXIXIXIXIXIXIXIXIXIXIXIXIXIXIXIXIXIXIXIXIXIXIX^ ( 7.w.q.q.j.L.I.U.Y.Y.nXNXNXNXNXNXNXNXbXU.U.I.S.S.S.0.0.5.5.;.E G D D k k s y y 0 4 4 < : : = = = : = % # # # # # # # # # # # % % % % % % # % % : : : : < < > 4 4 4 4 6 9 t y u y i i g g l l m M F L P I ....+.%.2.2.2.l.g.g.h.k.k.k.k.k.k.D.D.D.].].].].].].].].].].].{.{.{.|. X X X}.}.}.}.}.}.}.[.[.D.D.h.h.l.2.2.%.+.T G D z k s i y 9 9 4 , < : = # # # # # # # # # # + + + + + O O O O O O O O . . . . . . . . . . . . . . . .     .   . . .                                       . . . . . . O O O O + # # # # # # = = = = = = = = = = = = = = = = = = = - > 3 4 6 6 t y y i k z D G R W ;.5.0.0.S.S.G.U.U.U.U.U.U.U.U.G.F.S.S.S.q.q.w.w.6.6.' ( K Q K IXIXIXIXIXIXIXIXIXIXIXIXIXIXIXIXIXIXIXIXIXIXIXIXIXIXIXIXIXIXIXIXIXIXIXIXIXIXIXIXIXIXIXIXIXIXIXIXIXIXIXIXIXIXIXIXIXIXIXIXIXIXIXIXIX",
"IXIXIXIXIXIXIXIXIXIXIXIXIXIXIXIXIXIXIXIXIXIXIXIXIXIXIXIXIXIXIXIXIXIXIXIXIXIXIXIXIXIXIXIXIXIXIXIXIXIXIXIXIXIXIXIXIXIXIXIXIXIXIXIXIXIXIXIXIXIXIXIXIXIXIXIXIXIXIXIXIXIXIXIXIXIXIXIXIXIXIXIXIXIXIXIXIXIXIXIXIXIXIXIXIXIXIXIXIXIXIXIXIXIXIXIXIXIXIXIXIXIXIXIXIXIXIX^ ( 7.w.q.q.j.L.I.I.Y.Y.nXNXNXNXNXNXNXMXbXU.U.I.F.S.S.0.0.5.;.[ R ! D D k k s y 9 9 4 > : : = = = # # # # # # + + + + + + + + + + + # + # # # # # : : : < < > 4 4 4 6 9 t y y i i g g k l l m F L P I ....+.%.-.1.2.g.g.g.p.k.k.h.k.k.k.k.k.D.D.D.D.D.D.D.D.D.].].].].].].].].{.{.{.[.[.[.[.[.[.[.[.[.D.k.h.l.l.2.2.%.+.R P D z k s i t 9 9 4 , < : = # # # # # # # # # + + + O O O O O O O O O . . . . . . . . . . .             . .                                                     . . . . . . O O O O O + # # # # # # # = = = = = = = = = = ; = ; = ; = = - > 3 4 6 9 t y i k z D G ! Q ;.5.9.0.N.S.S.G.U.U.U.U.U.U.I.F.S.S.S.q.q.w.6.6.6.' ( K K K IXIXIXIXIXIXIXIXIXIXIXIXIXIXIXIXIXIXIXIXIXIXIXIXIXIXIXIXIXIXIXIXIXIXIXIXIXIXIXIXIXIXIXIXIXIXIXIXIXIXIXIXIXIXIXIXIXIXIXIXIXIXIXIXIXIXIX",
"IXIXIXIXIXIXIXIXIXIXIXIXIXIXIXIXIXIXIXIXIXIXIXIXIXIXIXIXIXIXIXIXIXIXIXIXIXIXIXIXIXIXIXIXIXIXIXIXIXIXIXIXIXIXIXIXIXIXIXIXIXIXIXIXIXIXIXIXIXIXIXIXIXIXIXIXIXIXIXIXIXIXIXIXIXIXIXIXIXIXIXIXIXIXIXIXIXIXIXIXIXIXIXIXIXIXIXIXIXIXIXIXIXIXIXIXIXIXIXIXIXIXIXIXIXIXIXIX^ ( 6.w.w.q.q.L.I.I.U.Y.bXNXNXNXNXNXMXNXbXU.U.G.F.S.S.0.0.9.;.Q ! G D D k s i y 9 4 > > : = = # # # # # + + + + + + + + + + + + + + + + + # # # # : : < < > 4 4 4 6 9 y y i g k k l l m m F L P T ..O.+.%.2.1.2.l.g.h.h.k.k.k.k.k.k.k.k.k.k.k.f.C.f.f.f.f.C.C.~.~.~.].].].].].].].[.[.[.[.[.[.[.D.D.k.h.l.0.2.2.%.+.R P F m k s y t 9 9 4 4 < : : # # # # # # # # + + + + O O O O O O O . . . . . . . .                                                                               . . . . . . . O O O O O O O # # # # # # # # # # # # # = = = = = = ; ; = = > 3 4 6 9 t y i s k z D ! R W ;.9.0.q.S.S.F.G.U.U.U.U.I.I.S.S.S.q.q.w.w.6.6.' ) ) K K IXIXIXIXIXIXIXIXIXIXIXIXIXIXIXIXIXIXIXIXIXIXIXIXIXIXIXIXIXIXIXIXIXIXIXIXIXIXIXIXIXIXIXIXIXIXIXIXIXIXIXIXIXIXIXIXIXIXIXIXIXIXIXIXIXIXIXIXIX",
"IXIXIXIXIXIXIXIXIXIXIXIXIXIXIXIXIXIXIXIXIXIXIXIXIXIXIXIXIXIXIXIXIXIXIXIXIXIXIXIXIXIXIXIXIXIXIXIXIXIXIXIXIXIXIXIXIXIXIXIXIXIXIXIXIXIXIXIXIXIXIXIXIXIXIXIXIXIXIXIXIXIXIXIXIXIXIXIXIXIXIXIXIXIXIXIXIXIXIXIXIXIXIXIXIXIXIXIXIXIXIXIXIXIXIXIXIXIXIXIXIXIXIXIXIXIXIXIX~ ) ( 6.7.w.q.q.S.L.I.U.Y.bXnXMXNXMXMXMXMXbXU.U.G.F.S.S.0.0.9.;.Q ! G D Z k s y 9 4 4 < : = = # # # # # + O O O O O O O O O O + + + + + + + # # # : : < > , 4 4 6 9 t y i g k l l m m M F L I T ..+.%.1.1.2.g.g.p.h.k.k.k.k.k.k.k.f.f.f.f.f.f.f.f.f.f.d.d.f.f.f.f.~.~.~.].].].].].].].].].].D.D.k.k.h.l.9.2.%.@.+.R P F m z k y t 9 6 4 4 > < : # # # + + + + + + + + + O O O O O . . . . . . . . .                                                                                   . . . . . . . O O O O O O O @ # # # # # # # # # @ @ @ # # = = = = = ; = - > 3 4 6 t y i s k z D H ! Q ;.5.9.0.0.S.S.S.F.U.G.G.F.S.S.S.N.q.w.w.6.6.' ) ^ ^ K IXIXIXIXIXIXIXIXIXIXIXIXIXIXIXIXIXIXIXIXIXIXIXIXIXIXIXIXIXIXIXIXIXIXIXIXIXIXIXIXIXIXIXIXIXIXIXIXIXIXIXIXIXIXIXIXIXIXIXIXIXIXIXIXIXIXIXIXIXIXIX",
"IXIXIXIXIXIXIXIXIXIXIXIXIXIXIXIXIXIXIXIXIXIXIXIXIXIXIXIXIXIXIXIXIXIXIXIXIXIXIXIXIXIXIXIXIXIXIXIXIXIXIXIXIXIXIXIXIXIXIXIXIXIXIXIX/ / / / IXIXIXIXIXIXIXIXIXIXIXIXIXIXIXIXIXIXIXIXIXIXIXIXIXIXIXIXIXIXIXIXIXIXIXIXIXIXIXIXIXIXIXIXIXIXIXIXIXIXIXIXIXIXIXIXIXIXIXIXIXJ ^ ) *.7.w.q.q.S.L.I.U.U.bXbXNXMXMXMXMXbXbXU.U.G.F.S.S.0.0.6.;.Q ! G D z k s y 9 4 > > : = # # # # + O O O . . . . . . . O O O O O O + + # # # : : < > 4 4 6 9 t y i k k l m m m F F P I ..X.%.-.1.2.4.g.p.k.k.k.k.D.D.D.D.k.C.f.f.f.f.f.f.d.d.a.a.a.a.a.a.d.d.s.f.~.~.~.].].].].].D.D.k.k.k.k.l.l.9.2.%.@.+.R P F m z k i y 9 6 4 4 > < : : # # + + + + + + + + + + O O O O . . . . . . . .                                                                                     . . . . . . . . O O O O O O O O # # # # # # @ @ @ @ @ @ @ @ # = = = = ; = - > 3 6 9 y y s k k Z H ! E W ;.6.0.0.q.S.S.S.S.S.S.S.S.S.S.q.q.w.w.6.' ( ^ ^ K IXIXIXIXIXIXIXIXIXIXIXIXIXIXIXIXIXIXIXIXIXIXIXIXIXIXIXIXIXIXIXIXIXIXIXIXIXIXIXIXIXIXIXIXIXIXIXIXIXIXIXIXIXIXIXIXIXIXIXIXIXIXIXIXIXIXIXIXIXIXIXIXIX",
"IXIXIXIXIXIXIXIXIXIXIXIXIXIXIXIXIXIXIXIXIXIXIXIXIXIXIXIXIXIXIXIXIXIXIXIXIXIXIXIXIXIXIXIXIXIXIXIXIXIXIXIXIXIXIXIXIXIXIXIXIXIX{ { { { { ] ] / IXIXIXIXIXIXIXIXIXIXIXIXIXIXIXIXIXIXIXIXIXIXIXIXIXIXIXIXIXIXIXIXIXIXIXIXIXIXIXIXIXIXIXIXIXIXIXIXIXIXIXIXIXIXIXIXIXIXIXIXJ ^ ) ( 6.w.w.q.S.S.I.U.U.U.U.bXMXMXMXMXMXbXU.U.G.F.S.S.0.9.5.;.R ! G D z k y 9 4 , < : : = # # # # O O O . . . . . . . . O O O O O + + # # = : < > 4 4 9 9 t y i k l z m D F F P P T ..+.-.1.2.4.g.p.h.h.k.D.D.D.D.D.D.D.C.C.f.f.f.f.d.a.a.d.d.d.d.d.d.d.d.d.s.d.s.f.C.~.~.C.k.k.k.k.k.k.k.l.l.2.2.%.@.Q U U F m z k i y 9 6 4 4 > < : : # # # + + + + + + + + + O O O O . . . . . . . . .                                                                                 . . . . . . . . . . O O O O O O O O @ @ # # # @ @ @ @ @ @ @ @ @ # = = = ; ; - > 3 4 9 t y i k x Z D H E Q ;.6.9.0.q.q.S.S.S.S.S.S.S.S.N.q.q.8.6.6.' ) ^ K IXIXIXIXIXIXIXIXIXIXIXIXIXIXIXIXIXIXIXIXIXIXIXIXIXIXIXIXIXIXIXIXIXIXIXIXIXIXIXIXIXIXIXIXIXIXIXIXIXIXIXIXIXIXIXIXIXIXIXIXIXIXIXIXIXIXIXIXIXIXIXIXIXIXIX",
"IXIXIXIXIXIXIXIXIXIXIXIXIXIXIXIXIXIXIXIXIXIXIXIXIXIXIXIXIXIXIXIXIXIXIXIXIXIXIXIXIXIXIXIXIXIXIXIXIXIXIXIXIXIXIXIXIXIXIXIX} { { { { { { { { { ] / IXIXIXIXIXIXIXIXIXIXIXIXIXIXIXIXIXIXIXIXIXIXIXIXIXIXIXIXIXIXIXIXIXIXIXIXIXIXIXIXIXIXIXIXIXIXIXIXIXIXIXIXIXIXIXIXIXIXIXJ K ^ ( 6.6.w.q.j.S.F.I.U.U.U.bXbXMXMXMXbXbXU.U.G.F.S.S.0.9.;.[ R ! D D z s y 0 4 , < : : = # # # O O O . . . . . . . O O O O O O + # # # : < , 4 4 9 9 t y i k l z m F F P P T ..X.+.-.1.2.g.p.h.k.k.D.D.D.D.].].].].].C.C.C.f.f.a.a.a.d.d.d.y.y.y.y.y.y.y.d.d.a.d.f.f.f.f.f.f.f.p.p.g.l.2.2.%.@.@.U U F M m l k i y 9 6 4 > < > : : = # # + + + + + + + + + + O O O . . . . . . . . . . .                                                               .             . . . . . . . . . . O O O O O O O O O @ @ @ @ @ @ @ @ @ @ @ @ @ @ = = = = = > > 3 4 6 t y i k x x H J E Q [ 6.6.9.0.q.N.S.S.S.S.S.S.S.N.q.q.w.6.6.' ) K IXIXIXIXIXIXIXIXIXIXIXIXIXIXIXIXIXIXIXIXIXIXIXIXIXIXIXIXIXIXIXIXIXIXIXIXIXIXIXIXIXIXIXIXIXIXIXIXIXIXIXIXIXIXIXIXIXIXIXIXIXIXIXIXIXIXIXIXIXIXIXIXIXIXIXIXIX",
"IXIXIXIXIXIXIXIXIXIXIXIXIXIXIXIXIXIXIXIXIXIXIXIXIXIXIXIXIXIXIXIXIXIXIXIXIXIXIXIXIXIXIXIXIXIXIXIXIXIXIXIXIXIXIXIXIXIXIX} { { { v.v.v.v.v.v.{ { { ] IXIXIXIXIXIXIXIXIXIXIXIXIXIXIXIXIXIXIXIXIXIXIXIXIXIXIXIXIXIXIXIXIXIXIXIXIXIXIXIXIXIXIXIXIXIXIXIXIXIXIXIXIXIXIXIXIXIXc J J K ( &.6.w.q.j.S.S.I.U.U.U.U.MXMXMXMXMXbXU.U.G.F.S.A.0.9.;.[ R ! D D k s y 9 4 , > < : : # # + O O O . . . . . O O O O O + # # # = : < , 4 4 9 9 y y i k z m F F P I T ..X.+.-.1.2.g.p.h.k.D.D.D.D.[.[.[.].].].].].~.~.C.V.s.a.a.d.d.y.y.y.y.y.y.y.y.y.y.y.y.d.d.d.f.f.p.p.g.g.g.2.2.%.%.@.R U U F N l l g i y 9 6 4 > > : = = # # # + + O O O O + + + + + O O O . . . . . . . . . . . . . .                         . .   . . . . . . . . . . . . . . . . . . . . . . . . . . . . . . O O O O O O O O O @ # @ @ @ @ @ @ @ @ @ @ @ # = ; = - > > 3 4 6 t y s k x Z H J K Q W 6.6.9.w.0.q.N.N.S.S.S.N.N.q.q.w.w.6.6.' ) ^ IXIXIXIXIXIXIXIXIXIXIXIXIXIXIXIXIXIXIXIXIXIXIXIXIXIXIXIXIXIXIXIXIXIXIXIXIXIXIXIXIXIXIXIXIXIXIXIXIXIXIXIXIXIXIXIXIXIXIXIXIXIXIXIXIXIXIXIXIXIXIXIXIXIXIXIXIXIX",
"IXIXIXIXIXIXIXIXIXIXIXIXIXIXIXIXIXIXIXIXIXIXIXIXIXIXIXIXIXIXIXIXIXIXIXIXIXIXIXIXIXIXIXIXIXIXIXIXIXIXIXIXIXIXIXIXIXIXIX{ { { v.n.n.K.n.n.n.v.x.x.{ ] / IXIXIXIXIXIXIXIXIXIXIXIXIXIXIXIXIXIXIXIXIXIXIXIXIXIXIXIXIXIXIXIXIXIXIXIXIXIXIXIXIXIXIXIXIXIXIXIXIXIXIXIXIXIXIXIXd c c J K Q ( 6.w.q.q.S.S.F.I.U.U.U.MXMXMXMXMXbXU.U.G.F.S.A.0.5.;.-.R ! D Z k s y 0 0 4 , < : : # # O O O O O O O O O O + + # # # # : : < , 4 9 9 y y i k k z m F P I T X.X.O.:.1.1.g.p.f.k.D.D.].[.[.[.[.}.}.{.{.{.].].~.~.!.B.s.s.a.a.d.y.y.y.y.y.r.r.r.y.y.y.y.y.y.y.i.i.g.g.g.1.1.%.%.+...R U F N n l g i u t 6 6 3 > : = = = # # # + O O O O O O + + + + O O O O O . O O . . . . . . . . . . . . . . . . . . . . . . . . . . . . . . . . . . . . . . . . . . . . . . . . . . . . . . O O O O O O O O O O O @ # # @ @ @ @ @ @ @ @ @ = = = > > > 3 4 9 t y s x x Z J J K W ( 6.6.w.w.w.q.q.q.N.N.q.q.q.q.q.w.6.6.6.' ) IXIXIXIXIXIXIXIXIXIXIXIXIXIXIXIXIXIXIXIXIXIXIXIXIXIXIXIXIXIXIXIXIXIXIXIXIXIXIXIXIXIXIXIXIXIXIXIXIXIXIXIXIXIXIXIXIXIXIXIXIXIXIXIXIXIXIXIXIXIXIXIXIXIXIXIXIXIXIXIX",
"IXIXIXIXIXIXIXIXIXIXIXIXIXIXIXIXIXIXIXIXIXIXIXIXIXIXIXIXIXIXIXIXIXIXIXIXIXIXIXIXIXIXIXIXIXIXIXIXIXIXIXIXIXIXIXIXIXIX} { { v.n.K.K.K.K.K.K.K.n.v.x.{ ] / IXIXIXIXIXIXIXIXIXIXIXIXIXIXIXIXIXIXIXIXIXIXIXIXIXIXIXIXIXIXIXIXIXIXIXIXIXIXIXIXIXIXIXIXIXIXIXIXIXIXIXIXIXIXIXIXv c x J J K ( 6.w.0.q.S.S.S.G.U.U.bXMXMXMXMXMXbXU.G.G.F.A.A.4.5.-.=.T ! D z k s y 9 9 4 4 > < : # # @ O O O O O O O # # # # # : : : < 4 4 9 y y i s k z z D F P T X.O.=.:.>.1.g.g.p.f.D.D.].[.{.}.}. X X X X|.|.|.{.{.(.~.!.W.B.s.a.a.d.y.y.y.y.r.r.r.r.r.r.y.y.y.y.y.e.r.e.1.1.#.%.o...| U L M m l g g u t w 6 4 3 > = = # # # # @ O O O O O . . . O O O O O O O O . . O O O O O . . . . O . . O . . . . . . . . . . . . . . . . . . . . . . . . . . . . . . . . . . . . . . . . . O . O O O O O O O O O O @ @ @ @ @ @ @ @ @ @ @ @ = = - > > 3 4 6 9 t y s x x J J Y Q W ( 6.6.w.w.w.q.q.q.q.q.q.q.q.w.w.w.6.6.' ' IXIXIXIXIXIXIXIXIXIXIXIXIXIXIXIXIXIXIXIXIXIXIXIXIXIXIXIXIXIXIXIXIXIXIXIXIXIXIXIXIXIXIXIXIXIXIXIXIXIXIXIXIXIXIXIXIXIXIXIXIXIXIXIXIXIXIXIXIXIXIXIXIXIXIXIXIXIXIXIXIXIX",
"IXIXIXIXIXIXIXIXIXIXIXIXIXIXIXIXIXIXIXIXIXIXIXIXIXIXIXIXIXIXIXIXIXIXIXIXIXIXIXIXIXIXIXIXIXIXIXIXIXIXIXIXIXIXIXIXIXIX} { v.n.K.K.K.P.P.P.K.K.K.n.v.x.{ ] / IXIXIXIXIXIXIXIXIXIXIXIXIXIXIXIXIXIXIXIXIXIXIXIXIXIXIXIXIXIXIXIXIXIXIXIXIXIXIXIXIXIXIXIXIXIXIXIXIXIXIXIXIXIXIXp p x c J J E ( 6.6.0.q.S.S.S.G.U.U.bXMXMXMXMXMXbXG.G.G.F.A.A.4.1.=.T T G D z s i y 9 9 4 4 > : = # # # @ O O O # # # # # = : : < , 4 4 9 y i s k k z D D G P T X.O.:.>.<.g.p.p.f.C.D.D.].{.{. X X X X X X X X|.|.|.(.(.(.!.W.B.s.a.d.d.y.y.y.y.r.r.e.e.e.r.r.r.r.r.r.e.,.,.#.#.O.o...I L L M n l g u u t w 6 3 3 > = = # @ @ @ O O O O O O . . . . . O O . O O O O . O O O O O O O O O O O + + O + + + + + + + + + + O . . O . . . . . . . . . . . . . . . . . . . . . . . . . O O O O O O O O O O O O O O O @ @ @ @ @ @ @ @ @ @ = = = > > 4 4 6 9 t i s x x J J K Q ( ' 6.6.w.w.q.q.q.q.q.q.q.q.w.w.w.6.6.6.' ' IXIXIXIXIXIXIXIXIXIXIXIXIXIXIXIXIXIXIXIXIXIXIXIXIXIXIXIXIXIXIXIXIXIXIXIXIXIXIXIXIXIXIXIXIXIXIXIXIXIXIXIXIXIXIXIXIXIXIXIXIXIXIXIXIXIXIXIXIXIXIXIXIXIXIXIXIXIXIXIXIXIXIX",
"IXIXIXIXIXIXIXIXIXIXIXIXIXIXIXIXIXIXIXIXIXIXIXIXIXIXIXIXIXIXIXIXIXIXIXIXIXIXIXIXIXIXIXIXIXIXIXIXIXIXIXIXIXIXIXIXIX/ { { n.n.K.P.R.R.R.R.R.P.K.K.n.v.x.] _ / IXIXIXIXIXIXIXIXIXIXIXIXIXIXIXIXIXIXIXIXIXIXIXIXIXIXIXIXIXIXIXIXIXIXIXIXIXIXIXIXIXIXIXIXIXIXIXIXIXIXIXIXIXIX0 p p x x J J K W 6.6.9.0.j.S.F.G.U.U.bXMXMXMXMXMXbXG.G.F.A.A.4.4.>.=.T ! G D k k s y 9 9 4 4 < : = # # # # # # # # # = : : < < , 4 0 9 y i k k z D D F G T T X.=.:.<.<.i.p.f.f.C.D.].{.{. X X X X X+X+X+X+X X|.|.|.`.(.'.Q.W.B.s.a.d.d.y.y.y.r.r.r.e.e.e.e.e.e.e.e.e.,.,.#.#.o...| I L B M n h g u u w 6 6 3 3 > - = # @ @ @ O O O O O O . . . . . . . . . O O O O O O O O O O O O $ $ $ $ $ $ $ $ $ $ $ $ $ $ $ $ $ $ + + + + O O O . . . . . . . . . . . . . . . . O O O O O O O O O O O O O O O O O O O O O @ @ @ @ @ @ @ @ = = = > > 4 4 0 t t p s x x J J K ) ( 6.6.6.w.w.q.q.q.q.q.q.q.w.w.w.6.6.6.' ' IXIXIXIXIXIXIXIXIXIXIXIXIXIXIXIXIXIXIXIXIXIXIXIXIXIXIXIXIXIXIXIXIXIXIXIXIXIXIXIXIXIXIXIXIXIXIXIXIXIXIXIXIXIXIXIXIXIXIXIXIXIXIXIXIXIXIXIXIXIXIXIXIXIXIXIXIXIXIXIXIXIXIXIXIX",
"IXIXIXIXIXIXIXIXIXIXIXIXIXIXIXIXIXIXIXIXIXIXIXIXIXIXIXIXIXIXIXIXIXIXIXIXIXIXIXIXIXIXIXIXIXIXIXIXIXIXIXIXIXIXIXIXIX} { v.n.K.K.R.R.R.R.R.R.R.P.K.K.n.v.x.] _ ` IXIXIXIXIXIXIXIXIXIXIXIXIXIXIXIXIXIXIXIXIXIXIXIXIXIXIXIXIXIXIXIXIXIXIXIXIXIXIXIXIXIXIXIXIXIXIXIXIXIXIXIXIXIX0 p p x x J J K W 6.6.9.0.j.S.F.G.G.U.bXMXMXMXMX}.G.G.G.F.A.Z.4.3.=.=.T ! D D k s i y 9 9 4 4 < : = = # # # # = = : : < < , 4 4 9 9 y i k k z D D G P T T X.=.:.<.t.i.p.f.C.C.D.].{.{. X X X+X+X+X8X8X8XqXOX|.|.|.`.'.'.Q.!.!.s.s.d.d.y.y.y.r.r.r.e.,.,.,.,.,.,.,.,.,.#.#.o...| I L L M n l g u t w 6 5 3 3 - - ; = @ @ @ O O O O O O O . . . . . . . . . . O O + + + O O O $ $ # $ $ $ $ $ $ $ $ $ $ $ $ $ $ $ $ $ $ $ $ $ $ $ + + + + + + . . . . . . . . . O O O O O O O O O O O O O O O O O O O O O O O O @ @ @ @ @ @ @ = = = > > 4 6 0 p p p v x x J J K ) ( 6.6.6.w.q.q.q.q.q.q.q.q.8.8.6.6.6.' ' ( IXIXIXIXIXIXIXIXIXIXIXIXIXIXIXIXIXIXIXIXIXIXIXIXIXIXIXIXIXIXIXIXIXIXIXIXIXIXIXIXIXIXIXIXIXIXIXIXIXIXIXIXIXIXIXIXIXIXIXIXIXIXIXIXIXIXIXIXIXIXIXIXIXIXIXIXIXIXIXIXIXIXIXIXIXIX",
"IXIXIXIXIXIXIXIXIXIXIXIXIXIXIXIXIXIXIXIXIXIXIXIXIXIXIXIXIXIXIXIXIXIXIXIXIXIXIXIXIXIXIXIXIXIXIXIXIXIXIXIXIXIXIXIXIX} { v.n.K.R.R.R.E.E.E.E.R.R.P.P.K.n.c.] _ / IXIXIXIXIXIXIXIXIXIXIXIXIXIXIXIXIXIXIXIXIXIXIXIXIXIXIXIXIXIXIXIXIXIXIXIXIXIXIXIXIXIXIXIXIXIXIXIXIXIXIXIXIXIX0 9 t i x x J J K W 6.6.9.0.S.S.F.G.G.G.bXMXMXMX}.}.G.G.H.A.Z.Z.3.>.=.=.T G D D k k i y t 9 4 4 < > : = = = = : : < < , 4 4 4 9 9 y i k z D D G G T T T X.=.>.<.t.i.i.Z.C.C.D.].{.{.|. X+X+X9X9X9XqXqXqX8X7XOX|.|.`.`.Q.Q.!.!.s.s.d.d.y.y.y.r.r.e.e.,.,.,.,.,.,.,.,.#.#.o...| I L M M n l g u u w 6 5 3 3 - - ; = @ @ @ O O O O O O O O . . . . . . . . . O O + + + + + + # # # $ $ $ $ < < < < 8 8 8 < < < < < < $ $ $ $ $ # $ $ + + + + + + O O O O O O O O O O O O O O O O O O O O O O O O O O O O O O O @ @ @ @ @ # = = = = - > 3 7 0 p p p v c c J J K ) ( 6.6.w.w.q.q.q.q.q.q.q.q.8.8.6.6.' ' ( ) IXIXIXIXIXIXIXIXIXIXIXIXIXIXIXIXIXIXIXIXIXIXIXIXIXIXIXIXIXIXIXIXIXIXIXIXIXIXIXIXIXIXIXIXIXIXIXIXIXIXIXIXIXIXIXIXIXIXIXIXIXIXIXIXIXIXIXIXIXIXIXIXIXIXIXIXIXIXIXIXIXIXIXIXIXIXIX",
"IXIXIXIXIXIXIXIXIXIXIXIXIXIXIXIXIXIXIXIXIXIXIXIXIXIXIXIXIXIXIXIXIXIXIXIXIXIXIXIXIXIXIXIXIXIXIXIXIXIXIXIXIXIXIXIXUX} { v.n.K.R.R.E.E.E.E.E.E.R.R.P.K.n.v.x.] _ ` IXIXIXIXIXIXIXIXIXIXIXIXIXIXIXIXIXIXIXIXIXIXIXIXIXIXIXIXIXIXIXIXIXIXIXIXIXIXIXIXIXIXIXIXIXIXIXIXIXIXIXIXIX4 4 9 t i k x H J K W 6.6.9.0.S.S.F.G.G.U.bXMX@X}.}.}.G.H.H.Z.Z.i.3.>.=.T ! G D D z k s y t 9 4 4 > < > > > > < > , 4 4 0 9 9 y y s k z D D G P T T X.X.=.>.<.t.u.f.Z.C.C.].{.{.{.|. X+X+X8X9XqXqXqXqXqX8X7X7X|.`.`.`.^.Q.!.!.s.s.d.d.y.y.y.r.r.e.,.,.,.,.,.,.,.#.#.#.o...| I L M M n l g f u w 5 5 3 3 1 - ; ; = @ @ @ @ O O O O O O O O . . . . . O O O O O + + + + # # # $ $ < < < 8 8 8 8 8 8 8 8 8 8 8 8 8 8 8 < < $ $ # # # $ $ $ + O O + O O O O O O O O O O O O O O O O O O O O O O O O O O O O O @ @ @ @ # # = = ; = - > 3 4 0 p p v v c c J J ^ ) ( 6.6.w.w.q.q.q.q.q.q.q.q.q.w.6.6.' ( ) ^ IXIXIXIXIXIXIXIXIXIXIXIXIXIXIXIXIXIXIXIXIXIXIXIXIXIXIXIXIXIXIXIXIXIXIXIXIXIXIXIXIXIXIXIXIXIXIXIXIXIXIXIXIXIXIXIXIXIXIXIXIXIXIXIXIXIXIXIXIXIXIXIXIXIXIXIXIXIXIXIXIXIXIXIXIXIXIXIX",
"IXIXIXIXIXIXIXIXIXIXIXIXIXIXIXIXIXIXIXIXIXIXIXIXIXIXIXIXIXIXIXIXIXIXIXIXIXIXIXIXIXIXIXIXIXIXIXIXIXIXIXIXIXIXIXIXUX} { v.n.K.R.R.E.E.E.E.E.E.E.R.R.P.K.n.c.] _ ^ IXIXIXIXIXIXIXIXIXIXIXIXIXIXIXIXIXIXIXIXIXIXIXIXIXIXIXIXIXIXIXIXIXIXIXIXIXIXIXIXIXIXIXIXIXIXIXIXIXIXIXIXIX, 4 4 9 t i k x Z J E Q ;.6.9.0.A.S.F.G.G.G.}.}.}.}.}.G.H.H.C.Z.Z.3.3.>.=.T ! G D D z k s y t 9 6 4 4 , > , , 4 4 4 9 9 9 y y i s k z D G G T T X.X.=.:.>.<.t.u.Z.C.C.~.(.].{.|.|.|.+X8XqXqXqXqXqX0X0X8X6X7X7X|.`.`.`.).Q.Q.!.s.s.a.d.y.y.y.r.r.e.,.,.,.$.#.#.#.#.#.o...| I L B M n l h f u w 5 5 3 1 - - ; ; = * @ @ @ O O O O O O O O O O O O O O O O O O + + # # # # # = < < < < 8 8 8 8 8 8 8 8 8 8 8 8 8 8 8 8 8 < < < < % # # # # + + O O O O O O O O O O O O O O O O O O O O O O O O O O O O O O O @ @ @ @ = = = = = > > 3 4 0 p p v d c c J J ^ ) ( 7.6.w.q.q.q.q.b.J.q.q.q.q.8.w.6.' ) ) K K IXIXIXIXIXIXIXIXIXIXIXIXIXIXIXIXIXIXIXIXIXIXIXIXIXIXIXIXIXIXIXIXIXIXIXIXIXIXIXIXIXIXIXIXIXIXIXIXIXIXIXIXIXIXIXIXIXIXIXIXIXIXIXIXIXIXIXIXIXIXIXIXIXIXIXIXIXIXIXIXIXIXIXIXIXIXIXIX",
"IXIXIXIXIXIXIXIXIXIXIXIXIXIXIXIXIXIXIXIXIXIXIXIXIXIXIXIXIXIXIXIXIXIXIXIXIXIXIXIXIXIXIXIXIXIXIXIXIXIXIXIXIXIXIXIXUX{ { v.n.K.R.E.E.E.E.E.ZXE.E.E.R.R.P.n.b.x.] _ ~ IXIXIXIXIXIXIXIXIXIXIXIXIXIXIXIXIXIXIXIXIXIXIXIXIXIXIXIXIXIXIXIXIXIXIXIXIXIXIXIXIXIXIXIXIXIXIXIXIXIXIXIX< < > 4 9 t i s x Z J K Q ;.6.0.0.A.S.F.G.G.G.}.}.}.}.}.H.H.H.Z.Z.V.3.>.>.=.T T G D D z k s i y t 9 9 6 4 4 6 9 9 9 t y y i s k z D D G ! T X.X.=.:.>.<.3.t.u.V.C.C.~.(.{.|.|.|.OX+X8XqX0X0XeX0X0X0X0X0X6X7X7X7X`.`._.).Q.Q.!.!.s.s.d.d.y.y.y.r.e.,.$.$.#.#.#.#.O.o.o.| I L M M n l h f u w w 5 1 - - ; ; ; ; * @ @ @ @ O O O O O O O O O O O O O O O O + + + # # # # : : < < < 8 8 8 8 q q q q q q q q q q q q q 8 8 8 8 < < < % # # # # # + + O O O O O O O O O @ @ @ @ @ @ O @ O O O O O @ @ @ @ @ @ @ @ @ # = = = = > > > 3 4 0 p p d c c J J J ^ ) ( 7.w.w.q.q.q.q.L.L.L.L.b.q.q.w.7.' ) ) ^ K IXIXIXIXIXIXIXIXIXIXIXIXIXIXIXIXIXIXIXIXIXIXIXIXIXIXIXIXIXIXIXIXIXIXIXIXIXIXIXIXIXIXIXIXIXIXIXIXIXIXIXIXIXIXIXIXIXIXIXIXIXIXIXIXIXIXIXIXIXIXIXIXIXIXIXIXIXIXIXIXIXIXIXIXIXIXIXIXIX",
"IXIXIXIXIXIXIXIXIXIXIXIXIXIXIXIXIXIXIXIXIXIXIXIXIXIXIXIXIXIXIXIXIXIXIXIXIXIXIXIXIXIXIXIXIXIXIXIXIXIXIXIXIXIXIXIXUX} { v.n.K.R.R.E.E.E.ZXZXZXZXE.E.R.P.K.n.c.7._ ^ ~ IXIXIXIXIXIXIXIXIXIXIXIXIXIXIXIXIXIXIXIXIXIXIXIXIXIXIXIXIXIXIXIXIXIXIXIXIXIXIXIXIXIXIXIXIXIXIXIXIXIXIX: : : < 4 0 9 y s x Z J K Q ;.9.0.0.A.F.F.G.G.G.}.}.}.}.{.H.H.C.Z.V.V.3.>.>.=.T T ! G D D z k s i y t t t t t t y y i s k k z z D G P T T X.=.:.>.<.3.t.u.u.V.V.~.~.(.|.|.|.OXOX7X8X0X0X0XuXuXuXuX0X0X6X6X7X7X&X$X`._.).).Q.!.!.s.s.s.d.y.y.y.r.e.,.$.#.#.#.#.o.o...| I L M M n l g f u w w 5 1 - ; ; ; ; ; * @ @ @ @ @ O O O O O O O O O O O O O O O + + # # # % : : : < < 8 8 8 q q q q q a a a a a a a a q q q q q 8 8 8 < < < < % # # # # # O O O O O O # # # @ @ # @ @ @ @ @ @ @ @ @ @ @ @ @ @ @ @ @ @ * = ; = > > > 3 4 6 9 p p v c c J J ^ ) ) ( 6.w.w.q.q.q.m.L.L.L.L.J.b.q.8.7.7.' ) ^ K IXIXIXIXIXIXIXIXIXIXIXIXIXIXIXIXIXIXIXIXIXIXIXIXIXIXIXIXIXIXIXIXIXIXIXIXIXIXIXIXIXIXIXIXIXIXIXIXIXIXIXIXIXIXIXIXIXIXIXIXIXIXIXIXIXIXIXIXIXIXIXIXIXIXIXIXIXIXIXIXIXIXIXIXIXIXIXIXIXIX",
"IXIXIXIXIXIXIXIXIXIXIXIXIXIXIXIXIXIXIXIXIXIXIXIXIXIXIXIXIXIXIXIXIXIXIXIXIXIXIXIXIXIXIXIXIXIXIXIXIXIXIXIXIXIXIXIXUX} { v.n.K.R.R.E.E.ZXZXZXZXZXZXE.R.T.P.K.b.c.7._ ^ IXIXIXIXIXIXIXIXIXIXIXIXIXIXIXIXIXIXIXIXIXIXIXIXIXIXIXIXIXIXIXIXIXIXIXIXIXIXIXIXIXIXIXIXIXIXIXIXIXIX# # # # = : > 4 9 y s k x H E Q ;.5.0.h.A.A.F.G.G.}.}.}.@X}.{.{.H.C.V.V.V.t.3.>.=.=.T T P G D z z k k s i i i s s k k k z z D D G P T T X.=.>.<.3.t.u.u.V.B.V.!.~.(.`.`.OXOX7X7X6X6X0X0XhXhXhXcXhXhXhXyX6X5X5X&X&X&X#X_.).).'.Q.!.!.s.s.s.d.y.y.y.e.,.$.#.#.O.o.o...| I L M m n h g u u e 6 5 1 - ; ; ; * * * @ @ @ @ @ @ O O O O O O O O + + + + O + + # # # % : < < < < 7 7 q q q a a a a b b b b b b b b b b a a q q q q 8 8 < < < : : # # # # # @ @ @ # # # @ # # # # # # # @ @ @ @ @ @ @ @ @ @ @ @ @ # = = = - > > 4 4 6 9 t y p v c J J J ^ ) ( 6.6.w.w.q.q.m.m.L.L.L.L.L.b.b.q.8.7.' ) ^ K IXIXIXIXIXIXIXIXIXIXIXIXIXIXIXIXIXIXIXIXIXIXIXIXIXIXIXIXIXIXIXIXIXIXIXIXIXIXIXIXIXIXIXIXIXIXIXIXIXIXIXIXIXIXIXIXIXIXIXIXIXIXIXIXIXIXIXIXIXIXIXIXIXIXIXIXIXIXIXIXIXIXIXIXIXIXIXIXIXIXIX",
"IXIXIXIXIXIXIXIXIXIXIXIXIXIXIXIXIXIXIXIXIXIXIXIXIXIXIXIXIXIXIXIXIXIXIXIXIXIXIXIXIXIXIXIXIXIXIXIXIXIXIXIXIXIXIXIXIX} { v.n.K.P.R.E.E.ZXZXZXZXZXZXZXE.R.T.P.b.b.7.7.) ^ IXIXIXIXIXIXIXIXIXIXIXIXIXIXIXIXIXIXIXIXIXIXIXIXIXIXIXIXIXIXIXIXIXIXIXIXIXIXIXIXIXIXIXIXIXIXIXIXIX@ O O @ # # : < 4 9 y i k Z H E Q ;.5.0.h.A.D.H.G.}.}.@X@X@X{.{.{.(.C.V.V.V.u.3.>.>.=.X.T T P F D m z z l k z z z z m D D G G P T T X.=.>.>.3.t.u.u.V.B.V.!././.`.`.XXOX7X7X6X6X6X6XhXhXhXhXhXhXhXpXpXpXtX5X;X&X&X&X%X#X_.).).Q.Q.!.!.s.s.s.d.y.y.r.,.$.#.#.o.o.| | I L M m l h f u u w 5 5 1 - ; ; * * * @ @ @ @ @ @ O O O O O O O O O + + + + + # # # # # : : < < , 7 7 0 q q a a d d b b b b b b b b b b b b b b d a q q q 7 < < < : : = = # # # @ @ # # # # # # # # = # # # # # @ @ @ * = = # = = = = = = - > > 3 4 6 9 9 t i s x c J J K ) ( &.6.7.w.q.q.q.m.L.L.L.L.L.L.L.b.q.8.7.7.' ) IXIXIXIXIXIXIXIXIXIXIXIXIXIXIXIXIXIXIXIXIXIXIXIXIXIXIXIXIXIXIXIXIXIXIXIXIXIXIXIXIXIXIXIXIXIXIXIXIXIXIXIXIXIXIXIXIXIXIXIXIXIXIXIXIXIXIXIXIXIXIXIXIXIXIXIXIXIXIXIXIXIXIXIXIXIXIXIXIXIXIXIXIX",
"IXIXIXIXIXIXIXIXIXIXIXIXIXIXIXIXIXIXIXIXIXIXIXIXIXIXIXIXIXIXIXIXIXIXIXIXIXIXIXIXIXIXIXIXIXIXIXIXIXIXIXIXIXIXIXIXIX/ { x.n.K.P.R.E.E.ZXZXZXZXZXZXZXHXE.Y.P.P.b.8.7._ ) J IXIXIXIXIXIXIXIXIXIXIXIXIXIXIXIXIXIXIXIXIXIXIXIXIXIXIXIXIXIXIXIXIXIXIXIXIXIXIXIXIXIXIXIXIXIXIXIXO O O O O # # : < 4 9 y s x Z H E ;.;.5.0.A.A.D.H.H.{.{.@X|.|.oXoX(.(.C.V.V.V.u.t.3.>.=.X.X.T P G F F D D D D D D F F G P T T T X.=.=.>.3.t.u.u.V.V.V.!././.(.`.`.XX&X7X5X5X6X6XpXpXpXpXsXsXsXsXsXsXpXiXtX;X&X&X&X%X%X%X#X_.).).Q.Q.!.!.s.s.s.d.y.e.,.,.#.#.o...| I L L M n h g u e e 5 5 1 1 ; ; * * @ @ @ @ @ @ @ @ O O O O O O O O O + # # # # # # # # : : < < , 7 0 0 q a a d d c b b A A ~ ~ ~ ~ ~ ~ A A b b b b d a a q 0 7 7 < < : : = = # # @ @ @ @ # # # = = = = = = = = = # # * = = = = = = ; = = - > > 4 4 6 9 t y i s x c J J K ( ( 6.6.w.w.q.q.j.m.L.L.L.L.L.L.L.m.b.q.8.7.] ) ) IXIXIXIXIXIXIXIXIXIXIXIXIXIXIXIXIXIXIXIXIXIXIXIXIXIXIXIXIXIXIXIXIXIXIXIXIXIXIXIXIXIXIXIXIXIXIXIXIXIXIXIXIXIXIXIXIXIXIXIXIXIXIXIXIXIXIXIXIXIXIXIXIXIXIXIXIXIXIXIXIXIXIXIXIXIXIXIXIXIXIXIXIX",
"IXIXIXIXIXIXIXIXIXIXIXIXIXIXIXIXIXIXIXIXIXIXIXIXIXIXIXIXIXIXIXIXIXIXIXIXIXIXIXIXIXIXIXIXIXIXIXIXIXIXIXIXIXIXIXIXIX/ } { v.n.K.R.E.E.ZXZXZXZXZXZXZXZXE.R.T.P.m.b.8.7.( ^ IXIXIXIXIXIXIXIXIXIXIXIXIXIXIXIXIXIXIXIXIXIXIXIXIXIXIXIXIXIXIXIXIXIXIXIXIXIXIXIXIXIXIXIXIXIXIXO O . . . . O # # : > 4 9 y s x D ! Q ;.5.5.h.A.A.D.H.{.{.{.OXoXoXoXoX(.(./.V.V.V.V.u.3.>.:.=.X.T T P P G G F G G P P P T T X.X.=.=.>.<.t.u.u.V.V.V./././.(.`.`.`.&X&X5X5X5XtXpXpXpXpXsXsXsXsXsXsXsXaXiXiX;X;X:X&X%X%X%X%X%X#X_.).'.Q.Q.!.!.s.s.a.y.y.e.,.#.O.o...I L L M n l g u e e w 5 3 1 - ; ; * @ @ @ @ @ @ @ @ @ O @ O O O O O O + # # # # # # # # : : < < 4 0 0 0 p a d d c b b A ~ ~ ` ` ` ` ` ` ` ` ~ A A b b d d a a q 0 7 7 > < > = = = # # @ @ @ # # = = = = = = = = = = = = = ; ; ; ; = = = - - > > 4 6 9 t y y i k x x J J K ( &.6.6.w.q.q.q.m.L.L.L.L.L.L.L.L.L.b.b.q.8.7.' ) IXIXIXIXIXIXIXIXIXIXIXIXIXIXIXIXIXIXIXIXIXIXIXIXIXIXIXIXIXIXIXIXIXIXIXIXIXIXIXIXIXIXIXIXIXIXIXIXIXIXIXIXIXIXIXIXIXIXIXIXIXIXIXIXIXIXIXIXIXIXIXIXIXIXIXIXIXIXIXIXIXIXIXIXIXIXIXIXIXIXIXIXIXIX",
"IXIXIXIXIXIXIXIXIXIXIXIXIXIXIXIXIXIXIXIXIXIXIXIXIXIXIXIXIXIXIXIXIXIXIXIXIXIXIXIXIXIXIXIXIXIXIXIXIXIXIXIXIXIXIXIXIXIX/ { v.n.K.P.R.E.E.ZXZXZXZXZXZXZXHXE.Y.T.L.m.q.7.&.( Y IXIXIXIXIXIXIXIXIXIXIXIXIXIXIXIXIXIXIXIXIXIXIXIXIXIXIXIXIXIXIXIXIXIXIXIXIXIXIXIXIXIXIXIXIX+ O . . . . . O O # = : , 4 9 y k Z H R @.;.5.4.p.A.D.H.{.{.oXoXOXOXOXoXoX`.(./.V.V.V.V.u.3.<.>.=.X.X.T T T T P T T T T T X.X.=.=.>.<.3.t.u.V.V.V.!./.(.(.`.`.`.XX&X&X&X5XtXiXiXiXpXgXsXsXsXsXaXaXaXaXaX2X3X;X4X:X%X%X%X%X%X%X%X_.).).).Q.Q.!.W.B.s.d.y.e.,.#.O.o...I L L M n h f u w w 5 5 1 1 ; ; * @ @ @ @ @ @ @ @ @ @ @ O O O O O O @ # # # # # # # : : : < < 4 0 0 q a a d c c b A ~ ~ ~ ` / _ _ _ _ _ _ / ` ~ ~ ~ b b c d a p 0 7 7 4 > > = = = # # @ @ @ # = = = = = ; ; ; = = = = = ; ; ; = - - - - > > > 3 4 9 t y i s k x x J J K ( &.6.w.w.q.q.j.m.L.L.I.I.L.L.L.L.L.m.b.q.8.7.7.' IXIXIXIXIXIXIXIXIXIXIXIXIXIXIXIXIXIXIXIXIXIXIXIXIXIXIXIXIXIXIXIXIXIXIXIXIXIXIXIXIXIXIXIXIXIXIXIXIXIXIXIXIXIXIXIXIXIXIXIXIXIXIXIXIXIXIXIXIXIXIXIXIXIXIXIXIXIXIXIXIXIXIXIXIXIXIXIXIXIXIXIXIXIXIX",
"IXIXIXIXIXIXIXIXIXIXIXIXIXIXIXIXIXIXIXIXIXIXIXIXIXIXIXIXIXIXIXIXIXIXIXIXIXIXIXIXIXIXIXIXIXIXIXIXIXIXIXIXIXIXIXIXIXIX/ { x.v.n.K.R.E.E.ZXZXZXZXZXZXZXZXHXY.Y.T.L.q.w.6.&.Q Y IXIXIXIXIXIXIXIXIXIXIXIXIXIXIXIXIXIXIXIXIXIXIXIXIXIXIXIXIXIXIXIXIXIXIXIXIXIXIXIXIXIX# + O O . . . . . . O + # : < 4 0 y s x D ! R -.-.4.p.Z.Z.D.H.{.{.oXOXOXOXOXoXoX`.(./.V.V.V.V.u.t.3.>.=.=.X.X.X.X...X.X.X.X.X.=.:.>.>.3.t.u.u.V.V.!.~.(.(.`.`.`.XXXX&X&X&X5XtXiXiXiXiXaXaXaXaXaXaXaX3X3X3X2X3X:X-X-X-X*X*X*X*X%X%X%X#X_.).).).Q.Q.!.W.s.a.y.r.,.#.O.o.| I L M m l g u u w 6 5 3 1 - ; ; * @ @ @ @ @ @ @ @ @ @ @ @ @ O O O O # # # # # # # : : : : < 4 0 0 p a d d c c A ~ ~ ^ ^ _ _ _ _ _ _ _ _ _ _ _ ` ~ ~ ~ b c v d a 0 0 7 7 > > > - = = # @ @ * = = = ; ; ; ; ; ; ; ; ; ; ; ; ; - - - - > > > 3 3 4 6 t y i k x x x H J Y Q &.6.w.w.q.q.j.S.L.L.I.L.L.L.L.L.L.L.m.b.q.8.7.7.IXIXIXIXIXIXIXIXIXIXIXIXIXIXIXIXIXIXIXIXIXIXIXIXIXIXIXIXIXIXIXIXIXIXIXIXIXIXIXIXIXIXIXIXIXIXIXIXIXIXIXIXIXIXIXIXIXIXIXIXIXIXIXIXIXIXIXIXIXIXIXIXIXIXIXIXIXIXIXIXIXIXIXIXIXIXIXIXIXIXIXIXIXIXIXIX",
"IXIXIXIXIXIXIXIXIXIXIXIXIXIXIXIXIXIXIXIXIXIXIXIXIXIXIXIXIXIXIXIXIXIXIXIXIXIXIXIXIXIXIXIXIXIXIXIXIXIXIXIXIXIXIXIXIXIXIX_ { v.n.K.P.R.E.HXZXZXZXZXZXZXZXHXnXY.T.L.j.q.w.6.W Q Y IXIXIXIXIXIXIXIXIXIXIXIXIXIXIXIXIXIXIXIXIXIXIXIXIXIXIXIXIXIXIXIXIXIXIXIXIXIX< : % # + O . . .     . . O + # # : , 4 9 i k D G R +.-.2.4.p.Z.C.H.(.(.oXOXOXOXOXOXXXoX`.(././.V.V.V.u.t.3.<.>.:.=.=.=.O.O.=.=.=.:.>.<.3.t.t.u.V.B.V.!.(.(.`.`.XXXXXX&X&X&X&X4X;XiXiXiXaXaXaXaXaXaXaX2X2X3X3X3X1X,X-X*X*X*X*X*X*X*X%X%X%X%X#X_.).).).Q.Q.!.!.s.d.e.,.:.O.o.| I L M n h f u w 6 5 5 3 1 - ; ; ; * @ @ @ @ @ @ @ @ @ @ @ @ @ @ @ # # # # # # : : : : < < < 4 0 q p d d c c A ~ ~ ^ / _ _ _ *.*.7.7.*.*._ _ _ _ ` ~ ~ ~ b c d a p 0 7 7 3 > > - = = = # * * = ; ; ; ; = = = ; ; ; = = = = - - > > > > 3 3 3 4 6 t y i k k x m H J Y Q ( 6.6.w.q.q.j.S.L.I.I.I.I.I.L.L.L.L.m.b.q.w.7.7.6.IXIXIXIXIXIXIXIXIXIXIXIXIXIXIXIXIXIXIXIXIXIXIXIXIXIXIXIXIXIXIXIXIXIXIXIXIXIXIXIXIXIXIXIXIXIXIXIXIXIXIXIXIXIXIXIXIXIXIXIXIXIXIXIXIXIXIXIXIXIXIXIXIXIXIXIXIXIXIXIXIXIXIXIXIXIXIXIXIXIXIXIXIXIXIXIX",
"IXIXIXIXIXIXIXIXIXIXIXIXIXIXIXIXIXIXIXIXIXIXIXIXIXIXIXIXIXIXIXIXIXIXIXIXIXIXIXIXIXIXIXIXIXIXIXIXIXIXIXIXIXIXIXIXIXIXIX/ { x.v.n.P.R.R.E.HXZXZXZXZXZXZXHXnXY.Y.I.L.j.w.6.&.Q Y Y IXIXIXIXIXIXIXIXIXIXIXIXIXIXIXIXIXIXIXIXIXIXIXIXIXIXIXIXIXIXIXIXIXIX0 7 , < < % # + O . . .       . . O + # : < 4 0 y s z D ! R -.-.1.4.p.Z.C.(.(.oXOXOXOXOXOXOXOXoXoX`././.B.V.V.u.u.t.<.<.>.>.>.>.>.>.>.>.<.3.t.t.u.u.V.B.B./.(.`.`.XXXXXX&X&X&X&X4X4X4X;X3X3X3X3X3X3X3X3X2X2X1X1X1X,X,X<X*X*X*X*X*X*X*X*X*X*X*X%X%X%X#X_._.).).Q.!.W.s.a.y.<.:.O...I L L M n g u w w 6 5 3 3 - - ; ; ; * @ @ @ @ @ @ @ @ @ # # # # # # # # # # # : : : < < < < 4 0 0 p d d c c A ~ ^ ^ ) _ _ *.7.7.x.x.x.7.7.7.*._ _ _ ` ~ ~ b c v a a p 7 7 4 3 > - ; = = = * * ; ; ; ; ; = - - - - = = = = - - > > 3 3 3 3 4 6 6 t y i k k z D H H E Q W 6.6.w.q.j.j.S.L.L.I.I.I.I.I.L.L.L.m.b.q.q.7.7.7.IXIXIXIXIXIXIXIXIXIXIXIXIXIXIXIXIXIXIXIXIXIXIXIXIXIXIXIXIXIXIXIXIXIXIXIXIXIXIXIXIXIXIXIXIXIXIXIXIXIXIXIXIXIXIXIXIXIXIXIXIXIXIXIXIXIXIXIXIXIXIXIXIXIXIXIXIXIXIXIXIXIX_ _ _ _ _ / IXIXIXIXIXIXIXIXIX",
"IXIXIXIXIXIXIXIXIXIXIXIXIXIXIXIXIXIXIXIXIXIXIXIXIXIXIXIXIXIXIXIXIXIXIXIXIXIXIXIXIXIXIXIXIXIXIXIXIXIXIXIXIXIXIXIXIXIXIXIX/ { x.n.K.P.R.R.E.HXZXZXZXZXZXZXNXnXY.I.L.j.q.9.6.@.Q Y H IXIXIXIXIXIXIXIXIXIXIXIXIXIXIXIXIXIXIXIXIXIXIXIXIXIXIXIXIXIXIXIXq 0 0 7 < < : # + O . .         . . O + # % : , 0 9 i k D G T X.-.1.3.i.Z.C.C.(.`.oXOXOXOXOXOXOXOXXXoX`././.B.B.V.V.u.u.t.t.3.<.<.<.3.t.t.t.u.u.V.V.B.B.W././.`.`.XX&X&X&X5X5X4X4X;X4X;X3X3X3X3X3X2X2X1X1X1X1X,X<X<X<X<X=X*X*X*X*X*X*X*X*X*X*X*X*X%X%X%X_._._.).).Q.!.B.a.y.e.:.O...I L F m l g u w 6 5 3 3 3 - - ; ; ; * @ @ @ @ # # # # # # # # # # # # # # # : : : < < < , 4 0 0 p d d c C J ~ ^ ^ ) _ *.7.7.7.7.c.c.c.c.x.7.7.*.*._ ) ^ ~ ~ c c v a p 7 7 4 3 > > = ; = = * * ; ; ; ; - - - - - - - - - - > > 3 3 3 4 6 6 6 6 t y i k k z D D ! E Q W 6.6.9.q.q.j.S.S.L.I.I.I.I.I.L.L.L.m.b.q.q.7.7.7._ IXIXIXIXIXIXIXIXIXIXIXIXIXIXIXIXIXIXIXIXIXIXIXIXIXIXIXIXIXIXIXIXIXIXIXIXIXIXIXIXIXIXIXIXIXIXIXIXIXIXIXIXIXIXIXIXIXIXIXIXIXIXIXIXIXIXIXIXIXIXIXIXIXIXIXIXIXIXIXIX_ ] ] ] ] ] ] ] ] _ ^ IXIXIXIXIXIX",
"IXIXIXIXIXIXIXIXIXIXIXIXIXIXIXIXIXIXIXIXIXIXIXIXIXIXIXIXIXIXIXIXIXIXIXIXIXIXIXIXIXIXIXIXIXIXIXIXIXIXIXIXIXIXIXIXIXIXIXIXIX_ { c.n.K.P.R.R.E.HXZXZXZXZXHXNXnXY.U.I.S.j.0.9.6.@.Q Y Y IXIXIXIXIXIXIXIXIXIXIXIXIXIXIXIXIXIXIXIXIXIXIXIXIXIXIXIXIXc d d q 0 0 < < : # + O . .           . . + + # : < 4 0 y k z G T T =.=.3.i.Z.V.C.(.`.oXOXOXOXOXOXOXOXOXXXXX_.^./.W.B.B.B.V.u.u.u.u.u.u.u.u.u.a.V.B.B.B.W.W.^._.`.XXXX&X&X4X5XtXiXiX;X;X2X3X2X2X2X1X1X1X1X,X,X,X>X<X<X<X=X=X*X*X*X*X*X*X*X*X*X*X*X*X*X-X%X%X%X_._.`._.'.!.B.a.y.e.:.O...I L M n h g u w 5 5 3 3 3 - - - ; ; * * * = # = = = = # # # # # # # # # = : : : < < < , 4 0 0 p d d c C J ~ ^ ^ ) _ 7.7.7.8.c.c.b.c.c.c.c.x.7.7.*._ ) ^ ~ ~ c c v a p 0 6 4 3 3 > - ; ; ; ; ; ; ; ; - - - - - - - > > > 3 3 3 3 6 6 6 6 t t y y i k z z D G ! E Q @.;.9.9.0.q.j.S.S.L.I.I.I.I.I.I.I.L.m.b.q.w.7.7.7._ IXIXIXIXIXIXIXIXIXIXIXIXIXIXIXIXIXIXIXIXIXIXIXIXIXIXIXIXIXIXIXIXIXIXIXIXIXIXIXIXIXIXIXIXIXIXIXIXIXIXIXIXIXIXIXIXIXIXIXIXIXIXIXIXIXIXIXIXIXIXIXIXIXIXIXIXIXIXIX_ ] ] ] ] 7.7.7.7.] ] ] ] _ IXIXIXIXIX",
"IXIXIXIXIXIXIXIXIXIXIXIXIXIXIXIXIXIXIXIXIXIXIXIXIXIXIXIXIXIXIXIXIXIXIXIXIXIXIXIXIXIXIXIXIXIXIXIXIXIXIXIXIXIXIXIXIXIXIXIXIXIX_ x.c.n.K.P.T.Y.Y.HXHXZXZXHXNXnXnXY.I.I.j.j.0.9.6.@.Q Y Y IXIXIXIXIXIXIXIXIXIXIXIXIXIXIXIXIXIXIXIXIXIXIXIXIXIXIXC C c d a q 0 , < : # + O . .           . . O + # # : , 9 y s z D P T X.=.>.3.u.V.V.(.`.oXOXOXOX7XwXwXwX7X5XXXXX.X_.^.W.W.B.B.B.B.B.B.B.B.B.B.B.B.B.W.W.^.^.)._..XXX&X&X4X4XiXiXiXiXaX3X3X2X2X2X1X1X1X,X,X<X>X>X>X>X>X<X=X=X=X=X*X*X*X*X*X*X*X*X*X*X*X-X-X&X&X&X&X`.`.`./.!.V.a.y.<.:.O...I L M l g u w 6 5 3 3 3 > - - - ; ; = * = = = = = = = = = = # # # # # = : : < < < < 4 4 0 0 p d d c C J ~ ^ ) ) _ 7.7.7.8.c.b.b.b.b.b.b.c.c.7.7.*.*.) ) ~ ~ c c v p p p 6 5 3 3 > - ; ; ; ; ; ; ; - - - > 3 3 3 3 3 3 3 3 3 6 6 6 t t y u y i k k z m D G ! R W @.;.9.9.0.0.j.S.S.S.I.I.I.I.I.I.I.L.m.b.q.q.7.7.*.) ) IXIXIXIXIXIXIXIXIXIXIXIXIXIXIXIXIXIXIXIXIXIXIXIXIXIXIXIXIXIXIXIXIXIXIXIXIXIXIXIXIXIXIXIXIXIXIXIXIXIXIXIXIXIXIXIXIXIXIXIXIXIXIXIXIXIXIXIXIXIXIXIXIXIXIXIXIXIX/ ] ] ] 8.8.c.c.c.c.c.8.8.7.] ] / IXIXIX",
"IXIXIXIXIXIXIXIXIXIXIXIXIXIXIXIXIXIXIXIXIXIXIXIXIXIXIXIXIXIXIXIXIXIXIXIXIXIXIXIXIXIXIXIXIXIXIXIXIXIXIXIXIXIXIXIXIXIXIXIXIXIX/ _ x.c.b.K.P.T.Y.Y.nXHXHXHXNXnXnXnXU.I.F.j.j.0.9.6.@.@.Q Y J IXIXIXIXIXIXIXIXIXIXIXIXIXIXIXIXIXIXIXIXIXIXIX^ ^ ~ A C c d a 0 0 < : # + O .               . . O + # : , 4 t i z D G T X.=.>.3.u.V.V.(.`.XXOXOX7X8X8X8XwXwXwX5X&XXX.X_.^.^.W.W.W.W.W.B.B.B.B.W.W.W.W.^.^.)._..X.X%X&X4X4X4X3X3XaXaX2X2X2X1X1X1X1X,X,X<X>X>X>X>X>X>X>X>X>X=X=X=X=X*X*X*X*X*X*X*X<X<X<X<X-X-X&X&X&X&X`.`.`.(.!.V.a.y.<.#.o...P F m l g u w 5 3 3 1 - - - - - ; ; = = = = = = = = = = = = = = # = = : : : < < < 4 0 0 0 p a d c C J ~ ^ ) ) *.7.7.w.q.b.b.b.b.b.b.b.b.b.q.w.7.*.*.) ) ~ J c c v p p p 6 5 3 3 3 - - ; ; ; ; ; - - - > 3 3 3 3 3 3 5 6 6 6 w t y y i i g k k z z D F P R R @.;.;.;.9.0.0.j.S.S.S.S.S.I.I.I.L.L.L.j.q.q.w.7.7._ ) ^ IXIXIXIXIXIXIXIXIXIXIXIXIXIXIXIXIXIXIXIXIXIXIXIXIXIXIXIXIXIXIXIXIXIXIXIXIXIXIXIXIXIXIXIXIXIXIXIXIXIXIXIXIXIXIXIXIXIXIXIXIXIXIXIXIXIXIXIXIXIXIXIXIXIXIXIXIXIX^ ] ] 7.8.c.J.J.J.J.J.J.b.b.8.8.7.] ) IXIX",
"IXIXIXIXIXIXIXIXIXIXIXIXIXIXIXIXIXIXIXIXIXIXIXIXIXIXIXIXIXIXIXIXIXIXIXIXIXIXIXIXIXIXIXIXIXIXIXIXIXIXIXIXIXIXIXIXIXIXIXIXIXIXIX/ ] 7.c.b.P.P.T.Y.Y.nXNXNXNXNXnXnXbXU.I.F.j.j.0.9.9.&.&.Q Y Y J IXIXIXIXIXIXIXIXJ J J J K Y ) ) ) IX_ _ ) ) ^ ^ ~ A c d d q 0 < < % + O .                 . . O # = < 4 9 i k m F P T =.>.3.u.V.V.(.`.XXOX7XwX8XrXrXhXgXwXwX5X&X.X.X.X_.).^.^.^.^.^.^.^.^.^.^.^.)._._..X.X%X%X%X4X4X3X3X3X2X2X2X3X3X3X3X1X,X,X<X>X>X>X>X>X>X>X>X>X>X>X=X=X=X=X=X=X=X*X*X*X<X<X<X<X<X-X-X-X&X&X&X`.`.`.(.!.V.d.t.,.#.o.I L M n h u w 6 5 3 1 - - - - - - = ; = = = = = = = = = = = = = = = = = : : < < 4 0 0 0 0 p d d c C J ~ ^ ) ) 7.7.7.7.8.q.b.b.m.m.m.b.b.b.q.q.w.7.*.*.) ) ~ J c c v p p t w 6 5 3 3 1 - ; ; ; ; - - - 3 3 3 3 5 5 6 6 6 w w t t u i g k k l z z m D G ! R W @.;.;.2.9.0.0.h.j.S.S.S.S.L.L.L.S.S.j.j.q.q.w.7.7.( ) ^ IXIXIXIXIXIXIXIXIXIXIXIXIXIXIXIXIXIXIXIXIXIXIXIXIXIXIXIXIXIXIXIXIXIXIXIXIXIXIXIXIXIXIXIXIXIXIXIXIXIXIXIXIXIXIXIXIXIXIXIXIXIXIXIXIXIXIXIXIXIXIXIXIXIXIXIXIXIXIX/ ] ] 8.8.J.J.J.J.J.J.J.J.J.J.q.8.] ' ) IX",
"IXIXIXIXIXIXIXIXIXIXIXIXIXIXIXIXIXIXIXIXIXIXIXIXIXIXIXIXIXIXIXIXIXIXIXIXIXIXIXIXIXIXIXIXIXIXIXIXIXIXIXIXIXIXIXIXIXIXIXIXIXIXIXIX_ ] 7.c.b.P.P.T.Y.Y.nXnXNXNXnXnXnXbXI.I.F.j.j.j.0.9.&.&.&.Q Y Y J J J J J J Y Y Y ) ) ) ) ) _ *.7.7.7.' _ ) ^ ~ ~ C c d q 0 , < % + O .                 . . O + = > 4 9 y k m F P T =.>.3.u.V.V.(.`.XXOX7X8XwXrXhXhXgXgXgXwX4X&X%X.X.X.X_._.).).).).).).).)._._..X.X%X%X%X%X-X-X3X3X3X1X3X3X3X3X3X1X,X,X<X<X>X>X>X>X>X>X>X>X>X>X>X>X>X=X=X=X=X=X=X=X=X<X<X<X>X>X<X<X-X-X&X&X&X`.`.`.'.!.V.d.e.,.O...I L m l g u w 5 3 3 - - - - - - - = = ; = = = = = = = = = : : : : : : : : < < 4 0 0 0 q p a d c C C ~ ^ ) ) *.7.7.7.w.q.b.b.m.m.m.m.m.q.q.q.w.w.7.*.*.) ^ ~ J c x j p p w w 6 5 3 3 1 - - - - - - 1 1 3 3 3 5 5 6 6 w w t t u i g k l l z m D D H G R R W ;.;.;.9.9.0.0.0.j.A.S.S.S.S.S.S.S.S.j.q.q.q.w.7.*.) ) ^ IXIXIXIXIXIXIXIXIXIXIXIXIXIXIXIXIXIXIXIXIXIXIXIXIXIXIXIXIXIXIXIXIXIXIXIXIXIXIXIXIXIXIXIXIXIXIXIXIXIXIXIXIXIXIXIXIXIXIXIXIXIXIXIXIXIXIXIXIXIXIXIXIXIXIXIXIXIXIX^ _ ] 7.8.q.J.J.L.L.L.L.T.L.L.J.J.q.8.] ) IX",
"IXIXIXIXIXIXIXIXIXIXIXIXIXIXIXIXIXIXIXIXIXIXIXIXIXIXIXIXIXIXIXIXIXIXIXIXIXIXIXIXIXIXIXIXIXIXIXIXIXIXIXIXIXIXIXIXIXIXIXIXIXIXIXIXIX_ ] 7.c.b.P.P.T.Y.Y.nXnXNXnXnXnXnXbXU.I.F.S.j.j.0.w.6.&.&.&.( ) ) ) ) ) ) ) ) ) ) ( ( *.7.7.7.7.7.7.7.7._ ) ^ ~ A c d a 0 , < % + O .                 . . O # # > 4 9 y k z F P T =.>.3.u.V.V.(.`.OXOX7X8XrXhXkXcXgXgXgXgXiX4X%X%X.X.X.X.X.X.X_._._._._._..X.X%X%X%X%X%X*X*X<X1X1X1X1X3X3X3X1X,X,X<X<X>X>X>X>X>X>X>X>X>X>X>X>X>X>X>X>X>X>X>X>X=X=X<X<X>X>X>X>X<X<X-X-X%X%X&X`.`._.!.!.s.y.e.:.O...I F m l g u w 5 3 1 - - - - - - - - = = = = = = = = = = : = : : : : : : < < , 0 0 0 q p a d c c C ~ ^ ) ) _ 7.7.7.w.q.q.b.b.m.m.m.m.q.q.w.w.w.7.*.&.) ) Y J N c x j s u w w 6 5 3 3 1 - - - - - 1 1 1 3 3 5 5 6 6 w w t u u i g k x z m H H H H Y E Q @.;.;.;.9.0.0.0.h.j.j.A.A.S.S.S.S.S.j.j.q.q.w.w.6.&.) ^ ~ IXIXIXIXIXIXIXIXIXIXIXIXIXIXIXIXIXIXIXIXIXIXIXIXIXIXIXIXIXIXIXIXIXIXIXIXIXIXIXIXIXIXIXIXIXIXIXIXIXIXIXIXIXIXIXIXIXIXIXIXIXIXIXIXIXIXIXIXIXIXIXIXIXIXIXIXIXIXIXIX^ ) ] 7.8.N.J.L.L.T.T.T.T.T.L.L.J.J.8.7.' ) ",
"IXIXIXIXIXIXIXIXIXIXIXIXIXIXIXIXIXIXIXIXIXIXIXIXIXIXIXIXIXIXIXIXIXIXIXIXIXIXIXIXIXIXIXIXIXIXIXIXIXIXIXIXIXIXIXIXIXIXIXIXIXIXIXIXIXIX_ 7.7.c.b.L.P.Y.Y.nXnXnXnXnXnXnXbXbXU.I.I.S.j.j.j.w.w.w.*.&.&.&.&.&.&.&.&.&.&.&.6.7.7.7.7.8.8.8.8.8.7.] _ / ~ A A c a q 7 < % + O .                 . . O # = > 4 9 i k m F T T =.>.3.u.V.C.(.`.OXOX7XwXhXkXcXkXcXcXgXgXiX4X4X%X%X%X%X.X.X.X.X.X.X.X.X.X.X%X%X%X%X%X%X*X*X<X,X1X1X1X1X,X,X,X<X>X>X<X>X>X>X>X>X>X>X>X>X>X>X>X>X>X>X>X>X>X>X>X>X>X<X>X>X>X>X>X>X<X*X*X%X%X%X_._.^.!.W.a.y.<.:.o.I L M n l g u w 5 3 - - - - - - - - - = = = = = = = = = : : : : : : : : : < < 4 0 0 q p a d c c C ~ ^ ^ ) _ 7.7.7.w.q.q.q.b.m.m.m.m.j.q.w.w.w.7.&.&.&.) ) Y J N V x j u u w 6 6 5 3 3 1 1 - - - - 1 1 3 3 5 5 6 w w w t u u i g k l N N H H H E E Q Q @.;.;.9.9.0.0.0.h.j.h.A.A.A.A.A.A.j.j.q.q.w.w.6.&.( ) Y J IXIXIXIXIXIXIXIXIXIXIXIXIXIXIXIXIXIXIXIXIXIXIXIXIXIXIXIXIXIXIXIXIXIXIXIXIXIXIXIXIXIXIXIXIXIXIXIXIXIXIXIXIXIXIXIXIXIXIXIXIXIXIXIXIXIXIXIXIXIXIXIXIXIXIXIXIXIXIXIXIX^ ' ' 8.8.N.J.L.T.T.T.T.T.T.T.L.L.J.q.8.6.) ",
"IXIXIXIXIXIXIXIXIXIXIXIXIXIXIXIXIXIXIXIXIXIXIXIXIXIXIXIXIXIXIXIXIXIXIXIXIXIXIXIXIXIXIXIXIXIXIXIXIXIXIXIXIXIXIXIXIXIXIXIXIXIXIXIXIXIX^ _ 7.7.b.b.P.T.Y.Y.nXnXnXnXnXnXnXnXbXbXU.I.I.L.j.j.q.w.w.w.w.7.7.7.7.7.7.7.7.7.7.7.w.w.q.q.b.b.b.c.7.7.] _ ^ ~ A c d q 0 < : # O .                 . . O # = < 4 9 i k m G T X.=.>.3.i.V.~.(.oXOX7X7XwXhXhXcXzXzXcXgXgXgXiX4X4X%X%X%X%X%X%X%X%X%X%X%X%X%X%X%X%X%X%X*X*X*X<X,X,X,X,X,X<X>X>X>X>X>X>X>X>X>X>X>X>X>X>X>X>X>X>X>X>X>X>X>X>X>X>X>X>X>X>X>X>X>X>X>X<X*X*X%X%X_._.).Q.!.B.a.y.,.#...I L M n h f t w 5 3 - - - - - - - - > - = = = = = = = = : : : : : : : : < , 4 4 0 0 p a d d c C A ~ ^ ) _ 7.7.7.7.8.q.b.b.q.j.m.j.q.q.q.w.w.7.&.&.&.( ) Y J N N x j g u t w 6 6 5 3 3 1 1 1 1 - 1 1 1 1 3 5 6 6 w t t u i g g l x N H H Y Y Y Q Q @.@.;.9.9.0.0.0.h.j.h.h.A.A.A.j.j.j.j.0.0.0.9.6.6.&.( ) K J IXIXIXIXIXIXIXIXIXIXIXIXIXIXIXIXIXIXIXIXIXIXIXIXIXIXIXIXIXIXIXIXIXIXIXIXIXIXIXIXIXIXIXIXIXIXIXIXIXIXIXIXIXIXIXIXIXIXIXIXIXIXIXIXIXIXIXIXIXIXIXIXIXIXIXIXIXIXIXIXIXIX^ ' ' 8.q.J.J.L.T.T.Y.Y.Y.Y.T.T.L.L.N.q.7.' ",
"IXIXIXIXIXIXIXIXIXIXIXIXIXIXIXIXIXIXIXIXIXIXIXIXIXIXIXIXIXIXIXIXIXIXIXIXIXIXIXIXIXIXIXIXIXIXIXIXIXIXIXIXIXIXIXIXIXIXIXIXIXIXIXIXIXIXIX/ _ 7.8.b.m.L.T.Y.Y.nXnXnXnXnXnXnXnXbXbXU.I.I.I.m.j.j.j.q.w.w.w.w.w.w.w.w.q.q.q.q.q.b.b.b.b.b.b.b.c.7.7._ / ~ A c d q 0 < : # + . .               . . O # : < 4 t i z D G T X.=.>.i.i.C.~.(.OXOX7X7XwXrXrXcXzXzXcXcXgXgXiX4X4X4X%X%X%X%X%X%X%X%X%X%X%X%X%X%X%X%X*X*X*X*X<X<X>X>X>X>X>X>X>X>X>X>X>X>X>X>X>X>X>X>X>X>X>X=X>X>X>X>X>X>X>X>X>X>X>X>X>X>X>X>X>X>X<X*X*X%X%X_.).).Q.W.s.d.e.,.O...I L m l g u t 6 3 3 - - - - > > > > > > : = = = = = = : : : : : : : : < < , 4 0 0 q p d d c c C ~ ^ ) ) _ 7.7.7.8.q.b.b.q.q.q.q.q.q.w.w.w.7.&.&.&.( Y Y J N N x x j u u w w 6 5 5 3 3 1 1 1 1 1 1 1 1 3 5 5 6 w t u u i g g l x N H H Y Y Q W @.@.6.6.6.9.0.0.0.j.j.h.j.A.A.A.h.j.0.0.0.0.9.9.6.6.( Q Y J IXIXIXIXIXIXIXIXIXIXIXIXIXIXIXIXIXIXIXIXIXIXIXIXIXIXIXIXIXIXIXIXIXIXIXIXIXIXIXIXIXIXIXIXIXIXIXIXIXIXIXIXIXIXIXIXIXIXIXIXIXIXIXIXIXIXIXIXIXIXIXIXIXIXIXIXIXIXIXIXIXIXIXIX^ ' ' 8.q.J.L.T.T.Y.Y.Y.Y.Y.Y.T.U.L.N.q.w.6.",
"IXIXIXIXIXIXIXIXIXIXIXIXIXIXIXIXIXIXIXIXIXIXIXIXIXIXIXIXIXIXIXIXIXIXIXIXIXIXIXIXIXIXIXIXIXIXIXIXIXIXIXIXIXIXIXIXIXIXIXIXIXIXIXIXIXIXIXIX/ _ 7.8.b.L.T.T.Y.Y.nXnXnXnXnXnXnXnXnXnXnXU.I.I.I.L.L.m.m.m.m.m.m.j.m.m.m.m.b.b.b.b.m.m.m.m.b.b.b.x.x._ _ ` A A d a 0 , < # + . .             . . O O # : > 4 t s z D P T X.=.1.i.f.Z.~.(.OXOX7X8XrXrXrXcXcXzXzXcXgXgXgXiX4X4X4X%X%X%X%X%X%X%X%X%X%X%X%X%X%X%X*X*X*X*X<X<X>X>X>X>X>X>X>X>X>X>X>X>X>X>X>X>X>X>X=X=X=X=X=X>X=X>X>X>X>X>X>X>X>X>X>X>X>X>X>X>X<X*X*X%X#X_.).Q.!.B.a.y.e.:.o.I L M m l g u w 6 5 3 - - - > > > > > > > > : : : : : : = : : : > > < < < , 4 4 0 0 p d d c c C ~ ~ ^ ) _ 7.7.7.7.8.q.b.q.q.q.q.q.w.w.w.w.6.&.&.&.Q Y Y J N N x x g g u w w 6 6 5 5 3 3 1 1 1 1 1 1 3 3 3 5 5 w w u u i g k x x N H H Y Q W &.&.6.6.9.9.w.0.0.j.j.j.A.A.A.A.j.j.h.0.0.0.0.9.9.6.@.Q E Y J IXIXIXIXIXIXIXIXIXIXIXIXIXIXIXIXIXIXIXIXIXIXIXIXIXIXIXIXIXIXIXIXIXIXIXIXIXIXIXIXIXIXIXIXIXIXIXIXIXIXIXIXIXIXIXIXIXIXIXIXIXIXIXIXIXIXIXIXIXIXIXIXIXIXIXIXIXIXIXIXIXIXIXIXIXK ' ' 8.q.N.L.T.U.Y.Y.nXnXnXY.Y.T.T.L.N.q.6.",
"IXIXIXIXIXIXIXIXIXIXIXIXIXIXIXIXIXIXIXIXIXIXIXIXIXIXIXIXIXIXIXIXIXIXIXIXIXIXIXIXIXIXIXIXIXIXIXIXIXIXIXIXIXIXIXIXIXIXIXIXIXIXIXIXIXIXIXIXIX) _ 7.8.b.L.T.T.U.Y.nXnXnXnXnXnXnXnXnXnXnXnXY.U.I.I.I.L.L.L.L.L.L.L.L.L.m.m.m.L.L.L.P.P.P.P.b.n.c.x.] _ ` ~ A d d q , < % + O . .           . . O O # : , 4 t s z D P R X.-.1.p.f.C.~.{.OXOXOX8X8XrXrXcXcXzXcXzXhXgXgXiXiX4X4X4X%X%X%X%X%X%X%X%X%X%X*X%X%X*X*X*X*X<X<X<X>X>X>X>X>X>X>X>X>X>X>X>X>X>X>X=X=X=X=X=X=X=X=X>X>X>X>X>X>X>X>X>X>X>X>X>X>X>X>X>X<X*X*X%X_._.).Q.!.B.a.y.,.#...I L M n l g u w 6 3 3 3 - - > > > > > > > > > : : : : : : : : : < < < < < , 4 0 0 0 p d c c C C ~ ^ ^ ) _ 7.7.7.7.8.q.q.q.q.q.q.w.w.w.w.6.&.&.( Q Y Y H N N x l g g u u w w 6 5 5 5 3 3 3 1 1 3 3 3 3 3 5 5 w w u u g g l x N N H Y Y Q @.&.6.6.9.9.w.0.q.q.j.j.S.S.A.S.A.A.j.j.0.0.0.9.6.6.;.@.Q E J IXIXIXIXIXIXIXIXIXIXIXIXIXIXIXIXIXIXIXIXIXIXIXIXIXIXIXIXIXIXIXIXIXIXIXIXIXIXIXIXIXIXIXIXIXIXIXIXIXIXIXIXIXIXIXIXIXIXIXIXIXIXIXIXIXIXIXIXIXIXIXIXIXIXIXIXIXIXIXIXIXIXIXIXIXIXJ K ' 6.8.q.N.L.I.U.Y.nXNXNXNXnXnXY.U.L.S.q.w.",
"IXIXIXIXIXIXIXIXIXIXIXIXIXIXIXIXIXIXIXIXIXIXIXIXIXIXIXIXIXIXIXIXIXIXIXIXIXIXIXIXIXIXIXIXIXIXIXIXIXIXIXIXIXIXIXIXIXIXIXIXIXIXIXIXIXIXIXIXIXIX/ _ 7.8.b.L.L.T.T.Y.nXnXnXnXnXNXNXNXnXnXnXnXnXnXY.Y.Y.T.T.T.I.I.I.I.T.T.P.P.P.P.P.P.P.P.P.P.n.v.x.] _ / ~ A c d q 0 < : # + O . .       . . . O # # : , 6 y s z D P R X.-.1.p.p.C.~.{.|.OXOX8X8XrXrXrXcXcXcXcXzXzXgXgXiXiX4X4X4X4X-X-X%X*X%X%X%X%X%X*X*X*X*X*X*X<X<X>X>X>X>X>X>X>X>X>X>X>X>X>X=X=X=X=X=X=X=X=X=X=X=X>X>X>X>X>X>X>X>X>X>X>X>X>X>X>X>X<X*X*X%X%X_.).^.Q.W.s.y.e.,.O...I L M l h f u w 5 3 3 3 - > > > > > > > > < > > : : : : : > > > > < < < , , 4 0 0 p p d c c C C ~ ^ ) ) _ 7.7.7.7.8.8.q.q.q.q.w.w.w.6.6.&.&.Q Q Y H H N N l l g g i u w w 6 5 5 5 5 5 3 3 3 3 3 3 3 5 5 5 w w u u g g x x N N J Y Q W &.&.6.9.w.w.q.q.j.j.j.j.S.S.S.S.S.A.j.j.0.0.0.9.9.;.;.W Q E H IXIXIXIXIXIXIXIXIXIXIXIXIXIXIXIXIXIXIXIXIXIXIXIXIXIXIXIXIXIXIXIXIXIXIXIXIXIXIXIXIXIXIXIXIXIXIXIXIXIXIXIXIXIXIXIXIXIXIXIXIXIXIXIXIXIXIXIXIXIXIXIXIXIXIXIXIXIXIXIXIXIXIXIXIXIXIXK K ' 6.8.N.S.I.U.U.nXNXNXNXNXNXNXnXY.U.S.S.0.",
"IXIXIXIXIXIXIXIXIXIXIXIXIXIXIXIXIXIXIXIXIXIXIXIXIXIXIXIXIXIXIXIXIXIXIXIXIXIXIXIXIXIXIXIXIXIXIXIXIXIXIXIXIXIXIXIXIXIXIXIXIXIXIXIXIXIXIXIXIXIXIX) _ 7.8.b.L.L.I.T.Y.Y.nXnXnXNXNXNXNXNXNXnXnXnXnXnXnXY.Y.Y.Y.Y.Y.Y.T.T.T.T.T.T.T.T.P.P.P.P.m.b.x.x.] _ ` A A d a 0 , < % # + . . . . . . . O O # # : , 6 t s z D G R +.-.1.4.p.C.~.{.|.OXOX8X8XrXrXeXcXcXcXcXcXzXzXgXgXgXiXiX4X4X4X:X:X-X-X*X*X*X*X*X*X*X*X<X<X<X<X>X>X>X>X>X>X>X>X>X>X>X>X=X=X=X=X=X=X=X=X=X=X=X=X>X>X>X>X>X>X>X>X>X>X>X>X>X>X>X>X<X*X*X%X#X_.).Q.!.B.a.y.e.:.O.| L M m l g u u w 5 3 3 3 > > > > > 3 > > > > > > > : : : : > < < < < < , , 4 4 0 0 p p d c c C J ~ ^ ) ) _ 7.7.7.7.7.w.w.w.w.w.7.7.6.&.&.&.Q Q Y H H N m l l g g i u t w w 5 5 5 5 5 3 3 3 3 5 5 5 5 5 6 w w u u g k l N N H Y Y Q &.&.6.9.w.0.j.j.j.j.S.S.S.S.S.S.S.S.S.S.j.h.0.0.9.9.;.;.W Q E IXIXIXIXIXIXIXIXIXIXIXIXIXIXIXIXIXIXIXIXIXIXIXIXIXIXIXIXIXIXIXIXIXIXIXIXIXIXIXIXIXIXIXIXIXIXIXIXIXIXIXIXIXIXIXIXIXIXIXIXIXIXIXIXIXIXIXIXIXIXIXIXIXIXIXIXIXIXIXIXIXIXIXIXIXIXIXIXIXK Q ' 6.0.N.S.I.U.U.NXNXNXNXNXNXNXNXnXU.I.S.N.",
"IXIXIXIXIXIXIXIXIXIXIXIXIXIXIXIXIXIXIXIXIXIXIXIXIXIXIXIXIXIXIXIXIXIXIXIXIXIXIXIXIXIXIXIXIXIXIXIXIXIXIXIXIXIXIXIXIXIXIXIXIXIXIXIXIXIXIXIXIXIXIXIX) _ 7.8.q.m.L.L.T.Y.Y.Y.nXNXNXNXZXZXZXHXNXNXnXnXnXnXnXnXnXnXnXnXY.Y.Y.Y.Y.Y.T.T.T.P.P.P.m.n.v.x.] _ ^ ~ A c d q 0 < < % # $ O . . . . O O O # = > > 6 t i z D G R +.-.2.4.p.Z.C.{.{.OXOX8X8X8XrXeXkXcXxXxXxXzXcXzXzXgXgXiXiXiX3X3X3X:X:X,X-X*X*X*X<X<X<X<X<X>X>X>X>X>X>X>X>X>X>X>X=X>X=X=X=X=X=X=X=X=X=X=X=X=X=X>X>X>X>X>X>X>X>X>X>X>X>X>X>X>X>X<X*X*X%X#X_.).Q.W.B.a.y.,.#.o.I L M n l g u t w 5 3 3 3 - - > > > 3 > > > > < > > : > > > > < < > > , , 4 4 0 0 9 p p d c c C J ~ ^ ^ ) ) *.7.7.7.7.7.7.7.7.7.7.&.&.&.( Q Y Y H N m l l l g g u u u w w 6 5 5 5 5 3 3 3 5 5 5 5 5 5 6 w w u u g x x N H J Y Q ( &.&.9.w.0.j.j.j.S.S.L.I.F.F.F.F.F.S.S.S.S.j.0.0.9.9.;.;.W Q E IXIXIXIXIXIXIXIXIXIXIXIXIXIXIXIXIXIXIXIXIXIXIXIXIXIXIXIXIXIXIXIXIXIXIXIXIXIXIXIXIXIXIXIXIXIXIXIXIXIXIXIXIXIXIXIXIXIXIXIXIXIXIXIXIXIXIXIXIXIXIXIXIXIXIXIXIXIXIXIXIXIXIXIXIXIXIXIXIXH E [ 6.5.0.N.S.G.U.bXMXNXVXVXVXVXVXNXMXMXU.F.S.",
"IXIXIXIXIXIXIXIXIXIXIXIXIXIXIXIXIXIXIXIXIXIXIXIXIXIXIXIXIXIXIXIXIXIXIXIXIXIXIXIXIXIXIXIXIXIXIXIXIXIXIXIXIXIXIXIXIXIXIXIXIXIXIXIXIXIXIXIXIXIXIXIXIX) _ 7.w.q.b.L.L.T.T.Y.Y.nXNXNXZXZXZXZXZXHXHXHXHXHXHXHXHXHXHXHXnXY.Y.Y.Y.Y.Y.T.T.T.P.P.P.b.v.x.] _ / ` A A d a q 0 < < $ $ $ O O . O O O O # = > > 4 t i k m H P T +.1.4.p.Z.C.{.{.OXOX+X8X9XrXeXkXkXxXxXxXxXxXcXcXzXfXfXdXaXaX3X3X3X3X1X,X<X<X<X<X<X<X>X>X>X>X>X>X>X>X>X>X>X=X=X=X=X=X=X=X=X=X=X=X=X=X=X=X=X=X>X>X>X>X>X>X>X>X>X>X>X>X>X>X>X>X<X*X*X%X_.).).Q.W.s.d.e.,.#...I L M n h g u w w 5 3 3 - - - > > > > > > > > > > > > > > > < > > > > > , 4 4 0 0 y p p d c c C C ~ ~ ^ ) ) _ *.7.7.7.7.7.7.*.&.&.&.) ) Q Y Y H N m l l g g g u u u w w 6 5 5 5 5 3 3 3 3 5 5 5 5 5 w w w u u g x x N J Y Y ( &.&.6.w.0.j.j.j.S.I.I.I.I.I.I.I.I.I.F.F.S.S.j.0.0.0.9.;.;.W Q IXIXIXIXIXIXIXIXIXIXIXIXIXIXIXIXIXIXIXIXIXIXIXIXIXIXIXIXIXIXIXIXIXIXIXIXIXIXIXIXIXIXIXIXIXIXIXIXIXIXIXIXIXIXIXIXIXIXIXIXIXIXIXIXIXIXIXIXIXIXIXIXIXIXIXIXIXIXIXIXIXIXIXIXIXIXIXIXIXIXIX! E [ 6.0.q.S.S.G.U.MXMXVXVXCXCXCXCXVXVXMXU.G.F.",
"IXIXIXIXIXIXIXIXIXIXIXIXIXIXIXIXIXIXIXIXIXIXIXIXIXIXIXIXIXIXIXIXIXIXIXIXIXIXIXIXIXIXIXIXIXIXIXIXIXIXIXIXIXIXIXIXIXIXIXIXIXIXIXIXIXIXIXIXIXIXIXIXIXIX) _ 7.7.8.b.b.L.L.T.Y.Y.nXnXHXZXZXZXZXZXZXZXZXZXZXZXZXZXZXHXHXHXHXY.R.R.R.R.Y.T.P.P.P.b.v.x.7.] _ ^ ~ A c d q q 8 < < $ $ $ O O O O O @ # = : > 4 t i k z F P T +.-.2.p.Z.C.].{.|.OX+X8X9XeXeXFXFXFXxXxXxXxXxXcXcXzXfXfXfXdXaXaX3X3X1X,X<X<X<X<X<X>X>X>X>X>X>X>X>X>X>X=X=X=X=X=X=X=X=X=X=X=X=X=X=X=X=X=X=X=X>X>X>X>X>X>X<X>X>X>X>X>X>X>X>X>X<X*X*X%X_.).^.!.W.s.y.e.,.#...I L M n h g u t w 5 3 3 - - > > 3 3 > , > > > > < > > > > < < > > > > , 4 4 4 0 0 y y s d c c C C J ~ ^ ^ ) ) ( _ *.*.*.*.*.&.&.) ) ) Y Y H H N m l l g g g u u u w w w 6 5 5 5 5 3 3 5 5 5 5 5 6 w w w u u g j x N J Y Q ( &.&.w.w.q.j.j.S.I.I.I.I.I.U.U.U.U.I.I.F.S.S.S.j.0.0.9.;.;.W Q IXIXIXIXIXIXIXIXIXIXIXIXIXIXIXIXIXIXIXIXIXIXIXIXIXIXIXIXIXIXIXIXIXIXIXIXIXIXIXIXIXIXIXIXIXIXIXIXIXIXIXIXIXIXIXIXIXIXIXIXIXIXIXIXIXIXIXIXIXIXIXIXIXIXIXIXIXIXIXIXIXIXIXIXIXIXIXIXIXIXIXIXE E ;.5.0.A.S.F.G.U.MXMXVXCXCXCXCXCXCXVXMXMXG.G.",
"IXIXIXIXIXIXIXIXIXIXIXIXIXIXIXIXIXIXIXIXIXIXIXIXIXIXIXIXIXIXIXIXIXIXIXIXIXIXIXIXIXIXIXIXIXIXIXIXIXIXIXIXIXIXIXIXIXIXIXIXIXIXIXIXIXIXIXIXIXIXIXIXIXIXIX) _ 7.7.8.b.b.L.P.T.Y.Y.Y.nXHXHXZXZXZXZXZXZXZXZXZXZXZXZXZXHXHXHXHXR.R.R.R.R.T.P.P.P.b.b.x.7.] _ ^ ~ A c d a q 8 8 < < $ $ $ O O O O @ # = : > 4 9 y k z D P R X.-.1.p.f.C.].{. XOX+X8X9XeXSXFXFXFXFXFXLXxXxXxXzXzXzXfXfXfXdXaX3X3X1X,X<X<X<X>X>X>X>X>X>X>X>X>X>X>X=X=X=X=X=X=X=X=X=X=X=X=X=X=X=X=X=X=X=X=X>X>X>X>X>X>X<X>X>X>X>X>X>X>X>X>X<X*X*X%X_.).Q.!.B.a.y.e.,.#...I L M n h g u w w 5 3 3 - - > > 3 3 3 4 , 3 > > > > > > > < < > , > 4 4 4 4 4 0 0 y y s d x c c C J J ~ ^ ^ ) ) ) ) ) ) ) ) ) ) ) ) Y J J H N m l l g g f u u u w w w 6 5 5 5 5 3 3 3 3 5 5 5 6 w w w u u j j x N J Y Q &.&.6.w.w.j.j.j.I.I.I.U.U.bXbXbXbXU.U.U.I.F.S.S.j.q.0.9.6.;.W Q IXIXIXIXIXIXIXIXIXIXIXIXIXIXIXIXIXIXIXIXIXIXIXIXIXIXIXIXIXIXIXIXIXIXIXIXIXIXIXIXIXIXIXIXIXIXIXIXIXIXIXIXIXIXIXIXIXIXIXIXIXIXIXIXIXIXIXIXIXIXIXIXIXIXIXIXIXIXIXIXIXIXIXIXIXIXIXIXIXIXIXIX! R [ ;.5.0.A.S.F.G.bXMXBXCXCXCXCXCXCXCXCXBXMXbXG.",
"IXIXIXIXIXIXIXIXIXIXIXIXIXIXIXIXIXIXIXIXIXIXIXIXIXIXIXIXIXIXIXIXIXIXIXIXIXIXIXIXIXIXIXIXIXIXIXIXIXIXIXIXIXIXIXIXIXIXIXIXIXIXIXIXIXIXIXIXIXIXIXIXIXIXIXIX^ ) ' 7.7.8.b.b.P.T.T.Y.Y.nXHXHXZXZXZXZXZXZXZXZXZXZXZXZXZXHXHXHXY.R.R.R.R.T.P.P.P.b.b.x.7.] _ _ ^ ~ A c d q q 8 8 < < $ $ # # @ @ @ # = = > 4 9 y g l m G T X.-.1.4.f.C.].{. X+X+X9X9XAXSXFXFXFXFXFXLXFXxXxXxXzXzXzXfXfXdXaXaX3X1X1X<X<X<X>X>X>X>X>X>X>X>X>X=X=X=X=X=X=X=X=X=X=X=X=X=X=X=X=X=X=X=X=X=X=X>X>X>X>X>X>X<X<X>X>X>X>X>X>X>X<X<X*X%X%X_.).Q.!.B.a.y.r.,.O...I F m n h g u t w 5 3 3 - > > 3 3 3 3 3 3 3 > > > < < > > < > > > 4 4 4 4 4 4 0 9 9 y y s d x c c C J J J ~ ^ Y ^ ) ) ) ) ) Y Y Y J J J H N m l l g g f u u u w w w w 5 5 5 3 3 3 1 3 3 5 5 5 w w t u u g j x V N Y ) &.&.6.w.q.j.j.L.I.I.U.bXbXnXnXnXnXbXbXU.U.I.F.S.S.j.0.9.6.;.W Q IXIXIXIXIXIXIXIXIXIXIXIXIXIXIXIXIXIXIXIXIXIXIXIXIXIXIXIXIXIXIXIXIXIXIXIXIXIXIXIXIXIXIXIXIXIXIXIXIXIXIXIXIXIXIXIXIXIXIXIXIXIXIXIXIXIXIXIXIXIXIXIXIXIXIXIXIXIXIXIXIXIXIXIXIXIXIXIXIXIXIXIXIXR [ ;.5.0.0.A.S.G.G.MXMXBXCXCXDXCXCXCXCXCXBXMXMX}.",
"IXIXIXIXIXIXIXIXIXIXIXIXIXIXIXIXIXIXIXIXIXIXIXIXIXIXIXIXIXIXIXIXIXIXIXIXIXIXIXIXIXIXIXIXIXIXIXIXIXIXIXIXIXIXIXIXIXIXIXIXIXIXIXIXIXIXIXIXIXIXIXIXIXIXIXIXIX^ / _ ] 7.7.c.b.P.P.T.Y.Y.nXHXHXZXZXZXZXZXZXZXZXZXZXZXZXHXHXHXR.R.R.R.T.T.P.P.m.b.v.x.7.7.] _ ^ ~ A c c a q q 8 8 < < $ $ # # # # # = = > 3 6 y i l m F P T +.1.4.p.C.H.{.{. X+X+X9XAXSXFXFXFXFXFXFXFXFXxXxXxXzXzXfXfXsXaXaX3X2X1X<X<X<X<X=X>X>X>X>X=X=X=X=X=X=X=X=X=X=X=X=X=X=X=X=X=X=X=X=X=X=X=X=X=X>X>X>X>X>X>X<X<X<X>X>X>X>X>X>X<X*X*X%X%X_.).Q.W.B.a.y.e.,.O...I F m n h g u t w 5 3 3 3 > > 3 3 3 3 3 3 3 > > < < < < > < > > > 4 4 4 4 4 4 4 9 9 y y s s x x c x C J J J J J J ~ ~ ~ J J J J J J H N N z l l g g i u u u w w w w 6 5 5 5 3 3 1 1 1 3 5 5 6 w w u u i j v x N J Y &.&.6.w.q.j.j.I.I.I.nXbXbXnXnXnXnXnXnXbXU.U.F.S.S.j.q.0.6.6.@.Q IXIXIXIXIXIXIXIXIXIXIXIXIXIXIXIXIXIXIXIXIXIXIXIXIXIXIXIXIXIXIXIXIXIXIXIXIXIXIXIXIXIXIXIXIXIXIXIXIXIXIXIXIXIXIXIXIXIXIXIXIXIXIXIXIXIXIXIXIXIXIXIXIXIXIXIXIXIXIXIXIXIXIXIXIXIXIXIXIXIXIXIXIX! R [ ;.5.0.A.A.F.G.G.MXMXBXCXCXDXDXDXDXDXCXCXBXMX@X",
"IXIXIXIXIXIXIXIXIXIXIXIXIXIXIXIXIXIXIXIXIXIXIXIXIXIXIXIXIXIXIXIXIXIXIXIXIXIXIXIXIXIXIXIXIXIXIXIXIXIXIXIXIXIXIXIXIXIXIXIXIXIXIXIXIXIXIXIXIXIXIXIXIXIXIXIXIXIXIX^ _ ] 7.7.b.b.P.P.T.Y.Y.E.E.HXZXZXZXZXZXZXZXZXZXZXHXHXHXE.R.R.R.Y.T.P.P.P.m.b.c.x.7.7.] _ / ^ ~ A c d a q q 8 8 < < = # # # # = = = > 3 6 t i k z F P T X.1.1.p.Z.D.{.{. X+X+XAXAXSXFXFXFXFXFXFXFXFXFXxXxXzXzXzXfXsXaXaX2X2X1X,X=X<X=X=X=X=X=X=X>X=X=X=X=X=X=X=X=X=X=X=X=X=X=X=X=X=X=X=X=X=X=X=X=X>X>X>X>X>X>X>X>X>X>X>X>X>X>X>X<X*X*X%X#X_.).Q.W.B.a.y.e.,.O...I F m n h g u u w 5 3 3 3 - > > 3 3 3 3 > > > > > > < > > > > > > 4 4 4 4 4 4 6 9 9 y y y i s x x c c x c J J J J J J J J J J N c N x x x x k g g i u u t w w w 6 5 5 5 5 3 3 1 1 3 3 3 5 5 w w t u s j j x c J Y ( &.6.w.q.j.m.I.I.U.nXnXnXnXnXVXNXNXnXbXbXbXI.F.S.S.j.0.9.6.;.W Q IXIXIXIXIXIXIXIXIXIXIXIXIXIXIXIXIXIXIXIXIXIXIXIXIXIXIXIXIXIXIXIXIXIXIXIXIXIXIXIXIXIXIXIXIXIXIXIXIXIXIXIXIXIXIXIXIXIXIXIXIXIXIXIXIXIXIXIXIXIXIXIXIXIXIXIXIXIXIXIXIXIXIXIXIXIXIXIXIXIXIXIXIXR [ ;.5.5.0.A.A.F.G.G.@XMXBXCXCXCXDXDXDXDXCXCXBXBX@X",
"IXIXIXIXIXIXIXIXIXIXIXIXIXIXIXIXIXIXIXIXIXIXIXIXIXIXIXIXIXIXIXIXIXIXIXIXIXIXIXIXIXIXIXIXIXIXIXIXIXIXIXIXIXIXIXIXIXIXIXIXIXIXIXIXIXIXIXIXIXIXIXIXIXIXIXIXIXIXIXIX^ / ] ] x.b.b.P.P.T.T.R.E.E.HXZXZXZXZXZXZXZXZXZXHXHXE.R.R.R.T.T.P.P.P.m.b.b.c.x.7.7.] _ _ ^ ~ A A d d q q q 8 8 < < = = = = = = = > 3 6 t y g l m F I ..-.1.p.f.D.].{.}. X+XAXAXAXSXGXFXFXFXFXFXFXFXxXxXcXlXlXfXfXsXaXaX2X3X-X=X=X=X=X=X=X=X=X=X=X=X=X=X=X=X=X=X=X=X=X=X=X=X=X=X=X=X=X=X=X=X=X=X>X>X>X>X>X>X>X>X>X>X>X>X>X>X<X*X*X*X%X_._.^.Q.W.B.a.y.e.,.O...I F m n h g u t w 5 3 3 3 > > > 3 3 3 3 > > > > > > > > > > > , 4 4 4 4 4 4 4 6 9 9 9 y y i i s s x x x c c c c c c c c c c c c x x x k k g g g i u u t w w 6 6 6 5 5 5 3 3 3 3 1 1 3 3 5 5 w w u u j j x V N Y ) &.&.w.w.j.m.I.I.U.nXnXnXNXVXVXVXVXVXNXnXbXbXI.F.S.j.0.0.6.6.W Q IXIXIXIXIXIXIXIXIXIXIXIXIXIXIXIXIXIXIXIXIXIXIXIXIXIXIXIXIXIXIXIXIXIXIXIXIXIXIXIXIXIXIXIXIXIXIXIXIXIXIXIXIXIXIXIXIXIXIXIXIXIXIXIXIXIXIXIXIXIXIXIXIXIXIXIXIXIXIXIXIXIXIXIXIXIXIXIXIXIXIXIXIXR [ ;.5.5.4.4.A.A.H.G.G.@X@XBXBXCXCXDXDXDXDXDXCXBXBXMX",
"IXIXIXIXIXIXIXIXIXIXIXIXIXIXIXIXIXIXIXIXIXIXIXIXIXIXIXIXIXIXIXIXIXIXIXIXIXIXIXIXIXIXIXIXIXIXIXIXIXIXIXIXIXIXIXIXIXIXIXIXIXIXIXIXIXIXIXIXIXIXIXIXIXIXIXIXIXIXIXIXIXIX/ ] 7.c.b.b.K.P.P.T.R.R.E.E.ZXZXZXZXZXZXZXHXE.E.R.R.R.T.P.P.P.P.m.b.b.c.c.x.7.7.] _ _ / ~ ~ A c d d q q q 8 8 < < = = = = = - > 3 6 w u g l m F P T +.1.4.p.C.D.].}. X X+XAXAXSXFXGXFXFXFXFXFXFXFXxXcXlXlXlXfXsXaXaX2X3X-X=X=X=X=X=X=X=X=X=X=X=X=X=X=X=X=X=X=X=X=X=X=X=X=X=X=X=X=X=X=X=X=X=X>X>X>X>X>X>X>X>X>X>X>X>X>X>X<X*X*X*X%X_.).^.!.W.s.a.y.e.:.O.| P F m l h g u t w 5 3 3 3 3 > 3 3 3 3 3 > > > > > > > > > > , 3 4 4 4 4 4 4 4 6 9 9 9 t t y y i i s s s s x x x c c c c x c x x x x g g g i i u u t t w w 6 6 6 5 5 3 3 3 3 3 1 1 1 1 3 5 6 w t u s v x x c J Y ( &.6.w.j.j.m.I.I.nXnXnXNXVXVXVXVXVXVXVXbXbXbXG.F.S.j.0.9.6.@.Q E IXIXIXIXIXIXIXIXIXIXIXIXIXIXIXIXIXIXIXIXIXIXIXIXIXIXIXIXIXIXIXIXIXIXIXIXIXIXIXIXIXIXIXIXIXIXIXIXIXIXIXIXIXIXIXIXIXIXIXIXIXIXIXIXIXIXIXIXIXIXIXIXIXIXIXIXIXIXIXIXIXIXIXIXIXIXIXIXIXIXIXIXR R ;.;.5.4.0.A.A.A.H.H.}.@X@XBXBXCXSXDXDXDXDXDXCXCXBXBX",
"IXIXIXIXIXIXIXIXIXIXIXIXIXIXIXIXIXIXIXIXIXIXIXIXIXIXIXIXIXIXIXIXIXIXIXIXIXIXIXIXIXIXIXIXIXIXIXIXIXIXIXIXIXIXIXIXIXIXIXIXIXIXIXIXIXIXIXIXIXIXIXIXIXIXIXIXIXIXIXIXIXIXIX/ ] x.c.b.n.K.P.P.R.R.R.E.E.HXZXZXHXE.E.E.R.R.R.R.T.P.P.P.P.m.b.b.c.c.x.7.7.7.] _ _ _ ^ ~ A A c d d q q q 8 8 < < = = = = - > 3 4 6 t i k l m F I X.-.1.p.f.D.D.[.}. X XBXAXAXSXFXFXFXFXFXFXFXFXxXxXcXlXlXlXsXsXaX2X2X:X=X=X=X=X=X=X=X=X=X=X=X=X=X=X=X=X=X=X=X=X=X=X=X=X=X=X=X=X=X=X=X=X=X>X>X>X>X>X>X>X>X>X>X>X>X>X<X<X*X*X*X%X_.).^.!.B.a.d.t.<.:.O.| L F m l h g u t w 6 5 3 3 3 3 3 3 3 3 3 > 3 > > > > > > > 4 4 4 4 4 4 4 4 4 4 6 6 9 9 t t t y y y i i i i s s s s s s s s s s s i i i i u u u u t t w w 6 6 5 5 3 3 3 3 3 3 3 3 1 1 3 3 5 6 w t u s j x c N J ) ) &.w.q.j.m.I.I.U.nXnXNXVXVXVXVXVXVXVXBXMXbXbXG.S.j.0.0.6.6.W E IXIXIXIXIXIXIXIXIXIXIXIXIXIXIXIXIXIXIXIXIXIXIXIXIXIXIXIXIXIXIXIXIXIXIXIXIXIXIXIXIXIXIXIXIXIXIXIXIXIXIXIXIXIXIXIXIXIXIXIXIXIXIXIXIXIXIXIXIXIXIXIXIXIXIXIXIXIXIXIXIXIXIXIXIXIXIXIXIXIXE ! R R ;.;.5.5.4.4.A.A.A.H.H.}.@X@X+XBXCXSXSXDXDXDXDXSXCXBXBX",
"IXIXIXIXIXIXIXIXIXIXIXIXIXIXIXIXIXIXIXIXIXIXIXIXIXIXIXIXIXIXIXIXIXIXIXIXIXIXIXIXIXIXIXIXIXIXIXIXIXIXIXIXIXIXIXIXIXIXIXIXIXIXIXIXIXIXIXIXIXIXIXIXIXIXIXIXIXIXIXIXIXIXIXIX_ ] x.v.n.n.K.P.P.P.P.R.R.R.R.R.E.R.R.R.R.R.R.P.P.P.m.m.b.b.b.c.c.7.7.7.7.7.] _ _ ) ^ ^ ~ A A b d d a q q 8 8 < < > > - > > 3 3 6 t u g l m F P T X.1.4.p.f.D.D.[.}.}. XBXAXAXSXSXGXFXFXFXFXFXjXjXlXcXlXlXsXsXsXaX2X:X-X=X=X=X=X=X=X=X=X=X=X=X=X=X=X=X=X=X=X=X=X=X=X=X=X=X=X=X=X=X=X=X=X>X>X>X>X>X>X>X>X>X>X>X>X<X<X*X*X*X%X%X_.).Q.W.B.a.y.t.<.:.O.I L F m l h g u t w 6 5 3 3 > > > 3 3 3 3 3 3 3 > > > 3 3 4 3 4 4 4 4 4 4 4 4 4 6 6 9 9 9 t t t y y y y y y i i i i i i i i u u u u y y y t t t t t w 6 6 6 5 5 3 3 3 3 3 3 1 1 1 1 1 3 3 5 6 w t u j j x N N Y ) &.&.w.q.j.m.I.I.nXnXnXVXVXVXVXVXVXVXVXVXBXbXbXG.S.j.0.9.6.@.Q E IXIXIXIXIXIXIXIXIXIXIXIXIXIXIXIXIXIXIXIXIXIXIXIXIXIXIXIXIXIXIXIXIXIXIXIXIXIXIXIXIXIXIXIXIXIXIXIXIXIXIXIXIXIXIXIXIXIXIXIXIXIXIXIXIXIXIXIXIXIXIXIXIXIXIXIXIXIXIXIXIXIXIXIXIXIXIXK E E E R R ;.;.5.5.4.4.Z.A.A.H.H.H.}.@X@X+X9XSXSXSXSXSXDXDXSXSXSXCX",
"IXIXIXIXIXIXIXIXIXIXIXIXIXIXIXIXIXIXIXIXIXIXIXIXIXIXIXIXIXIXIXIXIXIXIXIXIXIXIXIXIXIXIXIXIXIXIXIXIXIXIXIXIXIXIXIXIXIXIXIXIXIXIXIXIXIXIXIXIXIXIXIXIXIXIXIXIXIXIXIXIXIXIXIXIX] x.x.v.n.n.K.K.K.P.P.R.R.R.R.R.R.R.P.P.P.P.P.m.m.n.b.b.c.c.7.7.7.7.7.] ] ' _ _ _ ) ^ ~ ~ A b c d d a q q 7 7 7 > > > > > 3 3 6 w y i g l m F P ..+.1.2.p.k.D.D.[.}.}. XBXAXAXSXSXGXFXFXFXFXjXjXjXlXlXlXlXsXsXaXaX2X1X,X=X=X=X=X=X=X=X=X=X=X=X=X=X=X=X=X=X=X=X=X=X=X=X=X=X=X=X=X=X=X=X>X>X>X>X>X>X>X>X>X>X>X>X<X<X*X*X*X%X%X_.).Q.W.B.a.y.e.<.#.o.I L M m l g g u u w 6 3 3 3 > 3 > 3 3 3 3 3 3 3 3 3 3 3 3 3 4 4 4 4 4 4 4 4 4 6 6 6 6 9 9 9 9 t t t y t y y y y y y t y y t t t t t t t w w w w 6 6 6 6 6 5 3 3 3 3 3 3 3 3 3 3 1 1 1 3 3 5 6 w u i s j x N J Y ) &.6.w.q.j.S.I.I.nXbXnXVXVXVXVXVXVXVXVXVXMXbXbXG.S.j.0.9.6.W E Y IXIXIXIXIXIXIXIXIXIXIXIXIXIXIXIXIXIXIXIXIXIXIXIXIXIXIXIXIXIXIXIXIXIXIXIXIXIXIXIXIXIXIX/ / IXIXIXIXIXIXIXIXIXIXIXIXIXIXIXIXIXIXIXIXIXIXIXIXIXIXIXIXIXIXIXIXIXIXIXIXIXIXIXIXJ K K E E Q [ ;.;.;.5.4.4.Z.Z.A.D.H.H.H.{.@X@X+X9XSXSXSXSXSXSXSXSXSXSXSX",
"IXIXIXIXIXIXIXIXIXIXIXIXIXIXIXIXIXIXIXIXIXIXIXIXIXIXIXIXIXIXIXIXIXIXIXIXIXIXIXIXIXIXIXIXIXIXIXIXIXIXIXIXIXIXIXIXIXIXIXIXIXIXIXIXIXIXIXIXIXIXIXIXIXIXIXIXIXIXIXIXIXIXIXIXIXIX{ x.x.v.n.n.n.n.K.K.K.K.P.P.P.P.P.P.P.n.n.n.n.b.b.c.c.x.7.7.7._ _ _ _ _ _ _ _ _ _ ^ ^ ~ A A b c d a a q 0 7 7 3 > > > > 3 3 6 6 t u g l n M L I +.-.2.g.h.k.D.D.[.}.}.mXBXAXAXAXAXAXSXFXFXFXjXjXjXlXcXlXlXsXsXaXaX2X1X,X=X=X=X=X=X=X=X=X=X=X=X=X=X=X=X=X=X=X=X=X=X=X=X=X=X=X=X=X=X=X>X>X>X>X>X>X>X>X>X>X>X<X<X*X*X*X*X%X%X_.).Q.W.B.a.y.e.,.#...I L M m l g g u t w 6 3 3 3 > > > 3 3 3 3 3 3 3 3 4 3 3 3 3 4 4 4 4 4 4 4 4 4 6 6 6 6 6 6 6 6 6 9 9 t t t t t t t t t t 6 6 6 6 6 6 6 6 6 6 6 6 6 6 6 5 3 3 3 3 3 3 1 1 3 3 3 3 1 1 3 3 3 5 6 t u i s x x N J Y Q &.6.w.q.j.S.I.U.bXbXnXVXVXVXVXVXVXVXVXBXbXbXbXG.S.j.0.9.6.W E J IXIXIXIXIXIXIXIXIXIXIXIXIXIXIXIXIXIXIXIXIXIXIXIXIXIXIXIXIXIXIXIXIXIXIXIXIXIXIXIXIXIX/ / / } } IXIXIXIXIXIXIXIXIXIXIXIXIXIXIXIXIXIXIXIXIXIXIXIXIXIXIXIXIXIXIXIXIXIXIXIXC J K K E Q Q [ ;.;.;.5.4.4.4.Z.Z.Z.D.H.H.{.}.@X@X+X9X9XSXSXSXPXPXSXSXDXSXSX",
"IXIXIXIXIXIXIXIXIXIXIXIXIXIXIXIXIXIXIXIXIXIXIXIXIXIXIXIXIXIXIXIXIXIXIXIXIXIXIXIXIXIXIXIXIXIXIXIXIXIXIXIXIXIXIXIXIXIXIXIXIXIXIXIXIXIXIXIXIXIXIXIXIXIXIXIXIXIXIXIXIXIXIXIXIXIXIXIXx.x.x.v.v.n.n.n.n.n.n.n.n.n.n.n.n.n.n.v.v.x.x.x.7.7._ _ _ _ _ _ _ _ _ _ _ _ _ ) ^ ^ ~ A A b c d a a q 0 7 4 3 3 3 3 3 3 5 6 w t u g l m F P T +.-.2.g.h.k.D.D.[.}. X XBXAXAXAXAXAXSXFXFXFXjXxXxXxXcXlXlXsXsXaXaX2X1X,X,X>X=X=X=X=X=X=X=X=X=X=X=X=X=X=X=X=X=X=X=X=X=X=X=X=X=X=X=X>X>X>X>X>X>X>X>X>X>X<X<X*X*X*X*X*X%X.X_.^.W.W.B.a.y.e.,.#...I L M m l g g u t w 6 3 3 3 3 > 3 3 3 3 3 3 3 3 3 4 3 3 3 3 4 4 4 4 4 4 4 4 6 6 6 6 6 6 6 6 6 6 6 6 6 6 6 6 6 6 6 6 6 6 6 6 6 6 6 6 6 6 6 6 6 6 6 6 5 3 3 3 3 3 3 3 1 1 1 1 3 3 1 3 3 3 3 5 6 t u i s x x N J Y Q &.6.9.0.j.j.F.I.U.bXbXMXVXVXVXVXVXVXVXMXbXbX[.F.S.h.0.6.6.Q E IXIXIXIXIXIXIXIXIXIXIXIXIXIXIXIXIXIXIXIXIXIXIXIXIXIXIXIXIXIXIXIXIXIXIXIXIXIXIXIXIXIX/ / / / } / IXIXIXIXIXIXIXIXIXIXIXIXIXIXIXIXIXIXIXIXIXIXIXIXIXIXIXIXIXIXIXIXIXIXIXC J J K Q W [ [ ;.;.;.5.5.4.4.Z.Z.Z.C.H.H.H.{.{.@X@X+X9XrXSXSXSXPXPXPXPXDXSXSX",
"IXIXIXIXIXIXIXIXIXIXIXIXIXIXIXIXIXIXIXIXIXIXIXIXIXIXIXIXIXIXIXIXIXIXIXIXIXIXIXIXIXIXIXIXIXIXIXIXIXIXIXIXIXIXIXIXIXIXIXIXIXIXIXIXIXIXIXIXIXIXIXIXIXIXIXIXIXIXIXIXIXIXIXIXIXIXIXIXIXIXx.x.x.x.v.v.v.v.v.v.v.v.v.v.v.x.x.x.x.x.7._ _ _ _ _ / ^ ^ / ) ) _ _ _ _ _ _ / ^ ~ ~ A A c c d a p 0 0 4 4 3 3 3 3 3 3 6 w t u g g l m F U +.%.;.2.l.h.k.D.D.[.}. X XBXAXAXAXAXAXFXFXFXFXxXxXxXcXcXlXlXsXsXaXaX2X1X,X,X>X=X=X=X=X=X=X=X=X=X=X=X=X=X=X=X=X=X=X=X=X=X=X=X=X=X=X=X>X>X>X>X>X>X>X>X>X>X<X<X*X*X*X%X%X_._.^.W.B.B.a.y.e.,.#...I L M m l g g u t w 6 3 3 3 3 > 3 3 3 3 3 3 3 3 3 3 3 4 4 4 4 4 4 4 4 4 4 6 6 6 6 6 6 6 6 6 6 6 6 6 6 6 6 6 6 6 6 6 6 6 6 6 6 6 4 3 3 4 6 6 6 6 3 3 3 3 3 3 3 3 3 3 1 1 3 3 3 3 3 3 3 3 3 6 6 t u i s x x N H Y Q @.6.9.0.j.j.S.F.U.bXbXbXMXBXVXVXVXBXBXMXbXbXG.F.S.h.0.9.;.Q E IXIXIXIXIXIXIXIXIXIXIXIXIXIXIXIXIXIXIXIXIXIXIXIXIXIXIXIXIXIXIXIXIXIXIXIXIXIXIXIXIXIX/ / / } / / / IXIXIXIXIXIXIXIXIXIXIXIXIXIXIXIXIXIXIXIXIXIXIXIXIXIXIXIXIXIXIXIXIXC C J K Q W [ [ ;.;.5.5.5.4.4.p.Z.Z.Z.C.C.H.H.{.{.@X+X+X9X9XSXSXPXPXPXPXPXPXPXSX",
"IXIXIXIXIXIXIXIXIXIXIXIXIXIXIXIXIXIXIXIXIXIXIXIXIXIXIXIXIXIXIXIXIXIXIXIXIXIXIXIXIXIXIXIXIXIXIXIXIXIXIXIXIXIXIXIXIXIXIXIXIXIXIXIXIXIXIXIXIXIXIXIXIXIXIXIXIXIXIXIXIXIXIXIXIXIXIXIXIXIXIX{ { { { { { { { { x.x.x.x.x.x.{ { _ _ _ _ / ` ` ` ~ ~ ^ ^ ^ ) ) ) _ _ _ _ / ^ ^ ~ ~ A C c d d a p 0 0 4 4 3 3 3 3 3 6 6 w t u g l n M L R +.%.2.2.l.h.k.D.D.[.}. X X+XAXAXAXAXFXFXFXFXFXFXFXxXcXcXlXlXfXsXaX2X2X1X,X,X=X=X=X=X=X=X=X=X=X=X=X=X=X=X=X=X=X=X=X=X=X=X=X=X=X=X=X>X>X>X>X>X>X>X>X>X<X<X*X*X*X%X%X%X_._.^.W.B.B.a.y.e.,.#...I L M m l g g u t w 5 3 3 3 3 > 3 3 3 3 3 3 3 3 3 3 4 4 4 4 4 4 4 4 4 6 6 6 6 6 6 6 6 6 6 6 6 6 6 6 6 6 6 6 6 6 6 5 4 3 3 3 3 3 3 3 3 3 3 3 3 3 3 3 3 3 3 3 3 3 3 > - - 3 3 3 3 3 3 3 3 3 6 6 t u i g x x N H Y Y @.&.9.0.h.j.j.S.F.G.bXbXbXbXMXBXMXBXMXbXbX}.G.F.A.h.0.9.@.Q E IXIXIXIXIXIXIXIXIXIXIXIXIXIXIXIXIXIXIXIXIXIXIXIXIXIXIXIXIXIXIXIXIXIXIXIXIXIXIXIXIX/ / / / / / / / IXIXIXIXIXIXIXIXIXIXIXIXIXIXIXIXIXIXIXIXIXIXIXIXIXIXIXIXIXIXIXC C J J K K W [ [ ;.;.5.5.5.5.4.4.Z.Z.Z.C.C.C.H.{.{.{.@X+X+X9XrXSXSXPXPXPXPXPXPXPXSX",
"IXIXIXIXIXIXIXIXIXIXIXIXIXIXIXIXIXIXIXIXIXIXIXIXIXIXIXIXIXIXIXIXIXIXIXIXIXIXIXIXIXIXIXIXIXIXIXIXIXIXIXIXIXIXIXIXIXIXIXIXIXIXIXIXIXIXIXIXIXIXIXIXIXIXIXIXIXIXIXIXIXIXIXIXIXIXIXIXIXIXIXIXIXIX_ } } } } } } } } } } } _ _ / _ ` ` ~ ~ ~ ~ ~ ~ ~ ^ ^ ^ / ) ) _ _ _ ) ) ^ ^ ~ ~ C c c d d p p 0 6 4 4 3 3 3 3 5 6 6 w u u g l m M U R +.%.2.2.l.l.k.D.[.[. X X XqXqXqXAXAXFXFXFXFXFXFXxXxXcXcXlXlXfXsXaXaX2X1X,X>X=X=X=X=X=X=X=X=X=X=X=X=X=X=X=X=X=X=X=X=X=X=X=X=X=X=X=X>X>X>X>X>X>X>X<X<X*X*X*X*X%X%X%X_._.^.W.B.B.u.y.e.,.O...I L M m l g g u t w 6 3 3 3 3 3 3 3 3 3 3 3 3 3 3 3 4 4 4 4 4 4 4 4 6 6 6 6 6 6 4 6 6 6 6 6 6 6 6 6 6 6 6 4 4 3 3 3 3 3 3 3 3 3 3 3 3 3 3 3 3 3 3 3 3 3 3 3 3 3 > > - > > 3 3 3 3 3 3 3 3 6 6 t u i g l x N H H Y Q @.6.9.0.h.h.A.F.F.G.}.bXbXmXbXbXmXbXmX}.}.G.F.A.0.9.6.@.Q E IXIXIXIXIXIXIXIXIXIXIXIXIXIXIXIXIXIXIXIXIXIXIXIXIXIXIXIXIXIXIXIXIXIXIXIXIXIXIXIXIX/ / / / _ / / / IXIXIXIXIXIXIXIXIXIXIXIXIXIXIXIXIXIXIXIXIXIXIXIXIXIXIXIXIXIXC C J K K ^ ( ' ' ;.;.;.5.5.5.4.4.4.Z.Z.Z.C.C.C.H.{.{.{.@XOX8XrXrXeXkXFXLXLXPXPXPXPXDX",
"IXIXIXIXIXIXIXIXIXIXIXIXIXIXIXIXIXIXIXIXIXIXIXIXIXIXIXIXIXIXIXIXIXIXIXIXIXIXIXIXIXIXIXIXIXIXIXIXIXIXIXIXIXIXIXIXIXIXIXIXIXIXIXIXIXIXIXIXIXIXIXIXIXIXIXIXIXIXIXIXIXIXIXIXIXIXIXIXIXIXIXIXIXIXIXIX` / ` / / / / / ` ` ` ` ` ~ ~ ~ ~ ~ A b A ~ ~ ~ ~ ^ ^ / ) ) ) ) ) / ^ ^ ^ ~ J C c c d p p t 9 6 4 4 3 3 3 5 5 6 w w u i g l m F U R +.%.-.2.l.l.k.D.[.[. X X XqXqXqXAXFXFXFXFXFXFXFXFXxXcXcXlXlXfXsXaXaX2X1X,X=X=X=X=X=X=X=X=X=X=X=X=X=X=X=X=X=X=X=X=X=X=X=X=X=X=X=X=X>X>X>X>X>X>X<X<X*X*X*X%X%X%X%X_.).^.!.B.a.u.y.e.>.O...I L M n l g g u t w 6 3 3 3 3 3 3 3 3 3 3 3 3 3 3 4 4 4 4 4 4 4 6 6 6 6 6 6 4 6 6 4 6 6 6 6 6 6 4 4 4 3 3 3 3 3 3 3 3 3 3 3 3 3 3 3 3 3 3 3 3 3 3 3 3 3 3 3 3 3 > > > > > 3 3 3 3 3 3 3 3 6 6 t u i g k l N N H Y Q @.@.9.9.0.h.h.k.F.F.F.[.}.}.}.}.}.}.}.}.G.G.F.h.0.9.6.@.Q K IXIXIXIXIXIXIXIXIXIXIXIXIXIXIXIXIXIXIXIXIXIXIXIXIXIXIXIXIXIXIXIXIXIXIXIXIXIXIXIXIXIX/ _ _ _ / / IXIXIXIXIXIXIXIXIXIXIXIXIXIXIXIXIXIXIXIXIXIXIXIXIXIXIXIXIXIXA ~ ~ ~ ^ ^ ) ' ' 6.6.;.;.5.5.5.4.4.4.Z.Z.Z.C.C.C.H.{.{.oXOXOX8X8XrXrXkXFXPXLXPXPXPXSXDX",
"IXIXIXIXIXIXIXIXIXIXIXIXIXIXIXIXIXIXIXIXIXIXIXIXIXIXIXIXIXIXIXIXIXIXIXIXIXIXIXIXIXIXIXIXIXIXIXIXIXIXIXIXIXIXIXIXIXIXIXIXIXIXIXIXIXIXIXIXIXIXIXIXIXIXIXIXIXIXIXIXIXIXIXIXIXIXIXIXIXIXIXIXIXIXIXIXIXIXIXIXIXIXIXIXIXIXIXIXIXIXIXIXIXIXIXIXIXIXIXIXIXIX^ ^ / ) ) ) ) ) ^ ^ ^ ~ ~ C C c d v p p t 9 6 6 4 3 3 5 5 6 6 w t u g h l M F U R +.+.%.2.g.p.k.D.[.[. X X X XqXqXAXFXFXFXFXFXFXFXxXxXcXlXlXlXfXsXaXaX2X1X,X>X=X=X=X=X=X=X=X=X=X=X=X=X=X=X=X=X=X=X=X=X=X=X=X=X=X=X>X>X>X>X>X>X<X*X*X*X*X%X%X%X%X_.).^.W.B.a.u.t.<.>.O...I L M n l g i u t w 6 3 3 3 3 3 3 3 3 3 3 3 3 3 3 4 4 4 4 4 4 6 6 6 6 6 6 6 6 6 6 6 6 6 4 4 4 3 3 3 3 3 3 3 3 3 3 3 3 3 3 3 3 3 3 3 3 3 3 3 3 3 3 3 3 3 3 3 3 3 3 > > > > 3 3 3 3 3 3 3 3 6 6 t u i g k x z m H U E +.@.;.;.2.0.l.h.h.k.D.F.G.[.}.}.}.}.}.[.F.F.S.h.0.9.6.@.Q E IXIXIXIXIXIXIXIXIXIXIXIXIXIXIXIXIXIXIXIXIXIXIXIXIXIXIXIXIXIXIXIXIXIXIXIXIXIXIXIXIXIX_ _ ] _ / / IXIXIXIXIXIXIXIXIXIXIXIXIXIXIXIXIXIXIXIXIXIXIXIXIXIXIXIXIXIX~ ^ ^ ^ ) ) ' ' 6.6.6.6.5.5.5.4.4.4.4.Z.Z.Z.Z.C.C.H.H.{.oX|.OX+X+X9XrXrXeXFXSXSXSXSXSXDX",
"IXIXIXIXIXIXIXIXIXIXIXIXIXIXIXIXIXIXIXIXIXIXIXIXIXIXIXIXIXIXIXIXIXIXIXIXIXIXIXIXIXIXIXIXIXIXIXIXIXIXIXIXIXIXIXIXIXIXIXIXIXIXIXIXIXIXIXIXIXIXIXIXIXIXIXIXIXIXIXIXIXIXIXIXIXIXIXIXIXIXIXIXIXIXIXIXIXIXIXIXIXIXIXIXIXIXIXIXIXIXIXIXIXIXIXIXIXIXIXIXIXIXIXIXIX) / ) ) / ^ ^ ^ ^ ~ J C c c d v p y t 9 6 6 4 3 5 5 5 6 6 w t u g h n N F U R ..+.%.2.g.p.k.D.].[.}. X X XqXqXAXFXFXFXFXFXFXFXxXxXcXlXlXlXfXsXaX2X2X1X,X=X=X=X=X=X=X=X=X=X=X=X=X=X=X=X=X=X=X=X=X=X=X=X=X=X=X>X>X>X>X>X<X<X*X*X*X*X%X%X%X%X_.).^.W.B.a.u.t.<.:.O...I F m n l g i u t w 5 3 3 3 3 3 3 3 3 3 3 3 3 3 4 4 4 4 4 4 6 6 6 6 6 6 6 6 6 4 6 6 6 6 4 3 3 3 3 3 3 3 3 3 3 3 3 3 3 3 3 3 3 3 3 3 3 3 3 3 3 3 3 3 3 3 3 3 3 3 > > > > > 3 3 3 3 3 3 3 4 6 6 t y y i g k l m D F ! R +.@.;.2.2.4.g.h.h.k.D.D.D.G.[.[.[.[.F.F.F.A.h.0.9.6.@.Q K IXIXIXIXIXIXIXIXIXIXIXIXIXIXIXIXIXIXIXIXIXIXIXIXIXIXIXIXIXIXIXIXIXIXIXIXIXIXIXIXIXIXIX_ / / / IXIXIXIXIXIXIXIXIXIXIXIXIXIXIXIXIXIXIXIXIXIXIXIXIXIXIXIXIXIX~ ~ ^ ) ) ) ) ' ' 6.6.6.9.5.5.5.5.4.4.4.p.Z.Z.Z.C.C.C.H.H.{.oX@X@X+X+XrXrXrXSXSXSXSXSXSXSX",
"IXIXIXIXIXIXIXIXIXIXIXIXIXIXIXIXIXIXIXIXIXIXIXIXIXIXIXIXIXIXIXIXIXIXIXIXIXIXIXIXIXIXIXIXIXIXIXIXIXIXIXIXIXIXIXIXIXIXIXIXIXIXIXIXIXIXIXIXIXIXIXIXIXIXIXIXIXIXIXIXIXIXIXIXIXIXIXIXIXIXIXIXIXIXIXIXIXIXIXIXIXIXIXIXIXIXIXIXIXIXIXIXIXIXIXIXIXIXIXIXIXIXIXIXIXIXIX) ) ) ^ ^ ^ ^ ~ J J C c c d s p y t 9 6 6 6 5 5 5 5 6 6 w t u g h l N M L U ..+.%.2.g.p.k.D.].[.[.}. X XqXqXAXFXFXFXFXFXFXFXxXcXcXlXlXlXsXsXaX2X2X,X=X=X=X=X=X=X=X=X=X=X=X=X=X=X=X=X=X=X=X=X=X=X=X=X=X=X>X<X>X>X>X<X*X*X*X*X*X%X%X%X.X_.).^.W.B.a.y.t.<.:.O...P F m l l g u u t w 5 3 3 3 3 3 3 3 3 3 3 3 3 4 4 4 4 4 4 6 6 6 6 6 6 6 6 6 6 6 6 6 6 6 3 3 3 3 3 3 3 3 3 3 3 3 3 3 3 3 > 3 3 3 3 3 3 3 3 3 3 3 3 3 3 3 3 3 3 3 3 3 > > > 3 3 3 3 3 3 3 6 6 6 t y y i g k l z m F G U R +.+.+.-.1.2.2.g.p.h.A.D.D.D.H.G.G.F.F.A.A.h.0.9.6.@.Q Y IXIXIXIXIXIXIXIXIXIXIXIXIXIXIXIXIXIXIXIXIXIXIXIXIXIXIXIXIXIXIXIXIXIXIXIXIXIXIXIXIXIXIXIXIXIXIXIXIXIXIXIXIXIXIXIXIXIXIXIXIXIXIXIXIXIXIXIXIXIXIXIXIXIXIXIXIX` ^ / ) _ ' ' ' ' 6.6.6.6.;.5.5.5.4.4.4.p.Z.Z.Z.Z.Z.C.D.H.{.{.{.@XOX+X+X8X9X9X9XSXSXSXSXSX",
"IXIXIXIXIXIXIXIXIXIXIXIXIXIXIXIXIXIXIXIXIXIXIXIXIXIXIXIXIXIXIXIXIXIXIXIXIXIXIXIXIXIXIXIXIXIXIXIXIXIXIXIXIXIXIXIXIXIXIXIXIXIXIXIXIXIXIXIXIXIXIXIXIXIXIXIXIXIXIXIXIXIXIXIXIXIXIXIXIXIXIXIXIXIXIXIXIXIXIXIXIXIXIXIXIXIXIXIXIXIXIXIXIXIXIXIXIXIXIXIXIXIXIXIXIXIXIXIX^ ^ ^ ^ ^ ^ ^ ~ J J C c c x s p y t 9 6 6 6 5 5 5 5 5 6 w w u f g l n N F U U ..%.2.g.p.f.k.D.].[.}. X XqXqXAXAXAXFXFXFXFXFXxXxXlXlXlXlXsXsXaX2X1X,X=X=X=X=X=X=X=X=X=X=X=X=X=X=X=X=X=X*X=X*X*X*X=X=X=X<X<X<X>X<X<X*X*X*X*X*X%X%X%X.X_.^.W.B.B.u.y.e.,.:.X.T P M m l g g u u w 6 5 3 3 3 3 3 3 3 3 3 3 3 4 4 4 4 4 4 6 6 6 6 6 6 6 6 6 6 6 6 4 6 6 3 3 3 3 3 3 3 3 3 3 3 > > > > > > > > > > 3 3 3 3 3 3 3 3 3 3 3 3 3 3 3 3 3 3 3 3 3 3 3 3 3 3 3 4 6 6 6 t y u y i g k l z m F L P T T X.+.%.-.1.1.4.g.p.f.A.D.D.D.D.D.D.A.A.h.0.9.6.W Q Y IXIXIXIXIXIXIXIXIXIXIXIXIXIXIXIXIXIXIXIXIXIXIXIXIXIXIXIXIXIXIXIXIXIXIXIXIXIXIXIXIXIXIXIXIXIXIXIXIXIXIXIXIXIXIXIXIXIXIXIXIXIXIXIXIXIXIXIXIXIXIXIXIXIXIXIX/ / / _ _ ) ' ' ' ' 6.6.6.6.;.;.5.5.5.4.4.4.4.p.Z.Z.Z.Z.C.D.H.H.{.{.@XOX@X+X+X+X+X+XAXCXCXCX",
"IXIXIXIXIXIXIXIXIXIXIXIXIXIXIXIXIXIXIXIXIXIXIXIXIXIXIXIXIXIXIXIXIXIXIXIXIXIXIXIXIXIXIXIXIXIXIXIXIXIXIXIXIXIXIXIXIXIXIXIXIXIXIXIXIXIXIXIXIXIXIXIXIXIXIXIXIXIXIXIXIXIXIXIXIXIXIXIXIXIXIXIXIXIXIXIXIXIXIXIXIXIXIXIXIXIXIXIXIXIXIXIXIXIXIXIXIXIXIXIXIXIXIXIXIXIXIXIXIX^ ^ ^ ^ ^ ^ ^ K J J C c c x v p p t 9 6 6 6 5 3 3 5 5 5 6 w u u g h l n M L I ..+.1.2.g.p.k.D.D.[.[. X XqXAXAXAXAXAXAXFXuXjXjXxXlXlXlXlXsXaXaX2X1X,X=X>X=X=X=X=X=X=X=X=X=X=X=X=X=X=X*X*X*X*X*X*X=X<X<X>X>X>X<X<X<X*X*X*X%X%X%X%X.X_.^.W.B.V.u.t.<.>.O...I L M m l g g u u w 6 5 3 3 3 3 3 3 3 3 3 3 3 3 3 3 4 4 6 6 6 6 6 6 6 6 6 6 6 6 6 6 4 3 4 3 3 3 3 3 3 3 3 3 3 3 3 > - - > 3 > > > > 3 3 3 3 3 3 3 3 3 3 3 3 3 3 > > > > > 3 3 3 3 3 3 4 4 4 6 6 t t y y i i g k l z m F F P I T ....O.O.:.>.1.g.i.p.f.A.D.D.D.D.A.h.h.0.9.6.W Q K IXIXIXIXIXIXIXIXIXIXIXIXIXIXIXIXIXIXIXIXIXIXIXIXIXIXIXIXIXIXIXIXIXIXIXIXIXIXIXIXIXIXIXIXIXIXIXIXIXIXIXIXIXIXIXIXIXIXIXIXIXIXIXIXIXIXIXIXIXIXIXIXIXIXIXIX/ / _ _ _ _ ' ' ' ' ' 6.6.;.;.;.;.;.5.5.5.4.4.4.4.p.p.Z.Z.A.C.D.H.{.{.{.{.@X@X@X@X+X+XBXBXMX",
"IXIXIXIXIXIXIXIXIXIXIXIXIXIXIXIXIXIXIXIXIXIXIXIXIXIXIXIXIXIXIXIXIXIXIXIXIXIXIXIXIXIXIXIXIXIXIXIXIXIXIXIXIXIXIXIXIXIXIXIXIXIXIXIXIXIXIXIXIXIXIXIXIXIXIXIXIXIXIXIXIXIXIXIXIXIXIXIXIXIXIXIXIXIXIXIXIXIXIXIXIXIXIXIXIXIXIXIXIXIXIXIXIXIXIXIXIXIXIXIXIXIXIXIXIXIXIXIXIX~ ^ ^ ^ ^ ^ ^ ^ K J J C c c x v p p t 9 6 6 5 3 3 3 3 5 5 6 w w u f g h n m F I ..+.1.2.g.p.h.k.D.[.}. X XqXqXAXAXAXAXAXuXuXjXjXjXlXlXlXlXsXsXaX2X1X,X,X>X>X>X>X>X=X=X=X=X=X=X=X=X=X*X*X*X*X*X*X<X<X<X>X>X>X<X<X<X*X*X*X*X%X%X%X.X).^.W.B.V.u.t.<.>.O...I L m n l g g u t w 6 5 3 3 3 3 3 3 3 3 3 3 3 3 3 4 4 4 6 6 6 6 6 6 6 6 6 6 6 6 6 6 4 3 3 3 3 3 3 3 3 3 3 3 3 3 3 3 > > > > > > 3 3 3 3 3 3 3 3 3 3 3 4 3 3 3 3 3 > > > > 3 3 3 4 3 4 4 4 4 6 6 9 t y u y i i g k l m m F F L P I I ....O.O.>.<.<.i.p.f.A.D.D.A.A.h.0.0.9.6.W Q K IXIXIXIXIXIXIXIXIXIXIXIXIXIXIXIXIXIXIXIXIXIXIXIXIXIXIXIXIXIXIXIXIXIXIXIXIXIXIXIXIXIXIXIXIXIXIXIXIXIXIXIXIXIXIXIXIXIXIXIXIXIXIXIXIXIXIXIXIXIXIXIXIXIXIXIX/ _ _ _ _ _ ) ) ' ' ' ' [ [ ;.;.;.;.;.;.;.5.5.4.4.4.4.p.p.p.Z.A.D.D.H.H.{.}.}.}.}.}.}.}.bXbX",
"IXIXIXIXIXIXIXIXIXIXIXIXIXIXIXIXIXIXIXIXIXIXIXIXIXIXIXIXIXIXIXIXIXIXIXIXIXIXIXIXIXIXIXIXIXIXIXIXIXIXIXIXIXIXIXIXIXIXIXIXIXIXIXIXIXIXIXIXIXIXIXIXIXIXIXIXIXIXIXIXIXIXIXIXIXIXIXIXIXIXIXIXIXIXIXIXIXIXIXIXIXIXIXIXIXIXIXIXIXIXIXIXIXIXIXIXIXIXIXIXIXIXIXIXIXIXIXIXIXIX~ ~ ^ ^ ^ ^ ^ ~ K J J C x c x v p p t 6 6 6 3 3 3 3 3 3 5 5 w e e u g h l m F I ..+.%.2.g.p.k.k.D.[.}. X X XqXAXAXAXAXuXuXuXjXjXlXlXlXlXsXsXaXaX2X1X,X,X>X>X>X>X>X>X=X=X=X=X=X=X=X=X*X*X*X*X*X<X<X<X>X>X>X<X<X<X<X<X*X%X%X%X%X.X).^.W.B.a.u.t.<.:.O...I F m l l g i u t w 6 5 3 3 3 3 3 3 3 3 3 3 3 3 4 4 4 4 6 6 6 6 6 6 6 6 6 6 6 6 6 6 4 3 3 3 3 3 3 3 3 3 3 3 3 3 3 3 3 > > 3 3 3 3 3 3 3 3 3 3 3 3 3 3 4 4 3 3 3 3 3 3 3 3 3 4 3 4 4 4 4 4 4 6 6 9 t t y u y i i g k l m m m F F L P I I ..X.O.:.<.<.i.p.f.A.A.A.h.h.0.0.6.6.W Q K IXIXIXIXIXIXIXIXIXIXIXIXIXIXIXIXIXIXIXIXIXIXIXIXIXIXIXIXIXIXIXIXIXIXIXIXIXIXIXIXIXIXIXIXIXIXIXIXIXIXIXIXIXIXIXIXIXIXIXIXIXIXIXIXIXIXIXIXIXIXIXIXIXIXIXIX/ _ _ _ _ _ _ ) ) ) ) ( ( W [ [ W [ [ ;.;.-.;.2.2.5.4.4.4.4.p.p.A.D.D.D.H.H.H.G.}.}.}.}.}.}.",
"IXIXIXIXIXIXIXIXIXIXIXIXIXIXIXIXIXIXIXIXIXIXIXIXIXIXIXIXIXIXIXIXIXIXIXIXIXIXIXIXIXIXIXIXIXIXIXIXIXIXIXIXIXIXIXIXIXIXIXIXIXIXIXIXIXIXIXIXIXIXIXIXIXIXIXIXIXIXIXIXIXIXIXIXIXIXIXIXIXIXIXIXIXIXIXIXIXIXIXIXIXIXIXIXIXIXIXIXIXIXIXIXIXIXIXIXIXIXIXIXIXIXIXIXIXIXIXIXIXIXIX~ ~ ^ ^ ^ ^ ^ ~ K J J C c c v p p t t 6 6 3 3 3 1 1 1 3 5 5 5 w e u f g l m L I ..+.%.2.2.g.k.k.D.[.}. X X XqXqXAXqXuXuXuXuXjXjXlXlXlXlXsXsXaXaX2X1X1X,X>X>X>X>X>X>X>X=X=X=X=X=X=X*X*X*X*X=X<X<X<X>X>X>X,X1X:X:X:X4X4X%X%X.X.X).^.W.B.u.t.t.<.:.O...P F m l k g u u t w 6 5 3 3 3 3 3 3 3 3 3 3 3 4 4 4 4 4 6 6 6 6 6 6 6 6 6 6 6 6 6 6 6 3 3 3 3 3 3 3 3 3 3 3 3 3 3 3 3 3 3 3 3 3 3 3 3 3 3 3 3 3 3 4 4 4 4 4 3 3 3 3 3 3 3 4 4 4 4 4 4 4 4 4 6 6 9 9 t y y y y y i g k l l m m m M F L L I ....O.:.<.<.i.p.p.k.k.h.h.0.0.6.6.W W K IXIXIXIXIXIXIXIXIXIXIXIXIXIXIXIXIXIXIXIXIXIXIXIXIXIXIXIXIXIXIXIXIXIXIXIXIXIXIXIXIXIXIXIXIXIXIXIXIXIXIXIXIXIXIXIXIXIXIXIXIXIXIXIXq q a b b b IXIXIXIXIXIX/ _ _ _ _ _ ) ) ) ) ) K K Q Q Q Q Q Q Q W ;.-.;.-.-.-.5.2.4.4.4.p.h.A.A.D.D.D.D.F.F.F.F.F.F.",
"IXIXIXIXIXIXIXIXIXIXIXIXIXIXIXIXIXIXIXIXIXIXIXIXIXIXIXIXIXIXIXIXIXIXIXIXIXIXIXIXIXIXIXIXIXIXIXIXIXIXIXIXIXIXIXIXIXIXIXIXIXIXIXIXIXIXIXIXIXIXIXIXIXIXIXIXIXIXIXIXIXIXIXIXIXIXIXIXIXIXIXIXIXIXIXIXIXIXIXIXIXIXIXIXIXIXIXIXIXIXIXIXIXIXIXIXIXIXIXIXIXIXIXIXIXIXIXIXIXIXIXIX~ ~ ^ ^ ^ ^ ^ ~ K J C C c d v p p t 6 5 3 3 3 1 1 1 1 1 3 5 5 w w u f h l M L I ..+.%.2.g.l.k.D.].[.}. X X X XqXqXAXAXFXuXuXjXjXlXlXlXlXsXsXaXaX2X2X1X,X<X>X>X>X>X>X>X>X=X=X=X=X=X*X*X*X<X<X<X>X>X>X,X1X3X3X3X4X4X4X4X%X.X.X)./.B.B.u.t.<.<.=.X.T P F m l g g u t t w 6 3 3 3 3 > 3 3 3 3 3 4 4 4 4 4 4 4 6 6 6 6 6 6 6 6 6 6 6 6 6 6 5 6 5 3 3 3 3 3 3 3 3 3 3 3 3 3 3 3 3 3 3 3 3 3 3 3 3 4 4 4 4 4 4 4 4 3 4 4 4 4 3 3 4 4 4 4 4 4 4 4 4 4 6 6 6 9 9 t t y y u y i g g l l l n m m M F L I T ..O.>.<.i.p.p.h.h.h.h.0.0.6.6.W W K IXIXIXIXIXIXIXIXIXIXIXIXIXIXIXIXIXIXIXIXIXIXIXIXIXIXIXIXIXIXIXIXIXIXIXIXIXIXIXIXIXIXIXIXIXIXIXIXIXIXIXIXIXIXIXIXIXIXIXIXIXq q q q q b b b S S S S IXIXIX/ _ / / / / ^ ^ ^ ^ ^ K K K K K K E E E E Q W R ;.;.-.-.;.;.5.4.4.0.l.h.h.h.A.A.A.A.A.A.S.S.",
"IXIXIXIXIXIXIXIXIXIXIXIXIXIXIXIXIXIXIXIXIXIXIXIXIXIXIXIXIXIXIXIXIXIXIXIXIXIXIXIXIXIXIXIXIXIXIXIXIXIXIXIXIXIXIXIXIXIXIXIXIXIXIXIXIXIXIXIXIXIXIXIXIXIXIXIXIXIXIXIXIXIXIXIXIXIXIXIXIXIXIXIXIXIXIXIXIXIXIXIXIXIXIXIXIXIXIXIXIXIXIXIXIXIXIXIXIXIXIXIXIXIXIXIXIXIXIXIXIXIXIXIXIX~ ~ ^ ^ ^ ^ ^ ~ K J C C c d v p p t 6 5 3 3 1 - - - 1 1 1 5 5 5 e u f h n M L I ..+.%.2.2.l.k.D.[.[.}. X X X X XqXqXuXeXuXuXjXjXlXlXlXlXsXsXaXaX2X2X1X1X,X>X>X>X>X>X>X=X=X=X=X<X*X*X*X<X<X<X>X>X,X1X3X3X3X4X3X4X4X4X%X.X.X^.W.B.B.u.t.<.>.O.X.T P F m l g i u t t 6 6 5 3 3 3 > > 3 3 3 4 4 4 4 4 4 4 4 6 6 6 6 6 6 6 6 6 6 6 6 6 4 5 6 5 3 3 3 3 3 3 3 3 3 3 3 3 3 3 3 3 3 3 3 3 4 4 4 4 4 4 4 4 4 4 4 4 4 4 4 4 3 3 4 4 4 4 4 4 4 4 4 4 4 4 6 6 6 9 9 t t t t y u i g g g h l l n n m M L I ..O.O.>.<.g.p.p.h.h.h.0.0.6.6.( W K K IXIXIXIXIXIXIXIXIXIXIXIXIXIXIXIXIXIXIXIXIXIXIXIXIXIXIXIXIXIXIXIXIXIXIXIXIXIXIXIXIXIXIXIXIXIXIXIXIXIXIXIXIXIXIXIXIXIXIXq q q q q d b b b S S S S / IXIXIXIX/ / / ^ ^ ~ ~ ~ K J J J J J J J J E E E R R R R W @.-.;.;.5.5.5.9.0.0.0.h.h.h.h.h.h.j.j.",
"IXIXIXIXIXIXIXIXIXIXIXIXIXIXIXIXIXIXIXIXIXIXIXIXIXIXIXIXIXIXIXIXIXIXIXIXIXIXIXIXIXIXIXIXIXIXIXIXIXIXIXIXIXIXIXIXIXIXIXIXIXIXIXIXIXIXIXIXIXIXIXIXIXIXIXIXIXIXIXIXIXIXIXIXIXIXIXIXIXIXIXIXIXIXIXIXIXIXIXIXIXIXIXIXIXIXIXIXIXIXIXIXIXIXIXIXIXIXIXIXIXIXIXIXIXIXIXIXIXIXIXIXIXIXIX^ ^ ^ ^ ^ ^ ~ ~ J C C c d v p p 0 5 3 3 3 - - - - - 1 1 1 5 5 w u f h n M L I ..+.%.2.2.l.k.D.D.[.[.}. X X X XqXqX9XuXeXuXuXjXhXhXlXsXsXsXaXaXaX2X1X1X,X>X>X>X>X>X>X<X<X<X<X<X*X*X*X<X<X>X<X1X3X2X3XiX3X4X4X4X&X%X.X.X^.W.B.V.u.t.<.:.O...I L m l k g i u t t 6 6 6 3 3 3 > > 3 3 3 3 4 4 4 4 4 4 4 6 6 6 6 6 6 6 6 6 6 6 6 6 6 6 6 6 6 6 3 3 3 3 3 3 3 3 3 3 3 4 4 4 4 4 4 4 4 4 4 4 4 4 4 4 4 4 4 4 4 4 4 4 4 4 4 4 4 4 4 4 4 4 4 4 4 4 6 6 6 6 6 6 6 6 t t t u u u g g g g h l n m M L I ..O.:.>.3.g.p.h.h.h.0.0.6.6.' ) K K IXIXIXIXIXIXIXIXIXIXIXIXIXIXIXIXIXIXIXIXIXIXIXIXIXIXIXIXIXIXIXIXIXIXIXIXIXIXIXIXIXIXIXIXIXIXIXIXIXIXIXIXIXIXIXIXIXIXq q q q d b b b b S S S S S / IXIXIXIXIXIXIX` ~ ~ ~ J J J J J H H H H J J J ! ! ! ! R E Q W Q @.;.;.;.;.9.9.9.0.0.0.0.0.0.0.0.",
"IXIXIXIXIXIXIXIXIXIXIXIXIXIXIXIXIXIXIXIXIXIXIXIXIXIXIXIXIXIXIXIXIXIXIXIXIXIXIXIXIXIXIXIXIXIXIXIXIXIXIXIXIXIXIXIXIXIXIXIXIXIXIXIXIXIXIXIXIXIXIXIXIXIXIXIXIXIXIXIXIXIXIXIXIXIXIXIXIXIXIXIXIXIXIXIXIXIXIXIXIXIXIXIXIXIXIXIXIXIXIXIXIXIXIXIXIXIXIXIXIXIXIXIXIXIXIXIXIXIXIXIXIXIXIXIX^ ^ ^ ^ ^ ^ ~ K J C c c d p p p 7 4 3 3 - - ; ; - - - 1 1 5 5 w u g l n M L P R +.%.2.2.l.h.k.D.[.[.[.}.}. X X+X9XqXqXqXeXeXuXuXhXlXsXfXsXaXaXaX2X2X1X,X>X>X>X>X>X<X<X<X<X*X*X*X*X<X<X>X1X3X2XdXdXgXgXiXiX4X&X&X.X.X^.W.B.V.u.t.<.:.O...P F m l k g u y t w 6 6 4 3 3 3 > > 3 3 3 3 4 4 4 4 4 4 4 4 6 6 6 6 6 6 6 6 6 6 6 6 4 4 6 6 6 4 3 3 5 5 3 3 3 3 6 4 4 4 4 6 6 6 6 6 6 6 6 4 4 4 4 4 4 4 4 4 4 4 4 4 4 4 4 4 4 4 4 4 4 4 4 4 4 4 4 6 6 6 6 6 6 6 6 6 w t t u u u u f g g h n m F P T ..O.:.1.4.p.p.h.h.0.0.6.6.' ) K K IXIXIXIXIXIXIXIXIXIXIXIXIXIXIXIXIXIXIXIXIXIXIXIXIXIXIXIXIXIXIXIXIXIXIXIXIXIXIXIXIXIXIXIXIXIXIXIXIXIXIXIXIXIXIXIXIXq q d d b b b b b S S S S S ` / IXIXIXIXIXIXIXIXIXIXIXIXIXIXIXIXIXIXIXIXIXIXIXH H H ! ! ! E E Q Q W @.@.;.;.6.6.9.9.9.9.9.9.9.9.",
"IXIXIXIXIXIXIXIXIXIXIXIXIXIXIXIXIXIXIXIXIXIXIXIXIXIXIXIXIXIXIXIXIXIXIXIXIXIXIXIXIXIXIXIXIXIXIXIXIXIXIXIXIXIXIXIXIXIXIXIXIXIXIXIXIXIXIXIXIXIXIXIXIXIXIXIXIXIXIXIXIXIXIXIXIXIXIXIXIXIXIXIXIXIXIXIXIXIXIXIXIXIXIXIXIXIXIXIXIXIXIXIXIXIXIXIXIXIXIXIXIXIXIXIXIXIXIXIXIXIXIXIXIXIXIXIXIX^ ^ ^ ^ ^ ^ ~ J C C c c d p p 0 6 3 3 - - ; ; ; ; - - 1 3 5 6 w u g l n M F U R +.@.2.2.l.h.k.k.D.D.[.[.}. X X+X+X9XqXqXqXqX0XuXhXhXpXsXsXaXaXaX2X2X1X,X>X>X<X>X<X<X<X*X*X*X*X<X<X<X1X1X2XdXdXfXgXgXwXwX5X&XXX.X_.^.B.B.u.u.3.>.=.X.T P F m l g i u t t w 6 6 4 3 3 3 > 3 3 3 3 3 4 4 4 4 4 4 4 4 6 6 6 6 6 6 6 6 6 6 6 4 4 4 4 5 5 3 3 3 3 4 4 3 4 4 4 6 4 4 6 6 6 6 6 6 6 6 6 6 6 6 4 4 4 4 4 4 4 4 4 4 4 4 4 4 4 4 4 4 4 4 4 4 4 4 4 4 4 4 4 4 4 6 6 6 6 6 w w w u u u u f h l n M L I ..O.:.>.4.4.p.h.0.0.9.6.6.( ) K IXIXIXIXIXIXIXIXIXIXIXIXIXIXIXIXIXIXIXIXIXIXIXIXIXIXIXIXIXIXIXIXIXIXIXIXIXIXIXIXIXIXIXIXIXIXIXIXIXIXIXIXIXIXIXIXIXIXq d d b b b b b S S S S S S S / IXIXIXIXIXIXIXIXIXIXIXIXIXIXIXIXIXIXIXIXIXIXIXIXIXIXIXIXH J Y E E E Q W W @.@.;.6.6.6.6.6.6.6.6.",
"IXIXIXIXIXIXIXIXIXIXIXIXIXIXIXIXIXIXIXIXIXIXIXIXIXIXIXIXIXIXIXIXIXIXIXIXIXIXIXIXIXIXIXIXIXIXIXIXIXIXIXIXIXIXIXIXIXIXIXIXIXIXIXIXIXIXIXIXIXIXIXIXIXIXIXIXIXIXIXIXIXIXIXIXIXIXIXIXIXIXIXIXIXIXIXIXIXIXIXIXIXIXIXIXIXIXIXIXIXIXIXIXIXIXIXIXIXIXIXIXIXIXIXIXIXIXIXIXIXIXIXIXIXIXIXIXIXIX^ ^ ^ ^ ^ ^ ~ ~ C C c c d a p 7 7 3 > - ; ; ; ; ; ; - 1 3 5 6 w u g h l m M F U R @.%.2.9.l.h.h.k.D.F.[.[.}. X X X+X+X9X9XqX0X0XuXhXpXpXpXaXaXaX2X2X1X,X<X<X<X<X<X<X*X*X*X*X<X<X1X3X3XdXdXfXgXgXwXwXwX5XXXXX.X^./.B.V.u.3.>.:.O...I F m l k g y y t t 6 6 6 4 3 3 3 3 3 3 3 3 3 4 4 4 4 4 4 4 6 6 6 6 6 6 6 6 6 6 6 6 6 4 4 4 5 5 5 5 5 5 5 4 6 6 6 6 4 6 6 6 6 6 6 6 6 6 6 6 6 6 6 4 4 4 4 4 4 4 4 4 4 4 4 4 4 4 4 4 4 4 4 4 4 4 4 4 4 4 4 4 4 3 3 3 3 5 6 6 w w w w w u u g h l m F P ..O.=.>.1.4.4.0.0.0.9.6.6.( ) K IXIXIXIXIXIXIXIXIXIXIXIXIXIXIXIXIXIXIXIXIXIXIXIXIXIXIXIXIXIXIXIXIXIXIXIXIXIXIXIXIXIXIXIXIXIXIXIXIXIXIXIXIXIXIXIXIXIXd b b b b b S S S S S S S S S S IXIXIXIXIXIXIXIXIXIXIXIXIXIXIXIXIXIXIXIXIXIXIXIXIXIXIXIXIXIXIXIXIXY E E Q Q W W W @.&.&.&.&.&.&.",
"IXIXIXIXIXIXIXIXIXIXIXIXIXIXIXIXIXIXIXIXIXIXIXIXIXIXIXIXIXIXIXIXIXIXIXIXIXIXIXIXIXIXIXIXIXIXIXIXIXIXIXIXIXIXIXIXIXIXIXIXIXIXIXIXIXIXIXIXIXIXIXIXIXIXIXIXIXIXIXIXIXIXIXIXIXIXIXIXIXIXIXIXIXIXIXIXIXIXIXIXIXIXIXIXIXIXIXIXIXIXIXIXIXIXIXIXIXIXIXIXIXIXIXIXIXIXIXIXIXIXIXIXIXIXIXIXIXIXIX^ ^ ) ^ ^ ^ ~ ~ C C c c d a 0 7 4 3 - - ; ; ; ; ; ; - 1 3 5 w t u g g l l m M U Y @.@.;.9.9.0.l.h.h.A.D.[.[.}. X X X X+X+X8XqX0X0XhXpXpXpXiXiXaX3X3X1X,X<X<X<X<X*X*X*X*X<X<X,X3X3XdXdXJXfXgXgXwXwXwX5XXXXXoX/.W.V.V.t.3.>.=.X.T P F m l g i u t t w 6 6 6 4 3 3 3 3 3 3 3 3 4 4 4 4 4 4 4 4 6 6 6 6 6 6 6 6 6 6 6 6 6 6 6 6 6 6 5 3 5 3 4 4 6 6 6 6 6 6 6 6 6 6 6 6 6 6 6 6 6 6 4 6 4 4 4 4 4 4 4 4 4 4 4 4 4 4 4 4 4 4 4 4 4 4 4 4 4 3 3 3 3 3 3 3 3 3 3 5 6 6 w w w e u f g l m F P I ..O.:.1.4.4.0.0.0.9.6.6.( ^ ^ IXIXIXIXIXIXIXIXIXIXIXIXIXIXIXIXIXIXIXIXIXIXIXIXIXIXIXIXIXIXIXIXIXIXIXIXIXIXIXIXIXIXIXIXIXIXIXIXIXIXIXIXIXIXIXIXIXIXb b b b S S S S S S S S S S S S IXIXIXIXIXIXIXIXIXIXIXIXIXIXIXIXIXIXIXIXIXIXIXIXIXIXIXIXIXIXIXIXIXIXIXIXE E Q Q Q Q W ( ( ( ( ( ",
"IXIXIXIXIXIXIXIXIXIXIXIXIXIXIXIXIXIXIXIXIXIXIXIXIXIXIXIXIXIXIXIXIXIXIXIXIXIXIXIXIXIXIXIXIXIXIXIXIXIXIXIXIXIXIXIXIXIXIXIXIXIXIXIXIXIXIXIXIXIXIXIXIXIXIXIXIXIXIXIXIXIXIXIXIXIXIXIXIXIXIXIXIXIXIXIXIXIXIXIXIXIXIXIXIXIXIXIXIXIXIXIXIXIXIXIXIXIXIXIXIXIXIXIXIXIXIXIXIXIXIXIXIXIXIXIXIXIXIX^ ^ ^ ) ^ ^ ^ ~ ~ A C c d d p 0 7 3 3 - ; ; ; ; ; ; - 1 3 5 6 w t u i g g l n N H Y Q @.@.@.9.9.9.l.h.k.D.F.[.[.}. X X X X+X8XqX0X0XhXpXpXpXiXiXaX3X3X1X,X<X<X<X*X<X<X*X<X<X1X3XdXdXJXJXfXgXgXwXwXwXOXXXXX`./.B.V.u.t.>.=.O.X.T P F m l g y y t t 6 6 6 6 4 3 3 3 3 3 3 3 3 4 4 4 4 4 4 4 4 4 6 6 6 6 6 6 6 6 6 6 6 6 6 6 6 6 6 6 4 4 4 4 6 6 6 6 6 6 6 6 6 6 6 6 6 6 6 6 6 6 6 4 6 6 4 4 4 4 4 4 4 4 4 4 4 4 4 4 4 4 4 4 , , , , , > > > > > > > > 3 3 3 5 5 5 6 w w w u u g l m F P I ..O.:.1.2.4.0.0.9.6.6.' ( ^ ^ IXIXIXIXIXIXIXIXIXIXIXIXIXIXIXIXIXIXIXIXIXIXIXIXIXIXIXIXIXIXIXIXIXIXIXIXIXIXIXIXIXIXIXIXIXIXIXIXIXIXIXIXIXIXIXIXIXIXb b b S S S S S S S S S S S S IXIXIXIXIXIXIXIXIXIXIXIXIXIXIXIXIXIXIXIXIXIXIXIXIXIXIXIXIXIXIXIXIXIXIXIXIXIXIXIXIXIXIXIXIXIXIXIXIX",
"IXIXIXIXIXIXIXIXIXIXIXIXIXIXIXIXIXIXIXIXIXIXIXIXIXIXIXIXIXIXIXIXIXIXIXIXIXIXIXIXIXIXIXIXIXIXIXIXIXIXIXIXIXIXIXIXIXIXIXIXIXIXIXIXIXIXIXIXIXIXIXIXIXIXIXIXIXIXIXIXIXIXIXIXIXIXIXIXIXIXIXIXIXIXIXIXIXIXIXIXIXIXIXIXIXIXIXIXIXIXIXIXIXIXIXIXIXIXIXIXIXIXIXIXIXIXIXIXIXIXIXIXIXIXIXIXIXIXIXIX^ ^ ^ / ^ ^ ^ ~ ~ C c c d a p 7 4 3 > - ; ; ; ; - - 3 3 5 6 6 t t u u i g g l N H H E Q @.@.@.;.9.0.h.k.A.D.G.[.[.}.}. X+X+X8XqX0X0XwXpXpXpXiXiX3X3X3X1X,X,X<X<X<X<X<X<X1X3X3XdXJXJXJXcXgXhXwX8XwXOXXXoX(./.V.V.u.3.>.=.X.T P F D z k i u t t 6 6 6 6 6 4 3 3 3 3 3 3 3 4 4 4 4 4 4 4 4 4 4 4 6 4 4 6 6 6 6 6 6 6 6 6 6 6 6 4 4 6 6 6 6 6 6 6 6 6 6 6 6 6 6 6 6 6 6 6 6 6 6 6 4 6 6 4 4 4 4 4 4 4 4 4 4 4 4 4 4 4 4 , , , , , > > > > > > > > > > > > 3 3 3 5 6 6 w w u u g l m F P T X.O.:.2.2.4.0.0.9.6.6.' ) ^ ~ IXIXIXIXIXIXIXIXIXIXIXIXIXIXIXIXIXIXIXIXIXIXIXIXIXIXIXIXIXIXIXIXIXIXIXIXIXIXIXIXIXIXIXIXIXIXIXIXIXIXIXIXIXIXIXIXIXIXb b S S S S S S S S S S S S S IXIXIXIXIXIXIXIXIXIXIXIXIXIXIXIXIXIXIXIXIXIXIXIXIXIXIXIXIXIXIXIXIXIXIXIXIXIXIXIXIXIXIXIXIXIXIXIXIX",
"IXIXIXIXIXIXIXIXIXIXIXIXIXIXIXIXIXIXIXIXIXIXIXIXIXIXIXIXIXIXIXIXIXIXIXIXIXIXIXIXIXIXIXIXIXIXIXIXIXIXIXIXIXIXIXIXIXIXIXIXIXIXIXIXIXIXIXIXIXIXIXIXIXIXIXIXIXIXIXIXIXIXIXIXIXIXIXIXIXIXIXIXIXIXIXIXIXIXIXIXIXIXIXIXIXIXIXIXIXIXIXIXIXIXIXIXIXIXIXIXIXIXIXIXIXIXIXIXIXIXIXIXIXIXIXIXIXIXIXIX` ^ ^ ^ ^ ^ ^ ~ ~ ~ C c c d p 0 7 3 > > - - - - > > 3 3 6 6 6 w t t t y u i g l x N H H Y Q Q @.;.;.9.h.h.A.D.D.H.[.}.}. X+X+X8X8X0X0XwXwXpXiXiXiX3X3X3X1X1X,X<X<X,X,X3X3X3XdXdXJXJXJXcXkXhXrX8X7XOXOXoX(./.B.V.t.3.>.=.X.T P F m l g i y t t 6 6 6 6 6 4 3 3 3 3 3 3 3 4 4 4 4 4 4 4 4 4 4 4 4 4 4 6 6 6 6 6 6 6 6 6 6 6 6 4 4 6 6 6 6 6 6 6 6 6 6 6 6 6 6 6 6 6 6 6 6 6 6 6 4 6 6 4 4 4 4 4 4 4 4 4 4 4 4 4 4 4 , , , , > > > > < > > > > - - - - - 3 3 3 5 6 6 w w u f g l m F P T X.O.:.2.2.4.0.0.9.6.6.( ) ^ K IXIXIXIXIXIXIXIXIXIXIXIXIXIXIXIXIXIXIXIXIXIXIXIXIXIXIXIXIXIXIXIXIXIXIXIXIXIXIXIXIXIXIXIXIXIXIXIXIXIXIXIXIXIXIXIXIXIXb S S S S S S S S S S S S S IXIXIXIXIXIXIXIXIXIXIXIXIXIXIXIXIXIXIXIXIXIXIXIXIXIXIXIXIXIXIXIXIXIXIXIXIXIXIXIXIXIXIXIXIXIXIXIXIXIX",
"IXIXIXIXIXIXIXIXIXIXIXIXIXIXIXIXIXIXIXIXIXIXIXIXIXIXIXIXIXIXIXIXIXIXIXIXIXIXIXIXIXIXIXIXIXIXIXIXIXIXIXIXIXIXIXIXIXIXIXIXIXIXIXIXIXIXIXIXIXIXIXIXIXIXIXIXIXIXIXIXIXIXIXIXIXIXIXIXIXIXIXIXIXIXIXIXIXIXIXIXIXIXIXIXIXIXIXIXIXIXIXIXIXIXIXIXIXIXIXIXIXIXIXIXIXIXIXIXIXIXIXIXIXIXIXIXIXIXIXIXIX` ^ ^ / / ^ ^ ~ ~ A C c d a p 0 4 4 > > > > > 3 3 4 4 6 IXIX6 6 6 w t t t u i g l x N H H Y E @.@.;.9.h.h.h.A.D.H.[.}.}. X+X+X8X8X8X6X6XwXpXiXiXiX3X3X1X1X1X:X1X1X3X3X3XdXdXJXJXJXJXzXkXhXrX8XOXOXOX`.(.V.V.u.3.>.=.X.T T P F m l g y y t 6 6 6 6 6 4 4 4 4 3 3 3 3 3 4 4 4 4 4 4 4 4 4 4 4 4 6 6 6 6 6 6 6 6 6 6 4 4 6 4 4 4 6 6 6 6 4 4 6 6 6 6 6 6 6 6 6 6 6 6 6 6 6 6 6 6 6 6 6 6 4 4 4 4 4 4 4 4 4 4 4 4 , , , , < < < < < > > > = = = - - - - > 3 3 5 6 w w u u g h n m F P T X.=.1.2.2.5.9.9.9.6.6.( ^ K K IXIXIXIXIXIXIXIXIXIXIXIXIXIXIXIXIXIXIXIXIXIXIXIXIXIXIXIXIXIXIXIXIXIXIXIXIXIXIXIXIXIXIXIXIXIXIXIXIXIXIXIXIXIXIXIXIXIXS S S S S S } } } S S S S S IXIXIXIXIXIXIXIXIXIXIXIXIXIXIXIXIXIXIXIXIXIXIXIXIXIXIXIXIXIXIXIXIXIXIXIXIXIXIXIXIXIXIXIXIXIXIXIXIXIX",
"IXIXIXIXIXIXIXIXIXIXIXIXIXIXIXIXIXIXIXIXIXIXIXIXIXIXIXIXIXIXIXIXIXIXIXIXIXIXIXIXIXIXIXIXIXIXIXIXIXIXIXIXIXIXIXIXIXIXIXIXIXIXIXIXIXIXIXIXIXIXIXIXIXIXIXIXIXIXIXIXIXIXIXIXIXIXIXIXIXIXIXIXIXIXIXIXIXIXIXIXIXIXIXIXIXIXIXIXIXIXIXIXIXIXIXIXIXIXIXIXIXIXIXIXIXIXIXIXIXIXIXIXIXIXIXIXIXIXIXIXIX` ^ / / / / ^ ^ ~ ~ A c c d p 0 7 4 4 3 3 3 3 4 4 4 IXIXIXIXIXIXIXIXIXIXIXIXIXIXIXIXIXx N H H E Q @.;.9.0.h.h.A.D.D.[.}.}. X+X+X8X8X7X6X6XwXiXiXiXiX3X3X3X3X3X3X3X3X3XdXgXdXfXJXJXJXzXkXrXrX8XOXOXoX(.(.V.V.u.3.>.=.X.T P F D z k i u y t 6 6 6 6 6 4 4 4 4 3 3 3 4 4 4 4 4 4 4 4 4 4 4 4 4 4 4 6 6 6 4 6 6 6 6 4 4 4 6 6 6 6 6 6 6 6 4 4 6 6 6 6 6 6 6 6 6 6 6 6 6 6 6 6 6 6 6 6 6 6 4 4 4 4 4 4 4 4 4 4 4 4 , , , < < < > > > > : = = = = ; ; - - > 3 3 6 6 w t u i g l m M L I ..X.=.1.2.2.4.9.9.6.6.6.( ^ K IXIXIXIXIXIXIXIXIXIXIXIXIXIXIXIXIXIXIXIXIXIXIXIXIXIXIXIXIXIXIXIXIXIXIXIXIXIXIXIXIXIXIXIXIXIXIXIXIXIXIXIXIXIXIXIXIXIXIXS S S S S } } } S S S S S IXIXIXIXIXIXIXIXIXIXIXIXIXIXIXIXIXIXIXIXIXIXIXIXIXIXIXIXIXIXIXIXIXIXIXIXIXIXIXIXIXIXIXIXIXIXIXIXIXIXIX",
"IXIXIXIXIXIXIXIXIXIXIXIXIXIXIXIXIXIXIXIXIXIXIXIXIXIXIXIXIXIXIXIXIXIXIXIXIXIXIXIXIXIXIXIXIXIXIXIXIXIXIXIXIXIXIXIXIXIXIXIXIXIXIXIXIXIXIXIXIXIXIXIXIXIXIXIXIXIXIXIXIXIXIXIXIXIXIXIXIXIXIXIXIXIXIXIXIXIXIXIXIXIXIXIXIXIXIXIXIXIXIXIXIXIXIXIXIXIXIXIXIXIXIXIXIXIXIXIXIXIXIXIXIXIXIXIXIXIXIXIXIXIX` / / / / / ^ ^ ~ ~ C c d a p 0 0 4 4 4 4 4 4 6 IXIXIXIXIXIXIXIXIXIXIXIXIXIXIXIXIXIXIXIXIXH H E Q @.;.9.0.h.h.A.D.D.[.}.}.@X+X+X8X8X7X7XwXtXiXiXiX3X3X3X3X3X3X3X3XiXgXgXgXJXJXJXJXkXkXrX8XOXOXOX|.(.C.V.V.t.3.=.=.T T P F m z k i y t 6 6 6 6 6 6 4 4 4 4 3 3 4 3 4 4 4 4 4 4 4 4 4 4 4 4 4 6 6 6 6 6 6 6 6 4 4 4 4 6 6 6 6 6 6 6 6 4 6 6 6 6 6 6 6 6 6 6 6 6 6 6 6 6 6 6 6 6 4 4 4 4 4 4 4 4 4 4 4 4 4 4 4 4 > > > < < : : : : = = = = = ; = - - > 3 3 6 6 t u u g l l m F P T X.O.-.2.2.5.9.9.9.6.6.' ) K K IXIXIXIXIXIXIXIXIXIXIXIXIXIXIXIXIXIXIXIXIXIXIXIXIXIXIXIXIXIXIXIXIXIXIXIXIXIXIXIXIXIXIXIXIXIXIXIXIXIXIXIXIXIXIXIXIXIXIXIXS S S } } } S S S S S IXIXIXIXIXIXIXIXIXIXIXIXIXIXIXIXIXIXIXIXIXIXIXIXIXIXIXIXIXIXIXIXIXIXIXIXIXIXIXIXIXIXIXIXIXIXIXIXIXIXIXIX",
"IXIXIXIXIXIXIXIXIXIXIXIXIXIXIXIXIXIXIXIXIXIXIXIXIXIXIXIXIXIXIXIXIXIXIXIXIXIXIXIXIXIXIXIXIXIXIXIXIXIXIXIXIXIXIXIXIXIXIXIXIXIXIXIXIXIXIXIXIXIXIXIXIXIXIXIXIXIXIXIXIXIXIXIXIXIXIXIXIXIXIXIXIXIXIXIXIXIXIXIXIXIXIXIXIXIXIXIXIXIXIXIXIXIXIXIXIXIXIXIXIXIXIXIXIXIXIXIXIXIXIXIXIXIXIXIXIXIXIXIXIXIXIXIX/ / / / / ^ ^ ~ A C c d p p 0 9 0 0 6 9 9 IXIXIXIXIXIXIXIXIXIXIXIXIXIXIXIXIXIXIXIXIXIXIXIXH E Q @.;.2.9.0.h.h.D.D.[.{.{.OXOXOXOXOX7X7X5XtXiXiXiX3X4X3X3X3X3XiXiXgXgXgXcXzXkXkXrXrXrX+XOXOXoX{.(.C.V.V.3.>.=.X.T T G D z l g y y t 6 6 6 6 6 6 6 4 4 4 4 3 3 4 4 4 4 4 4 4 4 4 4 4 4 4 4 6 6 6 6 6 6 6 6 4 4 4 4 6 4 4 4 6 6 6 6 4 6 6 6 6 6 6 6 4 4 6 6 6 6 6 6 6 6 4 4 4 4 6 4 4 4 4 4 4 4 4 4 4 4 4 , , > > < < : : : : = = = = = ; ; = - - 3 3 6 6 t t u g k l m F P I T X.-.-.2.2.5.9.9.9.6.6.( ^ K J IXIXIXIXIXIXIXIXIXIXIXIXIXIXIXIXIXIXIXIXIXIXIXIXIXIXIXIXIXIXIXIXIXIXIXIXIXIXIXIXIXIXIXIXIXIXIXIXIXIXIXIXIXIXIXIXIXIXIXIXS S } } } } } S S IXIXIXIXIXIXIXIXIXIXIXIXIXIXIXIXIXIXIXIXIXIXIXIXIXIXIXIXIXIXIXIXIXIXIXIXIXIXIXIXIXIXIXIXIXIXIXIXIXIXIXIXIXIX",
"IXIXIXIXIXIXIXIXIXIXIXIXIXIXIXIXIXIXIXIXIXIXIXIXIXIXIXIXIXIXIXIXIXIXIXIXIXIXIXIXIXIXIXIXIXIXIXIXIXIXIXIXIXIXIXIXIXIXIXIXIXIXIXIXIXIXIXIXIXIXIXIXIXIXIXIXIXIXIXIXIXIXIXIXIXIXIXIXIXIXIXIXIXIXIXIXIXIXIXIXIXIXIXIXIXIXIXIXIXIXIXIXIXIXIXIXIXIXIXIXIXIXIXIXIXIXIXIXIXIXIXIXIXIXIXIXIXIXIXIXIXIXIXIXIXIX_ _ / / ^ ^ ~ A C c d p p p t 0 0 0 t IXIXIXIXIXIXIXIXIXIXIXIXIXIXIXIXIXIXIXIXIXIXIXIXIXIXE Q @.;.;.5.0.h.h.A.D.H.{.{.|.|.OXOXOXOX7X5X5XtX4X4X4X4X4X4X4XiXgXgXgXgXgXkXkXkXrXrX8XOXOXoX{.(.C.V.V.u.3.=.=.T T G F m z k i u t 6 6 6 6 6 6 4 4 4 4 4 4 4 4 4 4 4 4 4 4 4 4 4 4 4 4 4 4 4 6 4 4 4 4 6 6 6 6 6 6 6 6 4 4 6 6 6 6 6 6 6 6 6 6 6 6 4 4 4 4 4 4 4 4 4 4 4 4 4 4 4 4 4 4 4 4 4 4 4 4 4 4 4 , , < < < : : : = = = = = = = = = = - > 3 4 6 w t y g k l m F G P T X.+.-.2.2.2.5.9.9.9.6.' ) K K J IXIXIXIXIXIXIXIXIXIXIXIXIXIXIXIXIXIXIXIXIXIXIXIXIXIXIXIXIXIXIXIXIXIXIXIXIXIXIXIXIXIXIXIXIXIXIXIXIXIXIXIXIXIXIXIXIXIXIXIXIXIX} } } } S IXIXIXIXIXIXIXIXIXIXIXIXIXIXIXIXIXIXIXIXIXIXIXIXIXIXIXIXIXIXIXIXIXIXIXIXIXIXIXIXIXIXIXIXIXIXIXIXIXIXIXIXIXIXIXIX",
"IXIXIXIXIXIXIXIXIXIXIXIXIXIXIXIXIXIXIXIXIXIXIXIXIXIXIXIXIXIXIXIXIXIXIXIXIXIXIXIXIXIXIXIXIXIXIXIXIXIXIXIXIXIXIXIXIXIXIXIXIXIXIXIXIXIXIXIXIXIXIXIXIXIXIXIXIXIXIXIXIXIXIXIXIXIXIXIXIXIXIXIXIXIXIXIXIXIXIXIXIXIXIXIXIXIXIXIXIXIXIXIXIXIXIXIXIXIXIXIXIXIXIXIXIXIXIXIXIXIXIXIXIXIXIXIXIXIXIXIXIXIXIXIXIXIXIX_ _ _ / ^ ^ ~ C C c d d p p p y y IXIXIXIXIXIXIXIXIXIXIXIXIXIXIXIXIXIXIXIXIXIXIXIXIXIXIXIX! E Q ;.;.2.9.0.h.A.D.H.].{.{.{.|.|.OXOX7X&X&X4X4X4X4X4X4X4XiXwXwXwXgXgXhXrXrXrX8XOXOXoX{.{.C.C.V.u.3.>.=.X.T P G D z l k i y t 6 6 6 6 6 4 4 4 4 4 4 4 4 4 4 4 4 4 4 4 4 4 4 4 4 4 4 4 4 4 4 4 4 4 6 6 6 6 6 6 6 6 6 4 6 6 4 6 6 4 4 4 6 6 6 4 4 4 4 4 4 4 4 4 4 4 4 4 4 4 4 4 4 4 4 4 4 4 4 4 4 4 , , > < < : : : = = = = = = = = = = = - > 3 6 6 t u i k l m D F P T X.+.;.;.2.5.5.9.9.9.6.6.( K K J IXIXIXIXIXIXIXIXIXIXIXIXIXIXIXIXIXIXIXIXIXIXIXIXIXIXIXIXIXIXIXIXIXIXIXIXIXIXIXIXIXIXIXIXIXIXIXIXIXIXIXIXIXIXIXIXIXIXIXIXIXIXIXIXIXIXIXIXIXIXIXIXIXIXIXIXIXIXIXIXIXIXIXIXIXIXIXIXIXIXIXIXIXIXIXIXIXIXIXIXIXIXIXIXIXIXIXIXIXIXIXIXIXIXIXIXIXIXIXIXIXIXIXIX",
"IXIXIXIXIXIXIXIXIXIXIXIXIXIXIXIXIXIXIXIXIXIXIXIXIXIXIXIXIXIXIXIXIXIXIXIXIXIXIXIXIXIXIXIXIXIXIXIXIXIXIXIXIXIXIXIXIXIXIXIXIXIXIXIXIXIXIXIXIXIXIXIXIXIXIXIXIXIXIXIXIXIXIXIXIXIXIXIXIXIXIXIXIXIXIXIXIXIXIXIXIXIXIXIXIXIXIXIXIXIXIXIXIXIXIXIXIXIXIXIXIXIXIXIXIXIXIXIXIXIXIXIXIXIXIXIXIXIXIXIXIXIXIXIXIXIXIXIX] _ _ / ^ ^ ~ A C c c d d v p s IXIXIXIXIXIXIXIXIXIXIXIXIXIXIXIXIXIXIXIXIXIXIXIXIXIXIXIXIX! E Q W ;.;.5.4.h.h.A.D.D.H.~.(.(.`.`.XXXXXX&X&X&X&X&X&X4X5XwXwXwXwXwXrXrX8X+XOXOX|.{.{.C.C.Z.u.3.>.=.X.T P G D z l k i y t 6 6 6 6 4 4 4 4 4 4 4 4 4 4 4 4 4 4 4 4 4 4 4 4 4 4 4 4 4 4 4 4 4 4 4 4 4 6 6 6 6 6 6 6 6 6 6 4 4 4 4 4 4 6 6 4 4 4 4 4 4 4 4 4 4 4 4 4 4 4 4 4 4 4 4 4 4 4 4 4 4 4 , < < < < : : : = = = = = = = = = = = = > > 4 6 9 y i k l z D F P R R @.;.;.2.2.5.9.9.9.6.6.' ) K K C IXIXIXIXIXIXIXIXIXIXIXIXIXIXIXIXIXIXIXIXIXIXIXIXIXIXIXIXIXIXIXIXIXIXIXIXIXIXIXIXIXIXIXIXIXIXIXIXIXIXIXIXIXIXIXIXIXIXIXIXIXIXIXIXIXIXIXIXIXIXIXIXIXIXIXIXIXIXIXIXIXIXIXIXIXIXIXIXIXIXIXIXIXIXIXIXIXIXIXIXIXIXIXIXIXIXIXIXIXIXIXIXIXIXIXIXIXIXIXIXIXIXIXIX",
"IXIXIXIXIXIXIXIXIXIXIXIXIXIXIXIXIXIXIXIXIXIXIXIXIXIXIXIXIXIXIXIXIXIXIXIXIXIXIXIXIXIXIXIXIXIXIXIXIXIXIXIXIXIXIXIXIXIXIXIXIXIXIXIXIXIXIXIXIXIXIXIXIXIXIXIXIXIXIXIXIXIXIXIXIXIXIXIXIXIXIXIXIXIXIXIXIXIXIXIXIXIXIXIXIXIXIXIXIXIXIXIXIXIXIXIXIXIXIXIXIXIXIXIXIXIXIXIXIXIXIXIXIXIXIXIXIXIXIXIXIXIXIXIXIXIXIXIX] ] _ _ / ^ ~ ~ ~ C C c c c d d IXIXIXIXIXIXIXIXIXIXIXIXIXIXIXIXIXIXIXIXIXIXIXIXIXIXIXIXIXIXIX! E Q @.;.2.4.4.p.p.Z.C.C.C.~.(.(.`.XXXXXXXX&X&X&X&X&X5X5X7X7XwXwX8X8XOXOXOX{.{.{.C.C.Z.Z.t.3.=.=.T T G F m z k g i y t 6 6 6 6 4 4 4 4 4 4 4 4 4 4 4 4 4 4 4 4 4 4 4 4 4 4 4 4 4 4 4 4 4 4 4 4 4 6 6 6 6 4 4 4 4 4 4 4 4 4 4 4 4 4 4 4 4 4 4 4 4 4 4 4 4 4 4 4 4 4 4 4 4 4 4 4 4 4 4 4 , 4 , , < < : : : = = # = = = = = = = = = = > 3 4 6 t y k k z D H ! E Q @.;.;.2.2.9.9.9.9.9.6.6.W Q K J IXIXIXIXIXIXIXIXIXIXIXIXIXIXIXIXIXIXIXIXIXIXIXIXIXIXIXIXIXIXIXIXIXIXIXIXIXIXIXIXIXIXIXIXIXIXIXIXIXIXIXIXIXIXIXIXIXIXIXIXIXIXIXIXIXIXIXIXIXIXIXIXIXIXIXIXIXIXIXIXIXIXIXIXIXIXIXIXIXIXIXIXIXIXIXIXIXIXIXIXIXIXIXIXIXIXIXIXIXIXIXIXIXIXIXIXIXIXIXIXIXIXIXIXIX",
"IXIXIXIXIXIXIXIXIXIXIXIXIXIXIXIXIXIXIXIXIXIXIXIXIXIXIXIXIXIXIXIXIXIXIXIXIXIXIXIXIXIXIXIXIXIXIXIXIXIXIXIXIXIXIXIXIXIXIXIXIXIXIXIXIXIXIXIXIXIXIXIXIXIXIXIXIXIXIXIXIXIXIXIXIXIXIXIXIXIXIXIXIXIXIXIXIXIXIXIXIXIXIXIXIXIXIXIXIXIXIXIXIXIXIXIXIXIXIXIXIXIXIXIXIXIXIXIXIXIXIXIXIXIXIXIXIXIXIXIXIXIXIXIXIXIXIXIX] ] ] _ _ / ^ ^ ^ ~ A C C c c d IXIXIXIXIXIXIXIXIXIXIXIXIXIXIXIXIXIXIXIXIXIXIXIXIXIXIXIXIXIXIXIX! E Q Q ;.;.5.4.p.p.p.Z.V.V././././._..XXXXXXXXXXXXXXXOXOXOXOXOXOXOXOXOXoX{.{.C.C.Z.Z.i.3.>.=.X.T P F D z l k i y y 6 6 6 4 4 4 4 4 4 4 4 4 4 4 4 4 4 4 4 4 4 4 4 4 4 4 4 4 4 4 4 4 4 4 4 4 4 4 6 6 4 4 4 4 4 4 6 6 6 6 4 4 4 4 4 4 4 4 4 4 4 4 4 4 4 4 4 4 4 4 4 4 4 4 4 4 4 4 4 4 , , , , < < > : : = = # # # # # # # # = = = - > 3 4 9 y i k z H H E E W @.;.6.9.9.9.9.9.9.6.6.6.[ W K K J IXIXIXIXIXIXIXIXIXIXIXIXIXIXIXIXIXIXIXIXIXIXIXIXIXIXIXIXIXIXIXIXIXIXIXIXIXIXIXIXIXIXIXIXIXIXIXIXIXIXIXIXIXIXIXIXIXIXIXIXIXIXIXIXIXIXIXIXIXIXIXIXIXIXIXIXIXIXIXIXIXIXIXIXIXIXIXIXIXIXIXIXIXIXIXIXIXIXIXIXIXIXIXIXIXIXIXIXIXIXIXIXIXIXIXIXIXIXIXIXIXIXIXIXIX",
"IXIXIXIXIXIXIXIXIXIXIXIXIXIXIXIXIXIXIXIXIXIXIXIXIXIXIXIXIXIXIXIXIXIXIXIXIXIXIXIXIXIXIXIXIXIXIXIXIXIXIXIXIXIXIXIXIXIXIXIXIXIXIXIXIXIXIXIXIXIXIXIXIXIXIXIXIXIXIXIXIXIXIXIXIXIXIXIXIXIXIXIXIXIXIXIXIXIXIXIXIXIXIXIXIXIXIXIXIXIXIXIXIXIXIXIXIXIXIXIXIXIXIXIXIXIXIXIXIXIXIXIXIXIXIXIXIXIXIXIXIXIXIXIXIXIXIXIXIX] ] ] ] _ _ / ^ ^ ~ ~ C C c c IXIXIXIXIXIXIXIXIXIXIXIXIXIXIXIXIXIXIXIXIXIXIXIXIXIXIXIXIXIXIXIXIX! ! E Q @.;.-.1.1.i.i.u.V.B.B.W.^.^._._..XXXXXXXXXXXXXXXOXOXOXOXOXOX|.{.{.C.C.Z.Z.i.3.>.=.X.T P G D z z k g y y t 6 6 4 4 4 4 4 4 4 4 4 4 4 4 4 4 4 4 4 4 4 4 4 4 4 4 4 4 4 4 4 4 4 4 4 4 4 4 6 4 4 4 4 4 4 4 6 6 6 4 4 4 4 4 4 4 4 4 4 4 4 4 4 4 4 4 4 4 4 4 4 4 4 4 4 4 4 4 4 , , , , , < < : : = = # # # # # # # # # # = = > > 4 6 t i k x x H Y E W &.6.6.w.9.0.0.0.0.9.6.6.6.W W K J IXIXIXIXIXIXIXIXIXIXIXIXIXIXIXIXIXIXIXIXIXIXIXIXIXIXIXIXIXIXIXIXIXIXIXIXIXIXIXIXIXIXIXIXIXIXIXIXIXIXIXIXIXIXIXIXIXIXIXIXIXIXIXIXIXIXIXIXIXIXIXIXIXIXIXIXIXIXIXIXIXIXIXIXIXIXIXIXIXIXIXIXIXIXIXIXIXIXIXIXIXIXIXIXIXIXIXIXIXIXIXIXIXIXIXIXIXIXIXIXIXIXIXIXIXIX",
"IXIXIXIXIXIXIXIXIXIXIXIXIXIXIXIXIXIXIXIXIXIXIXIXIXIXIXIXIXIXIXIXIXIXIXIXIXIXIXIXIXIXIXIXIXIXIXIXIXIXIXIXIXIXIXIXIXIXIXIXIXIXIXIXIXIXIXIXIXIXIXIXIXIXIXIXIXIXIXIXIXIXIXIXIXIXIXIXIXIXIXIXIXIXIXIXIXIXIXIXIXIXIXIXIXIXIXIXIXIXIXIXIXIXIXIXIXIXIXIXIXIXIXIXIXIXIXIXIXIXIXIXIXIXIXIXIXIXIXIXIXIXIXIXIXIXIXIX] ] ] ] ] ] ] _ _ / ^ ~ ~ C C c IXIXIXIXIXIXIXIXIXIXIXIXIXIXIXIXIXIXIXIXIXIXIXIXIXIXIXIXIXIXIXIXIXIXIX! ! R R +.-.>.<.3.t.u.V.B.B.W.W.^.^._._._.XXXXoXXXXXoXOXOXOXoX{.{.(.C.Z.Z.Z.i.3.>.=.=.X.T G D m z k g i y y t 6 6 3 3 3 3 4 4 4 4 4 4 4 4 4 4 4 4 4 4 4 4 4 4 4 4 4 4 4 4 4 4 4 4 4 4 4 4 4 4 4 6 4 4 4 4 4 4 4 4 4 4 4 4 4 4 4 4 4 4 4 4 4 4 4 4 4 4 4 4 4 4 4 4 4 4 4 4 4 , , > , > < < : : = = # # @ @ @ @ # # # = = = > > 4 9 t i k x H J K ( &.6.6.w.0.0.0.0.0.9.9.6.6.6.W Q K J IXIXIXIXIXIXIXIXIXIXIXIXIXIXIXIXIXIXIXIXIXIXIXIXIXIXIXIXIXIXIXIXIXIXIXIXIXIXIXIXIXIXIXIXIXIXIXIXIXIXIXIXIXIXIXIXIXIXIXIXIXIXIXIXIXIXIXIXIXIXIXIXIXIXIXIXIXIXIXIXIXIXIXIXIXIXIXIXIXIXIXIXIXIXIXIXIXIXIXIXIXIXIXIXIXIXIXIXIXIXIXIXIXIXIXIXIXIXIXIXIXIXIXIXIXIX",
"IXIXIXIXIXIXIXIXIXIXIXIXIXIXIXIXIXIXIXIXIXIXIXIXIXIXIXIXIXIXIXIXIXIXIXIXIXIXIXIXIXIXIXIXIXIXIXIXIXIXIXIXIXIXIXIXIXIXIXIXIXIXIXIXIXIXIXIXIXIXIXIXIXIXIXIXIXIXIXIXIXIXIXIXIXIXIXIXIXIXIXIXIXIXIXIXIXIXIXIXIXIXIXIXIXIXIXIXIXIXIXIXIXIXIXIXIXIXIXIXIXIXIXIXIXIXIXIXIXIXIXIXIXIXIXIXIXIXIXIXIXIXIXIXIXIXIXIX] ] ] ] ] ] ] ] ] _ _ ^ ^ ~ C c IXIXIXIXIXIXIXIXIXIXIXIXIXIXIXIXIXIXIXIXIXIXIXIXIXIXIXIXIXIXIXIXIXIXIXIXG G T T X.=.=.>.3.t.u.u.B.B.W.W.W.^.^._./.`.`.`.`.`.`.`.(.(.(.~.C.Z.Z.Z.i.3.>.>.=.X.T P F D z k k i y y t 6 6 6 4 3 3 4 4 4 4 4 4 4 4 4 4 4 4 4 4 4 4 4 4 4 4 4 4 4 4 4 4 4 4 4 4 4 4 4 4 4 4 4 4 4 4 4 3 3 4 4 4 4 4 4 4 4 4 4 4 4 4 4 4 4 4 4 4 4 4 4 4 4 4 4 4 4 4 4 , , > > > > < : : = = # # @ @ @ @ @ @ # # = = = > 3 4 9 y s x J J K ( ( 6.w.w.q.q.q.q.q.0.9.w.6.6.' W Q J IXIXIXIXIXIXIXIXIXIXIXIXIXIXIXIXIXIXIXIXIXIXIXIXIXIXIXIXIXIXIXIXIXIXIXIXIXIXIXIXIXIXIXIXIXIXIXIXIXIXIXIXIXIXIXIXIXIXIXIXIXIXIXIXIXIXIXIXIXIXIXIXIXIXIXIXIXIXIXIXIXIXIXIXIXIXIXIXIXIXIXIXIXIXIXIXIXIXIXIXIXIXIXIXIXIXIXIXIXIXIXIXIXIXIXIXIXIXIXIXIXIXIXIXIXIXIX",
"IXIXIXIXIXIXIXIXIXIXIXIXIXIXIXIXIXIXIXIXIXIXIXIXIXIXIXIXIXIXIXIXIXIXIXIXIXIXIXIXIXIXIXIXIXIXIXIXIXIXIXIXIXIXIXIXIXIXIXIXIXIXIXIXIXIXIXIXIXIXIXIXIXIXIXIXIXIXIXIXIXIXIXIXIXIXIXIXIXIXIXIXIXIXIXIXIXIXIXIXIXIXIXIXIXIXIXIXIXIXIXIXIXIXIXIXIXIXIXIXIXIXIXIXIXIXIXIXIXIXIXIXIXIXIXIXIXIXIXIXIXIXIXIXIXIXIXIX] ] ] ] ] ] ] ] ] ] _ _ ^ ^ ~ C c IXIXIXIXIXIXIXIXIXIXIXIXIXIXIXIXIXIXIXIXIXIXIXIXIXIXIXIXIXIXIXIXIXIXIXIXD G P T T X.=.>.<.t.u.u.B.B.B.W.W.W.^./././.(.(.(.(.(.(.(.C.C.Z.Z.Z.i.3.>.>.=.X.T T G D z z k g i y y t 6 6 4 3 3 3 4 4 4 4 4 4 4 4 4 4 4 4 4 4 4 4 4 4 4 4 4 4 4 4 4 4 4 4 4 4 4 4 4 4 4 3 3 4 4 4 4 3 3 3 4 4 4 3 3 4 4 4 4 4 4 4 4 4 4 4 4 4 4 4 4 4 4 4 4 4 4 , , , , > > > < < : : = = # @ @ @ @ @ @ @ # = = = > > 4 9 t i x x J K ) ( 6.w.w.q.q.q.q.q.q.w.w.w.6.6.W W K IXIXIXIXIXIXIXIXIXIXIXIXIXIXIXIXIXIXIXIXIXIXIXIXIXIXIXIXIXIXIXIXIXIXIXIXIXIXIXIXIXIXIXIXIXIXIXIXIXIXIXIXIXIXIXIXIXIXIXIXIXIXIXIXIXIXIXIXIXIXIXIXIXIXIXIXIXIXIXIXIXIXIXIXIXIXIXIXIXIXIXIXIXIXIXIXIXIXIXIXIXIXIXIXIXIXIXIXIXIXIXIXIXIXIXIXIXIXIXIXIXIXIXIXIXIXIXIX",
"IXIXIXIXIXIXIXIXIXIXIXIXIXIXIXIXIXIXIXIXIXIXIXIXIXIXIXIXIXIXIXIXIXIXIXIXIXIXIXIXIXIXIXIXIXIXIXIXIXIXIXIXIXIXIXIXIXIXIXIXIXIXIXIXIXIXIXIXIXIXIXIXIXIXIXIXIXIXIXIXIXIXIXIXIXIXIXIXIXIXIXIXIXIXIXIXIXIXIXIXIXIXIXIXIXIXIXIXIXIXIXIXIXIXIXIXIXIXIXIXIXIXIXIXIXIXIXIXIXIXIXIXIXIXIXIXIXIXIXIXIXIXIXIXIXIXIXIX] ] ] ] { x.x.x.x.{ ] ] _ ^ ~ C c IXIXIXIXIXIXIXIXIXIXIXIXIXIXIXIXIXIXIXIXIXIXIXIXIXIXIXIXIXIXIXIXIXIXIXIXIXIXF G P T X.=.:.<.3.u.u.V.B.B.B.B.W.W.W.W./././.~.C.C.V.V.V.Z.u.3.3.>.=.=.X.T T G F m z k k i y y t w 6 6 4 3 3 3 3 4 4 4 4 4 4 4 4 4 4 4 4 4 4 4 4 4 4 4 4 4 4 4 4 4 4 4 4 4 4 4 4 3 3 3 3 4 4 4 4 3 3 3 4 4 4 3 3 4 4 4 4 4 4 4 4 3 3 3 3 4 4 4 4 4 4 4 , 4 , , > > > > < < < : : = = = @ @ @ @ @ @ @ # # = = : > > 4 9 y s x J K ^ ) 6.7.w.q.q.q.b.q.q.q.w.w.w.6.6.W Q J IXIXIXIXIXIXIXIXIXIXIXIXIXIXIXIXIXIXIXIXIXIXIXIXIXIXIXIXIXIXIXIXIXIXIXIXIXIXIXIXIXIXIXIXIXIXIXIXIXIXIXIXIXIXIXIXIXIXIXIXIXIXIXIXIXIXIXIXIXIXIXIXIXIXIXIXIXIXIXIXIXIXIXIXIXIXIXIXIXIXIXIXIXIXIXIXIXIXIXIXIXIXIXIXIXIXIXIXIXIXIXIXIXIXIXIXIXIXIXIXIXIXIXIXIXIXIXIX",
"IXIXIXIXIXIXIXIXIXIXIXIXIXIXIXIXIXIXIXIXIXIXIXIXIXIXIXIXIXIXIXIXIXIXIXIXIXIXIXIXIXIXIXIXIXIXIXIXIXIXIXIXIXIXIXIXIXIXIXIXIXIXIXIXIXIXIXIXIXIXIXIXIXIXIXIXIXIXIXIXIXIXIXIXIXIXIXIXIXIXIXIXIXIXIXIXIXIXIXIXIXIXIXIXIXIXIXIXIXIXIXIXIXIXIXIXIXIXIXIXIXIXIXIXIXIXIXIXIXIXIXIXIXIXIXIXIXIXIXIXIXIXIXIXIXIXIXIX/ ] ] { { x.x.x.x.x.x.] ] _ ^ ~ C IXIXIXIXIXIXIXIXIXIXIXIXIXIXIXIXIXIXIXIXIXIXIXIXIXIXIXIXIXIXIXIXIXIXIXIXIXIXIXIXF P T ..O.:.<.3.t.u.u.V.B.B.B.B.B.B.V.V.V.V.V.V.V.V.u.u.3.3.>.=.=.X.T T P F D z k k i i u y t 6 6 6 4 3 3 3 4 4 4 4 4 4 4 4 4 4 4 4 4 4 4 4 4 4 4 4 4 4 4 4 4 4 4 4 4 4 4 4 4 3 4 4 3 3 3 3 3 3 3 3 3 3 3 3 3 3 3 3 3 3 3 3 3 3 3 3 > 4 4 4 4 4 4 3 > > > > > > < > < > > : = = = # # @ @ @ @ @ # # = = : > > 4 9 t s x C J ^ ) 6.7.8.q.b.b.b.L.m.q.q.q.w.w.6.( W K IXIXIXIXIXIXIXIXIXIXIXIXIXIXIXIXIXIXIXIXIXIXIXIXIXIXIXIXIXIXIXIXIXIXIXIXIXIXIXIXIXIXIXIXIXIXIXIXIXIXIXIXIXIXIXIXIXIXIXIXIXIXIXIXIXIXIXIXIXIXIXIXIXIXIXIXIXIXIXIXIXIXIXIXIXIXIXIXIXIXIXIXIXIXIXIXIXIXIXIXIXIXIXIXIXIXIXIXIXIXIXIXIXIXIXIXIXIXIXIXIXIXIXIXIXIXIXIXIX",
"IXIXIXIXIXIXIXIXIXIXIXIXIXIXIXIXIXIXIXIXIXIXIXIXIXIXIXIXIXIXIXIXIXIXIXIXIXIXIXIXIXIXIXIXIXIXIXIXIXIXIXIXIXIXIXIXIXIXIXIXIXIXIXIXIXIXIXIXIXIXIXIXIXIXIXIXIXIXIXIXIXIXIXIXIXIXIXIXIXIXIXIXIXIXIXIXIXIXIXIXIXIXIXIXIXIXIXIXIXIXIXIXIXIXIXIXIXIXIXIXIXIXIXIXIXIXIXIXIXIXIXIXIXIXIXIXIXIXIXIXIXIXIXIXIXIXIXIX/ ] ] { x.x.x.v.v.v.x.x.] _ ^ ~ C IXIXIXIXIXIXIXIXIXIXIXIXIXIXIXIXIXIXIXIXIXIXIXIXIXIXIXIXIXIXIXIXIXIXIXIXIXIXIXIXIXF P I ..X.=.>.<.3.t.u.u.u.u.a.V.V.V.V.V.V.V.u.u.u.t.3.>.>.=.X.X.T T P F D z l k i y u y t t 6 6 6 4 3 3 4 4 4 4 4 4 4 4 4 4 4 4 4 4 4 4 4 4 4 4 4 4 4 4 4 4 4 4 4 4 4 4 4 3 3 3 3 3 4 3 3 3 3 3 3 3 3 3 3 3 3 3 3 3 3 3 3 3 > > > > > > > > > > > > > > < < < < > > > : : = = = # # @ @ @ @ # = = = > < , 4 9 0 y s x J K ) _ 7.8.b.b.b.L.L.L.L.b.q.q.w.6.6.( K IXIXIXIXIXIXIXIXIXIXIXIXIXIXIXIXIXIXIXIXIXIXIXIXIXIXIXIXIXIXIXIXIXIXIXIXIXIXIXIXIXIXIXIXIXIXIXIXIXIXIXIXIXIXIXIXIXIXIXIXIXIXIXIXIXIXIXIXIXIXIXIXIXIXIXIXIXIXIXIXIXIXIXIXIXIXIXIXIXIXIXIXIXIXIXIXIXIXIXIXIXIXIXIXIXIXIXIXIXIXIXIXIXIXIXIXIXIXIXIXIXIXIXIXIXIXIXIXIXIX",
"IXIXIXIXIXIXIXIXIXIXIXIXIXIXIXIXIXIXIXIXIXIXIXIXIXIXIXIXIXIXIXIXIXIXIXIXIXIXIXIXIXIXIXIXIXIXIXIXIXIXIXIXIXIXIXIXIXIXIXIXIXIXIXIXIXIXIXIXIXIXIXIXIXIXIXIXIXIXIXIXIXIXIXIXIXIXIXIXIXIXIXIXIXIXIXIXIXIXIXIXIXIXIXIXIXIXIXIXIXIXIXIXIXIXIXIXIXIXIXIXIXIXIXIXIXIXIXIXIXIXIXIXIXIXIXIXIXIXIXIXIXIXIXIXIXIXIXIX/ / ] { x.x.v.v.v.v.v.c.x.] _ ^ ~ C IXIXIXIXIXIXIXIXIXIXIXIXIXIXIXIXIXIXIXIXIXIXIXIXIXIXIXIXIXIXIXIXIXIXIXIXIXIXIXIXIXIXF P T X.O.:.>.<.<.3.t.t.t.t.u.u.u.u.u.t.t.3.<.>.>.=.X.X.T T P G F D z l g i y y y t t 6 6 6 4 3 4 4 4 4 4 4 4 4 4 4 4 4 4 4 4 4 4 4 4 4 4 4 4 4 4 4 4 4 4 4 3 3 3 3 3 3 3 3 3 3 3 3 3 3 3 3 3 3 3 3 3 3 3 3 3 3 > > > > > > > > > > > > > > > > > < < > > > > : : : : = = = = # # @ # # = = : > > 4 4 0 0 y s x C K ) _ 7.8.c.b.b.L.L.P.L.L.b.q.8.w.7.' ) IXIXIXIXIXIXIXIXIXIXIXIXIXIXIXIXIXIXIXIXIXIXIXIXIXIXIXIXIXIXIXIXIXIXIXIXIXIXIXIXIXIXIXIXIXIXIXIXIXIXIXIXIXIXIXIXIXIXIXIXIXIXIXIXIXIXIXIXIXIXIXIXIXIXIXIXIXIXIXIXIXIXIXIXIXIXIXIXIXIXIXIXIXIXIXIXIXIXIXIXIXIXIXIXIXIXIXIXIXIXIXIXIXIXIXIXIXIXIXIXIXIXIXIXIXIXIXIXIXIXIX",
"IXIXIXIXIXIXIXIXIXIXIXIXIXIXIXIXIXIXIXIXIXIXIXIXIXIXIXIXIXIXIXIXIXIXIXIXIXIXIXIXIXIXIXIXIXIXIXIXIXIXIXIXIXIXIXIXIXIXIXIXIXIXIXIXIXIXIXIXIXIXIXIXIXIXIXIXIXIXIXIXIXIXIXIXIXIXIXIXIXIXIXIXIXIXIXIXIXIXIXIXIXIXIXIXIXIXIXIXIXIXIXIXIXIXIXIXIXIXIXIXIXIXIXIXIXIXIXIXIXIXIXIXIXIXIXIXIXIXIXIXIXIXIXIXIXIXIXIXIX/ ] ] x.x.v.n.n.n.n.b.c.x.] _ ^ ~ IXIXIXIXIXIXIXIXIXIXIXIXIXIXIXIXIXIXIXIXIXIXIXIXIXIXIXIXIXIXIXIXIXIXIXIXIXIXIXIXIXIXIXIXP I ..X.O.=.:.>.>.<.<.<.<.3.3.3.<.<.>.>.=.=.X.X.T T P G F D m z l k i y y t t t 6 6 6 6 4 4 3 4 4 4 4 4 4 4 4 4 4 4 4 4 4 4 4 4 4 4 4 3 4 4 4 3 3 3 3 3 3 3 3 3 3 3 3 3 3 3 3 3 3 > > > 3 3 3 > > > > > > > > > > > > > > < > < > > > > > > > > : : : : : = = = = = = = = # # # = = = > > 4 4 0 0 y p v c C J ^ ) 7.7.8.b.b.P.P.P.P.L.L.b.q.8.7.' ) IXIXIXIXIXIXIXIXIXIXIXIXIXIXIXIXIXIXIXIXIXIXIXIXIXIXIXIXIXIXIXIXIXIXIXIXIXIXIXIXIXIXIXIXIXIXIXIXIXIXIXIXIXIXIXIXIXIXIXIXIXIXIXIXIXIXIXIXIXIXIXIXIXIXIXIXIXIXIXIXIXIXIXIXIXIXIXIXIXIXIXIXIXIXIXIXIXIXIXIXIXIXIXIXIXIXIXIXIXIXIXIXIXIXIXIXIXIXIXIXIXIXIXIXIXIXIXIXIXIXIXIX",
"IXIXIXIXIXIXIXIXIXIXIXIXIXIXIXIXIXIXIXIXIXIXIXIXIXIXIXIXIXIXIXIXIXIXIXIXIXIXIXIXIXIXIXIXIXIXIXIXIXIXIXIXIXIXIXIXIXIXIXIXIXIXIXIXIXIXIXIXIXIXIXIXIXIXIXIXIXIXIXIXIXIXIXIXIXIXIXIXIXIXIXIXIXIXIXIXIXIXIXIXIXIXIXIXIXIXIXIXIXIXIXIXIXIXIXIXIXIXIXIXIXIXIXIXIXIXIXIXIXIXIXIXIXIXIXIXIXIXIXIXIXIXIXIXIXIXIXIXIX/ ] ] { x.v.n.n.K.n.n.b.c.7.] _ ^ ~ IXIXIXIXIXIXIXIXIXIXIXIXIXIXIXIXIXIXIXIXIXIXIXIXIXIXIXIXIXIXIXIXIXIXIXIXIXIXIXIXIXIXIXIXL P T ....O.O.O.=.:.:.:.:.:.:.:.=.=.O.X.X.T T P P F F m m z l k i y y t t t 6 6 6 6 6 4 4 4 4 4 4 4 4 4 4 4 4 4 4 4 4 4 4 4 4 4 4 3 3 3 > > > > > > > > > > > > > > > > > > > > > > > > > > > > > > > > > > > > > > > > - > > : > > > > : = = = = = = = = = = = = = = = = # = = = > > 4 4 0 0 p p d c C J ^ ) ' 7.8.b.b.J.P.P.P.P.L.J.b.c.7.7._ ) IXIXIXIXIXIXIXIXIXIXIXIXIXIXIXIXIXIXIXIXIXIXIXIXIXIXIXIXIXIXIXIXIXIXIXIXIXIXIXIXIXIXIXIXIXIXIXIXIXIXIXIXIXIXIXIXIXIXIXIXIXIXIXIXIXIXIXIXIXIXIXIXIXIXIXIXIXIXIXIXIXIXIXIXIXIXIXIXIXIXIXIXIXIXIXIXIXIXIXIXIXIXIXIXIXIXIXIXIXIXIXIXIXIXIXIXIXIXIXIXIXIXIXIXIXIXIXIXIXIXIXIX",
"IXIXIXIXIXIXIXIXIXIXIXIXIXIXIXIXIXIXIXIXIXIXIXIXIXIXIXIXIXIXIXIXIXIXIXIXIXIXIXIXIXIXIXIXIXIXIXIXIXIXIXIXIXIXIXIXIXIXIXIXIXIXIXIXIXIXIXIXIXIXIXIXIXIXIXIXIXIXIXIXIXIXIXIXIXIXIXIXIXIXIXIXIXIXIXIXIXIXIXIXIXIXIXIXIXIXIXIXIXIXIXIXIXIXIXIXIXIXIXIXIXIXIXIXIXIXIXIXIXIXIXIXIXIXIXIXIXIXIXIXIXIXIXIXIXIXIXIXIX/ / ] { x.v.n.K.K.K.K.n.b.c.7.] _ ^ ~ IXIXIXIXIXIXIXIXIXIXIXIXIXIXIXIXIXIXIXIXIXIXIXIXIXIXIXIXIXIXIXIXIXIXIXIXIXIXIXIXIXIXIXIXF P I I T ....X.X.O.O.O.O.O.X.X.X...T T P P F F D m z l k k i y y y t t t 6 6 6 6 6 6 6 4 4 4 4 4 4 4 4 4 4 4 4 4 4 4 4 4 3 > > > > > > > > > > > > > > > > > > > > - - - - - - - - - - - - - - - - - - - = = = = = = = = = = = = = = = = = = = = = = = = = = = = = = = = = = = > 4 4 0 t p p x c C J ^ ) ' 7.8.b.b.J.P.P.P.P.P.L.J.b.8.7.' ) IXIXIXIXIXIXIXIXIXIXIXIXIXIXIXIXIXIXIXIXIXIXIXIXIXIXIXIXIXIXIXIXIXIXIXIXIXIXIXIXIXIXIXIXIXIXIXIXIXIXIXIXIXIXIXIXIXIXIXIXIXIXIXIXIXIXIXIXIXIXIXIXIXIXIXIXIXIXIXIXIXIXIXIXIXIXIXIXIXIXIXIXIXIXIXIXIXIXIXIXIXIXIXIXIXIXIXIXIXIXIXIXIXIXIXIXIXIXIXIXIXIXIXIXIXIXIXIXIXIXIXIXIX",
"IXIXIXIXIXIXIXIXIXIXIXIXIXIXIXIXIXIXIXIXIXIXIXIXIXIXIXIXIXIXIXIXIXIXIXIXIXIXIXIXIXIXIXIXIXIXIXIXIXIXIXIXIXIXIXIXIXIXIXIXIXIXIXIXIXIXIXIXIXIXIXIXIXIXIXIXIXIXIXIXIXIXIXIXIXIXIXIXIXIXIXIXIXIXIXIXIXIXIXIXIXIXIXIXIXIXIXIXIXIXIXIXIXIXIXIXIXIXIXIXIXIXIXIXIXIXIXIXIXIXIXIXIXIXIXIXIXIXIXIXIXIXIXIXIXIXIXIXIX` / ] { x.v.n.K.K.K.K.K.b.b.c.7.] _ ^ ^ IXIXIXIXIXIXIXIXIXIXIXIXIXIXIXIXIXIXIXIXIXIXIXIXIXIXIXIXIXIXIXIXIXIXIXIXIXIXIXIXIXIXIXM F L L P I I T T T T ..T T T T I P P P F F D m z z l k k i y u t t t 6 9 6 6 6 6 6 6 6 6 4 6 6 6 6 6 6 4 4 4 4 4 4 4 4 > > > > > > > > > > > > - - - - = = - - - - - - - - = = - - - = = = = = ; ; ; ; ; ; ; = = = = = = = = = = = = = = = @ @ @ @ @ @ @ @ @ = = = = = = = = > 4 4 9 p p p c c C J ^ ) ' 7.8.c.b.J.P.P.T.T.P.P.K.b.b.8.7._ ) IXIXIXIXIXIXIXIXIXIXIXIXIXIXIXIXIXIXIXIXIXIXIXIXIXIXIXIXIXIXIXIXIXIXIXIXIXIXIXIXIXIXIXIXIXIXIXIXIXIXIXIXIXIXIXIXIXIXIXIXIXIXIXIXIXIXIXIXIXIXIXIXIXIXIXIXIXIXIXIXIXIXIXIXIXIXIXIXIXIXIXIXIXIXIXIXIXIXIXIXIXIXIXIXIXIXIXIXIXIXIXIXIXIXIXIXIXIXIXIXIXIXIXIXIXIXIXIXIXIXIXIXIX",
"IXIXIXIXIXIXIXIXIXIXIXIXIXIXIXIXIXIXIXIXIXIXIXIXIXIXIXIXIXIXIXIXIXIXIXIXIXIXIXIXIXIXIXIXIXIXIXIXIXIXIXIXIXIXIXIXIXIXIXIXIXIXIXIXIXIXIXIXIXIXIXIXIXIXIXIXIXIXIXIXIXIXIXIXIXIXIXIXIXIXIXIXIXIXIXIXIXIXIXIXIXIXIXIXIXIXIXIXIXIXIXIXIXIXIXIXIXIXIXIXIXIXIXIXIXIXIXIXIXIXIXIXIXIXIXIXIXIXIXIXIXIXIXIXIXIXIXIXIXIX/ _ ] x.v.n.K.K.P.P.P.K.b.b.c.7.7._ ) ^ IXIXIXIXIXIXIXIXIXIXIXIXIXIXIXIXIXIXIXIXIXIXIXIXIXIXIXIXIXIXIXIXIXIXIXIXIXIXIXIXIXIXIXm M M F L L L P P P P P P P P L F F F m m z l l k k g i i u y t t t 6 6 6 6 6 6 6 6 6 6 6 6 6 6 6 6 6 6 4 4 4 4 4 4 3 > > > > > > > - - - = = = = ; ; ; ; ; ; ; ; ; ; ; ; ; ; ; ; ; ; = ; ; = = = = = = = = * @ @ @ @ * @ @ @ @ @ @ @ @ @ @ @ @ @ @ @ @ @ @ @ = = = = = = > > 4 0 y p v c c C K ^ ) ' 7.7.q.b.J.L.P.P.T.T.P.P.K.b.c.7.] ) IXIXIXIXIXIXIXIXIXIXIXIXIXIXIXIXIXIXIXIXIXIXIXIXIXIXIXIXIXIXIXIXIXIXIXIXIXIXIXIXIXIXIXIXIXIXIXIXIXIXIXIXIXIXIXIXIXIXIXIXIXIXIXIXIXIXIXIXIXIXIXIXIXIXIXIXIXIXIXIXIXIXIXIXIXIXIXIXIXIXIXIXIXIXIXIXIXIXIXIXIXIXIXIXIXIXIXIXIXIXIXIXIXIXIXIXIXIXIXIXIXIXIXIXIXIXIXIXIXIXIXIXIXIX",
"IXIXIXIXIXIXIXIXIXIXIXIXIXIXIXIXIXIXIXIXIXIXIXIXIXIXIXIXIXIXIXIXIXIXIXIXIXIXIXIXIXIXIXIXIXIXIXIXIXIXIXIXIXIXIXIXIXIXIXIXIXIXIXIXIXIXIXIXIXIXIXIXIXIXIXIXIXIXIXIXIXIXIXIXIXIXIXIXIXIXIXIXIXIXIXIXIXIXIXIXIXIXIXIXIXIXIXIXIXIXIXIXIXIXIXIXIXIXIXIXIXIXIXIXIXIXIXIXIXIXIXIXIXIXIXIXIXIXIXIXIXIXIXIXIXIXIXIXIXIX` / ] x.v.n.K.K.P.P.P.P.K.K.b.b.x.7.] _ ) IXIXIXIXIXIXIXIXIXIXIXIXIXIXIXIXIXIXIXIXIXIXIXIXIXIXIXIXIXIXIXIXIXIXIXIXIXIXIXIXIXIXIXn m m M M M F F F F F F F F M m m m z l l k k g i i i y y y t t 9 6 6 6 6 6 6 6 6 6 6 6 6 6 6 6 6 6 6 4 4 4 4 4 3 3 > > > > > - = = ; ; ; ; ; ; = = = = = = = = = = = * * * * * * * * * * * @ @ @ @ @ @ @ @ @ @ @ @ @ @ @ @ @ @ @ @ @ @ @ @ @ @ O @ @ @ @ @ @ = ; = - > > 4 9 t p d c C J K ^ ) ' 7.7.c.b.J.L.P.P.T.T.P.P.K.b.b.c.7._ ^ IXIXIXIXIXIXIXIXIXIXIXIXIXIXIXIXIXIXIXIXIXIXIXIXIXIXIXIXIXIXIXIXIXIXIXIXIXIXIXIXIXIXIXIXIXIXIXIXIXIXIXIXIXIXIXIXIXIXIXIXIXIXIXIXIXIXIXIXIXIXIXIXIXIXIXIXIXIXIXIXIXIXIXIXIXIXIXIXIXIXIXIXIXIXIXIXIXIXIXIXIXIXIXIXIXIXIXIXIXIXIXIXIXIXIXIXIXIXIXIXIXIXIXIXIXIXIXIXIXIXIXIXIXIX",
"IXIXIXIXIXIXIXIXIXIXIXIXIXIXIXIXIXIXIXIXIXIXIXIXIXIXIXIXIXIXIXIXIXIXIXIXIXIXIXIXIXIXIXIXIXIXIXIXIXIXIXIXIXIXIXIXIXIXIXIXIXIXIXIXIXIXIXIXIXIXIXIXIXIXIXIXIXIXIXIXIXIXIXIXIXIXIXIXIXIXIXIXIXIXIXIXIXIXIXIXIXIXIXIXIXIXIXIXIXIXIXIXIXIXIXIXIXIXIXIXIXIXIXIXIXIXIXIXIXIXIXIXIXIXIXIXIXIXIXIXIXIXIXIXIXIXIXIXIXIX` / ] ] x.v.n.K.P.P.P.P.P.P.J.b.b.c.7.7.] _ IXIXIXIXIXIXIXIXIXIXIXIXIXIXIXIXIXIXIXIXIXIXIXIXIXIXIXIXIXIXIXIXIXIXIXIXIXIXIXIXIXIXh l l n n m m m m m m m m m m l l l k k g g i i y u u y y t w 6 6 6 6 6 6 6 6 6 6 6 6 6 6 9 6 6 6 6 6 4 4 4 4 4 3 > > > > - - = = ; = = = = = = * * * * * * * * * * * * * * * * * * * * @ * @ @ @ @ @ @ @ @ @ @ @ @ @ @ @ @ @ @ @ @ @ @ @ O O O O O @ @ @ @ * = = - > > 4 6 9 y d c C J K ^ ) ' 7.7.8.b.J.L.L.P.T.T.T.P.P.K.b.c.7.] _ IXIXIXIXIXIXIXIXIXIXIXIXIXIXIXIXIXIXIXIXIXIXIXIXIXIXIXIXIXIXIXIXIXIXIXIXIXIXIXIXIXIXIXIXIXIXIXIXIXIXIXIXIXIXIXIXIXIXIXIXIXIXIXIXIXIXIXIXIXIXIXIXIXIXIXIXIXIXIXIXIXIXIXIXIXIXIXIXIXIXIXIXIXIXIXIXIXIXIXIXIXIXIXIXIXIXIXIXIXIXIXIXIXIXIXIXIXIXIXIXIXIXIXIXIXIXIXIXIXIXIXIXIXIXIX",
"IXIXIXIXIXIXIXIXIXIXIXIXIXIXIXIXIXIXIXIXIXIXIXIXIXIXIXIXIXIXIXIXIXIXIXIXIXIXIXIXIXIXIXIXIXIXIXIXIXIXIXIXIXIXIXIXIXIXIXIXIXIXIXIXIXIXIXIXIXIXIXIXIXIXIXIXIXIXIXIXIXIXIXIXIXIXIXIXIXIXIXIXIXIXIXIXIXIXIXIXIXIXIXIXIXIXIXIXIXIXIXIXIXIXIXIXIXIXIXIXIXIXIXIXIXIXIXIXIXIXIXIXIXIXIXIXIXIXIXIXIXIXIXIXIXIXIXIXIXIXIX/ _ ] x.v.n.K.P.P.P.P.T.P.P.J.b.b.c.7.7.] _ IXIXIXIXIXIXIXIXIXIXIXIXIXIXIXIXIXIXIXIXIXIXIXIXIXIXIXIXIXIXIXIXIXIXIXIXIXIXIXIXIXIXg h h l l l l l l l l l l l k g g g g i i u u y y t t t t 6 6 6 6 6 6 6 6 9 6 6 6 6 6 9 9 9 9 9 6 6 4 4 4 4 3 > > > > > - = = ; = = = = = = * * * * * * * * * * * * * * * * @ @ @ * @ * @ @ @ @ @ @ @ @ @ @ @ @ @ @ @ @ @ @ @ @ @ @ @ @ @ O O O O @ @ @ * = = - > 3 4 6 9 y s x C J K ^ ) ' 7.7.8.b.b.J.L.P.T.T.P.P.P.K.n.c.c.7._ / IXIXIXIXIXIXIXIXIXIXIXIXIXIXIXIXIXIXIXIXIXIXIXIXIXIXIXIXIXIXIXIXIXIXIXIXIXIXIXIXIXIXIXIXIXIXIXIXIXIXIXIXIXIXIXIXIXIXIXIXIXIXIXIXIXIXIXIXIXIXIXIXIXIXIXIXIXIXIXIXIXIXIXIXIXIXIXIXIXIXIXIXIXIXIXIXIXIXIXIXIXIXIXIXIXIXIXIXIXIXIXIXIXIXIXIXIXIXIXIXIXIXIXIXIXIXIXIXIXIXIXIXIXIXIX",
"IXIXIXIXIXIXIXIXIXIXIXIXIXIXIXIXIXIXIXIXIXIXIXIXIXIXIXIXIXIXIXIXIXIXIXIXIXIXIXIXIXIXIXIXIXIXIXIXIXIXIXIXIXIXIXIXIXIXIXIXIXIXIXIXIXIXIXIXIXIXIXIXIXIXIXIXIXIXIXIXIXIXIXIXIXIXIXIXIXIXIXIXIXIXIXIXIXIXIXIXIXIXIXIXIXIXIXIXIXIXIXIXIXIXIXIXIXIXIXIXIXIXIXIXIXIXIXIXIXIXIXIXIXIXIXIXIXIXIXIXIXIXIXIXIXIXIXIXIXIXIX` / ] x.c.b.K.P.P.P.P.P.T.T.P.P.K.b.b.c.7.] _ IXIXIXIXIXIXIXIXIXIXIXIXIXIXIXIXIXIXIXIXIXIXIXIXIXIXIXIXIXIXIXIXIXIXIXIXIXIXIXIXIXu f f g g g g g g g g g g g g i i u u u y t t t t t w w 6 6 6 6 6 6 6 6 6 6 6 6 6 6 6 9 9 9 9 9 6 6 4 4 4 4 3 3 > > > - - = = ; = = = = = = = * = * * * * * * * * * * * * * * * * * * * * @ @ @ @ @ @ @ @ @ @ @ @ @ @ @ @ @ @ @ @ @ @ @ @ @ @ @ @ @ @ * ; = > > 3 4 6 9 y s x C J K ^ ( ' 7.7.8.b.b.J.L.P.P.T.P.P.P.K.K.b.c.7.] _ IXIXIXIXIXIXIXIXIXIXIXIXIXIXIXIXIXIXIXIXIXIXIXIXIXIXIXIXIXIXIXIXIXIXIXIXIXIXIXIXIXIXIXIXIXIXIXIXIXIXIXIXIXIXIXIXIXIXIXIXIXIXIXIXIXIXIXIXIXIXIXIXIXIXIXIXIXIXIXIXIXIXIXIXIXIXIXIXIXIXIXIXIXIXIXIXIXIXIXIXIXIXIXIXIXIXIXIXIXIXIXIXIXIXIXIXIXIXIXIXIXIXIXIXIXIXIXIXIXIXIXIXIXIXIXIX",
"IXIXIXIXIXIXIXIXIXIXIXIXIXIXIXIXIXIXIXIXIXIXIXIXIXIXIXIXIXIXIXIXIXIXIXIXIXIXIXIXIXIXIXIXIXIXIXIXIXIXIXIXIXIXIXIXIXIXIXIXIXIXIXIXIXIXIXIXIXIXIXIXIXIXIXIXIXIXIXIXIXIXIXIXIXIXIXIXIXIXIXIXIXIXIXIXIXIXIXIXIXIXIXIXIXIXIXIXIXIXIXIXIXIXIXIXIXIXIXIXIXIXIXIXIXIXIXIXIXIXIXIXIXIXIXIXIXIXIXIXIXIXIXIXIXIXIXIXIXIXIXIX/ _ ] x.b.b.K.P.P.T.T.T.T.T.P.P.J.b.b.c.x.] _ IXIXIXIXIXIXIXIXIXIXIXIXIXIXIXIXIXIXIXIXIXIXIXIXIXIXIXIXIXIXIXIXIXIXIXIXIXIXIXIXu u u u u u u f f u u u u u u u t t t t w w w w 6 6 6 6 6 6 6 6 6 6 6 6 6 6 6 6 6 6 6 9 9 6 6 6 6 6 4 4 4 3 3 3 > > > > = = ; ; ; ; ; = = = ; ; ; ; ; ; ; ; ; ; ; ; ; ; ; ; ; ; ; = = = = * @ * @ @ @ @ @ @ @ @ @ @ @ @ @ @ @ @ @ @ @ @ @ @ @ @ @ @ * ; - > > 4 6 9 t y s x Z J K K ( ' 7.7.8.b.b.J.L.L.P.P.P.P.P.J.K.b.c.x.] _ IXIXIXIXIXIXIXIXIXIXIXIXIXIXIXIXIXIXIXIXIXIXIXIXIXIXIXIXIXIXIXIXIXIXIXIXIXIXIXIXIXIXIXIXIXIXIXIXIXIXIXIXIXIXIXIXIXIXIXIXIXIXIXIXIXIXIXIXIXIXIXIXIXIXIXIXIXIXIXIXIXIXIXIXIXIXIXIXIXIXIXIXIXIXIXIXIXIXIXIXIXIXIXIXIXIXIXIXIXIXIXIXIXIXIXIXIXIXIXIXIXIXIXIXIXIXIXIXIXIXIXIXIXIXIXIXIX",
"IXIXIXIXIXIXIXIXIXIXIXIXIXIXIXIXIXIXIXIXIXIXIXIXIXIXIXIXIXIXIXIXIXIXIXIXIXIXIXIXIXIXIXIXIXIXIXIXIXIXIXIXIXIXIXIXIXIXIXIXIXIXIXIXIXIXIXIXIXIXIXIXIXIXIXIXIXIXIXIXIXIXIXIXIXIXIXIXIXIXIXIXIXIXIXIXIXIXIXIXIXIXIXIXIXIXIXIXIXIXIXIXIXIXIXIXIXIXIXIXIXIXIXIXIXIXIXIXIXIXIXIXIXIXIXIXIXIXIXIXIXIXIXIXIXIXIXIXIXIXIXIXIX_ ] 7.c.b.J.P.P.T.T.T.T.T.P.P.P.K.b.b.c.7.] _ IXIXIXIXIXIXIXIXIXIXIXIXIXIXIXIXIXIXIXIXIXIXIXIXIXIXIXIXIXIXIXIXIXIXIXIXIXIXIXIXw w w w e u e u u u w w w w w w w 6 6 6 6 6 6 6 6 6 6 6 4 4 6 6 6 6 6 6 6 6 6 6 6 6 6 6 6 6 6 6 6 4 4 4 3 3 3 > > > - - - - = = = = = ; = = = - - - - - - - - - - - - - - - - - = = = = ; = ; = ; = = = = = = = # @ @ @ = = * * * * = * * * * * = = - > 4 4 6 t y i s x Z J Y Q ( 6.7.8.8.q.b.J.J.L.L.P.P.P.P.K.K.b.c.x.] ] IXIXIXIXIXIXIXIXIXIXIXIXIXIXIXIXIXIXIXIXIXIXIXIXIXIXIXIXIXIXIXIXIXIXIXIXIXIXIXIXIXIXIXIXIXIXIXIXIXIXIXIXIXIXIXIXIXIXIXIXIXIXIXIXIXIXIXIXIXIXIXIXIXIXIXIXIXIXIXIXIXIXIXIXIXIXIXIXIXIXIXIXIXIXIXIXIXIXIXIXIXIXIXIXIXIXIXIXIXIXIXIXIXIXIXIXIXIXIXIXIXIXIXIXIXIXIXIXIXIXIXIXIXIXIXIXIXIX",
"IXIXIXIXIXIXIXIXIXIXIXIXIXIXIXIXIXIXIXIXIXIXIXIXIXIXIXIXIXIXIXIXIXIXIXIXIXIXIXIXIXIXIXIXIXIXIXIXIXIXIXIXIXIXIXIXIXIXIXIXIXIXIXIXIXIXIXIXIXIXIXIXIXIXIXIXIXIXIXIXIXIXIXIXIXIXIXIXIXIXIXIXIXIXIXIXIXIXIXIXIXIXIXIXIXIXIXIXIXIXIXIXIXIXIXIXIXIXIXIXIXIXIXIXIXIXIXIXIXIXIXIXIXIXIXIXIXIXIXIXIXIXIXIXIXIXIXIXIXIXIXIXIX/ _ 7.x.b.b.J.P.P.T.T.T.T.T.P.T.P.K.b.c.x.] ] / IXIXIXIXIXIXIXIXIXIXIXIXIXIXIXIXIXIXIXIXIXIXIXIXIXIXIXIXIXIXIXIXIXIXIXIXIXIXIX6 6 w w w w e w w w w w 6 6 6 6 6 5 5 5 3 3 3 3 3 3 3 3 3 3 3 3 4 4 4 4 6 6 6 6 6 6 6 6 6 6 6 4 4 4 4 3 3 3 3 > > > - > - - - - - - - - - > > > > > > > > > > > > > > > > > > > > > > > > - = = > : : : = = = = = = = = = = = = = = = = ; ; = - > > 3 4 6 9 t i s k x Z J K Q ( 6.6.w.8.q.b.J.L.L.L.L.L.P.K.J.K.b.c.c.] ] IXIXIXIXIXIXIXIXIXIXIXIXIXIXIXIXIXIXIXIXIXIXIXIXIXIXIXIXIXIXIXIXIXIXIXIXIXIXIXIXIXIXIXIXIXIXIXIXIXIXIXIXIXIXIXIXIXIXIXIXIXIXIXIXIXIXIXIXIXIXIXIXIXIXIXIXIXIXIXIXIXIXIXIXIXIXIXIXIXIXIXIXIXIXIXIXIXIXIXIXIXIXIXIXIXIXIXIXIXIXIXIXIXIXIXIXIXIXIXIXIXIXIXIXIXIXIXIXIXIXIXIXIXIXIXIXIXIXIX",
"IXIXIXIXIXIXIXIXIXIXIXIXIXIXIXIXIXIXIXIXIXIXIXIXIXIXIXIXIXIXIXIXIXIXIXIXIXIXIXIXIXIXIXIXIXIXIXIXIXIXIXIXIXIXIXIXIXIXIXIXIXIXIXIXIXIXIXIXIXIXIXIXIXIXIXIXIXIXIXIXIXIXIXIXIXIXIXIXIXIXIXIXIXIXIXIXIXIXIXIXIXIXIXIXIXIXIXIXIXIXIXIXIXIXIXIXIXIXIXIXIXIXIXIXIXIXIXIXIXIXIXIXIXIXIXIXIXIXIXIXIXIXIXIXIXIXIXIXIXIXIXIXIXIX_ ] 7.c.b.b.P.P.P.T.T.T.T.T.T.P.P.K.b.c.x.] _ / IXIXIXIXIXIXIXIXIXIXIXIXIXIXIXIXIXIXIXIXIXIXIXIXIXIXIXIXIXIXIXIXIXIXIXIXIXIX5 5 6 6 w w w w w 6 5 6 5 5 5 5 3 3 3 3 3 3 3 3 3 3 3 3 3 3 3 3 3 3 3 3 3 4 4 4 4 4 4 4 4 4 4 4 3 3 3 3 3 3 > > > > - - - - - > > > > > > > > 3 3 3 3 3 3 3 4 4 4 4 4 4 4 4 3 3 3 3 3 > > > < > > > < < < < < < < < < < < < < < < < < < < < < < 7 7 7 0 p p s x x x H J K Q W 6.6.w.q.q.b.J.L.L.L.P.L.L.J.J.J.b.c.c.] ] IXIXIXIXIXIXIXIXIXIXIXIXIXIXIXIXIXIXIXIXIXIXIXIXIXIXIXIXIXIXIXIXIXIXIXIXIXIXIXIXIXIXIXIXIXIXIXIXIXIXIXIXIXIXIXIXIXIXIXIXIXIXIXIXIXIXIXIXIXIXIXIXIXIXIXIXIXIXIXIXIXIXIXIXIXIXIXIXIXIXIXIXIXIXIXIXIXIXIXIXIXIXIXIXIXIXIXIXIXIXIXIXIXIXIXIXIXIXIXIXIXIXIXIXIXIXIXIXIXIXIXIXIXIXIXIXIXIXIXIX",
"IXIXIXIXIXIXIXIXIXIXIXIXIXIXIXIXIXIXIXIXIXIXIXIXIXIXIXIXIXIXIXIXIXIXIXIXIXIXIXIXIXIXIXIXIXIXIXIXIXIXIXIXIXIXIXIXIXIXIXIXIXIXIXIXIXIXIXIXIXIXIXIXIXIXIXIXIXIXIXIXIXIXIXIXIXIXIXIXIXIXIXIXIXIXIXIXIXIXIXIXIXIXIXIXIXIXIXIXIXIXIXIXIXIXIXIXIXIXIXIXIXIXIXIXIXIXIXIXIXIXIXIXIXIXIXIXIXIXIXIXIXIXIXIXIXIXIXIXIXIXIXIXIXIXIX_ ] 7.c.b.b.P.P.P.T.T.T.T.P.T.P.K.b.b.c.7.] / IXIXIXIXIXIXIXIXIXIXIXIXIXIXIXIXIXIXIXIXIXIXIXIXIXIXIXIXIXIXIXIXIXIXIXIXIXIX5 5 5 5 6 6 6 6 6 5 5 5 5 5 3 3 3 3 3 3 3 3 3 > > - > > > > > > 3 3 3 3 3 3 3 3 3 3 3 3 3 3 3 3 3 3 3 3 > > > > > - - - > > > > > > 3 3 3 3 4 4 7 4 4 4 6 6 6 7 7 7 7 7 7 7 7 7 7 7 7 7 7 7 7 7 8 8 8 8 8 8 8 8 8 8 8 8 8 8 8 8 8 8 7 7 7 7 7 7 7 0 p p v v x x Z H J K Q W 6.6.w.w.q.q.J.L.L.L.L.L.K.J.J.J.c.c.c.] ] / IXIXIXIXIXIXIXIXIXIXIXIXIXIXIXIXIXIXIXIXIXIXIXIXIXIXIXIXIXIXIXIXIXIXIXIXIXIXIXIXIXIXIXIXIXIXIXIXIXIXIXIXIXIXIXIXIXIXIXIXIXIXIXIXIXIXIXIXIXIXIXIXIXIXIXIXIXIXIXIXIXIXIXIXIXIXIXIXIXIXIXIXIXIXIXIXIXIXIXIXIXIXIXIXIXIXIXIXIXIXIXIXIXIXIXIXIXIXIXIXIXIXIXIXIXIXIXIXIXIXIXIXIXIXIXIXIXIXIXIX",
"IXIXIXIXIXIXIXIXIXIXIXIXIXIXIXIXIXIXIXIXIXIXIXIXIXIXIXIXIXIXIXIXIXIXIXIXIXIXIXIXIXIXIXIXIXIXIXIXIXIXIXIXIXIXIXIXIXIXIXIXIXIXIXIXIXIXIXIXIXIXIXIXIXIXIXIXIXIXIXIXIXIXIXIXIXIXIXIXIXIXIXIXIXIXIXIXIXIXIXIXIXIXIXIXIXIXIXIXIXIXIXIXIXIXIXIXIXIXIXIXIXIXIXIXIXIXIXIXIXIXIXIXIXIXIXIXIXIXIXIXIXIXIXIXIXIXIXIXIXIXIXIXIXIXIX) _ ] 7.8.b.b.P.P.P.T.T.T.T.T.P.P.K.b.c.x.] _ / IXIXIXIXIXIXIXIXIXIXIXIXIXIXIXIXIXIXIXIXIXIXIXIXIXIXIXIXIXIXIXIXIXIXIXIXIX5 5 5 5 6 6 6 6 6 5 5 5 5 3 3 3 3 3 3 1 - - - - - - - - - - - - - > > > > > > > > 3 3 3 3 3 3 > 3 > > > > > - - - - > - > > > 3 3 3 3 4 4 7 7 7 7 0 0 0 0 0 p p 0 0 0 0 0 0 0 0 0 0 0 0 0 q q q q q q q q q q q q q q q q q 8 q q q q q q q q a a a v d c c J J J K Q Q [ 6.6.w.w.q.q.S.L.L.L.L.L.J.J.J.b.c.c.7.] ] / IXIXIXIXIXIXIXIXIXIXIXIXIXIXIXIXIXIXIXIXIXIXIXIXIXIXIXIXIXIXIXIXIXIXIXIXIXIXIXIXIXIXIXIXIXIXIXIXIXIXIXIXIXIXIXIXIXIXIXIXIXIXIXIXIXIXIXIXIXIXIXIXIXIXIXIXIXIXIXIXIXIXIXIXIXIXIXIXIXIXIXIXIXIXIXIXIXIXIXIXIXIXIXIXIXIXIXIXIXIXIXIXIXIXIXIXIXIXIXIXIXIXIXIXIXIXIXIXIXIXIXIXIXIXIXIXIXIXIXIXIX",
"IXIXIXIXIXIXIXIXIXIXIXIXIXIXIXIXIXIXIXIXIXIXIXIXIXIXIXIXIXIXIXIXIXIXIXIXIXIXIXIXIXIXIXIXIXIXIXIXIXIXIXIXIXIXIXIXIXIXIXIXIXIXIXIXIXIXIXIXIXIXIXIXIXIXIXIXIXIXIXIXIXIXIXIXIXIXIXIXIXIXIXIXIXIXIXIXIXIXIXIXIXIXIXIXIXIXIXIXIXIXIXIXIXIXIXIXIXIXIXIXIXIXIXIXIXIXIXIXIXIXIXIXIXIXIXIXIXIXIXIXIXIXIXIXIXIXIXIXIXIXIXIXIXIXIXIX) _ 7.7.c.c.b.J.L.P.P.T.T.T.P.P.K.b.b.c.7.] / IXIXIXIXIXIXIXIXIXIXIXIXIXIXIXIXIXIXIXIXIXIXIXIXIXIXIXIXIXIXIXIXIXIXIXIXIX5 5 5 6 6 w 6 6 6 6 5 5 5 3 3 3 3 3 1 - - - - - - - - - - - - - - - - - - - - - - - - - - - - - - - - - - - - - - - - > > 3 3 3 3 4 7 7 7 0 0 p p p p p p p p p a a a a a a a a p p p p a a a a a a a a q q q q q q q q q q q a a a a a a a a d d c c c C J J K K Q W 6.6.9.9.0.q.q.S.S.L.L.L.L.J.J.J.b.c.8.7.] ] / IXIXIXIXIXIXIXIXIXIXIXIXIXIXIXIXIXIXIXIXIXIXIXIXIXIXIXIXIXIXIXIXIXIXIXIXIXIXIXIXIXIXIXIXIXIXIXIXIXIXIXIXIXIXIXIXIXIXIXIXIXIXIXIXIXIXIXIXIXIXIXIXIXIXIXIXIXIXIXIXIXIXIXIXIXIXIXIXIXIXIXIXIXIXIXIXIXIXIXIXIXIXIXIXIXIXIXIXIXIXIXIXIXIXIXIXIXIXIXIXIXIXIXIXIXIXIXIXIXIXIXIXIXIXIXIXIXIXIXIXIXIX",
"IXIXIXIXIXIXIXIXIXIXIXIXIXIXIXIXIXIXIXIXIXIXIXIXIXIXIXIXIXIXIXIXIXIXIXIXIXIXIXIXIXIXIXIXIXIXIXIXIXIXIXIXIXIXIXIXIXIXIXIXIXIXIXIXIXIXIXIXIXIXIXIXIXIXIXIXIXIXIXIXIXIXIXIXIXIXIXIXIXIXIXIXIXIXIXIXIXIXIXIXIXIXIXIXIXIXIXIXIXIXIXIXIXIXIXIXIXIXIXIXIXIXIXIXIXIXIXIXIXIXIXIXIXIXIXIXIXIXIXIXIXIXIXIXIXIXIXIXIXIXIXIXIXIXIXIXIX) _ 7.7.8.b.b.J.L.P.P.P.P.P.P.J.n.b.c.7.] _ IXIXIXIXIXIXIXIXIXIXIXIXIXIXIXIXIXIXIXIXIXIXIXIXIXIXIXIXIXIXIXIXIXIXIXIXIX6 7 7 w w w w 7 w 6 6 5 5 5 3 3 3 3 3 - - - - - ; ; ; ; ; ; ; ; ; ; ; ; = - - - - - - - - - - - - - - - - - - - - - > 3 3 3 4 5 7 7 0 0 p p p a a a a a v d d d d d d d d d d d d d d d d a d d d a d d a d a a a a a a a a a a d d d d b b b b c c C ~ J K ^ Q ( ( 6.6.w.9.0.q.q.S.S.L.L.L.L.L.J.J.b.c.8.7.] ] / IXIXIXIXIXIXIXIXIXIXIXIXIXIXIXIXIXIXIXIXIXIXIXIXIXIXIXIXIXIXIXIXIXIXIXIXIXIXIXIXIXIXIXIXIXIXIXIXIXIXIXIXIXIXIXIXIXIXIXIXIXIXIXIXIXIXIXIXIXIXIXIXIXIXIXIXIXIXIXIXIXIXIXIXIXIXIXIXIXIXIXIXIXIXIXIXIXIXIXIXIXIXIXIXIXIXIXIXIXIXIXIXIXIXIXIXIXIXIXIXIXIXIXIXIXIXIXIXIXIXIXIXIXIXIXIXIXIXIXIXIXIXIX",
"IXIXIXIXIXIXIXIXIXIXIXIXIXIXIXIXIXIXIXIXIXIXIXIXIXIXIXIXIXIXIXIXIXIXIXIXIXIXIXIXIXIXIXIXIXIXIXIXIXIXIXIXIXIXIXIXIXIXIXIXIXIXIXIXIXIXIXIXIXIXIXIXIXIXIXIXIXIXIXIXIXIXIXIXIXIXIXIXIXIXIXIXIXIXIXIXIXIXIXIXIXIXIXIXIXIXIXIXIXIXIXIXIXIXIXIXIXIXIXIXIXIXIXIXIXIXIXIXIXIXIXIXIXIXIXIXIXIXIXIXIXIXIXIXIXIXIXIXIXIXIXIXIXIXIXIXIX^ ) _ 7.7.8.q.b.b.P.P.P.P.P.P.K.n.b.c.x.] ] / IXIXIXIXIXIXIXIXIXIXIXIXIXIXIXIXIXIXIXIXIXIXIXIXIXIXIXIXIXIXIXIXIXIXIXIX7 7 w w w w w w w 7 7 7 5 5 5 3 3 3 3 1 - - - - ; ; ; ; ; ; ; ; ; ; ; ; ; ; ; ; ; ; ; ; ; ; ; ; ; - - - - - - - > 3 3 3 3 5 5 6 0 p p p p a v d v c c c c c c c c c c c c c c c c c c c d c c d d d d b b b b b b b b b b b b b b b b b b b b A A ~ ~ ^ ^ ) ( ( 6.6.6.w.w.0.q.q.S.S.S.L.L.L.L.J.b.b.c.8.7.] _ / IXIXIXIXIXIXIXIXIXIXIXIXIXIXIXIXIXIXIXIXIXIXIXIXIXIXIXIXIXIXIXIXIXIXIXIXIXIXIXIXIXIXIXIXIXIXIXIXIXIXIXIXIXIXIXIXIXIXIXIXIXIXIXIXIXIXIXIXIXIXIXIXIXIXIXIXIXIXIXIXIXIXIXIXIXIXIXIXIXIXIXIXIXIXIXIXIXIXIXIXIXIXIXIXIXIXIXIXIXIXIXIXIXIXIXIXIXIXIXIXIXIXIXIXIXIXIXIXIXIXIXIXIXIXIXIXIXIXIXIXIXIXIXIX",
"IXIXIXIXIXIXIXIXIXIXIXIXIXIXIXIXIXIXIXIXIXIXIXIXIXIXIXIXIXIXIXIXIXIXIXIXIXIXIXIXIXIXIXIXIXIXIXIXIXIXIXIXIXIXIXIXIXIXIXIXIXIXIXIXIXIXIXIXIXIXIXIXIXIXIXIXIXIXIXIXIXIXIXIXIXIXIXIXIXIXIXIXIXIXIXIXIXIXIXIXIXIXIXIXIXIXIXIXIXIXIXIXIXIXIXIXIXIXIXIXIXIXIXIXIXIXIXIXIXIXIXIXIXIXIXIXIXIXIXIXIXIXIXIXIXIXIXIXIXIXIXIXIXIXIXIXIXIX^ ) _ 7.7.8.q.b.b.J.P.L.J.J.K.b.b.c.x.] ] / IXIXIXIXIXIXIXIXIXIXIXIXIXIXIXIXIXIXIXIXIXIXIXIXIXIXIXIXIXIXIXIXIXIXIXIX7 w w p p p p p w w w 7 7 7 5 5 3 3 3 3 3 - - - - ; ; ; = ; * ; ; * * * = = ; ; = = * ; ; ; ; ; ; ; - - - - - > 3 3 3 5 5 6 t p p p p v v v c c c c c c c c C C J J C J C C C C C c c A A A A A A A A A A A A b A b b b b b b b A A A A A ~ ~ ~ ~ ~ ^ ) ) ( 6.6.6.w.w.w.q.q.N.S.S.S.S.S.L.L.J.b.b.8.8.7.] _ / IXIXIXIXIXIXIXIXIXIXIXIXIXIXIXIXIXIXIXIXIXIXIXIXIXIXIXIXIXIXIXIXIXIXIXIXIXIXIXIXIXIXIXIXIXIXIXIXIXIXIXIXIXIXIXIXIXIXIXIXIXIXIXIXIXIXIXIXIXIXIXIXIXIXIXIXIXIXIXIXIXIXIXIXIXIXIXIXIXIXIXIXIXIXIXIXIXIXIXIXIXIXIXIXIXIXIXIXIXIXIXIXIXIXIXIXIXIXIXIXIXIXIXIXIXIXIXIXIXIXIXIXIXIXIXIXIXIXIXIXIXIXIXIXIX",
"IXIXIXIXIXIXIXIXIXIXIXIXIXIXIXIXIXIXIXIXIXIXIXIXIXIXIXIXIXIXIXIXIXIXIXIXIXIXIXIXIXIXIXIXIXIXIXIXIXIXIXIXIXIXIXIXIXIXIXIXIXIXIXIXIXIXIXIXIXIXIXIXIXIXIXIXIXIXIXIXIXIXIXIXIXIXIXIXIXIXIXIXIXIXIXIXIXIXIXIXIXIXIXIXIXIXIXIXIXIXIXIXIXIXIXIXIXIXIXIXIXIXIXIXIXIXIXIXIXIXIXIXIXIXIXIXIXIXIXIXIXIXIXIXIXIXIXIXIXIXIXIXIXIXIXIXIXIXIX^ ) _ 7.7.8.8.b.b.b.b.b.b.b.b.v.c.x.] ] _ IXIXIXIXIXIXIXIXIXIXIXIXIXIXIXIXIXIXIXIXIXIXIXIXIXIXIXIXIXIXIXIXIXIXIXIXw p p p a a a p p p p w 7 7 7 6 5 3 3 3 3 3 - - - - ; ; = = ; * * * * * * * * * * * * ; ; ; ; ; ; ; - - 1 3 3 3 3 3 5 6 t t p p v d v c c c c J J J J ~ ~ ~ ~ ~ ~ ~ ^ ~ ^ ~ ~ ~ ~ ~ ~ ~ ~ ~ ~ ~ ~ ~ A A A A A A A A A A A A A A ~ ~ ~ ` ` ` ^ ^ / _ _ _ 6.7.w.w.w.w.w.q.q.q.S.S.S.S.S.S.N.N.q.q.8.8.7.] _ / IXIXIXIXIXIXIXIXIXIXIXIXIXIXIXIXIXIXIXIXIXIXIXIXIXIXIXIXIXIXIXIXIXIXIXIXIXIXIXIXIXIXIXIXIXIXIXIXIXIXIXIXIXIXIXIXIXIXIXIXIXIXIXIXIXIXIXIXIXIXIXIXIXIXIXIXIXIXIXIXIXIXIXIXIXIXIXIXIXIXIXIXIXIXIXIXIXIXIXIXIXIXIXIXIXIXIXIXIXIXIXIXIXIXIXIXIXIXIXIXIXIXIXIXIXIXIXIXIXIXIXIXIXIXIXIXIXIXIXIXIXIXIXIXIXIX",
"IXIXIXIXIXIXIXIXIXIXIXIXIXIXIXIXIXIXIXIXIXIXIXIXIXIXIXIXIXIXIXIXIXIXIXIXIXIXIXIXIXIXIXIXIXIXIXIXIXIXIXIXIXIXIXIXIXIXIXIXIXIXIXIXIXIXIXIXIXIXIXIXIXIXIXIXIXIXIXIXIXIXIXIXIXIXIXIXIXIXIXIXIXIXIXIXIXIXIXIXIXIXIXIXIXIXIXIXIXIXIXIXIXIXIXIXIXIXIXIXIXIXIXIXIXIXIXIXIXIXIXIXIXIXIXIXIXIXIXIXIXIXIXIXIXIXIXIXIXIXIXIXIXIXIXIXIXIXIXIX^ ) _ 7.7.7.8.c.c.b.b.c.c.c.c.x.x.] ] _ IXIXIXIXIXIXIXIXIXIXIXIXIXIXIXIXIXIXIXIXIXIXIXIXIXIXIXIXIXIXIXIXIXIXIXIXp p p a a a a a a a p p p 7 7 7 5 4 3 3 3 3 3 - - - = ; ; = ; ; * * * * * * * * * * * ; ; ; ; ; ; - - 1 3 3 3 3 5 6 w t p s v v c c c c J J J ~ ^ ^ ^ ^ ^ ^ ) ) ) ) ) ) ) ) ) ) ^ ^ ^ ^ ^ ^ ^ ^ ^ ^ ` ` ` ` ` ` ` ` ` ` ` ` ` ` ` ` / / / _ _ _ _ _ 7.7.7.7.w.w.q.q.q.q.N.S.S.S.S.S.S.N.N.q.8.8.8.7.] ) IXIXIXIXIXIXIXIXIXIXIXIXIXIXIXIXIXIXIXIXIXIXIXIXIXIXIXIXIXIXIXIXIXIXIXIXIXIXIXIXIXIXIXIXIXIXIXIXIXIXIXIXIXIXIXIXIXIXIXIXIXIXIXIXIXIXIXIXIXIXIXIXIXIXIXIXIXIXIXIXIXIXIXIXIXIXIXIXIXIXIXIXIXIXIXIXIXIXIXIXIXIXIXIXIXIXIXIXIXIXIXIXIXIXIXIXIXIXIXIXIXIXIXIXIXIXIXIXIXIXIXIXIXIXIXIXIXIXIXIXIXIXIXIXIXIXIXIX",
"IXIXIXIXIXIXIXIXIXIXIXIXIXIXIXIXIXIXIXIXIXIXIXIXIXIXIXIXIXIXIXIXIXIXIXIXIXIXIXIXIXIXIXIXIXIXIXIXIXIXIXIXIXIXIXIXIXIXIXIXIXIXIXIXIXIXIXIXIXIXIXIXIXIXIXIXIXIXIXIXIXIXIXIXIXIXIXIXIXIXIXIXIXIXIXIXIXIXIXIXIXIXIXIXIXIXIXIXIXIXIXIXIXIXIXIXIXIXIXIXIXIXIXIXIXIXIXIXIXIXIXIXIXIXIXIXIXIXIXIXIXIXIXIXIXIXIXIXIXIXIXIXIXIXIXIXIXIXIXIXIX^ ) _ ' 7.7.7.8.c.c.c.c.c.c.x.] ] ] _ IXIXIXIXIXIXIXIXIXIXIXIXIXIXIXIXIXIXIXIXIXIXIXIXIXIXIXIXIXIXIXIXIXIXIXIXa a a a a a a a a a a a p p p 7 7 7 5 4 3 3 3 3 > > - - = ; ; ; = * * * * * * * ; * ; ; ; ; ; ; - 1 3 3 3 5 5 6 w t p s v x c c c J J J J ^ ^ ) ) ) _ _ _ ' ' 6.' ' 7.7.' ' _ _ _ _ _ _ _ _ _ _ _ _ _ / _ / / / / / / / / / / / _ _ _ _ _ _ ] ] 7.7.7.7.8.8.8.q.q.q.N.N.N.N.N.N.N.N.N.q.q.8.8.7.7.] ) IXIXIXIXIXIXIXIXIXIXIXIXIXIXIXIXIXIXIXIXIXIXIXIXIXIXIXIXIXIXIXIXIXIXIXIXIXIXIXIXIXIXIXIXIXIXIXIXIXIXIXIXIXIXIXIXIXIXIXIXIXIXIXIXIXIXIXIXIXIXIXIXIXIXIXIXIXIXIXIXIXIXIXIXIXIXIXIXIXIXIXIXIXIXIXIXIXIXIXIXIXIXIXIXIXIXIXIXIXIXIXIXIXIXIXIXIXIXIXIXIXIXIXIXIXIXIXIXIXIXIXIXIXIXIXIXIXIXIXIXIXIXIXIXIXIXIXIXIX",
"IXIXIXIXIXIXIXIXIXIXIXIXIXIXIXIXIXIXIXIXIXIXIXIXIXIXIXIXIXIXIXIXIXIXIXIXIXIXIXIXIXIXIXIXIXIXIXIXIXIXIXIXIXIXIXIXIXIXIXIXIXIXIXIXIXIXIXIXIXIXIXIXIXIXIXIXIXIXIXIXIXIXIXIXIXIXIXIXIXIXIXIXIXIXIXIXIXIXIXIXIXIXIXIXIXIXIXIXIXIXIXIXIXIXIXIXIXIXIXIXIXIXIXIXIXIXIXIXIXIXIXIXIXIXIXIXIXIXIXIXIXIXIXIXIXIXIXIXIXIXIXIXIXIXIXIXIXIXIXIXIXIXIX) ) ' ] 7.7.7.7.7.7.7.] ] ] ] ] IXIXIXIXIXIXIXIXIXIXIXIXIXIXIXIXIXIXIXIXIXIXIXIXIXIXIXIXIXIXIXIXIXIXIXIXIXIXa a a a a a a a a a a a a p p 0 7 7 7 7 3 3 3 3 > > - - = ; ; ; ; ; ; ; ; ; ; ; ; ; ; ; ; ; - 1 3 3 3 5 6 6 w t p s x x c c J J J K ^ ) ( ( 6.7.7.7.w.7.w.7.7.7.7.8.7.7.7.7.7.7.7.7.7.] ] ] ] ] ] ] ] ] ] ] ] _ ] _ _ _ _ _ _ _ ] ] ] ] ] 7.7.7.7.7.8.8.q.q.q.q.q.N.N.N.N.N.q.q.q.q.q.q.w.7.] ' ) IXIXIXIXIXIXIXIXIXIXIXIXIXIXIXIXIXIXIXIXIXIXIXIXIXIXIXIXIXIXIXIXIXIXIXIXIXIXIXIXIXIXIXIXIXIXIXIXIXIXIXIXIXIXIXIXIXIXIXIXIXIXIXIXIXIXIXIXIXIXIXIXIXIXIXIXIXIXIXIXIXIXIXIXIXIXIXIXIXIXIXIXIXIXIXIXIXIXIXIXIXIXIXIXIXIXIXIXIXIXIXIXIXIXIXIXIXIXIXIXIXIXIXIXIXIXIXIXIXIXIXIXIXIXIXIXIXIXIXIXIXIXIXIXIXIXIXIXIXIX",
"IXIXIXIXIXIXIXIXIXIXIXIXIXIXIXIXIXIXIXIXIXIXIXIXIXIXIXIXIXIXIXIXIXIXIXIXIXIXIXIXIXIXIXIXIXIXIXIXIXIXIXIXIXIXIXIXIXIXIXIXIXIXIXIXIXIXIXIXIXIXIXIXIXIXIXIXIXIXIXIXIXIXIXIXIXIXIXIXIXIXIXIXIXIXIXIXIXIXIXIXIXIXIXIXIXIXIXIXIXIXIXIXIXIXIXIXIXIXIXIXIXIXIXIXIXIXIXIXIXIXIXIXIXIXIXIXIXIXIXIXIXIXIXIXIXIXIXIXIXIXIXIXIXIXIXIXIXIXIXIXIXIXIXIXIX) ) ' ' ] ] ] ] ] ] ] ] ] _ IXIXIXIXIXIXIXIXIXIXIXIXIXIXIXIXIXIXIXIXIXIXIXIXIXIXIXIXIXIXIXIXIXIXIXIXIXIXa a a a a a d d d v a a a a p p p 0 7 7 7 7 4 3 3 > > - - - = ; ; ; ; ; ; ; ; ; ; ; ; ; ; - - 1 3 5 5 6 w t t u s x x c J J J Y ) ( ( &.6.6.w.w.w.w.8.q.q.q.q.q.q.q.q.q.q.8.8.8.8.7.7.7.7.7.7.7.7.7.7.] ] ] { { { { { ] ] { { { { { x.x.x.x.x.x.7.8.8.q.b.b.q.q.q.N.N.N.q.q.q.q.q.w.8.8.6.' ' ) IXIXIXIXIXIXIXIXIXIXIXIXIXIXIXIXIXIXIXIXIXIXIXIXIXIXIXIXIXIXIXIXIXIXIXIXIXIXIXIXIXIXIXIXIXIXIXIXIXIXIXIXIXIXIXIXIXIXIXIXIXIXIXIXIXIXIXIXIXIXIXIXIXIXIXIXIXIXIXIXIXIXIXIXIXIXIXIXIXIXIXIXIXIXIXIXIXIXIXIXIXIXIXIXIXIXIXIXIXIXIXIXIXIXIXIXIXIXIXIXIXIXIXIXIXIXIXIXIXIXIXIXIXIXIXIXIXIXIXIXIXIXIXIXIXIXIXIXIXIXIX",
"IXIXIXIXIXIXIXIXIXIXIXIXIXIXIXIXIXIXIXIXIXIXIXIXIXIXIXIXIXIXIXIXIXIXIXIXIXIXIXIXIXIXIXIXIXIXIXIXIXIXIXIXIXIXIXIXIXIXIXIXIXIXIXIXIXIXIXIXIXIXIXIXIXIXIXIXIXIXIXIXIXIXIXIXIXIXIXIXIXIXIXIXIXIXIXIXIXIXIXIXIXIXIXIXIXIXIXIXIXIXIXIXIXIXIXIXIXIXIXIXIXIXIXIXIXIXIXIXIXIXIXIXIXIXIXIXIXIXIXIXIXIXIXIXIXIXIXIXIXIXIXIXIXIXIXIXIXIXIXIXIXIXIXIXIXIXIX) ) _ _ _ _ _ _ _ _ / IXIXIXIXIXIXIXIXIXIXIXIXIXIXIXIXIXIXIXIXIXIXIXIXIXIXIXIXIXIXIXIXIXIXIXIXIXIXIXIXa a d d b b b d d d v v v a a p p p 0 7 7 7 7 4 3 3 > - - - - ; ; ; ; ; ; ; ; ; ; ; ; ; - 1 3 3 5 6 w t u u s x x N H J Y Q ( ( &.6.6.w.w.q.q.q.q.q.q.q.q.b.b.b.b.b.b.b.b.b.q.q.q.q.c.c.c.c.c.c.x.c.c.x.x.x.x.x.x.{ x.x.x.x.x.x.x.x.x.x.c.c.c.c.c.c.c.b.b.b.b.q.q.q.q.q.q.w.8.8.w.7.' ' ' ) IXIXIXIXIXIXIXIXIXIXIXIXIXIXIXIXIXIXIXIXIXIXIXIXIXIXIXIXIXIXIXIXIXIXIXIXIXIXIXIXIXIXIXIXIXIXIXIXIXIXIXIXIXIXIXIXIXIXIXIXIXIXIXIXIXIXIXIXIXIXIXIXIXIXIXIXIXIXIXIXIXIXIXIXIXIXIXIXIXIXIXIXIXIXIXIXIXIXIXIXIXIXIXIXIXIXIXIXIXIXIXIXIXIXIXIXIXIXIXIXIXIXIXIXIXIXIXIXIXIXIXIXIXIXIXIXIXIXIXIXIXIXIXIXIXIXIXIXIXIXIXIX",
"IXIXIXIXIXIXIXIXIXIXIXIXIXIXIXIXIXIXIXIXIXIXIXIXIXIXIXIXIXIXIXIXIXIXIXIXIXIXIXIXIXIXIXIXIXIXIXIXIXIXIXIXIXIXIXIXIXIXIXIXIXIXIXIXIXIXIXIXIXIXIXIXIXIXIXIXIXIXIXIXIXIXIXIXIXIXIXIXIXIXIXIXIXIXIXIXIXIXIXIXIXIXIXIXIXIXIXIXIXIXIXIXIXIXIXIXIXIXIXIXIXIXIXIXIXIXIXIXIXIXIXIXIXIXIXIXIXIXIXIXIXIXIXIXIXIXIXIXIXIXIXIXIXIXIXIXIXIXIXIXIXIXIXIXIXIXIXIXIXIXIX` ^ ^ / / IXIXIXIXIXIXIXIXIXIXIXIXIXIXIXIXIXIXIXIXIXIXIXIXIXIXIXIXIXIXIXIXIXIXIXIXIXIXIXIXIXIXa d b b b b b b b c c v v v d a a p p p p 7 7 7 7 3 7 3 - - - - - - - ; - ; ; ; ; ; ; - - 1 3 5 6 w t u i g k x N H Y E Q W &.6.6.w.w.w.q.q.j.S.S.L.L.L.L.L.L.L.L.L.L.L.L.J.J.J.b.b.b.b.b.c.c.c.c.c.c.c.c.x.x.x.x.x.x.x.x.x.x.x.x.x.c.c.c.c.c.c.c.c.c.c.b.q.b.q.q.8.8.8.8.8.6.6.6.' ' ) ^ IXIXIXIXIXIXIXIXIXIXIXIXIXIXIXIXIXIXIXIXIXIXIXIXIXIXIXIXIXIXIXIXIXIXIXIXIXIXIXIXIXIXIXIXIXIXIXIXIXIXIXIXIXIXIXIXIXIXIXIXIXIXIXIXIXIXIXIXIXIXIXIXIXIXIXIXIXIXIXIXIXIXIXIXIXIXIXIXIXIXIXIXIXIXIXIXIXIXIXIXIXIXIXIXIXIXIXIXIXIXIXIXIXIXIXIXIXIXIXIXIXIXIXIXIXIXIXIXIXIXIXIXIXIXIXIXIXIXIXIXIXIXIXIXIXIXIXIXIXIXIXIXIX",
"IXIXIXIXIXIXIXIXIXIXIXIXIXIXIXIXIXIXIXIXIXIXIXIXIXIXIXIXIXIXIXIXIXIXIXIXIXIXIXIXIXIXIXIXIXIXIXIXIXIXIXIXIXIXIXIXIXIXIXIXIXIXIXIXIXIXIXIXIXIXIXIXIXIXIXIXIXIXIXIXIXIXIXIXIXIXIXIXIXIXIXIXIXIXIXIXIXIXIXIXIXIXIXIXIXIXIXIXIXIXIXIXIXIXIXIXIXIXIXIXIXIXIXIXIXIXIXIXIXIXIXIXIXIXIXIXIXIXIXIXIXIXIXIXIXIXIXIXIXIXIXIXIXIXIXIXIXIXIXIXIXIXIXIXIXIXIXIXIXIXIXIXIXIXIXIXIXIXIXIXIXIXIXIXIXIXIXIXIXIXIXIXIXIXIXIXIXIXIXIXIXIXIXIXIXIXIXIXIXIXIXIXIXIXIXIXIXIXIXb b b b b b b b b b c c v v v d a a p p p 0 7 7 7 7 7 3 3 - - - - - - - - ; ; ; ; - 1 1 3 5 6 w w u u g k l N H Y Y Q @.&.6.6.9.0.q.q.j.S.L.L.L.I.I.I.I.I.U.U.T.T.I.L.L.L.L.L.L.J.J.J.J.J.b.b.b.b.b.v.c.c.c.c.c.c.v.c.c.c.c.c.c.c.c.c.c.c.c.c.c.c.c.c.c.8.q.q.q.8.8.8.7.7.' ' ' ) ^ ^ IXIXIXIXIXIXIXIXIXIXIXIXIXIXIXIXIXIXIXIXIXIXIXIXIXIXIXIXIXIXIXIXIXIXIXIXIXIXIXIXIXIXIXIXIXIXIXIXIXIXIXIXIXIXIXIXIXIXIXIXIXIXIXIXIXIXIXIXIXIXIXIXIXIXIXIXIXIXIXIXIXIXIXIXIXIXIXIXIXIXIXIXIXIXIXIXIXIXIXIXIXIXIXIXIXIXIXIXIXIXIXIXIXIXIXIXIXIXIXIXIXIXIXIXIXIXIXIXIXIXIXIXIXIXIXIXIXIXIXIXIXIXIXIXIXIXIXIXIXIXIXIXIXIX",
"IXIXIXIXIXIXIXIXIXIXIXIXIXIXIXIXIXIXIXIXIXIXIXIXIXIXIXIXIXIXIXIXIXIXIXIXIXIXIXIXIXIXIXIXIXIXIXIXIXIXIXIXIXIXIXIXIXIXIXIXIXIXIXIXIXIXIXIXIXIXIXIXIXIXIXIXIXIXIXIXIXIXIXIXIXIXIXIXIXIXIXIXIXIXIXIXIXIXIXIXIXIXIXIXIXIXIXIXIXIXIXIXIXIXIXIXIXIXIXIXIXIXIXIXIXIXIXIXIXIXIXIXIXIXIXIXIXIXIXIXIXIXIXIXIXIXIXIXIXIXIXIXIXIXIXIXIXIXIXIXIXIXIXIXIXIXIXIXIXIXIXIXIXIXIXIXIXIXIXIXIXIXIXIXIXIXIXIXIXIXIXIXIXIXIXIXIXIXIXIXIXIXIXIXIXIXIXIXIXIXIXIXIXIXIXIXIXIXIXIXb b b b b b b b b b c c c c v v v a a p p p 0 7 7 7 7 7 3 3 3 1 - - - - - - - - 1 1 3 5 6 w t u g g l l N H H E Q @.6.6.9.w.0.q.j.S.S.L.I.I.U.U.U.U.Y.U.Y.U.U.U.T.T.T.T.I.L.L.L.L.L.J.J.J.J.J.b.b.b.b.v.v.v.c.v.v.v.v.v.v.c.c.c.c.v.v.c.c.c.c.c.c.c.c.8.8.8.8.8.8.7.] ' ' ) ) ^ K IXIXIXIXIXIXIXIXIXIXIXIXIXIXIXIXIXIXIXIXIXIXIXIXIXIXIXIXIXIXIXIXIXIXIXIXIXIXIXIXIXIXIXIXIXIXIXIXIXIXIXIXIXIXIXIXIXIXIXIXIXIXIXIXIXIXIXIXIXIXIXIXIXIXIXIXIXIXIXIXIXIXIXIXIXIXIXIXIXIXIXIXIXIXIXIXIXIXIXIXIXIXIXIXIXIXIXIXIXIXIXIXIXIXIXIXIXIXIXIXIXIXIXIXIXIXIXIXIXIXIXIXIXIXIXIXIXIXIXIXIXIXIXIXIXIXIXIXIXIXIXIXIXIXIX",
"IXIXIXIXIXIXIXIXIXIXIXIXIXIXIXIXIXIXIXIXIXIXIXIXIXIXIXIXIXIXIXIXIXIXIXIXIXIXIXIXIXIXIXIXIXIXIXIXIXIXIXIXIXIXIXIXIXIXIXIXIXIXIXIXIXIXIXIXIXIXIXIXIXIXIXIXIXIXIXIXIXIXIXIXIXIXIXIXIXIXIXIXIXIXIXIXIXIXIXIXIXIXIXIXIXIXIXIXIXIXIXIXIXIXIXIXIXIXIXIXIXIXIXIXIXIXIXIXIXIXIXIXIXIXIXIXIXIXIXIXIXIXIXIXIXIXIXIXIXIXIXIXIXIXIXIXIXIXIXIXIXIXIXIXIXIXIXIXIXIXIXIXIXIXIXIXIXIXIXIXIXIXIXIXIXIXIXIXIXIXIXIXIXIXIXIXIXIXIXIXIXIXIXIXIXIXIXIXIXIXIXIXIXIXIXIXIXIXIXIXIXb b b b A A A ~ b b c c c c c v d v d a a p p 7 7 7 7 7 7 7 3 3 3 3 3 3 3 3 3 3 5 5 6 w u u g g l z N H H E Q @.;.9.9.0.0.j.j.S.S.I.U.U.U.Y.Y.Y.U.U.Y.Y.Y.Y.Y.Y.Y.Y.U.T.T.T.T.L.L.L.L.J.J.J.J.J.b.b.b.b.v.v.v.v.v.v.v.v.v.v.v.v.v.c.c.c.c.c.c.c.c.c.8.8.8.8.8.7.] ' ' ) ^ ~ IXIXIXIXIXIXIXIXIXIXIXIXIXIXIXIXIXIXIXIXIXIXIXIXIXIXIXIXIXIXIXIXIXIXIXIXIXIXIXIXIXIXIXIXIXIXIXIXIXIXIXIXIXIXIXIXIXIXIXIXIXIXIXIXIXIXIXIXIXIXIXIXIXIXIXIXIXIXIXIXIXIXIXIXIXIXIXIXIXIXIXIXIXIXIXIXIXIXIXIXIXIXIXIXIXIXIXIXIXIXIXIXIXIXIXIXIXIXIXIXIXIXIXIXIXIXIXIXIXIXIXIXIXIXIXIXIXIXIXIXIXIXIXIXIXIXIXIXIXIXIXIXIXIXIXIXIX",
"IXIXIXIXIXIXIXIXIXIXIXIXIXIXIXIXIXIXIXIXIXIXIXIXIXIXIXIXIXIXIXIXIXIXIXIXIXIXIXIXIXIXIXIXIXIXIXIXIXIXIXIXIXIXIXIXIXIXIXIXIXIXIXIXIXIXIXIXIXIXIXIXIXIXIXIXIXIXIXIXIXIXIXIXIXIXIXIXIXIXIXIXIXIXIXIXIXIXIXIXIXIXIXIXIXIXIXIXIXIXIXIXIXIXIXIXIXIXIXIXIXIXIXIXIXIXIXIXIXIXIXIXIXIXIXIXIXIXIXIXIXIXIXIXIXIXIXIXIXIXIXIXIXIXIXIXIXIXIXIXIXIXIXIXIXIXIXIXIXIXIXIXIXIXIXIXIXIXIXIXIXIXIXIXIXIXIXIXIXIXIXIXIXIXIXIXIXIXIXIXIXIXIXIXIXIXIXIXIXIXIXIXIXIXIXIXIXIXIXIXIXIXIXA A A A A A A A b b b c c c c c v v v a p p p 7 7 7 7 7 7 7 7 7 5 5 5 5 5 5 6 w w u u g l l m M F U U +.@.;.9.0.0.h.j.S.S.F.U.U.bXbXbXNXNXNXNXNXNXNXNXNXNXNXY.Y.Y.Y.Y.T.T.L.L.L.L.J.J.J.J.J.J.b.b.v.v.v.v.v.v.v.v.v.v.v.v.v.v.v.v.c.c.c.c.c.c.c.8.8.7.7.] ] ' ) ) ^ IXIXIXIXIXIXIXIXIXIXIXIXIXIXIXIXIXIXIXIXIXIXIXIXIXIXIXIXIXIXIXIXIXIXIXIXIXIXIXIXIXIXIXIXIXIXIXIXIXIXIXIXIXIXIXIXIXIXIXIXIXIXIXIXIXIXIXIXIXIXIXIXIXIXIXIXIXIXIXIXIXIXIXIXIXIXIXIXIXIXIXIXIXIXIXIXIXIXIXIXIXIXIXIXIXIXIXIXIXIXIXIXIXIXIXIXIXIXIXIXIXIXIXIXIXIXIXIXIXIXIXIXIXIXIXIXIXIXIXIXIXIXIXIXIXIXIXIXIXIXIXIXIXIXIXIXIXIXIX",
"IXIXIXIXIXIXIXIXIXIXIXIXIXIXIXIXIXIXIXIXIXIXIXIXIXIXIXIXIXIXIXIXIXIXIXIXIXIXIXIXIXIXIXIXIXIXIXIXIXIXIXIXIXIXIXIXIXIXIXIXIXIXIXIXIXIXIXIXIXIXIXIXIXIXIXIXIXIXIXIXIXIXIXIXIXIXIXIXIXIXIXIXIXIXIXIXIXIXIXIXIXIXIXIXIXIXIXIXIXIXIXIXIXIXIXIXIXIXIXIXIXIXIXIXIXIXIXIXIXIXIXIXIXIXIXIXIXIXIXIXIXIXIXIXIXIXIXIXIXIXIXIXIXIXIXIXIXIXIXIXIXIXIXIXIXIXIXIXIXIXIXIXIXIXIXIXIXIXIXIXIXIXIXIXIXIXIXIXIXIXIXIXIXIXIXIXIXIXIXIXIXIXIXIXIXIXIXIXIXIXIXIXIXIXIXIXIXIXIXIXIXIXIXIXA A ~ ~ ~ ~ ~ A A A b c c c c c c v v v a p p p p w 7 7 7 w w w 6 w w w w w u u g h l m m F L U R @.;.2.2.0.h.h.S.F.F.G.G.bXbXMXMXNXVXVXVXVXVXVXVXNXNXNXNXNXNXnXY.Y.Y.T.T.T.L.L.L.J.J.J.J.J.b.b.v.c.c.c.c.c.c.v.c.c.c.c.v.v.v.v.v.c.c.c.c.c.c.7.7.7.] ] ] ' ) ^ IXIXIXIXIXIXIXIXIXIXIXIXIXIXIXIXIXIXIXIXIXIXIXIXIXIXIXIXIXIXIXIXIXIXIXIXIXIXIXIXIXIXIXIXIXIXIXIXIXIXIXIXIXIXIXIXIXIXIXIXIXIXIXIXIXIXIXIXIXIXIXIXIXIXIXIXIXIXIXIXIXIXIXIXIXIXIXIXIXIXIXIXIXIXIXIXIXIXIXIXIXIXIXIXIXIXIXIXIXIXIXIXIXIXIXIXIXIXIXIXIXIXIXIXIXIXIXIXIXIXIXIXIXIXIXIXIXIXIXIXIXIXIXIXIXIXIXIXIXIXIXIXIXIXIXIXIXIXIXIX",
"IXIXIXIXIXIXIXIXIXIXIXIXIXIXIXIXIXIXIXIXIXIXIXIXIXIXIXIXIXIXIXIXIXIXIXIXIXIXIXIXIXIXIXIXIXIXIXIXIXIXIXIXIXIXIXIXIXIXIXIXIXIXIXIXIXIXIXIXIXIXIXIXIXIXIXIXIXIXIXIXIXIXIXIXIXIXIXIXIXIXIXIXIXIXIXIXIXIXIXIXIXIXIXIXIXIXIXIXIXIXIXIXIXIXIXIXIXIXIXIXIXIXIXIXIXIXIXIXIXIXIXIXIXIXIXIXIXIXIXIXIXIXIXIXIXIXIXIXIXIXIXIXIXIXIXIXIXIXIXIXIXIXIXIXIXIXIXIXIXIXIXIXIXIXIXIXIXIXIXIXIXIXIXIXIXIXIXIXIXIXIXIXIXIXIXIXIXIXIXIXIXIXIXIXIXIXIXIXIXIXIXIXIXIXIXIXIXIXIXIXIXIXIXIXA A ~ ~ ~ ~ ~ ~ ~ ~ ~ A A b b b c c c v v v v a a p p p p p p p p p u u u g g l l m M F P I T +.+.;.2.4.h.h.A.D.F.G.G.}.bXMXMXVXVXVXVXVXCXCXCXVXVXVXVXVXNXNXNXNXNXU.Y.T.T.T.T.L.L.J.J.J.J.b.b.c.c.v.v.c.c.c.c.c.c.c.c.c.c.v.v.v.v.v.c.c.c.c.c.c.7.] ] ] ] IXIXIXIXIXIXIXIXIXIXIXIXIXIXIXIXIXIXIXIXIXIXIXIXIXIXIXIXIXIXIXIXIXIXIXIXIXIXIXIXIXIXIXIXIXIXIXIXIXIXIXIXIXIXIXIXIXIXIXIXIXIXIXIXIXIXIXIXIXIXIXIXIXIXIXIXIXIXIXIXIXIXIXIXIXIXIXIXIXIXIXIXIXIXIXIXIXIXIXIXIXIXIXIXIXIXIXIXIXIXIXIXIXIXIXIXIXIXIXIXIXIXIXIXIXIXIXIXIXIXIXIXIXIXIXIXIXIXIXIXIXIXIXIXIXIXIXIXIXIXIXIXIXIXIXIXIXIXIXIXIXIXIX",
"IXIXIXIXIXIXIXIXIXIXIXIXIXIXIXIXIXIXIXIXIXIXIXIXIXIXIXIXIXIXIXIXIXIXIXIXIXIXIXIXIXIXIXIXIXIXIXIXIXIXIXIXIXIXIXIXIXIXIXIXIXIXIXIXIXIXIXIXIXIXIXIXIXIXIXIXIXIXIXIXIXIXIXIXIXIXIXIXIXIXIXIXIXIXIXIXIXIXIXIXIXIXIXIXIXIXIXIXIXIXIXIXIXIXIXIXIXIXIXIXIXIXIXIXIXIXIXIXIXIXIXIXIXIXIXIXIXIXIXIXIXIXIXIXIXIXIXIXIXIXIXIXIXIXIXIXIXIXIXIXIXIXIXIXIXIXIXIXIXIXIXIXIXIXIXIXIXIXIXIXIXIXIXIXIXIXIXIXIXIXIXIXIXIXIXIXIXIXIXIXIXIXIXIXIXIXIXIXIXIXIXIXIXIXIXIXIXIXIXIXIXIXIXIXIXA A ~ ~ ~ ~ ~ ~ ~ ~ ~ ~ ~ A A b b c c c c v v v v v v v v v v s s g g l l l m m F P I T ..X.-.1.2.p.h.A.D.D.G.}.}.}.MXMXBXBXCXCXCXCXCXCXCXCXVXVXVXVXVXVXVXNXNXNXU.Y.U.T.L.L.L.L.J.J.J.b.b.c.c.c.c.c.8.8.8.8.x.x.x.x.c.c.c.v.v.v.v.v.c.c.c.c.c.7.] ] IXIXIXIXIXIXIXIXIXIXIXIXIXIXIXIXIXIXIXIXIXIXIXIXIXIXIXIXIXIXIXIXIXIXIXIXIXIXIXIXIXIXIXIXIXIXIXIXIXIXIXIXIXIXIXIXIXIXIXIXIXIXIXIXIXIXIXIXIXIXIXIXIXIXIXIXIXIXIXIXIXIXIXIXIXIXIXIXIXIXIXIXIXIXIXIXIXIXIXIXIXIXIXIXIXIXIXIXIXIXIXIXIXIXIXIXIXIXIXIXIXIXIXIXIXIXIXIXIXIXIXIXIXIXIXIXIXIXIXIXIXIXIXIXIXIXIXIXIXIXIXIXIXIXIXIXIXIXIXIXIXIXIXIXIX",
"IXIXIXIXIXIXIXIXIXIXIXIXIXIXIXIXIXIXIXIXIXIXIXIXIXIXIXIXIXIXIXIXIXIXIXIXIXIXIXIXIXIXIXIXIXIXIXIXIXIXIXIXIXIXIXIXIXIXIXIXIXIXIXIXIXIXIXIXIXIXIXIXIXIXIXIXIXIXIXIXIXIXIXIXIXIXIXIXIXIXIXIXIXIXIXIXIXIXIXIXIXIXIXIXIXIXIXIXIXIXIXIXIXIXIXIXIXIXIXIXIXIXIXIXIXIXIXIXIXIXIXIXIXIXIXIXIXIXIXIXIXIXIXIXIXIXIXIXIXIXIXIXIXIXIXIXIXIXIXIXIXIXIXIXIXIXIXIXIXIXIXIXIXIXIXIXIXIXIXIXIXIXIXIXIXIXIXIXIXIXIXIXIXIXIXIXIXIXIXIXIXIXIXIXIXIXIXIXIXIXIXIXIXIXIXIXIXIXIXIXIXIXIXIXIXIXA A A ~ ~ ~ ~ ~ ~ ~ ~ ~ ~ ~ ~ ~ ~ A c c c c c c c c c c c x x x x z m m M F L P T ..X.-.:.1.4.p.p.D.D.H.{.}.}.@X@XBXBXBXCXCXCXDXDXDXDXDXCXCXCXVXVXVXVXVXNXNXNXU.Y.U.T.L.L.L.J.J.J.b.c.8.8.8.7.7.] ] ] ] ] ] ] ] { x.x.x.c.v.v.v.v.c.c.c.IXIXIXIXIXIXIXIXIXIXIXIXIXIXIXIXIXIXIXIXIXIXIXIXIXIXIXIXIXIXIXIXIXIXIXIXIXIXIXIXIXIXIXIXIXIXIXIXIXIXIXIXIXIXIXIXIXIXIXIXIXIXIXIXIXIXIXIXIXIXIXIXIXIXIXIXIXIXIXIXIXIXIXIXIXIXIXIXIXIXIXIXIXIXIXIXIXIXIXIXIXIXIXIXIXIXIXIXIXIXIXIXIXIXIXIXIXIXIXIXIXIXIXIXIXIXIXIXIXIXIXIXIXIXIXIXIXIXIXIXIXIXIXIXIXIXIXIXIXIXIXIXIXIXIXIXIXIXIXIXIXIXIXIXIXIXIXIXIXIX",
"IXIXIXIXIXIXIXIXIXIXIXIXIXIXIXIXIXIXIXIXIXIXIXIXIXIXIXIXIXIXIXIXIXIXIXIXIXIXIXIXIXIXIXIXIXIXIXIXIXIXIXIXIXIXIXIXIXIXIXIXIXIXIXIXIXIXIXIXIXIXIXIXIXIXIXIXIXIXIXIXIXIXIXIXIXIXIXIXIXIXIXIXIXIXIXIXIXIXIXIXIXIXIXIXIXIXIXIXIXIXIXIXIXIXIXIXIXIXIXIXIXIXIXIXIXIXIXIXIXIXIXIXIXIXIXIXIXIXIXIXIXIXIXIXIXIXIXIXIXIXIXIXIXIXIXIXIXIXIXIXIXIXIXIXIXIXIXIXIXIXIXIXIXIXIXIXIXIXIXIXIXIXIXIXIXIXIXIXIXIXIXIXIXIXIXIXIXIXIXIXIXIXIXIXIXIXIXIXIXIXIXIXIXIXIXIXIXIXIXIXIXIXIXIXIXIXIXA A A A ~ ~ ~ ~ ~ ~ ~ ~ ~ ~ ~ ~ ~ ~ ~ ~ c c c c c c c N N N N H F F F L P T ..X.O.:.>.1.g.p.p.Z.D.H.}.}.@X@X+XBXBXBXCXCXDXDXDXDXDXDXDXDXCXCXCXVXVXVXVXNXNXNXU.U.U.I.L.L.J.J.q.q.8.8.8.7.] ] ] ] ] ] ] ] IXIXIXIXIXIXIXIXIXIXIXIXIXIXIXIXIXIXIXIXIXIXIXIXIXIXIXIXIXIXIXIXIXIXIXIXIXIXIXIXIXIXIXIXIXIXIXIXIXIXIXIXIXIXIXIXIXIXIXIXIXIXIXIXIXIXIXIXIXIXIXIXIXIXIXIXIXIXIXIXIXIXIXIXIXIXIXIXIXIXIXIXIXIXIXIXIXIXIXIXIXIXIXIXIXIXIXIXIXIXIXIXIXIXIXIXIXIXIXIXIXIXIXIXIXIXIXIXIXIXIXIXIXIXIXIXIXIXIXIXIXIXIXIXIXIXIXIXIXIXIXIXIXIXIXIXIXIXIXIXIXIXIXIXIXIXIXIXIXIXIXIXIXIXIXIXIXIXIXIXIXIXIXIXIX",
"IXIXIXIXIXIXIXIXIXIXIXIXIXIXIXIXIXIXIXIXIXIXIXIXIXIXIXIXIXIXIXIXIXIXIXIXIXIXIXIXIXIXIXIXIXIXIXIXIXIXIXIXIXIXIXIXIXIXIXIXIXIXIXIXIXIXIXIXIXIXIXIXIXIXIXIXIXIXIXIXIXIXIXIXIXIXIXIXIXIXIXIXIXIXIXIXIXIXIXIXIXIXIXIXIXIXIXIXIXIXIXIXIXIXIXIXIXIXIXIXIXIXIXIXIXIXIXIXIXIXIXIXIXIXIXIXIXIXIXIXIXIXIXIXIXIXIXIXIXIXIXIXIXIXIXIXIXIXIXIXIXIXIXIXIXIXIXIXIXIXIXIXIXIXIXIXIXIXIXIXIXIXIXIXIXIXIXIXIXIXIXIXIXIXIXIXIXIXIXIXIXIXIXIXIXIXIXIXIXIXIXIXIXIXIXIXIXIXIXIXIXIXIXIXIXIXIXA A A A A ~ ~ ~ ~ ~ ~ ~ ~ ~ ~ ~ ~ ~ ~ ~ ~ ~ ~ J J J J J H H H U U P P T T X.O.=.>.<.3.i.i.Z.Z.D.H.{.{.@X@X+X+XBXBXCXSXDXDXDXDXDXDXDXDXDXCXCXCXCXVXVXVXNXMXbXU.U.I.L.L.N.N.q.8.8.8.7.] ] ] ' / / / ^ ^ IXIXIXIXIXIXIXIXIXIXIXIXIXIXIXIXIXIXIXIXIXIXIXIXIXIXIXIXIXIXIXIXIXIXIXIXIXIXIXIXIXIXIXIXIXIXIXIXIXIXIXIXIXIXIXIXIXIXIXIXIXIXIXIXIXIXIXIXIXIXIXIXIXIXIXIXIXIXIXIXIXIXIXIXIXIXIXIXIXIXIXIXIXIXIXIXIXIXIXIXIXIXIXIXIXIXIXIXIXIXIXIXIXIXIXIXIXIXIXIXIXIXIXIXIXIXIXIXIXIXIXIXIXIXIXIXIXIXIXIXIXIXIXIXIXIXIXIXIXIXIXIXIXIXIXIXIXIXIXIXIXIXIXIXIXIXIXIXIXIXIXIXIXIXIXIXIXIXIXIXIXIXIXIXIXIX",
"IXIXIXIXIXIXIXIXIXIXIXIXIXIXIXIXIXIXIXIXIXIXIXIXIXIXIXIXIXIXIXIXIXIXIXIXIXIXIXIXIXIXIXIXIXIXIXIXIXIXIXIXIXIXIXIXIXIXIXIXIXIXIXIXIXIXIXIXIXIXIXIXIXIXIXIXIXIXIXIXIXIXIXIXIXIXIXIXIXIXIXIXIXIXIXIXIXIXIXIXIXIXIXIXIXIXIXIXIXIXIXIXIXIXIXIXIXIXIXIXIXIXIXIXIXIXIXIXIXIXIXIXIXIXIXIXIXIXIXIXIXIXIXIXIXIXIXIXIXIXIXIXIXIXIXIXIXIXIXIXIXIXIXIXIXIXIXIXIXIXIXIXIXIXIXIXIXIXIXIXIXIXIXIXIXIXIXIXIXIXIXIXIXIXIXIXIXIXIXIXIXIXIXIXIXIXIXIXIXIXIXIXIXIXIXIXIXIXIXIXIXIXIXIXIXIXIXIXb A A A ~ ~ ~ ~ ` ` ` ` ` ` ` ^ ^ ^ ^ ^ ^ ^ ) ) Y Y Y Y Q R R R T X.X.O.=.:.<.3.t.i.i.Z.Z.C.H.{.{.@X@X+X+X+XAXCXSXSXDXDXDXDXDXDXDXDXDXCXCXCXVXVXVXMXMXMXU.U.I.L.S.N.q.8.8.8.7.7.] ' _ ) ^ ^ ^ IXIXIXIXIXIXIXIXIXIXIXIXIXIXIXIXIXIXIXIXIXIXIXIXIXIXIXIXIXIXIXIXIXIXIXIXIXIXIXIXIXIXIXIXIXIXIXIXIXIXIXIXIXIXIXIXIXIXIXIXIXIXIXIXIXIXIXIXIXIXIXIXIXIXIXIXIXIXIXIXIXIXIXIXIXIXIXIXIXIXIXIXIXIXIXIXIXIXIXIXIXIXIXIXIXIXIXIXIXIXIXIXIXIXIXIXIXIXIXIXIXIXIXIXIXIXIXIXIXIXIXIXIXIXIXIXIXIXIXIXIXIXIXIXIXIXIXIXIXIXIXIXIXIXIXIXIXIXIXIXIXIXIXIXIXIXIXIXIXIXIXIXIXIXIXIXIXIXIXIXIXIXIXIXIXIXIXIXIX",
"IXIXIXIXIXIXIXIXIXIXIXIXIXIXIXIXIXIXIXIXIXIXIXIXIXIXIXIXIXIXIXIXIXIXIXIXIXIXIXIXIXIXIXIXIXIXIXIXIXIXIXIXIXIXIXIXIXIXIXIXIXIXIXIXIXIXIXIXIXIXIXIXIXIXIXIXIXIXIXIXIXIXIXIXIXIXIXIXIXIXIXIXIXIXIXIXIXIXIXIXIXIXIXIXIXIXIXIXIXIXIXIXIXIXIXIXIXIXIXIXIXIXIXIXIXIXIXIXIXIXIXIXIXIXIXIXIXIXIXIXIXIXIXIXIXIXIXIXIXIXIXIXIXIXIXIXIXIXIXIXIXIXIXIXIXIXIXIXIXIXIXIXIXIXIXIXIXIXIXIXIXIXIXIXIXIXIXIXIXIXIXIXIXIXIXIXIXIXIXIXIXIXIXIXIXIXIXIXIXIXIXIXIXIXIXIXIXIXIXIXIXIXIXIXIXIXIXIXIXb A A ~ ~ ~ ~ ` ` / / / _ ) ) ) ) ) ) ) ) ) ) ( W Q @.@.@.+.X.+.=.=.:.>.3.t.u.u.Z.V.C.C.(.{.{.OX+X+X+X9X9XSXSXSXSXDXDXDXDXDXDXDXDXDXCXCXBXVXVXMXMXMXU.U.I.S.S.N.q.q.w.w.6.' ' ) ) ^ ~ ~ IXIXIXIXIXIXIXIXIXIXIXIXIXIXIXIXIXIXIXIXIXIXIXIXIXIXIXIXIXIXIXIXIXIXIXIXIXIXIXIXIXIXIXIXIXIXIXIXIXIXIXIXIXIXIXIXIXIXIXIXIXIXIXIXIXIXIXIXIXIXIXIXIXIXIXIXIXIXIXIXIXIXIXIXIXIXIXIXIXIXIXIXIXIXIXIXIXIXIXIXIXIXIXIXIXIXIXIXIXIXIXIXIXIXIXIXIXIXIXIXIXIXIXIXIXIXIXIXIXIXIXIXIXIXIXIXIXIXIXIXIXIXIXIXIXIXIXIXIXIXIXIXIXIXIXIXIXIXIXIXIXIXIXIXIXIXIXIXIXIXIXIXIXIXIXIXIXIXIXIXIXIXIXIXIXIXIXIXIXIXIX",
"IXIXIXIXIXIXIXIXIXIXIXIXIXIXIXIXIXIXIXIXIXIXIXIXIXIXIXIXIXIXIXIXIXIXIXIXIXIXIXIXIXIXIXIXIXIXIXIXIXIXIXIXIXIXIXIXIXIXIXIXIXIXIXIXIXIXIXIXIXIXIXIXIXIXIXIXIXIXIXIXIXIXIXIXIXIXIXIXIXIXIXIXIXIXIXIXIXIXIXIXIXIXIXIXIXIXIXIXIXIXIXIXIXIXIXIXIXIXIXIXIXIXIXIXIXIXIXIXIXIXIXIXIXIXIXIXIXIXIXIXIXIXIXIXIXIXIXIXIXIXIXIXIXIXIXIXIXIXIXIXIXIXIXIXIXIXIXIXIXIXIXIXIXIXIXIXIXIXIXIXIXIXIXIXIXIXIXIXIXIXIXIXIXIXIXIXIXIXIXIXIXIXIXIXIXIXIXIXIXIXIXIXIXIXIXIXIXIXIXIXIXIXIXIXIXIXIXIXIXIXb A A ~ ~ ~ ` / / _ _ _ _ _ ( ( ( ( &.&.&.&.&.&.@.@.;.-.-.1.:.>.<.3.t.u.u.V.V.V.C.~.(.{.|.OXOX+X+X9X9X9XSXSXSXSXSXDXDXDXDXDXDXDXCXCXBXBXMXMXMXbXU.U.G.S.S.N.q.w.w.6.6.' ) ) ^ ~ A IXIXIXIXIXIXIXIXIXIXIXIXIXIXIXIXIXIXIXIXIXIXIXIXIXIXIXIXIXIXIXIXIXIXIXIXIXIXIXIXIXIXIXIXIXIXIXIXIXIXIXIXIXIXIXIXIXIXIXIXIXIXIXIXIXIXIXIXIXIXIXIXIXIXIXIXIXIXIXIXIXIXIXIXIXIXIXIXIXIXIXIXIXIXIXIXIXIXIXIXIXIXIXIXIXIXIXIXIXIXIXIXIXIXIXIXIXIXIXIXIXIXIXIXIXIXIXIXIXIXIXIXIXIXIXIXIXIXIXIXIXIXIXIXIXIXIXIXIXIXIXIXIXIXIXIXIXIXIXIXIXIXIXIXIXIXIXIXIXIXIXIXIXIXIXIXIXIXIXIXIXIXIXIXIXIXIXIXIXIXIXIXIX",
"IXIXIXIXIXIXIXIXIXIXIXIXIXIXIXIXIXIXIXIXIXIXIXIXIXIXIXIXIXIXIXIXIXIXIXIXIXIXIXIXIXIXIXIXIXIXIXIXIXIXIXIXIXIXIXIXIXIXIXIXIXIXIXIXIXIXIXIXIXIXIXIXIXIXIXIXIXIXIXIXIXIXIXIXIXIXIXIXIXIXIXIXIXIXIXIXIXIXIXIXIXIXIXIXIXIXIXIXIXIXIXIXIXIXIXIXIXIXIXIXIXIXIXIXIXIXIXIXIXIXIXIXIXIXIXIXIXIXIXIXIXIXIXIXIXIXIXIXIXIXIXIXIXIXIXIXIXIXIXIXIXIXIXIXIXIXIXIXIXIXIXIXIXIXIXIXIXIXIXIXIXIXIXIXIXIXIXIXIXIXIXIXIXIXIXIXIXIXIXIXIXIXIXIXIXIXIXIXIXIXIXIXIXIXIXIXIXIXIXIXIXIXIXIXIXIXIXIXIXIXIXIXA ~ ~ ~ ` / _ _ _ _ _ _ *.*.&.*.6.&.6.6.6.6.;.;.2.2.2.1.3.3.t.u.u.V.V.V.V.~.(.(.(.oXOXOX+X+XrXrXeXrXSXSXSXSXSXSXDXDXDXDXSXCXCXBXBXMXMXbXbXU.G.G.F.S.S.q.w.w.6.6.' ) ^ ^ K IXIXIXIXIXIXIXIXIXIXIXIXIXIXIXIXIXIXIXIXIXIXIXIXIXIXIXIXIXIXIXIXIXIXIXIXIXIXIXIXIXIXIXIXIXIXIXIXIXIXIXIXIXIXIXIXIXIXIXIXIXIXIXIXIXIXIXIXIXIXIXIXIXIXIXIXIXIXIXIXIXIXIXIXIXIXIXIXIXIXIXIXIXIXIXIXIXIXIXIXIXIXIXIXIXIXIXIXIXIXIXIXIXIXIXIXIXIXIXIXIXIXIXIXIXIXIXIXIXIXIXIXIXIXIXIXIXIXIXIXIXIXIXIXIXIXIXIXIXIXIXIXIXIXIXIXIXIXIXIXIXIXIXIXIXIXIXIXIXIXIXIXIXIXIXIXIXIXIXIXIXIXIXIXIXIXIXIXIXIXIXIXIXIXIX",
"IXIXIXIXIXIXIXIXIXIXIXIXIXIXIXIXIXIXIXIXIXIXIXIXIXIXIXIXIXIXIXIXIXIXIXIXIXIXIXIXIXIXIXIXIXIXIXIXIXIXIXIXIXIXIXIXIXIXIXIXIXIXIXIXIXIXIXIXIXIXIXIXIXIXIXIXIXIXIXIXIXIXIXIXIXIXIXIXIXIXIXIXIXIXIXIXIXIXIXIXIXIXIXIXIXIXIXIXIXIXIXIXIXIXIXIXIXIXIXIXIXIXIXIXIXIXIXIXIXIXIXIXIXIXIXIXIXIXIXIXIXIXIXIXIXIXIXIXIXIXIXIXIXIXIXIXIXIXIXIXIXIXIXIXIXIXIXIXIXIXIXIXIXIXIXIXIXIXIXIXIXIXIXIXIXIXIXIXIXIXIXIXIXIXIXIXIXIXIXIXIXIXIXIXIXIXIXIXIXIXIXIXIXIXIXIXIXIXIXIXIXIXIXIXIXIXIXIXIXIXIXIXIXIX~ ` ` / / _ _ _ _ *.7.7.7.6.6.6.6.6.9.9.9.4.4.4.p.p.i.i.Z.V.V.V.V./.(.(.`.oXOXOXOXOX8XrXrXrXeXeXSXSXSXSXSXSXSXSXSXSXCXCXBXBXMXMXbXG.G.G.F.F.S.j.0.w.6.6.' ( ) K K IXIXIXIXIXIXIXIXIXIXIXIXIXIXIXIXIXIXIXIXIXIXIXIXIXIXIXIXIXIXIXIXIXIXIXIXIXIXIXIXIXIXIXIXIXIXIXIXIXIXIXIXIXIXIXIXIXIXIXIXIXIXIXIXIXIXIXIXIXIXIXIXIXIXIXIXIXIXIXIXIXIXIXIXIXIXIXIXIXIXIXIXIXIXIXIXIXIXIXIXIXIXIXIXIXIXIXIXIXIXIXIXIXIXIXIXIXIXIXIXIXIXIXIXIXIXIXIXIXIXIXIXIXIXIXIXIXIXIXIXIXIXIXIXIXIXIXIXIXIXIXIXIXIXIXIXIXIXIXIXIXIXIXIXIXIXIXIXIXIXIXIXIXIXIXIXIXIXIXIXIXIXIXIXIXIXIXIXIXIXIXIXIXIXIXIXIX",
"IXIXIXIXIXIXIXIXIXIXIXIXIXIXIXIXIXIXIXIXIXIXIXIXIXIXIXIXIXIXIXIXIXIXIXIXIXIXIXIXIXIXIXIXIXIXIXIXIXIXIXIXIXIXIXIXIXIXIXIXIXIXIXIXIXIXIXIXIXIXIXIXIXIXIXIXIXIXIXIXIXIXIXIXIXIXIXIXIXIXIXIXIXIXIXIXIXIXIXIXIXIXIXIXIXIXIXIXIXIXIXIXIXIXIXIXIXIXIXIXIXIXIXIXIXIXIXIXIXIXIXIXIXIXIXIXIXIXIXIXIXIXIXIXIXIXIXIXIXIXIXIXIXIXIXIXIXIXIXIXIXIXIXIXIXIXIXIXIXIXIXIXIXIXIXIXIXIXIXIXIXIXIXIXIXIXIXIXIXIXIXIXIXIXIXIXIXIXIXIXIXIXIXIXIXIXIXIXIXIXIXIXIXIXIXIXIXIXIXIXIXIXIXIXIXIXIXIXIXIXIXIXIXIXIXIXIX/ _ _ _ _ _ 7.7.7.7.7.w.w.w.9.0.0.0.h.p.p.Z.Z.Z.Z.V.V.C.(.(.(.oXoXXXOXOXOXwX8XrXrXrXkXkXkXFXSXSXSXSXSXSXSXSXAXCXBXBXMX@X}.G.G.F.F.S.A.j.0.9.6.6.( ) K K IXIXIXIXIXIXIXIXIXIXIXIXIXIXIXIXIXIXIXIXIXIXIXIXIXIXIXIXIXIXIXIXIXIXIXIXIXIXIXIXIXIXIXIXIXIXIXIXIXIXIXIXIXIXIXIXIXIXIXIXIXIXIXIXIXIXIXIXIXIXIXIXIXIXIXIXIXIXIXIXIXIXIXIXIXIXIXIXIXIXIXIXIXIXIXIXIXIXIXIXIXIXIXIXIXIXIXIXIXIXIXIXIXIXIXIXIXIXIXIXIXIXIXIXIXIXIXIXIXIXIXIXIXIXIXIXIXIXIXIXIXIXIXIXIXIXIXIXIXIXIXIXIXIXIXIXIXIXIXIXIXIXIXIXIXIXIXIXIXIXIXIXIXIXIXIXIXIXIXIXIXIXIXIXIXIXIXIXIXIXIXIXIXIXIXIXIXIXIX",
"IXIXIXIXIXIXIXIXIXIXIXIXIXIXIXIXIXIXIXIXIXIXIXIXIXIXIXIXIXIXIXIXIXIXIXIXIXIXIXIXIXIXIXIXIXIXIXIXIXIXIXIXIXIXIXIXIXIXIXIXIXIXIXIXIXIXIXIXIXIXIXIXIXIXIXIXIXIXIXIXIXIXIXIXIXIXIXIXIXIXIXIXIXIXIXIXIXIXIXIXIXIXIXIXIXIXIXIXIXIXIXIXIXIXIXIXIXIXIXIXIXIXIXIXIXIXIXIXIXIXIXIXIXIXIXIXIXIXIXIXIXIXIXIXIXIXIXIXIXIXIXIXIXIXIXIXIXIXIXIXIXIXIXIXIXIXIXIXIXIXIXIXIXIXIXIXIXIXIXIXIXIXIXIXIXIXIXIXIXIXIXIXIXIXIXIXIXIXIXIXIXIXIXIXIXIXIXIXIXIXIXIXIXIXIXIXIXIXIXIXIXIXIXIXIXIXIXIXIXIXIXIXIXIXIXIXIXIXIXIXIX_ _ 7.7.7.7.w.w.w.0.0.0.h.h.A.A.C.C.C.C.C.C.(.(.`.oXoXXXXXOX7XwXwXwXrXrXkXkXkXKXKXPXFXSXSXSXSXSXSXCXAXBX+X+X@X}.G.G.F.F.A.j.0.0.9.6.6.W K K IXIXIXIXIXIXIXIXIXIXIXIXIXIXIXIXIXIXIXIXIXIXIXIXIXIXIXIXIXIXIXIXIXIXIXIXIXIXIXIXIXIXIXIXIXIXIXIXIXIXIXIXIXIXIXIXIXIXIXIXIXIXIXIXIXIXIXIXIXIXIXIXIXIXIXIXIXIXIXIXIXIXIXIXIXIXIXIXIXIXIXIXIXIXIXIXIXIXIXIXIXIXIXIXIXIXIXIXIXIXIXIXIXIXIXIXIXIXIXIXIXIXIXIXIXIXIXIXIXIXIXIXIXIXIXIXIXIXIXIXIXIXIXIXIXIXIXIXIXIXIXIXIXIXIXIXIXIXIXIXIXIXIXIXIXIXIXIXIXIXIXIXIXIXIXIXIXIXIXIXIXIXIXIXIXIXIXIXIXIXIXIXIXIXIXIXIXIXIXIXIX",
"IXIXIXIXIXIXIXIXIXIXIXIXIXIXIXIXIXIXIXIXIXIXIXIXIXIXIXIXIXIXIXIXIXIXIXIXIXIXIXIXIXIXIXIXIXIXIXIXIXIXIXIXIXIXIXIXIXIXIXIXIXIXIXIXIXIXIXIXIXIXIXIXIXIXIXIXIXIXIXIXIXIXIXIXIXIXIXIXIXIXIXIXIXIXIXIXIXIXIXIXIXIXIXIXIXIXIXIXIXIXIXIXIXIXIXIXIXIXIXIXIXIXIXIXIXIXIXIXIXIXIXIXIXIXIXIXIXIXIXIXIXIXIXIXIXIXIXIXIXIXIXIXIXIXIXIXIXIXIXIXIXIXIXIXIXIXIXIXIXIXIXIXIXIXIXIXIXIXIXIXIXIXIXIXIXIXIXIXIXIXIXIXIXIXIXIXIXIXIXIXIXIXIXIXIXIXIXIXIXIXIXIXIXIXIXIXIXIXIXIXIXIXIXIXIXIXIXIXIXIXIXIXIXIXIXIXIXIXIXIXIXIX_ _ 7.7.w.w.w.0.0.0.h.h.A.A.D.D.H.H.H.(.(.oXoXXXXXOX7X7XwXwXwXwXhXrXrXkXKXKXKXKXLXFXFXSXSXSXSXAXAX+X+X+X@X}.G.H.F.A.h.h.0.0.6.6.@.W K IXIXIXIXIXIXIXIXIXIXIXIXIXIXIXIXIXIXIXIXIXIXIXIXIXIXIXIXIXIXIXIXIXIXIXIXIXIXIXIXIXIXIXIXIXIXIXIXIXIXIXIXIXIXIXIXIXIXIXIXIXIXIXIXIXIXIXIXIXIXIXIXIXIXIXIXIXIXIXIXIXIXIXIXIXIXIXIXIXIXIXIXIXIXIXIXIXIXIXIXIXIXIXIXIXIXIXIXIXIXIXIXIXIXIXIXIXIXIXIXIXIXIXIXIXIXIXIXIXIXIXIXIXIXIXIXIXIXIXIXIXIXIXIXIXIXIXIXIXIXIXIXIXIXIXIXIXIXIXIXIXIXIXIXIXIXIXIXIXIXIXIXIXIXIXIXIXIXIXIXIXIXIXIXIXIXIXIXIXIXIXIXIXIXIXIXIXIXIXIXIXIXIX",
"IXIXIXIXIXIXIXIXIXIXIXIXIXIXIXIXIXIXIXIXIXIXIXIXIXIXIXIXIXIXIXIXIXIXIXIXIXIXIXIXIXIXIXIXIXIXIXIXIXIXIXIXIXIXIXIXIXIXIXIXIXIXIXIXIXIXIXIXIXIXIXIXIXIXIXIXIXIXIXIXIXIXIXIXIXIXIXIXIXIXIXIXIXIXIXIXIXIXIXIXIXIXIXIXIXIXIXIXIXIXIXIXIXIXIXIXIXIXIXIXIXIXIXIXIXIXIXIXIXIXIXIXIXIXIXIXIXIXIXIXIXIXIXIXIXIXIXIXIXIXIXIXIXIXIXIXIXIXIXIXIXIXIXIXIXIXIXIXIXIXIXIXIXIXIXIXIXIXIXIXIXIXIXIXIXIXIXIXIXIXIXIXIXIXIXIXIXIXIXIXIXIXIXIXIXIXIXIXIXIXIXIXIXIXIXIXIXIXIXIXIXIXIXIXIXIXIXIXIXIXIXIXIXIXIXIXIXIXIXIXIXIXIX_ 7.7.6.w.w.0.0.0.j.A.A.D.H.H.H.{.{.oXoXOXOXOX7X7XwXwXwXwXgXrXgXkXKXKXKXKXKXKXKXPXFXSXSXSX9X9X+X+X@X@X}.}.H.A.A.h.0.0.9.9.;.@.Q K IXIXIXIXIXIXIXIXIXIXIXIXIXIXIXIXIXIXIXIXIXIXIXIXIXIXIXIXIXIXIXIXIXIXIXIXIXIXIXIXIXIXIXIXIXIXIXIXIXIXIXIXIXIXIXIXIXIXIXIXIXIXIXIXIXIXIXIXIXIXIXIXIXIXIXIXIXIXIXIXIXIXIXIXIXIXIXIXIXIXIXIXIXIXIXIXIXIXIXIXIXIXIXIXIXIXIXIXIXIXIXIXIXIXIXIXIXIXIXIXIXIXIXIXIXIXIXIXIXIXIXIXIXIXIXIXIXIXIXIXIXIXIXIXIXIXIXIXIXIXIXIXIXIXIXIXIXIXIXIXIXIXIXIXIXIXIXIXIXIXIXIXIXIXIXIXIXIXIXIXIXIXIXIXIXIXIXIXIXIXIXIXIXIXIXIXIXIXIXIXIXIXIXIX",
"IXIXIXIXIXIXIXIXIXIXIXIXIXIXIXIXIXIXIXIXIXIXIXIXIXIXIXIXIXIXIXIXIXIXIXIXIXIXIXIXIXIXIXIXIXIXIXIXIXIXIXIXIXIXIXIXIXIXIXIXIXIXIXIXIXIXIXIXIXIXIXIXIXIXIXIXIXIXIXIXIXIXIXIXIXIXIXIXIXIXIXIXIXIXIXIXIXIXIXIXIXIXIXIXIXIXIXIXIXIXIXIXIXIXIXIXIXIXIXIXIXIXIXIXIXIXIXIXIXIXIXIXIXIXIXIXIXIXIXIXIXIXIXIXIXIXIXIXIXIXIXIXIXIXIXIXIXIXIXIXIXIXIXIXIXIXIXIXIXIXIXIXIXIXIXIXIXIXIXIXIXIXIXIXIXIXIXIXIXIXIXIXIXIXIXIXIXIXIXIXIXIXIXIXIXIXIXIXIXIXIXIXIXIXIXIXIXIXIXIXIXIXIXIXIXIXIXIXIXIXIXIXIXIXIXIXIXIXIXIXIXIXIX) _ 6.7.6.w.w.0.0.h.A.A.H.H.{.{.{.OXOXOXOXOXwXwXwXwXwXgXKXgXgXkXKXKXKXJXJXJXKXKXKXFXkXeX9X9X+X+X@X@X}.}.H.D.A.h.0.9.9.;.;.W Q Y IXIXIXIXIXIXIXIXIXIXIXIXIXIXIXIXIXIXIXIXIXIXIXIXIXIXIXIXIXIXIXIXIXIXIXIXIXIXIXIXIXIXIXIXIXIXIXIXIXIXIXIXIXIXIXIXIXIXIXIXIXIXIXIXIXIXIXIXIXIXIXIXIXIXIXIXIXIXIXIXIXIXIXIXIXIXIXIXIXIXIXIXIXIXIXIXIXIXIXIXIXIXIXIXIXIXIXIXIXIXIXIXIXIXIXIXIXIXIXIXIXIXIXIXIXIXIXIXIXIXIXIXIXIXIXIXIXIXIXIXIXIXIXIXIXIXIXIXIXIXIXIXIXIXIXIXIXIXIXIXIXIXIXIXIXIXIXIXIXIXIXIXIXIXIXIXIXIXIXIXIXIXIXIXIXIXIXIXIXIXIXIXIXIXIXIXIXIXIXIXIXIXIXIXIX",
"IXIXIXIXIXIXIXIXIXIXIXIXIXIXIXIXIXIXIXIXIXIXIXIXIXIXIXIXIXIXIXIXIXIXIXIXIXIXIXIXIXIXIXIXIXIXIXIXIXIXIXIXIXIXIXIXIXIXIXIXIXIXIXIXIXIXIXIXIXIXIXIXIXIXIXIXIXIXIXIXIXIXIXIXIXIXIXIXIXIXIXIXIXIXIXIXIXIXIXIXIXIXIXIXIXIXIXIXIXIXIXIXIXIXIXIXIXIXIXIXIXIXIXIXIXIXIXIXIXIXIXIXIXIXIXIXIXIXIXIXIXIXIXIXIXIXIXIXIXIXIXIXIXIXIXIXIXIXIXIXIXIXIXIXIXIXIXIXIXIXIXIXIXIXIXIXIXIXIXIXIXIXIXIXIXIXIXIXIXIXIXIXIXIXIXIXIXIXIXIXIXIXIXIXIXIXIXIXIXIXIXIXIXIXIXIXIXIXIXIXIXIXIXIXIXIXIXIXIXIXIXIXIXIXIXIXIXIXIXIXIXIXIXIX) ) ' 6.6.9.0.0.h.A.D.H.H.{.@X@X@XOXOX8X8XwXwXwXrXKXKXKXKXKXKXJXJXJXJXJXJXKXKXKXkXeXeX9X9X+X+X@X@X}.{.H.D.h.l.0.2.;.@.Q E Y IXIXIXIXIXIXIXIXIXIXIXIXIXIXIXIXIXIXIXIXIXIXIXIXIXIXIXIXIXIXIXIXIXIXIXIXIXIXIXIXIXIXIXIXIXIXIXIXIXIXIXIXIXIXIXIXIXIXIXIXIXIXIXIXIXIXIXIXIXIXIXIXIXIXIXIXIXIXIXIXIXIXIXIXIXIXIXIXIXIXIXIXIXIXIXIXIXIXIXIXIXIXIXIXIXIXIXIXIXIXIXIXIXIXIXIXIXIXIXIXIXIXIXIXIXIXIXIXIXIXIXIXIXIXIXIXIXIXIXIXIXIXIXIXIXIXIXIXIXIXIXIXIXIXIXIXIXIXIXIXIXIXIXIXIXIXIXIXIXIXIXIXIXIXIXIXIXIXIXIXIXIXIXIXIXIXIXIXIXIXIXIXIXIXIXIXIXIXIXIXIXIXIXIXIXIX",
"IXIXIXIXIXIXIXIXIXIXIXIXIXIXIXIXIXIXIXIXIXIXIXIXIXIXIXIXIXIXIXIXIXIXIXIXIXIXIXIXIXIXIXIXIXIXIXIXIXIXIXIXIXIXIXIXIXIXIXIXIXIXIXIXIXIXIXIXIXIXIXIXIXIXIXIXIXIXIXIXIXIXIXIXIXIXIXIXIXIXIXIXIXIXIXIXIXIXIXIXIXIXIXIXIXIXIXIXIXIXIXIXIXIXIXIXIXIXIXIXIXIXIXIXIXIXIXIXIXIXIXIXIXIXIXIXIXIXIXIXIXIXIXIXIXIXIXIXIXIXIXIXIXIXIXIXIXIXIXIXIXIXIXIXIXIXIXIXIXIXIXIXIXIXIXIXIXIXIXIXIXIXIXIXIXIXIXIXIXIXIXIXIXIXIXIXIXIXIXIXIXIXIXIXIXIXIXIXIXIXIXIXIXIXIXIXIXIXIXIXIXIXIXIXIXIXIXIXIXIXIXIXIXIXIXIXIXIXIXIXIXIXIXIX^ ) ) 6.6.w.0.0.A.A.D.G.}.}.@X@X@X+X8X8XrXrXrXrXKXKXKXKXKXKXKXKXJXJXJXJXJXKXkXkXkXrXrX9X+X+X@X@X{.{.H.D.A.h.4.2.;.@.Q E Y IXIXIXIXIXIXIXIXIXIXIXIXIXIXIXIXIXIXIXIXIXIXIXIXIXIXIXIXIXIXIXIXIXIXIXIXIXIXIXIXIXIXIXIXIXIXIXIXIXIXIXIXIXIXIXIXIXIXIXIXIXIXIXIXIXIXIXIXIXIXIXIXIXIXIXIXIXIXIXIXIXIXIXIXIXIXIXIXIXIXIXIXIXIXIXIXIXIXIXIXIXIXIXIXIXIXIXIXIXIXIXIXIXIXIXIXIXIXIXIXIXIXIXIXIXIXIXIXIXIXIXIXIXIXIXIXIXIXIXIXIXIXIXIXIXIXIXIXIXIXIXIXIXIXIXIXIXIXIXIXIXIXIXIXIXIXIXIXIXIXIXIXIXIXIXIXIXIXIXIXIXIXIXIXIXIXIXIXIXIXIXIXIXIXIXIXIXIXIXIXIXIXIXIXIXIXIX",
"IXIXIXIXIXIXIXIXIXIXIXIXIXIXIXIXIXIXIXIXIXIXIXIXIXIXIXIXIXIXIXIXIXIXIXIXIXIXIXIXIXIXIXIXIXIXIXIXIXIXIXIXIXIXIXIXIXIXIXIXIXIXIXIXIXIXIXIXIXIXIXIXIXIXIXIXIXIXIXIXIXIXIXIXIXIXIXIXIXIXIXIXIXIXIXIXIXIXIXIXIXIXIXIXIXIXIXIXIXIXIXIXIXIXIXIXIXIXIXIXIXIXIXIXIXIXIXIXIXIXIXIXIXIXIXIXIXIXIXIXIXIXIXIXIXIXIXIXIXIXIXIXIXIXIXIXIXIXIXIXIXIXIXIXIXIXIXIXIXIXIXIXIXIXIXIXIXIXIXIXIXIXIXIXIXIXIXIXIXIXIXIXIXIXIXIXIXIXIXIXIXIXIXIXIXIXIXIXIXIXIXIXIXIXIXIXIXIXIXIXIXIXIXIXIXIXIXIXIXIXIXIXIXIXIXIXIXIXIXIXIXIXIXIXIX^ ) ( 6.6.9.0.j.A.F.G.}.@X@X@X+X+X9XrXrXrXKXKXJXJXJXJXKXKXKXKXKXJXKXKXKXKXkXkXrXrX8X+X+X@X@X{.{.H.D.A.p.4.2.;.@.Q E H IXIXIXIXIXIXIXIXIXIXIXIXIXIXIXIXIXIXIXIXIXIXIXIXIXIXIXIXIXIXIXIXIXIXIXIXIXIXIXIXIXIXIXIXIXIXIXIXIXIXIXIXIXIXIXIXIXIXIXIXIXIXIXIXIXIXIXIXIXIXIXIXIXIXIXIXIXIXIXIXIXIXIXIXIXIXIXIXIXIXIXIXIXIXIXIXIXIXIXIXIXIXIXIXIXIXIXIXIXIXIXIXIXIXIXIXIXIXIXIXIXIXIXIXIXIXIXIXIXIXIXIXIXIXIXIXIXIXIXIXIXIXIXIXIXIXIXIXIXIXIXIXIXIXIXIXIXIXIXIXIXIXIXIXIXIXIXIXIXIXIXIXIXIXIXIXIXIXIXIXIXIXIXIXIXIXIXIXIXIXIXIXIXIXIXIXIXIXIXIXIXIXIXIXIXIXIXIX",
"IXIXIXIXIXIXIXIXIXIXIXIXIXIXIXIXIXIXIXIXIXIXIXIXIXIXIXIXIXIXIXIXIXIXIXIXIXIXIXIXIXIXIXIXIXIXIXIXIXIXIXIXIXIXIXIXIXIXIXIXIXIXIXIXIXIXIXIXIXIXIXIXIXIXIXIXIXIXIXIXIXIXIXIXIXIXIXIXIXIXIXIXIXIXIXIXIXIXIXIXIXIXIXIXIXIXIXIXIXIXIXIXIXIXIXIXIXIXIXIXIXIXIXIXIXIXIXIXIXIXIXIXIXIXIXIXIXIXIXIXIXIXIXIXIXIXIXIXIXIXIXIXIXIXIXIXIXIXIXIXIXIXIXIXIXIXIXIXIXIXIXIXIXIXIXIXIXIXIXIXIXIXIXIXIXIXIXIXIXIXIXIXIXIXIXIXIXIXIXIXIXIXIXIXIXIXIXIXIXIXIXIXIXIXIXIXIXIXIXIXIXIXIXIXIXIXIXIXIXIXIXIXIXIXIXIXIXIXIXIXIXIXIXIXIXK K ) ( 6.9.0.0.A.F.G.}.}.@X@X+X9X9X9XrXkXKXKXKXKXKXJXJXKXKXKXKXKXkXkXKXkXkXrXrX9X+X+X@X@X{.{.H.D.A.p.4.2.;.@.R Y H IXIXIXIXIXIXIXIXIXIXIXIXIXIXIXIXIXIXIXIXIXIXIXIXIXIXIXIXIXIXIXIXIXIXIXIXIXIXIXIXIXIXIXIXIXIXIXIXIXIXIXIXIXIXIXIXIXIXIXIXIXIXIXIXIXIXIXIXIXIXIXIXIXIXIXIXIXIXIXIXIXIXIXIXIXIXIXIXIXIXIXIXIXIXIXIXIXIXIXIXIXIXIXIXIXIXIXIXIXIXIXIXIXIXIXIXIXIXIXIXIXIXIXIXIXIXIXIXIXIXIXIXIXIXIXIXIXIXIXIXIXIXIXIXIXIXIXIXIXIXIXIXIXIXIXIXIXIXIXIXIXIXIXIXIXIXIXIXIXIXIXIXIXIXIXIXIXIXIXIXIXIXIXIXIXIXIXIXIXIXIXIXIXIXIXIXIXIXIXIXIXIXIXIXIXIXIXIXIX",
"IXIXIXIXIXIXIXIXIXIXIXIXIXIXIXIXIXIXIXIXIXIXIXIXIXIXIXIXIXIXIXIXIXIXIXIXIXIXIXIXIXIXIXIXIXIXIXIXIXIXIXIXIXIXIXIXIXIXIXIXIXIXIXIXIXIXIXIXIXIXIXIXIXIXIXIXIXIXIXIXIXIXIXIXIXIXIXIXIXIXIXIXIXIXIXIXIXIXIXIXIXIXIXIXIXIXIXIXIXIXIXIXIXIXIXIXIXIXIXIXIXIXIXIXIXIXIXIXIXIXIXIXIXIXIXIXIXIXIXIXIXIXIXIXIXIXIXIXIXIXIXIXIXIXIXIXIXIXIXIXIXIXIXIXIXIXIXIXIXIXIXIXIXIXIXIXIXIXIXIXIXIXIXIXIXIXIXIXIXIXIXIXIXIXIXIXIXIXIXIXIXIXIXIXIXIXIXIXIXIXIXIXIXIXIXIXIXIXIXIXIXIXIXIXIXIXIXIXIXIXIXIXIXIXIXIXIXIXIXIXIXIXIXIXIXIXK K ( 6.6.9.0.A.F.H.G.}.@X@X+X9XSXSXSXSXPXLXLXLXLXKXKXKXKXKXkXkXkXkXkXkXrXrX9X+X+X@X@X{.{.H.D.Z.p.4.2.;.+.R U H IXIXIXIXIXIXIXIXIXIXIXIXIXIXIXIXIXIXIXIXIXIXIXIXIXIXIXIXIXIXIXIXIXIXIXIXIXIXIXIXIXIXIXIXIXIXIXIXIXIXIXIXIXIXIXIXIXIXIXIXIXIXIXIXIXIXIXIXIXIXIXIXIXIXIXIXIXIXIXIXIXIXIXIXIXIXIXIXIXIXIXIXIXIXIXIXIXIXIXIXIXIXIXIXIXIXIXIXIXIXIXIXIXIXIXIXIXIXIXIXIXIXIXIXIXIXIXIXIXIXIXIXIXIXIXIXIXIXIXIXIXIXIXIXIXIXIXIXIXIXIXIXIXIXIXIXIXIXIXIXIXIXIXIXIXIXIXIXIXIXIXIXIXIXIXIXIXIXIXIXIXIXIXIXIXIXIXIXIXIXIXIXIXIXIXIXIXIXIXIXIXIXIXIXIXIXIXIXIXIX",
"IXIXIXIXIXIXIXIXIXIXIXIXIXIXIXIXIXIXIXIXIXIXIXIXIXIXIXIXIXIXIXIXIXIXIXIXIXIXIXIXIXIXIXIXIXIXIXIXIXIXIXIXIXIXIXIXIXIXIXIXIXIXIXIXIXIXIXIXIXIXIXIXIXIXIXIXIXIXIXIXIXIXIXIXIXIXIXIXIXIXIXIXIXIXIXIXIXIXIXIXIXIXIXIXIXIXIXIXIXIXIXIXIXIXIXIXIXIXIXIXIXIXIXIXIXIXIXIXIXIXIXIXIXIXIXIXIXIXIXIXIXIXIXIXIXIXIXIXIXIXIXIXIXIXIXIXIXIXIXIXIXIXIXIXIXIXIXIXIXIXIXIXIXIXIXIXIXIXIXIXIXIXIXIXIXIXIXIXIXIXIXIXIXIXIXIXIXIXIXIXIXIXIXIXIXIXIXIXIXIXIXIXIXIXIXIXIXIXIXIXIXIXIXIXIXIXIXIXIXIXIXIXIXIXIXIXIXIXIXIXIXIXIXIXIXIXJ K Q ( 6.9.0.j.S.G.G.}.@X@X+XBXSXSXSXPXPXLXLXLXLXLXLXPXKXkXkXkXkXeXrXrXrX9X+X+X@X{.{.{.H.D.A.p.p.2.;.+.R P F IXIXIXIXIXIXIXIXIXIXIXIXIXIXIXIXIXIXIXIXIXIXIXIXIXIXIXIXIXIXIXIXIXIXIXIXIXIXIXIXIXIXIXIXIXIXIXIXIXIXIXIXIXIXIXIXIXIXIXIXIXIXIXIXIXIXIXIXIXIXIXIXIXIXIXIXIXIXIXIXIXIXIXIXIXIXIXIXIXIXIXIXIXIXIXIXIXIXIXIXIXIXIXIXIXIXIXIXIXIXIXIXIXIXIXIXIXIXIXIXIXIXIXIXIXIXIXIXIXIXIXIXIXIXIXIXIXIXIXIXIXIXIXIXIXIXIXIXIXIXIXIXIXIXIXIXIXIXIXIXIXIXIXIXIXIXIXIXIXIXIXIXIXIXIXIXIXIXIXIXIXIXIXIXIXIXIXIXIXIXIXIXIXIXIXIXIXIXIXIXIXIXIXIXIXIXIXIXIXIXIX",
"IXIXIXIXIXIXIXIXIXIXIXIXIXIXIXIXIXIXIXIXIXIXIXIXIXIXIXIXIXIXIXIXIXIXIXIXIXIXIXIXIXIXIXIXIXIXIXIXIXIXIXIXIXIXIXIXIXIXIXIXIXIXIXIXIXIXIXIXIXIXIXIXIXIXIXIXIXIXIXIXIXIXIXIXIXIXIXIXIXIXIXIXIXIXIXIXIXIXIXIXIXIXIXIXIXIXIXIXIXIXIXIXIXIXIXIXIXIXIXIXIXIXIXIXIXIXIXIXIXIXIXIXIXIXIXIXIXIXIXIXIXIXIXIXIXIXIXIXIXIXIXIXIXIXIXIXIXIXIXIXIXIXIXIXIXIXIXIXIXIXIXIXIXIXIXIXIXIXIXIXIXIXIXIXIXIXIXIXIXIXIXIXIXIXIXIXIXIXIXIXIXIXIXIXIXIXIXIXIXIXIXIXIXIXIXIXIXIXIXIXIXIXIXIXIXIXIXIXIXIXIXIXIXIXIXIXIXIXIXIXIXIXIXIXIXIXIXJ K W 6.6.9.0.S.F.G.G.@X@XBXBXCXSXSXSXPXPXPXPXLXLXLXPXFXkXeXeXeXrXeXrX9X+X+X@X{.{.H.D.Z.A.p.4.2.-.+.R P IXIXIXIXIXIXIXIXIXIXIXIXIXIXIXIXIXIXIXIXIXIXIXIXIXIXIXIXIXIXIXIXIXIXIXIXIXIXIXIXIXIXIXIXIXIXIXIXIXIXIXIXIXIXIXIXIXIXIXIXIXIXIXIXIXIXIXIXIXIXIXIXIXIXIXIXIXIXIXIXIXIXIXIXIXIXIXIXIXIXIXIXIXIXIXIXIXIXIXIXIXIXIXIXIXIXIXIXIXIXIXIXIXIXIXIXIXIXIXIXIXIXIXIXIXIXIXIXIXIXIXIXIXIXIXIXIXIXIXIXIXIXIXIXIXIXIXIXIXIXIXIXIXIXIXIXIXIXIXIXIXIXIXIXIXIXIXIXIXIXIXIXIXIXIXIXIXIXIXIXIXIXIXIXIXIXIXIXIXIXIXIXIXIXIXIXIXIXIXIXIXIXIXIXIXIXIXIXIXIXIXIXIX",
"IXIXIXIXIXIXIXIXIXIXIXIXIXIXIXIXIXIXIXIXIXIXIXIXIXIXIXIXIXIXIXIXIXIXIXIXIXIXIXIXIXIXIXIXIXIXIXIXIXIXIXIXIXIXIXIXIXIXIXIXIXIXIXIXIXIXIXIXIXIXIXIXIXIXIXIXIXIXIXIXIXIXIXIXIXIXIXIXIXIXIXIXIXIXIXIXIXIXIXIXIXIXIXIXIXIXIXIXIXIXIXIXIXIXIXIXIXIXIXIXIXIXIXIXIXIXIXIXIXIXIXIXIXIXIXIXIXIXIXIXIXIXIXIXIXIXIXIXIXIXIXIXIXIXIXIXIXIXIXIXIXIXIXIXIXIXIXIXIXIXIXIXIXIXIXIXIXIXIXIXIXIXIXIXIXIXIXIXIXIXIXIXIXIXIXIXIXIXIXIXIXIXIXIXIXIXIXIXIXIXIXIXIXIXIXIXIXIXIXIXIXIXIXIXIXIXIXIXIXIXIXIXIXIXIXIXIXIXIXIXIXIXIXIXIXIXIXIXK K ( 6.9.0.A.S.F.G.}.@XMXBXBXCXSXDXPXPXPXPXPXPXPXSXSXSXSXSXeX9X9X9X+X+X@X{.{.H.D.A.p.p.4.2.-.+.R P IXIXIXIXIXIXIXIXIXIXIXIXIXIXIXIXIXIXIXIXIXIXIXIXIXIXIXIXIXIXIXIXIXIXIXIXIXIXIXIXIXIXIXIXIXIXIXIXIXIXIXIXIXIXIXIXIXIXIXIXIXIXIXIXIXIXIXIXIXIXIXIXIXIXIXIXIXIXIXIXIXIXIXIXIXIXIXIXIXIXIXIXIXIXIXIXIXIXIXIXIXIXIXIXIXIXIXIXIXIXIXIXIXIXIXIXIXIXIXIXIXIXIXIXIXIXIXIXIXIXIXIXIXIXIXIXIXIXIXIXIXIXIXIXIXIXIXIXIXIXIXIXIXIXIXIXIXIXIXIXIXIXIXIXIXIXIXIXIXIXIXIXIXIXIXIXIXIXIXIXIXIXIXIXIXIXIXIXIXIXIXIXIXIXIXIXIXIXIXIXIXIXIXIXIXIXIXIXIXIXIXIXIXIX",
"IXIXIXIXIXIXIXIXIXIXIXIXIXIXIXIXIXIXIXIXIXIXIXIXIXIXIXIXIXIXIXIXIXIXIXIXIXIXIXIXIXIXIXIXIXIXIXIXIXIXIXIXIXIXIXIXIXIXIXIXIXIXIXIXIXIXIXIXIXIXIXIXIXIXIXIXIXIXIXIXIXIXIXIXIXIXIXIXIXIXIXIXIXIXIXIXIXIXIXIXIXIXIXIXIXIXIXIXIXIXIXIXIXIXIXIXIXIXIXIXIXIXIXIXIXIXIXIXIXIXIXIXIXIXIXIXIXIXIXIXIXIXIXIXIXIXIXIXIXIXIXIXIXIXIXIXIXIXIXIXIXIXIXIXIXIXIXIXIXIXIXIXIXIXIXIXIXIXIXIXIXIXIXIXIXIXIXIXIXIXIXIXIXIXIXIXIXIXIXIXIXIXIXIXIXIXIXIXIXIXIXIXIXIXIXIXIXIXIXIXIXIXIXIXIXIXIXIXIXIXIXIXIXIXIXIXIXIXIXIXIXIXIXIXIXIXIXIXIXK W ' 6.9.0.A.F.G.G.}.MXMXBXCXDXDXPXPXPXPXPXPXPXSXSXSXSXSXSX9X+X+X+X@X}.{.H.D.A.p.p.4.2.-.+.R P IXIXIXIXIXIXIXIXIXIXIXIXIXIXIXIXIXIXIXIXIXIXIXIXIXIXIXIXIXIXIXIXIXIXIXIXIXIXIXIXIXIXIXIXIXIXIXIXIXIXIXIXIXIXIXIXIXIXIXIXIXIXIXIXIXIXIXIXIXIXIXIXIXIXIXIXIXIXIXIXIXIXIXIXIXIXIXIXIXIXIXIXIXIXIXIXIXIXIXIXIXIXIXIXIXIXIXIXIXIXIXIXIXIXIXIXIXIXIXIXIXIXIXIXIXIXIXIXIXIXIXIXIXIXIXIXIXIXIXIXIXIXIXIXIXIXIXIXIXIXIXIXIXIXIXIXIXIXIXIXIXIXIXIXIXIXIXIXIXIXIXIXIXIXIXIXIXIXIXIXIXIXIXIXIXIXIXIXIXIXIXIXIXIXIXIXIXIXIXIXIXIXIXIXIXIXIXIXIXIXIXIXIXIXIX",
"IXIXIXIXIXIXIXIXIXIXIXIXIXIXIXIXIXIXIXIXIXIXIXIXIXIXIXIXIXIXIXIXIXIXIXIXIXIXIXIXIXIXIXIXIXIXIXIXIXIXIXIXIXIXIXIXIXIXIXIXIXIXIXIXIXIXIXIXIXIXIXIXIXIXIXIXIXIXIXIXIXIXIXIXIXIXIXIXIXIXIXIXIXIXIXIXIXIXIXIXIXIXIXIXIXIXIXIXIXIXIXIXIXIXIXIXIXIXIXIXIXIXIXIXIXIXIXIXIXIXIXIXIXIXIXIXIXIXIXIXIXIXIXIXIXIXIXIXIXIXIXIXIXIXIXIXIXIXIXIXIXIXIXIXIXIXIXIXIXIXIXIXIXIXIXIXIXIXIXIXIXIXIXIXIXIXIXIXIXIXIXIXIXIXIXIXIXIXIXIXIXIXIXIXIXIXIXIXIXIXIXIXIXIXIXIXIXIXIXIXIXIXIXIXIXIXIXIXIXIXIXIXIXIXIXIXIXIXIXIXIXIXIXIXIXIXIXIXIXIXK W ' 6.0.q.S.F.G.G.MXMXBXCXDXDXDXPXPXPXPXPXDXDXSXSXSXSXAX9X+X+X@X}.{.H.D.A.p.4.4.2.-.+.R P IXIXIXIXIXIXIXIXIXIXIXIXIXIXIXIXIXIXIXIXIXIXIXIXIXIXIXIXIXIXIXIXIXIXIXIXIXIXIXIXIXIXIXIXIXIXIXIXIXIXIXIXIXIXIXIXIXIXIXIXIXIXIXIXIXIXIXIXIXIXIXIXIXIXIXIXIXIXIXIXIXIXIXIXIXIXIXIXIXIXIXIXIXIXIXIXIXIXIXIXIXIXIXIXIXIXIXIXIXIXIXIXIXIXIXIXIXIXIXIXIXIXIXIXIXIXIXIXIXIXIXIXIXIXIXIXIXIXIXIXIXIXIXIXIXIXIXIXIXIXIXIXIXIXIXIXIXIXIXIXIXIXIXIXIXIXIXIXIXIXIXIXIXIXIXIXIXIXIXIXIXIXIXIXIXIXIXIXIXIXIXIXIXIXIXIXIXIXIXIXIXIXIXIXIXIXIXIXIXIXIXIXIXIXIXIX",
"IXIXIXIXIXIXIXIXIXIXIXIXIXIXIXIXIXIXIXIXIXIXIXIXIXIXIXIXIXIXIXIXIXIXIXIXIXIXIXIXIXIXIXIXIXIXIXIXIXIXIXIXIXIXIXIXIXIXIXIXIXIXIXIXIXIXIXIXIXIXIXIXIXIXIXIXIXIXIXIXIXIXIXIXIXIXIXIXIXIXIXIXIXIXIXIXIXIXIXIXIXIXIXIXIXIXIXIXIXIXIXIXIXIXIXIXIXIXIXIXIXIXIXIXIXIXIXIXIXIXIXIXIXIXIXIXIXIXIXIXIXIXIXIXIXIXIXIXIXIXIXIXIXIXIXIXIXIXIXIXIXIXIXIXIXIXIXIXIXIXIXIXIXIXIXIXIXIXIXIXIXIXIXIXIXIXIXIXIXIXIXIXIXIXIXIXIXIXIXIXIXIXIXIXIXIXIXIXIXIXIXIXIXIXIXIXIXIXIXIXIXIXIXIXIXIXIXIXIXIXIXIXIXIXIXIXIXIXIXIXIXIXIXIXIXIXIXIXIXIXIXK ( 6.w.0.N.S.F.G.U.MXMXBXCXDXDXDXPXPXPXDXDXDXDXSXSXCXAXBX+X@X@X}.{.H.A.p.4.2.2.;.+.R P IXIXIXIXIXIXIXIXIXIXIXIXIXIXIXIXIXIXIXIXIXIXIXIXIXIXIXIXIXIXIXIXIXIXIXIXIXIXIXIXIXIXIXIXIXIXIXIXIXIXIXIXIXIXIXIXIXIXIXIXIXIXIXIXIXIXIXIXIXIXIXIXIXIXIXIXIXIXIXIXIXIXIXIXIXIXIXIXIXIXIXIXIXIXIXIXIXIXIXIXIXIXIXIXIXIXIXIXIXIXIXIXIXIXIXIXIXIXIXIXIXIXIXIXIXIXIXIXIXIXIXIXIXIXIXIXIXIXIXIXIXIXIXIXIXIXIXIXIXIXIXIXIXIXIXIXIXIXIXIXIXIXIXIXIXIXIXIXIXIXIXIXIXIXIXIXIXIXIXIXIXIXIXIXIXIXIXIXIXIXIXIXIXIXIXIXIXIXIXIXIXIXIXIXIXIXIXIXIXIXIXIXIXIXIXIXIX",
"IXIXIXIXIXIXIXIXIXIXIXIXIXIXIXIXIXIXIXIXIXIXIXIXIXIXIXIXIXIXIXIXIXIXIXIXIXIXIXIXIXIXIXIXIXIXIXIXIXIXIXIXIXIXIXIXIXIXIXIXIXIXIXIXIXIXIXIXIXIXIXIXIXIXIXIXIXIXIXIXIXIXIXIXIXIXIXIXIXIXIXIXIXIXIXIXIXIXIXIXIXIXIXIXIXIXIXIXIXIXIXIXIXIXIXIXIXIXIXIXIXIXIXIXIXIXIXIXIXIXIXIXIXIXIXIXIXIXIXIXIXIXIXIXIXIXIXIXIXIXIXIXIXIXIXIXIXIXIXIXIXIXIXIXIXIXIXIXIXIXIXIXIXIXIXIXIXIXIXIXIXIXIXIXIXIXIXIXIXIXIXIXIXIXIXIXIXIXIXIXIXIXIXIXIXIXIXIXIXIXIXIXIXIXIXIXIXIXIXIXIXIXIXIXIXIXIXIXIXIXIXIXIXIXIXIXIXIXIXIXIXIXIXIXIXIXIXIXIXIXIXIXK ( 6.w.w.N.S.F.U.bXMXBXBXCXDXDXDXDXDXDXDXDXDXDXAXBXBXBX+X@X}.[.H.D.h.p.2.2.;.+.R ! H IXIXIXIXIXIXIXIXIXIXIXIXIXIXIXIXIXIXIXIXIXIXIXIXIXIXIXIXIXIXIXIXIXIXIXIXIXIXIXIXIXIXIXIXIXIXIXIXIXIXIXIXIXIXIXIXIXIXIXIXIXIXIXIXIXIXIXIXIXIXIXIXIXIXIXIXIXIXIXIXIXIXIXIXIXIXIXIXIXIXIXIXIXIXIXIXIXIXIXIXIXIXIXIXIXIXIXIXIXIXIXIXIXIXIXIXIXIXIXIXIXIXIXIXIXIXIXIXIXIXIXIXIXIXIXIXIXIXIXIXIXIXIXIXIXIXIXIXIXIXIXIXIXIXIXIXIXIXIXIXIXIXIXIXIXIXIXIXIXIXIXIXIXIXIXIXIXIXIXIXIXIXIXIXIXIXIXIXIXIXIXIXIXIXIXIXIXIXIXIXIXIXIXIXIXIXIXIXIXIXIXIXIXIXIXIXIX",
"IXIXIXIXIXIXIXIXIXIXIXIXIXIXIXIXIXIXIXIXIXIXIXIXIXIXIXIXIXIXIXIXIXIXIXIXIXIXIXIXIXIXIXIXIXIXIXIXIXIXIXIXIXIXIXIXIXIXIXIXIXIXIXIXIXIXIXIXIXIXIXIXIXIXIXIXIXIXIXIXIXIXIXIXIXIXIXIXIXIXIXIXIXIXIXIXIXIXIXIXIXIXIXIXIXIXIXIXIXIXIXIXIXIXIXIXIXIXIXIXIXIXIXIXIXIXIXIXIXIXIXIXIXIXIXIXIXIXIXIXIXIXIXIXIXIXIXIXIXIXIXIXIXIXIXIXIXIXIXIXIXIXIXIXIXIXIXIXIXIXIXIXIXIXIXIXIXIXIXIXIXIXIXIXIXIXIXIXIXIXIXIXIXIXIXIXIXIXIXIXIXIXIXIXIXIXIXIXIXIXIXIXIXIXIXIXIXIXIXIXIXIXIXIXIXIXIXIXIXIXIXIXIXIXIXIXIXIXIXIXIXIXIXIXIXIXIXIXIXIXIXIXIXK ( 6.w.w.q.S.F.U.bXMXVXVXCXDXDXDXDXDXDXDXDXCXCXBXBXBX@X}.}.G.D.A.p.4.2.-.@.R U H IXIXIXIXIXIXIXIXIXIXIXIXIXIXIXIXIXIXIXIXIXIXIXIXIXIXIXIXIXIXIXIXIXIXIXIXIXIXIXIXIXIXIXIXIXIXIXIXIXIXIXIXIXIXIXIXIXIXIXIXIXIXIXIXIXIXIXIXIXIXIXIXIXIXIXIXIXIXIXIXIXIXIXIXIXIXIXIXIXIXIXIXIXIXIXIXIXIXIXIXIXIXIXIXIXIXIXIXIXIXIXIXIXIXIXIXIXIXIXIXIXIXIXIXIXIXIXIXIXIXIXIXIXIXIXIXIXIXIXIXIXIXIXIXIXIXIXIXIXIXIXIXIXIXIXIXIXIXIXIXIXIXIXIXIXIXIXIXIXIXIXIXIXIXIXIXIXIXIXIXIXIXIXIXIXIXIXIXIXIXIXIXIXIXIXIXIXIXIXIXIXIXIXIXIXIXIXIXIXIXIXIXIXIXIXIXIXIX",
"IXIXIXIXIXIXIXIXIXIXIXIXIXIXIXIXIXIXIXIXIXIXIXIXIXIXIXIXIXIXIXIXIXIXIXIXIXIXIXIXIXIXIXIXIXIXIXIXIXIXIXIXIXIXIXIXIXIXIXIXIXIXIXIXIXIXIXIXIXIXIXIXIXIXIXIXIXIXIXIXIXIXIXIXIXIXIXIXIXIXIXIXIXIXIXIXIXIXIXIXIXIXIXIXIXIXIXIXIXIXIXIXIXIXIXIXIXIXIXIXIXIXIXIXIXIXIXIXIXIXIXIXIXIXIXIXIXIXIXIXIXIXIXIXIXIXIXIXIXIXIXIXIXIXIXIXIXIXIXIXIXIXIXIXIXIXIXIXIXIXIXIXIXIXIXIXIXIXIXIXIXIXIXIXIXIXIXIXIXIXIXIXIXIXIXIXIXIXIXIXIXIXIXIXIXIXIXIXIXIXIXIXIXIXIXIXIXIXIXIXIXIXIXIXIXIXIXIXIXIXIXIXIXIXIXIXIXIXIXIXIXIXIXIXIXIXIXIXIXIXIXIXIXK ^ ( 6.w.q.N.S.I.U.bXMXVXVXCXDXDXDXDXDXDXCXCXVXBXMXMX}.}.G.F.A.h.4.2.;.@.R U IXIXIXIXIXIXIXIXIXIXIXIXIXIXIXIXIXIXIXIXIXIXIXIXIXIXIXIXIXIXIXIXIXIXIXIXIXIXIXIXIXIXIXIXIXIXIXIXIXIXIXIXIXIXIXIXIXIXIXIXIXIXIXIXIXIXIXIXIXIXIXIXIXIXIXIXIXIXIXIXIXIXIXIXIXIXIXIXIXIXIXIXIXIXIXIXIXIXIXIXIXIXIXIXIXIXIXIXIXIXIXIXIXIXIXIXIXIXIXIXIXIXIXIXIXIXIXIXIXIXIXIXIXIXIXIXIXIXIXIXIXIXIXIXIXIXIXIXIXIXIXIXIXIXIXIXIXIXIXIXIXIXIXIXIXIXIXIXIXIXIXIXIXIXIXIXIXIXIXIXIXIXIXIXIXIXIXIXIXIXIXIXIXIXIXIXIXIXIXIXIXIXIXIXIXIXIXIXIXIXIXIXIXIXIXIXIXIXIXIX",
"IXIXIXIXIXIXIXIXIXIXIXIXIXIXIXIXIXIXIXIXIXIXIXIXIXIXIXIXIXIXIXIXIXIXIXIXIXIXIXIXIXIXIXIXIXIXIXIXIXIXIXIXIXIXIXIXIXIXIXIXIXIXIXIXIXIXIXIXIXIXIXIXIXIXIXIXIXIXIXIXIXIXIXIXIXIXIXIXIXIXIXIXIXIXIXIXIXIXIXIXIXIXIXIXIXIXIXIXIXIXIXIXIXIXIXIXIXIXIXIXIXIXIXIXIXIXIXIXIXIXIXIXIXIXIXIXIXIXIXIXIXIXIXIXIXIXIXIXIXIXIXIXIXIXIXIXIXIXIXIXIXIXIXIXIXIXIXIXIXIXIXIXIXIXIXIXIXIXIXIXIXIXIXIXIXIXIXIXIXIXIXIXIXIXIXIXIXIXIXIXIXIXIXIXIXIXIXIXIXIXIXIXIXIXIXIXIXIXIXIXIXIXIXIXIXIXIXIXIXIXIXIXIXIXIXIXIXIXIXIXIXIXIXIXIXIXIXIXIXIXIXIXIXIXK ) ' 6.w.q.S.S.I.U.bXMXVXVXCXCXCXCXCXCXVXVXVXMXbXbX}.G.F.A.h.0.2.;.@.R H IXIXIXIXIXIXIXIXIXIXIXIXIXIXIXIXIXIXIXIXIXIXIXIXIXIXIXIXIXIXIXIXIXIXIXIXIXIXIXIXIXIXIXIXIXIXIXIXIXIXIXIXIXIXIXIXIXIXIXIXIXIXIXIXIXIXIXIXIXIXIXIXIXIXIXIXIXIXIXIXIXIXIXIXIXIXIXIXIXIXIXIXIXIXIXIXIXIXIXIXIXIXIXIXIXIXIXIXIXIXIXIXIXIXIXIXIXIXIXIXIXIXIXIXIXIXIXIXIXIXIXIXIXIXIXIXIXIXIXIXIXIXIXIXIXIXIXIXIXIXIXIXIXIXIXIXIXIXIXIXIXIXIXIXIXIXIXIXIXIXIXIXIXIXIXIXIXIXIXIXIXIXIXIXIXIXIXIXIXIXIXIXIXIXIXIXIXIXIXIXIXIXIXIXIXIXIXIXIXIXIXIXIXIXIXIXIXIXIXIXIX",
"IXIXIXIXIXIXIXIXIXIXIXIXIXIXIXIXIXIXIXIXIXIXIXIXIXIXIXIXIXIXIXIXIXIXIXIXIXIXIXIXIXIXIXIXIXIXIXIXIXIXIXIXIXIXIXIXIXIXIXIXIXIXIXIXIXIXIXIXIXIXIXIXIXIXIXIXIXIXIXIXIXIXIXIXIXIXIXIXIXIXIXIXIXIXIXIXIXIXIXIXIXIXIXIXIXIXIXIXIXIXIXIXIXIXIXIXIXIXIXIXIXIXIXIXIXIXIXIXIXIXIXIXIXIXIXIXIXIXIXIXIXIXIXIXIXIXIXIXIXIXIXIXIXIXIXIXIXIXIXIXIXIXIXIXIXIXIXIXIXIXIXIXIXIXIXIXIXIXIXIXIXIXIXIXIXIXIXIXIXIXIXIXIXIXIXIXIXIXIXIXIXIXIXIXIXIXIXIXIXIXIXIXIXIXIXIXIXIXIXIXIXIXIXIXIXIXIXIXIXIXIXIXIXIXIXIXIXIXIXIXIXIXIXIXIXIXIXIXIXIXIXIXIXIXIX^ ) ' 6.w.q.S.L.I.U.bXNXNXVXVXVXVXVXVXVXNXbXbXbXbXG.F.S.h.0.9.;.@.E H IXIXIXIXIXIXIXIXIXIXIXIXIXIXIXIXIXIXIXIXIXIXIXIXIXIXIXIXIXIXIXIXIXIXIXIXIXIXIXIXIXIXIXIXIXIXIXIXIXIXIXIXIXIXIXIXIXIXIXIXIXIXIXIXIXIXIXIXIXIXIXIXIXIXIXIXIXIXIXIXIXIXIXIXIXIXIXIXIXIXIXIXIXIXIXIXIXIXIXIXIXIXIXIXIXIXIXIXIXIXIXIXIXIXIXIXIXIXIXIXIXIXIXIXIXIXIXIXIXIXIXIXIXIXIXIXIXIXIXIXIXIXIXIXIXIXIXIXIXIXIXIXIXIXIXIXIXIXIXIXIXIXIXIXIXIXIXIXIXIXIXIXIXIXIXIXIXIXIXIXIXIXIXIXIXIXIXIXIXIXIXIXIXIXIXIXIXIXIXIXIXIXIXIXIXIXIXIXIXIXIXIXIXIXIXIXIXIXIXIXIXIX",
"IXIXIXIXIXIXIXIXIXIXIXIXIXIXIXIXIXIXIXIXIXIXIXIXIXIXIXIXIXIXIXIXIXIXIXIXIXIXIXIXIXIXIXIXIXIXIXIXIXIXIXIXIXIXIXIXIXIXIXIXIXIXIXIXIXIXIXIXIXIXIXIXIXIXIXIXIXIXIXIXIXIXIXIXIXIXIXIXIXIXIXIXIXIXIXIXIXIXIXIXIXIXIXIXIXIXIXIXIXIXIXIXIXIXIXIXIXIXIXIXIXIXIXIXIXIXIXIXIXIXIXIXIXIXIXIXIXIXIXIXIXIXIXIXIXIXIXIXIXIXIXIXIXIXIXIXIXIXIXIXIXIXIXIXIXIXIXIXIXIXIXIXIXIXIXIXIXIXIXIXIXIXIXIXIXIXIXIXIXIXIXIXIXIXIXIXIXIXIXIXIXIXIXIXIXIXIXIXIXIXIXIXIXIXIXIXIXIXIXIXIXIXIXIXIXIXIXIXIXIXIXIXIXIXIXIXIXIXIXIXIXIXIXIXIXIXIXIXIXIXIXIXIXIXIXIX^ ) ' 7.w.q.q.L.I.U.Y.nXnXNXNXNXNXNXnXnXnXbXU.I.F.S.j.0.9.;.@.E H IXIXIXIXIXIXIXIXIXIXIXIXIXIXIXIXIXIXIXIXIXIXIXIXIXIXIXIXIXIXIXIXIXIXIXIXIXIXIXIXIXIXIXIXIXIXIXIXIXIXIXIXIXIXIXIXIXIXIXIXIXIXIXIXIXIXIXIXIXIXIXIXIXIXIXIXIXIXIXIXIXIXIXIXIXIXIXIXIXIXIXIXIXIXIXIXIXIXIXIXIXIXIXIXIXIXIXIXIXIXIXIXIXIXIXIXIXIXIXIXIXIXIXIXIXIXIXIXIXIXIXIXIXIXIXIXIXIXIXIXIXIXIXIXIXIXIXIXIXIXIXIXIXIXIXIXIXIXIXIXIXIXIXIXIXIXIXIXIXIXIXIXIXIXIXIXIXIXIXIXIXIXIXIXIXIXIXIXIXIXIXIXIXIXIXIXIXIXIXIXIXIXIXIXIXIXIXIXIXIXIXIXIXIXIXIXIXIXIXIXIXIXIX",
"IXIXIXIXIXIXIXIXIXIXIXIXIXIXIXIXIXIXIXIXIXIXIXIXIXIXIXIXIXIXIXIXIXIXIXIXIXIXIXIXIXIXIXIXIXIXIXIXIXIXIXIXIXIXIXIXIXIXIXIXIXIXIXIXIXIXIXIXIXIXIXIXIXIXIXIXIXIXIXIXIXIXIXIXIXIXIXIXIXIXIXIXIXIXIXIXIXIXIXIXIXIXIXIXIXIXIXIXIXIXIXIXIXIXIXIXIXIXIXIXIXIXIXIXIXIXIXIXIXIXIXIXIXIXIXIXIXIXIXIXIXIXIXIXIXIXIXIXIXIXIXIXIXIXIXIXIXIXIXIXIXIXIXIXIXIXIXIXIXIXIXIXIXIXIXIXIXIXIXIXIXIXIXIXIXIXIXIXIXIXIXIXIXIXIXIXIXIXIXIXIXIXIXIXIXIXIXIXIXIXIXIXIXIXIXIXIXIXIXIXIXIXIXIXIXIXIXIXIXIXIXIXIXIXIXIXIXIXIXIXIXIXIXIXIXIXIXIXIXIXIXIXIXIXIXIXIX^ ) ' 7.w.q.q.L.I.I.T.Y.Y.nXnXnXnXY.U.I.I.I.S.S.j.0.9.6.@.Q Y IXIXIXIXIXIXIXIXIXIXIXIXIXIXIXIXIXIXIXIXIXIXIXIXIXIXIXIXIXIXIXIXIXIXIXIXIXIXIXIXIXIXIXIXIXIXIXIXIXIXIXIXIXIXIXIXIXIXIXIXIXIXIXIXIXIXIXIXIXIXIXIXIXIXIXIXIXIXIXIXIXIXIXIXIXIXIXIXIXIXIXIXIXIXIXIXIXIXIXIXIXIXIXIXIXIXIXIXIXIXIXIXIXIXIXIXIXIXIXIXIXIXIXIXIXIXIXIXIXIXIXIXIXIXIXIXIXIXIXIXIXIXIXIXIXIXIXIXIXIXIXIXIXIXIXIXIXIXIXIXIXIXIXIXIXIXIXIXIXIXIXIXIXIXIXIXIXIXIXIXIXIXIXIXIXIXIXIXIXIXIXIXIXIXIXIXIXIXIXIXIXIXIXIXIXIXIXIXIXIXIXIXIXIXIXIXIXIXIXIXIXIXIXIX",
"IXIXIXIXIXIXIXIXIXIXIXIXIXIXIXIXIXIXIXIXIXIXIXIXIXIXIXIXIXIXIXIXIXIXIXIXIXIXIXIXIXIXIXIXIXIXIXIXIXIXIXIXIXIXIXIXIXIXIXIXIXIXIXIXIXIXIXIXIXIXIXIXIXIXIXIXIXIXIXIXIXIXIXIXIXIXIXIXIXIXIXIXIXIXIXIXIXIXIXIXIXIXIXIXIXIXIXIXIXIXIXIXIXIXIXIXIXIXIXIXIXIXIXIXIXIXIXIXIXIXIXIXIXIXIXIXIXIXIXIXIXIXIXIXIXIXIXIXIXIXIXIXIXIXIXIXIXIXIXIXIXIXIXIXIXIXIXIXIXIXIXIXIXIXIXIXIXIXIXIXIXIXIXIXIXIXIXIXIXIXIXIXIXIXIXIXIXIXIXIXIXIXIXIXIXIXIXIXIXIXIXIXIXIXIXIXIXIXIXIXIXIXIXIXIXIXIXIXIXIXIXIXIXIXIXIXIXIXIXIXIXIXIXIXIXIXIXIXIXIXIXIXIXIXIXIXIXIX^ ) ' 7.w.q.q.m.L.L.I.T.T.T.T.T.T.I.I.L.j.j.q.0.6.6.@.Q Y IXIXIXIXIXIXIXIXIXIXIXIXIXIXIXIXIXIXIXIXIXIXIXIXIXIXIXIXIXIXIXIXIXIXIXIXIXIXIXIXIXIXIXIXIXIXIXIXIXIXIXIXIXIXIXIXIXIXIXIXIXIXIXIXIXIXIXIXIXIXIXIXIXIXIXIXIXIXIXIXIXIXIXIXIXIXIXIXIXIXIXIXIXIXIXIXIXIXIXIXIXIXIXIXIXIXIXIXIXIXIXIXIXIXIXIXIXIXIXIXIXIXIXIXIXIXIXIXIXIXIXIXIXIXIXIXIXIXIXIXIXIXIXIXIXIXIXIXIXIXIXIXIXIXIXIXIXIXIXIXIXIXIXIXIXIXIXIXIXIXIXIXIXIXIXIXIXIXIXIXIXIXIXIXIXIXIXIXIXIXIXIXIXIXIXIXIXIXIXIXIXIXIXIXIXIXIXIXIXIXIXIXIXIXIXIXIXIXIXIXIXIXIXIXIX"
};
