/* XPM */
static char *tp1[] = {
/* columns rows colors chars-per-pixel */
"512 512 256 2 ",
"   c #000001",
".  c #00020B",
"X  c #000617",
"o  c #080826",
"O  c #090B39",
"+  c #021739",
"@  c #090F33",
"#  c #01203E",
"$  c #070E43",
"%  c #140E46",
"&  c #011C44",
"*  c #011B4C",
"=  c #081349",
"-  c #15134B",
";  c #1B144C",
":  c #161146",
">  c #031553",
",  c #001A54",
"<  c #011B5C",
"1  c #0B1A5C",
"2  c #091758",
"3  c #141553",
"4  c #1C1653",
"5  c #1D1955",
"6  c #141B5C",
"7  c #1C1B5B",
"8  c #141857",
"9  c #050E53",
"0  c #221A55",
"q  c #221C5B",
"w  c #291D57",
"e  c #24154D",
"r  c #01234B",
"t  c #012548",
"y  c #012C54",
"u  c #032658",
"i  c #00325A",
"p  c #12235C",
"a  c #2B215D",
"s  c #28205C",
"d  c #31235B",
"f  c #011D63",
"g  c #0B1B62",
"h  c #011E6B",
"j  c #0A1C69",
"k  c #181E63",
"l  c #051E72",
"z  c #231E62",
"x  c #012264",
"c  c #0B2264",
"v  c #01236C",
"b  c #0C246C",
"n  c #012C6C",
"m  c #042B66",
"M  c #142264",
"N  c #14246C",
"B  c #1B236B",
"V  c #182669",
"C  c #003364",
"Z  c #00336B",
"A  c #00396A",
"S  c #012473",
"D  c #0C2472",
"F  c #022B74",
"G  c #0C2B74",
"H  c #01257B",
"J  c #032D7B",
"K  c #0B2D7A",
"L  c #0B257B",
"P  c #132572",
"I  c #132B73",
"U  c #192978",
"Y  c #003374",
"T  c #03327C",
"R  c #0C327C",
"E  c #023978",
"W  c #15327B",
"Q  c #143769",
"!  c #242264",
"~  c #292668",
"^  c #262C75",
"/  c #2E2B6C",
"(  c #034479",
")  c #284D7A",
"_  c #022C83",
"`  c #052A87",
"'  c #162B86",
"]  c #013284",
"[  c #003C84",
"{  c #01348C",
"}  c #003C8B",
"|  c #0C3488",
" . c #153588",
".. c #032E94",
"X. c #003493",
"o. c #013B94",
"O. c #01349B",
"+. c #013B9C",
"@. c #0B3598",
"#. c #153698",
"$. c #132E93",
"%. c #25368D",
"&. c #0135A3",
"*. c #013BA4",
"=. c #013CAB",
"-. c #0838A8",
";. c #143AA6",
":. c #013CB3",
">. c #053BB8",
",. c #123DB4",
"<. c #223DA5",
"1. c #01448A",
"2. c #014498",
"3. c #0C4F95",
"4. c #0043A3",
"5. c #0143AC",
"6. c #0449A9",
"7. c #1744A9",
"8. c #0143B4",
"9. c #0143BB",
"0. c #014BBC",
"q. c #0747B6",
"w. c #1545B8",
"e. c #0155B8",
"r. c #0856AA",
"t. c #284CAE",
"y. c #0667B4",
"u. c #2B56A1",
"i. c #0D3CC8",
"p. c #213FD3",
"a. c #0144C3",
"s. c #014BC4",
"d. c #0045CB",
"f. c #014BCB",
"g. c #0C47C7",
"h. c #1647C8",
"j. c #0255C9",
"k. c #014CD3",
"l. c #034AD8",
"z. c #0355D8",
"x. c #1850D4",
"c. c #2847D7",
"v. c #2F4FD4",
"b. c #0266DA",
"n. c #086DCF",
"m. c #3068D4",
"M. c #014CE6",
"N. c #0457E7",
"B. c #0153FD",
"V. c #0558FA",
"C. c #1758FE",
"Z. c #1051ED",
"A. c #2759FE",
"S. c #3858FB",
"D. c #304FEA",
"F. c #0168E8",
"G. c #0164FD",
"H. c #016BFD",
"J. c #0567F7",
"K. c #1866FC",
"L. c #0174FE",
"P. c #027BFE",
"I. c #0977FB",
"U. c #1778FE",
"Y. c #0A71E8",
"T. c #2767FD",
"R. c #3867FE",
"E. c #2878FE",
"W. c #3878FE",
"Q. c #2E68E7",
"!. c #4F6AD2",
"~. c #4759FA",
"^. c #575CF9",
"/. c #4A56E8",
"(. c #655EFA",
"). c #4867FE",
"_. c #5866FE",
"`. c #4777FE",
"'. c #5876FE",
"]. c #506FE8",
"[. c #6867FE",
"{. c #7365FF",
"}. c #736BFF",
"|. c #7B68FF",
" X c #6877FE",
".X c #7876FE",
"XX c #6E79E8",
"oX c #5C6BDA",
"OX c #4868B5",
"+X c #866BFF",
"@X c #8775FF",
"#X c #9677FF",
"$X c #966BFF",
"%X c #AB77FF",
"&X c #855BFA",
"*X c #C77CFF",
"=X c #0283FE",
"-X c #0589FE",
";X c #1887FE",
":X c #0497FE",
">X c #1998FF",
",X c #048AE9",
"<X c #2788FF",
"1X c #3787FF",
"2X c #2797FF",
"3X c #3796FF",
"4X c #2A89EA",
"5X c #06A7FF",
"6X c #18A8FF",
"7X c #09B7FF",
"8X c #18B7FF",
"9X c #14A7E9",
"0X c #26A6FF",
"qX c #27B7FF",
"wX c #37AEFF",
"eX c #1088D7",
"rX c #4788FF",
"tX c #5888FF",
"yX c #4796FF",
"uX c #5798FF",
"iX c #4992E6",
"pX c #6787FF",
"aX c #7887FE",
"sX c #6898FF",
"dX c #7997FF",
"fX c #7685E8",
"gX c #4EACFE",
"hX c #72A8FE",
"jX c #5B98D2",
"kX c #15C5FF",
"lX c #27C8FF",
"zX c #34D1FF",
"xX c #3DE0FF",
"cX c #48DAFF",
"vX c #52D1FE",
"bX c #6AD3FE",
"nX c #59E3FE",
"mX c #4AE2FF",
"MX c #66E5FE",
"NX c #77E9FE",
"BX c #4789B4",
"VX c #8788FC",
"CX c #9888FF",
"ZX c #9695FE",
"AX c #8893F9",
"SX c #A487FF",
"DX c #AF94FF",
"FX c #8CACFE",
"GX c #AEAAFE",
"HX c #CD8DFF",
"JX c #F38FFF",
"KX c #CEADFF",
"LX c #E3BBFF",
"PX c #94CFFE",
"IX c #9FE5FE",
"UX c #CFD7FF",
/* pixels */
"_ _ _ _ _ _ _ _ _ H H H H H H H H H H H v v v v v j j j f f f f f f < < < < < < < < < < < , , , , , , , , , , , , , , , , , , , , , , , , < < < < < < < > < < < < < f f f f f f j j j j v H v v H H H H H H H H H H H H H H H H H H H H _ _ _ _ H H _ _ H _ _ _ _ H _ _ _ _ H H _ _ _ H H H H H H H H H H H H H H H H H H H H H _ H _ _ _ _ H H H H H H H H H H H H H H H H H l H H l j j j l j j v j j f f f f f f < < < < > > , , , , , , , = $ $ = $ = = $ $ $ $ $ O O O O O O O @ @ @ @ @ @ @ @ @ @ @ @ @ o o o @ @ o o o o o o o o o o o o o o o o o o o o o o o o o o o o o o o o o o o o o o o o o o o o o o o o o X o o o o o o o X X o o X X X o X X o o o X X X X X X o o o o o o o o o o o o o o o o o o o o o o o o o o o o o o o o o o o o o o o o @ @ @ @ @ @ @ @ @ @ @ @ @ @ @ @ @ @ @ @ O O O O O O O O O O O O O O O O O O O O O O O O O O O O O $ $ $ $ $ $ $ $ $ $ $ $ $ O O $ $ $ $ $ $ $ $ $ $ O O O O O O O O O O O O O O O O O O O O O O O O O O O O O O O O O O O O O O O O O O O O O $ O $ O O O O O $ $ $ $ O $ $ $ $ O $ $ $ $ $ $ $ ",
"_ _ _ _ _ _ _ _ H H H H H H H H H H H H v v v v j j j j f f f f f f < < < < < < < < < < , , , , , , , , , , , , , , , , , , , , , , , < < < < < < < < < < < < < < f f f f f f j j j j j H H H H H H H H H H H H H H H H H H H H H _ H H _ _ _ _ H _ _ _ _ _ _ _ _ _ _ _ _ H H H _ _ H H H H _ H H H H H H H H H H H H H H H _ _ _ _ H _ _ _ H H H H H H H H H H H H H H H H l l l H H j j j j j j j j j f f f f f f < < < < > > , , , , , , = = $ $ $ = = = $ $ $ $ $ O O O O O O O O @ @ @ @ @ @ @ @ @ @ @ @ @ o o @ o o o o o o o o o o o o o o o o o o o o o o o o o o o o o o o o o o o o o o o o o o o o o o o o o o o o o o o o o o o X X o X o o X X o X o o X X X X o o o o o o o o o o o o o o o o o o o o o o o o o @ o o o o o o o o o @ o o @ o o @ O @ @ O @ @ @ @ @ @ @ @ @ @ @ @ @ @ @ @ O O O O O O O O O O O O O O O O O O O O O O O O O O $ O $ $ $ $ $ $ = $ $ $ $ $ $ $ $ $ $ $ $ $ $ $ $ $ $ $ $ $ O O $ O O O O O O O O O O O O O O O O O O O O O O O O O O O O O O O O O O O O O O O O $ $ $ O O O O $ $ O O O $ $ $ $ $ O $ $ $ $ $ $ $ ",
"_ _ _ _ _ _ _ H H H H H H H H H H H H v v v v v v j j j f f f f f < < < < < < < < , , , , , , , , , , , , , , , , , , , , , , , < < < < < < < < < < < < < < < < f f f f f f j j j j j v H H H H H H H H H H H H H H H H H H H H _ _ H H _ _ _ _ H _ _ _ _ _ _ _ _ _ _ _ _ _ H H _ H H H H H H H H H H H H H H H H H H H H H H H _ _ H _ _ _ H H H H H H H H H H H H H H H H l j l H H j j j j j j j j f f f f f f < f < < > > > , , , , , , = = = = $ = = = = $ $ $ $ O O O O O O O O @ @ @ @ @ @ @ @ @ @ @ @ @ o o o o o o o o o o o o o o o o o o o o o o o o o o o o o o o o o o o o o o o o o o o o o o o o o o o X X o o o o o o o o o o X X o o o X X o o o o o o o o o o o o o o o o o o o o o o o o o o o o o o o o @ @ o o o @ o @ O @ @ @ O O @ O O O O O O O @ @ @ @ O @ O O @ @ @ @ @ @ @ @ O O O O O O O O O O O O O O O O O O O O O O O O O O O $ $ $ $ $ = $ = $ $ $ $ $ $ $ $ $ = $ $ $ $ $ $ $ $ $ $ $ $ $ O O O O O O O O O O O O O O O O O O O O O O O O O O O O O O O O O O O O O O O $ O O $ O O O O $ $ $ O O $ O $ $ $ $ $ $ $ $ $ $ $ $ ",
"_ _ _ _ _ _ _ H H H H H H H H H H H H H v v v v v j j j f f f f f f f < < < < < < < < , < < , , , , , , , , , , , , , < < < < < < < < < < < < < < < < < < < f f f f f f f f j j j v v v H H H H H H H H H H H H H H H H H H H H _ _ H _ _ _ _ _ _ _ _ _ _ _ _ _ _ _ _ _ H _ H H _ _ _ H H H H H H H H H H H H H H H H H H H _ _ _ H _ H H H H H H H H H H H H H H H H H l l l l l l v j j j j j j j j f f f f f < < < < < > > , , , , , , = = = = = $ = = $ $ $ $ O O O O O O O O O O @ @ @ @ @ @ @ @ @ @ @ @ @ o o o o o o o o o o o o o o o o o o o o o o o o o o o o o o o o o o o o o o o o o o o o o o o o o o o o o o o o o o o o o o o X o o o o X X X o o o o o o o o o o o o o o o o o o o o o o o o o o o o o o @ @ @ o o @ @ O O O @ O O O O O O O O O O O O @ @ @ @ O @ @ O @ @ @ @ @ @ @ O O O O O O O O O O O O O O O O O O O O O O O O O O $ $ $ $ $ $ $ = $ = = $ $ $ = = = $ $ $ = $ $ $ $ $ $ $ $ $ $ $ $ $ $ $ O O O O O O O O O O O O O O O O O O O O O O O O O O O O O O O O O O O O O O O $ $ O O O $ $ $ $ $ $ O $ $ $ $ $ $ $ $ $ $ $ $ ",
"_ _ _ _ _ _ _ _ H H H H H H H H H H H H H H H v v v j j j f f f f f f f < < < < < < < < , , , , > > < < , < , , , , , < < < < < < < < < < < < < < < < < f f f f f f f f j v v v v v v v H H H H H H H H H H H H H H H H H H _ _ H _ H H H H H _ _ _ _ _ _ _ _ _ _ _ _ _ _ H _ _ H H H H H H H H H H H H H H H H H H H H H ' | _ H H H H H H H H H H H H H H H H H H H H H l l l H l j v j j j j j j f f f f f f > > > > > > > > , , , , , , = = = = = = $ $ $ $ $ O O O O O O O O O @ @ @ @ @ @ @ @ @ @ @ o o o @ @ o o @ o o o o o o o o o o o o o o o o o o o o o o o o o o o o o o o o o o o o o o o o o o o o o o o o o o o o o o X o o o o o o o X X X o o o o o o o o o o o o o o o o o o o o o o o o o o o o o o @ @ o @ @ @ @ @ O O O O O O O O O O O O O O O O @ @ @ @ O O O O O O O O O O O O O O O O O O O O O O O O O O O O O O O O $ $ O O O $ $ $ $ $ $ $ = = = = = $ = = $ $ $ $ = $ $ $ $ $ $ $ $ $ $ $ $ $ $ $ $ O O O O O O O O O O O O O O O O O O O O O O O O O O O O O O O O O O O $ $ O $ $ $ $ O $ $ O O $ $ O $ $ $ $ O $ $ $ $ $ $ $ $ ",
"_ _ _ _ _ _ _ H H H H H H H H H H H H v H H H v v v j j f f f f f f f f < < < < < < , , , , , , > > < > , , , > , , < < < < < < < < < < < < < < < < < < f f f f f f j j j v j v v v v H H H H H H H H H H H H H H H H H _ _ _ _ H H H _ H _ H _ _ _ _ _ _ _ _ _ _ _ _ H _ _ _ _ H H H H H H H H H H H H H H H H H H H H H _ ` _ H H H H H H H H H H H H H H H H H H H H l l H j l j j j j j j j j j f f f f f < > > > > > > > , , , , , , = = = = = = $ $ $ $ $ $ $ O O O O O O O O @ @ @ @ @ @ @ @ @ @ @ o o o @ @ @ o o o o o o o o o o o o o o o o o o o o o o o o o o o o o o o o o o o o o o o o o o o o o o o o o o o o o o o o o o o o o o o o o X X o o o o o o o o o o o o o o o o o o o o o o o o o o o o o @ O O O @ @ @ O O O O O O O O O O O O O O O O O O @ @ @ @ O O O O O O O O O O O O O O O O O O O O O O O O O O O O $ O $ $ $ $ $ $ $ $ $ = $ $ $ = = = = = = = = = = = = $ = = = = $ $ $ $ = = $ $ $ $ $ $ $ $ $ O $ $ O O O O O O O O O O O O O O O O O O O O O O O O O O O O O O $ $ O $ $ $ $ $ O O O O O O $ $ O $ $ $ $ $ $ $ $ $ $ $ ",
"_ _ _ _ _ _ _ H H H H H H H H H H H H H H H v v v v v j j f f f f f f f < < < < < < < < < < , < > > > > < < < < , < < < < < < < < < < < < < < < < < < f f f f f f f j j j v v v v v v H H H H H H H H H H L L L H H L L L H _ H H _ _ _ _ _ _ _ _ _ _ _ _ _ _ _ _ _ _ _ H H _ _ H H H H H H H H H H H H H H H H H H H H H H _ H H H H H H H H H H H H H H H H H H H H H l H l j v j j j j j j j j j f f f f < < < > > > > > , , , , , , , = = = = = $ $ $ $ $ $ $ $ O O O O O O O O @ @ @ @ @ @ @ @ @ o o o o o o o o o o o o o o o o o o o o o o o o o o o o o o o o o o o o o o o o o o o o o o o o o o o o o o o o o o o o o o o o o o o o o o o X o o o o o o o o o o o o o o o o o o o o o o o o o o o o o @ @ o @ @ O O @ O O O O O O O O O O O O O O O O O O O O O O O O O O O O O O O O O O O O O O O O O O O O O O O O $ $ $ $ $ $ $ $ $ = $ $ $ $ $ = = = = = = = = = = = = = = = = $ = = = = = = = $ $ = = $ $ $ $ $ $ $ $ $ $ $ O O O O O O O O O O O O O O O O O O O O O O O O O O O O O O O O O $ $ O $ O $ $ O $ $ $ $ $ $ $ $ $ $ $ $ $ $ $ $ $ ",
"_ _ _ _ _ _ _ H H H H H H H H H H H H H H H v v v v j j j f f f f f f f f < < < < < < < < < < < < > > < < < < < < < < < < < < < < < < < < < < f < f f f f f f f j j j j j v v v v v v H D H H H H H H L L L L L H H L ' L H H H _ _ _ _ _ _ _ _ _ _ _ _ _ _ _ _ _ _ _ H H H H H H H H H H H H H H H H H H H H H H H H H H H H H H H H H H H H H H H H H H H H H H H H H l l j j j j j j j j j j f f f f f f < < > > > > , , , , , , , , = = = = = = $ $ $ $ $ $ $ O O O O O O O O @ @ @ @ @ o @ @ @ o o @ o o o o o o o o o o o o o o o o o o o o o o o o o o o o o o o o o o o o o o o o o o o o o o o o o o o o o o o o o o o o o o o o o o o o X o o o o o o o o o o o o o o o o o o o o o o o o o o o @ @ @ @ @ o @ @ @ @ @ O O O O O O O O O O O O O O O O O O O O O O O O O O O O O O O O O O O O O O O $ $ $ $ O $ O $ O $ $ $ $ $ $ $ $ = = = = $ = = = = = = = = = = = = = = = = = = - = = = = = = = = = - - = = $ $ $ $ $ $ $ $ $ O O O O O O O O O O O O O O O O O O O O O O O O O O O O $ $ $ O O $ $ O $ O $ $ O O O O $ $ $ $ $ $ $ $ $ $ $ $ $ $ ",
"_ _ _ _ _ _ _ H H H H H H H H H H H H H v v v v v v v v v j f f f f f < < < < < < < < < < < < < < < < < > < < < < < < < < < < < < < < < < < f f f f f f f f f j v v v v v v v v v H H D H H H H L ' L L ' ' H H H H H H H H H H ' _ _ _ _ _ _ ' _ _ _ _ _ H H _ _ _ _ H H _ H H H H H H H H H H H H H H H H H H H H H H H H H H H H H H H H H H H H H H H H H H H l H H H H l j j j j j j j j j f f f f f f f > < > > , , , , , , , , = = = = = = = $ $ $ $ $ O O O O O O O O O O O O O @ @ @ @ @ o O Q I O o o o o o o o o o o o o o o o o o o o o o o o o o o o o o o o o o o o o o o o o o o o o o o o o o o o o o o o o o o o o o o o o X X o o o o o o o o o o o o o o o o o o o o o o o o o o o o o @ @ @ @ @ @ @ @ @ @ @ @ O O O O O O O O O O O O O O O O O O O O O O O O O O O O O O O O O O O O O $ O $ $ $ $ $ $ $ $ $ $ $ $ $ $ = = $ = $ $ $ = = = = = = = = = = = - , = = = = = = = = = = = = = = = - = = = = = $ $ $ $ $ $ $ O O O O O O O O O O O O O O O O O O O O O O O O O O O O $ O O O O O $ $ O O $ O O $ $ $ $ $ $ $ $ $ $ $ $ $ $ $ $ $ ",
"_ _ _ _ _ _ H H H H H H H H H H H H H v v v v v v v v v j j f f f f f f < < < < < < < < < < < < < < < < < < < < < < < < < < < < < < f f < < f f f f f f f f j j v v v v v v v v b H D D H D H L  . . .H L ' L L L L L L H H _ _ ' _ _ _ _ _ ' ' ` _ _ _ _ H _ H _ _ H H _ _ H _ H H H H H H H H H H H H H H H H H H H H H H H H H H H H H H H H H H H H H H H H H v v j H H v j j j j j j j j j f f f f f f < < < > , , , , , , , , , = = = = = = = $ $ $ $ $ O O O O O O O O O O O O O @ @ @ @ o o O 3.3.@ o o o o o o o o o o o o o o o o o o o o o o o o o o o o o o o o o o o o o o o o o o o o o o o o o o o o o o o o o o o o o o o X X o o o o o o o o o o o o o o o o o o o o o o o o o o o o o @ @ @ @ @ @ @ @ @ @ @ @ @ O O O O O O O O O O O O O O O O O O O O $ $ $ O $ $ $ O O O O O O $ $ O $ $ $ $ $ $ $ $ $ $ $ $ $ $ = $ = = = = = = = $ = = = = , , , = = , , , , , , = = = = , = = = = = - = - - = = = = $ $ $ $ $ $ $ $ O O O O O O O O O $ O O $ $ O O $ O O $ $ $ O O O O O O O $ $ $ $ $ $ $ $ $ $ O $ O $ $ $ $ $ $ $ $ $ $ $ $ $ $ $ $ ",
"H H _ _ _ H H H H H H H H H H H H H H v H v v v v v v j v j j f f f f f f < < < < < < < < < < < < < < < < < < < < < < < < < < < < f f f f f f f f f f f j j j j v v v H H H H H D D D D D L L H L  .' H L L L L ' ' L ' L ' L _ ' ' _ H H ' ' ' ' H _ _ _ H _ _ _ _ _ H _ _ H H _ H H H H H H H H H H H H H H H H H H H H H H H H H H H H H H H H H H H H H H H H H H j H H H j j j f j j j f f f f f < f > > > > > , , , , , , , , = , = = = = = = = $ $ $ $ O $ O O O O O O O O O O O @ @ @ @ @ o o = O o o o o o o o o o o o o o o o o o o o o o o o o o o o o o o o o o o o o o o o o o o o o o o o o o o o o o o o o o o o o o o o o o o o o o o o o o o o o o o o o o o o o o o o o o o o o @ o o @ @ @ @ @ @ @ @ @ @ @ O O O O O O O O O O $ $ $ O $ O O $ $ O $ $ $ $ $ $ $ $ $ $ O O O O $ $ $ $ $ $ $ $ $ $ $ = = $ $ = $ = = = = = = = = = = = = = = , , , , , , , , , , , , , , = , , , , , = = = = = - - = - = $ $ $ $ $ $ $ $ O O $ $ O O O O $ $ % $ $ $ O O O O O $ $ $ O O O $ O O $ $ $ $ $ $ $ $ $ $ $ $ O $ $ $ $ $ O O $ $ $ $ $ $ $ $ $ $ ",
"H H _ H H H H H H H H H H H H H H H H H H v v v v v v v v j f f f f f f f < < < < < < < < < < < < < < < < < < < < f f f f f f f f f f f f f f f f f j j j v v v v v H v H D H H D D D D L L L H H L L L L L L L ' L L ' ' ' ' L ' ' L H H L L ' ' H _ ' _ _ H _ _ _ H H _ _ _ H _ H H H H H H H H H H H H H H H H H H H H H H H H H H H H H H H H H H H H H H H H v j j j j j j j j j j j f f f f f f f < > > > > > , , , , , = , , = = = = = = = = = $ $ $ $ O O O O O O O O O O @ @ @ @ @ @ o @ @ o o o o o o o o o o @ @ @ o o o o o o o o o o o o o o o o o o o o o o o o o o o o o o o o o o o o o o o o o o o o o o o o o o o o o o o o o o o o o o o o o o o o o o o o o o o o @ o o @ @ @ @ @ @ @ @ @ @ @ @ O @ O O O O O O O O O O O O $ $ $ $ $ $ $ $ $ $ $ $ $ $ $ $ = = $ $ $ $ $ $ $ $ $ $ $ $ $ $ $ $ = = = = = = = $ = = = = = = = = = = = = = , , , , , , , , , , , 8 , , , , , 8 8 , 8 = , = = - - = - - - - $ $ $ $ $ $ $ $ $ $ $ O O O O % % % % $ $ O O O O O $ $ $ O O O $ O $ $ $ $ $ $ $ $ $ $ $ $ $ $ $ $ $ $ $ $ $ $ $ $ $ $ $ $ $ $ $ ",
"H H H H H H H H H H H H H H H H H H H H H H H v v j j j j j f f f f f f f f < < f f < < < < < < < < < < < < < < f f f f f f f f f f f f f f f f j j v v v v v v v v H H D D D D D D D L L L L L L '  .L ' L L L L L L L ' L L L H H H H H _ ' L L ' ' ` ' ' ' H L _ H H _ _ H H H H H H H H H H H H H H H H H H H H H H H H H H H H H H H H H H H H H H H H H l l j l j j j v v j j j f f f f f f f < > > > > > > , , , , , $ $ , = = = = = = = = = $ $ $ $ $ O O O O $ O O O O O O O O @ @ o o o o o o @ @ o o o o @ @ O O @ o o o o o o o o o o o o o o o o o o o o o o o o o o o o o o o o o o o o o o o o o o o o o o o o o o o o o o o o o o o o o o o o o o o o o o o o o o @ @ @ @ @ @ @ @ @ @ @ @ @ @ @ @ O O O O O O O O O O O O O O O $ $ = = = $ $ = = = = = $ $ = = = $ $ $ $ $ $ $ $ $ $ = $ $ $ = = = = = = = = = = = = = = = = = = = , , = , , , , , , , 8 8 , , 8 8 , , , , 8 8 8 8 , 8 , , = = = = - - - - = $ $ $ $ $ $ $ $ $ $ $ $ O O O % % % % O O O O O O O $ $ O O O $ $ $ $ $ $ $ $ $ $ $ $ $ $ $ $ $ $ $ $ $ $ $ $ $ $ $ $ $ $ $ $ $ $ ",
"H H H H H H H H H H H H H H H H H H H H H H H H v v j j j f f f f f f f f f f f f f f f f f < < < < < < < < f f f f f f f f f f f f f f f f j j j j v v j v v v v v D D D D D D D D L L L L L L L ' ' ' L L L L L L L L L L L L L L H H ' L ' L ` ' L L ' ' ` L H H H H _ _ H H H H H H H H H H H H H H H H H H H H H H H H H H H H H H H H H H H H H H H H l l j j j j j j j j j j j f f f f f f < > > > > > , , , , , , = = $ = = = = = = = = $ $ $ $ $ $ $ O O O O O O O O O O O O O @ @ @ o @ @ @ @ @ @ @ o o o @ O ; O @ o o o o o o o o o o o o o o o o o o o o o o o o o o o o o o o o o o o o o o o o o o o o o o o o o o o o o o o o o o o o o o o o o o o o o o o o o @ @ @ @ @ @ @ @ @ @ @ @ @ @ @ @ O O O O O O O O O O O O + = = = = = = = = = = = = = = = $ = = = = $ = $ $ $ $ = $ $ = = $ = = = = = = = = = = = = = = = = = = = , , , , , , , , , , , , , 8 , , 8 8 , , , , 8 8 8 8 8 8 8 , = = = - - - - - - = $ $ $ $ $ $ $ $ $ $ $ $ O O % % % % O O % O O $ % % O $ O O $ % $ $ $ $ $ $ $ $ $ $ $ $ $ $ $ $ $ $ $ $ $ $ $ $ $ $ $ $ $ $ $ $ ",
"_ H H H H H H H H H H H H H H H H H H H H v H H v v j j j f f f f f f f f f f f f f f f f f f f f f f f f f f f f f f f f f f f f f f f j j j v v v v v v v v D D D D D D D D D L L L L L L L L L L L L ' L ' L L L ' L ' L ' ' L L ' ' ' ' L L ' ' ` L ' ' L ` ' L L L L H H H H H H H H H H H H H H H H H H H H H H H H H H H H H H H H H H H H v v j H H H l j j j j j f j j f f j f f f f f f < > > > > , , , , , , , = = = = = = $ = = = = = $ $ $ $ $ O O O O O O O O O O O O @ @ @ @ @ @ @ @ @ @ @ @ @ @ o o o @ @ @ o o o o o o o o o o o o o o o o o o o o o o o o o o o o o o o o o o o o o o o o o o o o o o o o o o o o o o o o o o o o o o o o o o o o o o @ @ @ @ @ @ @ @ @ @ @ @ @ @ @ @ @ O O O O O O O O O O O O O = = = = = = = = = = = = = = = = = = = = = = = = = $ $ $ = = = = = = = = = = = = = = = = = = = = = = = = = = , , , , , , , , , , , , > 1 8 , 8 8 8 , 8 8 8 8 , , 8 8 8 8 8 8 8 - - - - - - - : % % % % % $ % $ $ $ $ O O O O O O O O % % % % % % % % $ $ $ % $ $ $ $ $ $ $ $ $ $ $ $ $ $ $ $ $ $ $ $ $ $ $ $ $ $ $ $ $ $ $ $ ",
"H H H H H H H H H H H H H H H H H H H v v v H H v j j j f f f f f f f f f f f f f f f f f f f f f f f f f f f f f f f f f f f f f f f f j j v v v v v v v D D D D D D D D D D D L L L L L L L L L L L '  .' ' L L L ' ' ' L L ' L ' ' ' ' ' L L L ' L L ' ' L L L L L L L L H H H H H H H H H H H H H H H H H H H H H H H H H H H H H H H H H H v v v j H l v v j j j j j j v f f f f f f f f < < < < > > > , , , , , , , = = = = = $ $ $ $ $ = $ $ $ $ $ $ O O O O O O O O O O @ @ @ @ @ @ @ @ @ @ @ @ @ @ @ @ @ o o o o o o o o o o o o o o o o o o o o o o o o o o o o o X X X o o o o o o o o o o o o o o o o o o o o o o o o o o o o o o o o o o o o o o o o o o @ @ @ @ @ @ @ @ @ @ @ @ @ @ @ O O O O O O O O O O O O $ $ = = = = = = = = = = = = = = = = = = = = = = = = = = = = = = = = = = = = = = = = = = = = = = = = = = , , , , = , , , , , , , , , , , , , > 1 1 1 1 1 8 8 8 8 8 8 , 8 8 8 8 8 8 8 8 8 - - - - - - - : : % % % % % % % % % O O O O O O O O % % % % % % % % $ $ % % % $ $ $ $ $ $ $ $ $ $ $ $ $ $ $ $ $ $ $ $ $ $ $ $ $ $ $ $ $ $ $ ",
"H H H H H H H H H H H H H H H H H H H v v v v v v v v j j j v x f j f f f f f f f f f f f f f f f f f f f f f f f f f f f f f f f j j v j v v v v b v v H D D D D D D D D D L L L L L L L L L L L L L U ' ' L L L ' ' ' ' ' L L L ' ' ' L ' ' ' L L L L L L ` L L L L L L L H H H H H H H H H H H H H H H H H H H H H H H H H H H H H H H H H H v H H H H j j j j j j j H G F f f f f f f f f f < > < < > > > , , , , = = = = = = $ $ $ $ $ $ $ $ $ $ $ $ O O O O O O O O O O @ @ @ @ @ @ @ @ @ @ @ @ @ @ @ @ o o o o o o o o o o o o o o o o o o o o o o o o o o o o o o o @ > p = o o o o o o o o o o o o o o o o o o o o o o o o o o o o o o o o o o o o o o o @ @ @ @ @ @ @ @ @ @ @ @ O O @ O O O O O O O O O O O O O O O O = = = = = = = = = = = = = = = = = = = = = = = = = = = = = = = = = = = = = = = = = = = = = , = , , , , , , , , , , , , , , , , > , 1 1 < < < < < < 1 1 1 8 1 8 8 , 8 8 , 8 8 8 8 8 - - - - - - - - : % % % % $ % % $ $ % % % O O O O % % O O O O O $ % % % % $ $ % % $ = $ $ $ $ $ $ $ $ $ $ $ $ $ $ $ $ $ $ $ $ $ $ $ $ $ $ $ $ ",
"H H H H H H H H H H H H H H H H H H H v v v v v v v v j j j v v v v v v j f f f f f f f f f f f f f f f f f f j f f f f f j j v j j j v v v v b b D D b D D D D D D D D D D L L L L U L L L L U L L L U ' L U U L L ' ' ' ' L L L L ' ' L ' L L L L L L L L L L L L L L L L H H L H H H H H H H H H H H H H H H l H H H H H H H l H H H H H H v j j j j j j j j j j j j H W L f > f f f f f f < < > > > > > > , , , , , = = = $ = $ $ $ $ $ $ $ $ $ $ $ $ O O O O O O O O O O @ @ @ @ @ @ @ @ @ @ @ @ @ @ @ @ @ @ o o o o o o o o o o o o o @ o o o o o o o o o o o o o o o = u.OXK o o o o o o o o o o o o o o o o o o o o o o o o @ o o o o o o o @ @ @ @ o @ @ @ @ @ @ @ @ @ @ O O O O O O O O O O O O O O O O O O = = = O = = = = = = = = = = = = = = = = = = = = = = = = = = = = = = = = = = = = = = = = = = , , , , , , , , , , , , , , , , , , , , , > 1 1 1 1 1 < < < < 1 1 1 1 8 1 1 8 8 8 8 8 8 8 8 8 8 - - - - - - - - - : % % % % % % % % % % % % % O % % % % O % O % % % % % % $ % % % $ = $ $ $ $ $ $ $ = $ $ $ $ $ $ $ $ $ $ $ $ $ $ $ $ $ $ $ $ ",
"H H H H H H H H H H H H H H H H H H H H H H v v H v j j v v j j l j j v f f f f j v f j j f f f j f f f f f f f j f j j j j j j j j j v v v b b D D D D D D D D D D D P L U L L L L L U L U U U U L L ' ' U U ' U U U U ' L L L U ' ' L L L L U ' ' ' ' L L L L L L L L L L L H L H H H H H H H H H H H H H H H l H v v j l H v H H v H v v v j j j j j j j j j j j f f v G D f > f f f f > > > < > > > > , , , , , , , = = $ $ = = = $ $ $ $ $ $ $ $ $ $ O O O O O O O O O O O O O @ @ @ @ @ @ @ @ @ @ @ @ @ @ @ @ @ o @ @ @ @ o o o o @ @ @ @ o o o o o o o o o o o o o o = 3.u.c @ o o o o o o o o o o o o o o o o o o o o o @ @ @ @ o o o o o o @ @ @ @ @ @ @ @ @ @ O O O O O O O O O O O O O O O O O O O O O = = = = = = = = = = = = = = = = = = = = = = = = = = = = = = = = = = = = = = = = = , = , , , , , , , , , , , , , , , , , , , , , , , , , > > 1 < < 1 1 < < < 1 1 1 1 1 1 1 1 1 8 8 8 8 8 8 8 8 8 8 - - 8 - - - - - - - % % % % % % % % % % % % % % % % % % O % % % % % % % % % % : : $ % $ $ $ $ $ $ $ $ $ $ $ $ $ $ $ $ $ $ $ $ $ $ $ $ $ $ $ ",
"H H H H H H H H H H H H H H H H H H H H H H D v H v v v l b j l j b b b j f f f f v f j j j f f f f f f f f j j f j j j j j j v j j j b b b b D D D D D D D D D D L P U P U L L U L L L L U U U U U U ' ' ' U U U U U U ' ' U U U ' ' ' U L L L ' ' ' ' L L L L L L L L L L L H D D H H H H H H H H H H H H H H l j j j j j j j H v v v j j v j j j j j j j j j f f f f < f f > f f < < > > > > > > > > , , , , , , , = = = $ $ = = = = $ $ $ $ $ $ $ $ $ O O O O O O O O O O O O O @ O @ @ @ @ @ @ @ @ @ @ @ @ @ @ @ @ @ @ @ @ @ @ @ @ @ @ @ @ @ @ o o o @ o o o o o o o o @ = = O o @ @ o o o o o o o o o o o o o o o o o @ @ @ @ @ @ @ o o o o o @ @ @ @ @ @ @ @ @ @ O O O O O O O O O O O O O O O O O O O O = = = = = = = = = = = = - - - - = = = = = = = = = = , 1 , = = = = = = = = = = = = = , , , , , , , , , , , , , , , , , , , , , , < < , < > > > 1 < < 1 < < 1 1 1 1 1 1 1 1 1 1 1 1 1 8 8 8 8 8 8 8 8 8 - 8 - - - - - - - % % % % % % % % % % % % % % % % % % % % % % % % % % % % : : : % % % : : $ $ $ $ $ $ $ $ $ $ $ $ $ $ $ $ $ $ $ $ $ $ $ $ ",
"H H H H H H H H H H H H H H H H H H H H D D D D D l j j b b b l b b l b f f f f j f f f j j f f j j j f f f f f j j j j v v v v l l b b b D D D D D D D P D D D U U U U U U U L U U U U U U U ' U ' U U ' ' ' ' ' ' ' U U U U U ' ' ' ' U L U U ' ' ` ' L L L L L L L L L L L H D D H H D H H H H H H H H l l j l H v v j j j j v j v v j j j j j j v j j j j j f f f f < > < < < < > > > > > > > > , , , , , , , = = = = = = = = = = = $ $ $ $ $ $ $ $ $ $ O O O O O O O O O O O O O O O O O O O O O O @ @ @ @ O O @ @ @ @ @ @ @ @ @ @ @ @ @ @ @ @ @ @ @ @ @ @ @ @ o @ o @ o o o o o @ = = @ o o o o o o o o o o o o o o o @ @ @ @ o @ @ @ o @ @ @ @ @ @ @ @ @ @ @ O O O O O O O O O O O O O O O O O O O O = = = = = = = = = = - = = = = = = - = = = = = - = = = , , p 8 = , , , = = = = = , , , , , , , , , , , , , , , , , , , , , , , , , , < < < < < < < < 1 < 1 1 < 1 1 1 1 1 1 1 1 1 1 1 1 1 8 8 8 8 8 8 8 8 8 8 8 8 - - - - - - : : : : % % % : % % % % % % % % % % % % % % % % % % % : % $ = = : - : : % : = $ $ $ $ $ $ $ $ $ $ $ $ $ $ $ $ $ $ $ $ $ ",
"H H H H H H H H H H H H H H H H H H H H D D D D D v j j b b b b l l l l l c j f l j j l j j v j j j j j f f f f v j j j j v v v l b b b b D D D D D D D P P P P U U U U U U U L U U U U U U U ' ' ' ' U U ' ' ' ' ' U U U U U U U U ' ' U L U U U U L L L L L L L L L L L L L H D D H D D H H H H H l l H l j j H j v j j j j j v j v H v j j j j j j j f f f f f f f f f f < < < > > > > > > > , , , , , , , , = = = = = = = = = = = $ $ $ $ $ $ $ $ $ $ $ $ O O O O O O O O O O O O O O O O O O O O O O O O O O O O O O O O O O O O O O O @ O @ @ @ @ @ @ @ @ O O @ @ @ @ @ @ @ O o O p V + o @ @ o o @ @ @ o o o o o o @ @ @ @ @ @ @ @ @ @ @ @ @ @ @ @ @ @ @ O O O O O O O O O O O O O O O O = = = = = = = = = = = = = - = - = - - = = * * = = = * * - 8 , , , , , 1 8 , , 8 , , , , , , , , , , , , , , , , , < , , , , , , , , < < , < < < < < < < 1 1 < 1 1 < 1 1 1 1 1 1 1 1 1 1 1 1 1 6 1 1 6 8 6 8 8 8 8 8 8 8 8 8 - - - - - - - - : : : : : : % % % % % % % % % % % % % % % % % % : % % = = = - - $ : - : $ $ $ $ $ $ $ $ $ $ $ $ $ $ $ $ $ $ $ $ $ = ",
"H H H H H H H H H H H H H H H H H H H H D D D b D b b l b l l l l l l b b b b b b l l l l j j f j j j j f j f j v v j j j v v v l b b b D D D D D D P P P P P P U U U U U U U L U U U U U U U U ' ' U U U U U U ' ' U ' ' U ' ' U U ' ' U U U ' U U U U U L L L L L L L L L D D D D D D D D H H H H l l l l v j v v j j j j j j j j H F v j f f j j j f f f f f f f f f f f f < > < > > , , , , , , , , , , = = = = = = = = = = = $ $ $ $ $ $ $ $ $ $ $ $ $ O O $ $ O O O O O O O O O O O $ O O O O O O O O O O O $ $ $ $ $ $ $ $ $ $ $ $ $ O O O O O O O O O O $ O O O O O O @ O @ O O : : O o @ @ o @ @ o o @ o o o o @ @ @ @ @ @ @ @ @ @ @ @ @ @ @ @ @ @ @ O O O O O O O O O O O : % O O = O = = = = = = = = = = = - - - - - - - - - - > * = , , , , 8 8 8 , , , , , , , , , , , , , , , , , , , , , , , , , < < < < < < < < < < < < < < < < < < < < 1 1 < 1 1 1 1 1 1 1 1 1 1 1 1 6 1 6 6 6 1 6 6 6 6 8 8 8 8 8 8 8 8 8 8 - - - - - - - - : : : : : % % % % : % : % % % % % % % % % % % % % % : : : : % - - O O % : $ $ $ $ % % $ $ $ $ $ $ $ $ $ $ $ $ $ $ ",
"H H H H H H H H H H H H H H H H H D H D D D D b b b b b b b l l b b l b b b b b b l b l b l j f j j j j v v v v v v j j l j v b b b b D D D D D P P P P P U P U U U U U U U U U U U U U U U U U ' ' U U U ' U ' ' ' ' ' U U ' ' U U ' ' ' U U U U U U U U U L L L L L L D D D D D D D D D D D H H j j j j j j j j j j j j j j j j j H G v j f j f j f f f f f f f f f < < < < < < < > > , , , , , , , = = = = = = = = = = = = = $ = = = = $ $ $ $ $ $ $ $ $ O O $ $ $ $ $ $ $ $ $ O $ $ = = $ $ $ $ $ $ $ O O $ $ $ % - $ $ $ $ % % - - % % $ $ % % % $ $ $ % % % % $ $ $ = $ $ $ O O O @ @ @ @ @ @ @ @ o o o @ @ @ @ @ @ @ @ @ @ @ @ @ @ @ @ @ @ @ @ @ @ O O O O O O O O O O : : = = = = = = = = = = = = = - = = = - - - - - - - - 8 8 8 8 8 * , , , , 8 8 8 8 , , , , , , , , , , , , , , , , , , , , , , < < < < < < < < < < < < < < < < < < < < < < < < < 1 1 1 1 1 1 1 1 1 1 1 1 6 k 1 6 6 6 1 6 6 6 8 8 8 8 8 8 8 8 8 8 - - - - - - - - - : : : : % % % % : % % : % % % % % % : % % % % : : % : : % % - - , c 1 - % $ $ $ % % $ $ = $ = = = $ $ $ $ = $ $ ",
"H H H H H H H H H H H H H H H H D D D D D D D D D l l l l l l b b b b b l l l l l l l l b l f f j j j j j j j v v v l l l l l b b D D D D D P P D D D P P U U U U U U U U U U U U U U U U ' U U ' ' ' ' ' ' ' U U U U U ' ' U ' U U U U U U U U U U U L U L L L L L L D D D D D D D D D D D l l l j j j j j j j j j j j j j j j j j v v j f f f f f f f f f f f f f < < < > < < > , , > , , , , , , , = = = = = = = = = = $ = = = = = = = = $ = $ $ $ $ $ $ $ O $ $ $ $ $ $ $ $ = $ = $ = = $ $ $ O O O O O O O O $ - - = $ $ $ - - - - 8 8 , , 8 8 % $ , , 8 8 - % $ , , 8 , , $ $ $ $ $ $ $ $ $ $ $ o = W p O O O O @ O O @ @ O @ O @ @ @ @ @ @ @ @ O O O O O O O O O O O O O = = = = = = = : = = = = = = = - - - - - - - > > * , 8 8 , , 8 8 , 8 , , 8 , 8 8 8 8 , , , , , , , , , , , , , , , , < < < < < 1 < < < < < < < 1 < < < < < < < < 1 1 < < < < < < 1 1 1 1 1 1 1 1 1 1 1 1 1 1 6 6 6 6 6 6 6 6 6 6 8 8 8 8 8 8 8 8 - - - - - - - - : : ; ; : % : : : % % % % % % % % % % % % % % % % % % % % - $ $ u.4X3.- $ $ = % : % % = = = = = $ $ $ $ $ $ $ = ",
"H H H H H H H H H H H H H H H D D D D D D D D D D l l l l l l b l b b b b l l l b l l l l l j f j j j j j j j j v b b l l b b b b D D D P P P P P P P P P U U U U U U U U U U U U U U U ' ' U U ' ' U U ' ' ' U U U U U ' U U U U U U U U U U U U U U L U U U U L D D D D D D D D D D b l D l j j j j j j j j j j j j j j j f j j j j f f f f f f f f f f f f < < > < < < < < < , < , , , , , , , , = = = = = = = = = = = = = $ = = = = = = = $ $ $ $ $ $ $ $ $ $ $ $ $ $ $ $ O = $ $ $ $ $ O O O O O O O O O O O O = $ O O O $ $ - - 8 8 8 , , , 8 8 , , > , 8 1 8 > > > > > f > > > , 9 $ $ $ 8 8 $ @ u.hXOX, $ = = O O O O O O O O O O O O O O O O O O O O O O O O : : = = = = = = = = = = : = - > > - - - > - - > - > > > 8 8 8 8 8 8 , 8 8 8 8 8 , 8 8 , 8 8 , , , , , , , < < 8 , , , < < 1 1 1 1 < < < < 1 1 < < < < < < < < < < < < < < 1 1 1 1 < < < < 1 j j 1 1 1 1 1 1 1 1 1 6 6 6 6 6 6 6 6 6 6 6 6 8 8 8 8 8 8 5 8 - - - - - - - - : ; ; : : : : : : : % : % % % % % % % % : % % % % : % : : - O $ y.4X .% = : : % : : = : = = = = = $ $ = $ $ = - ",
"H H H H H H H H H H H H H H H D D D D D D D D D D b l l l l l l b b b l b b b b l l b b b l j j j j j j j l l l b b b b b b b D D D D D P P P P P P P P P U U U U U U U U U U U U U U U ' ' ' ' U U U U ' ' ' ' ' ' U U ' U U U U U U U U U U U U U U L U L L L D D D D D D D D l l l l b l l j j j j j j j j j j j f f f f f f j j j f f f f f f f f f f f < < > < < < > < < , < I < , , , , , , , = = = = = = = = = = = = = = = = - - = = = $ = $ $ $ $ $ $ $ $ $ $ $ $ $ $ O = $ $ O O O O O O O O O O O O O @ O @ @ O @ O O $ $ - - - , , , 8 1 8 > > > 1 1 1 1 1 > f j j l j f f > > > > > , > > $ OXhXu.> $ = = = % % $ $ $ $ O O O O O O O O O O O O O O = : : = = = = = = = = = = = = - = > > > > > > > - - - > > 8 8 8 8 8 8 8 8 8 8 8 8 8 , , 8 8 1 1 8 1 1 1 1 1 , < < < < < < 1 1 < < 1 1 1 < < < < j 1 1 < < < < < 1 < < < < < < < < 1 1 1 1 1 1 1 1 j j j j j 1 1 1 j k k 6 6 6 6 6 6 6 6 6 6 6 6 6 8 8 8 5 5 5 5 5 - - - - - - - - ; ; ; : : ; : : : : : : ; ; % % % % % : % % ; ; - - - - - - $ f F < - : : : = = = : : : : = : : : : : $ $ $ $ ",
"H H H H H H H D H H H H H H H D D D D D D D D D D b l l l b l l b b b b b b b l b b b b b b b b b b b b b b b b b b b b b b b P D P P P P P P P P P P P P U U U U U U U U U U U U U U ' ' ' ' ' U U U U ' ' ' ' ' ' U U U U U U U U U U U U U U U U U U U L L L D D D D D D D D b l b l l l l l j j j j j j j f f f f f f f f f f f f f f f f f < > f f f f < < > > > > , , < , c %.V $ , , , , = = = = = = = = = = = = = = = = = = - - = = $ $ $ $ $ $ $ = $ $ $ $ $ $ $ O O O O O O O O O O O O O O O O O O @ @ @ @ @ @ O O O O $ $ $ $ % % $ $ - 8 8 , , 8 > > > f > > j D j j j j j j j j j f j b f L  .f 9 , , , , , 8 8 8 - % % % $ $ $ $ % % O O $ $ = = = = = = = = = = = = = = = = = - > > > > > > > > > > > 8 8 8 8 8 8 8 8 8 , 1 1 1 1 1 , , 8 1 1 1 1 1 1 1 1 1 1 1 1 1 1 < 1 1 1 1 1 1 1 1 < < 1 j c j 1 < < < < < j 1 1 1 1 < < 1 j 1 1 1 1 1 1 1 1 j j j j 1 1 1 1 j k k 6 6 6 6 6 6 6 6 6 6 6 6 6 8 8 5 5 5 5 5 5 - - - - - - - - - ; ; ; ; ; : : : : : : : : : : : % : : : : : ; - - - - - - - $ $ - - : : : = = = = : : = = : : : : % $ % $ % ",
"H H H H H H H H H H H H D D D D D D D D D D D D b b l l l l b N b b b b b b N b b b b b b b b b b b b b b b b b b b D D b D P P P P P P P P U P P P U U U U U U U U U U U U U U U U U ' U ' ' ' U ' ' ' U U U U U U U U ' ' U U U U U U U U U U U U U U U U U L P P P D D D D b b b l l v j j j j j j j j f f j f f f f f f f f f f f f f f f f < > < < f f < < > > < 1 1 < < , < V p , , , , , = = = = = = = = = = = = = = = = = = - - = $ $ $ $ $ $ $ $ O O $ O O O $ $ $ $ O O O O O O O O O O O O O O O O O O O O O O O O O O O O O O $ $ $ $ $ % $ % - 8 , , 1 > f g 9 9 > j j j j j l l j l l l f > > > f f > f f f > > 1 1 8 8 8 - % % = = : $ $ $ = = = = = = = = = = = = = = - - - > > 3 3 > > > > > 8 > 8 8 8 8 8 8 8 8 8 8 8 1 1 1 1 1 1 1 1 1 1 < < 1 < < < 1 1 1 1 1 1 < < 1 1 < < 1 < < f f j j x c f < < < < x f j j < < < < 1 j f f j 1 1 1 1 1 j j c c 1 1 1 1 1 1 j 6 6 6 6 6 6 6 6 6 6 6 6 6 6 6 6 8 5 5 5 5 5 5 - - - - - - - - - - ; ; : ; : : : : ; : : : : : : : : : : : ; - - : - - - : - - - - : : = = = = : : : = = = : = = = = = - % ",
"H H H H H H H H H H D D D D D D D D D D D D D D b b l l l l b b N b P N N N b b D b b b b b b b b b b b b b b b b D D D b D P P P P P P P U U U U U U U U U U U U U U U U U U U U U ' ' U ' ' ' ' U ' ' U U U U U U U U ' U U U U U U U U U U U U U U U U U L D P P P D D l l l b b b l j j j j j j j j j f f f f f f f f f f f f f f f < < < < < > < > < < < < > > < 1 1 1 1 , , = = , , , , = = = = = = = = = = = = = $ $ = = = = = = $ $ $ $ $ = $ $ $ O $ O O O $ $ O $ $ O O O O O O O O O O O O O O O O O O O O O O O O O O O O O O O O O O O O $ $ $ % $ - 1 9 > f [ u.| j j j j l l l l l l l l l l H l j j j j j j f f j j 1 1 8 8 , 8 8 - - - - = = = = = = = = = = = = = - - > > > > 3 3 8 8 > 8 8 8 8 8 8 8 8 8 8 8 8 8 8 8 1 1 1 8 1 1 < < 1 1 < < < < < < 1 1 1 1 < < < < < 1 f f 1 j j x f c c c c j f < j j j c j j f f 1 1 j c c j j j 1 1 1 1 j c c j j j 1 1 1 1 j 1 1 6 6 6 6 6 k 6 6 6 6 7 7 6 6 8 5 5 5 5 5 5 5 - 5 - - - - - - - ; ; : ; ; : : : ; ; : ; : : : : ; ; : ; - - - - - - - - - : : : : : : : : : : : = = = = : = = = = - - = ",
"H H H H H H H H D D D D D D D D D D D D D D D D N b N l l b b N D b l l l D b D D b b b b b b b b b b b b b b b b b b D D D P P P P P P P U U U U U U U U U U U U U U U U U U U U U ' U U ' ' ' U ' ' ' U U U U U U U U U U U U U U U L D D D U U U U U U U U D P P P P b b l l b l b l l j j j j j j f f f f f f f f f f f f f > > > < < > < < < < < < < < > > > , , , , , , , , , , , , , , , = = = = = = = = = = = = $ $ $ = = $ = $ $ $ $ $ = $ = $ $ $ O O O O $ $ $ $ $ O O O O O O O O O O O O O O O O O O O O O O O O O O $ $ O O O O O O O O O O $ $ O $ - = $ f 4XNXm.j f j l l l l l H H H H H H H H H H H l l l l l l l l f f > 1 1 1 8 8 8 - - - - - - - - = = = - - - - > > > > > > 8 8 8 8 8 8 8 8 8 8 8 8 8 8 8 8 1 1 1 1 1 1 1 1 1 1 < 1 1 1 1 1 1 u < x p c p 1 j c j f j f j c c c c c c c c c c j x c c c c j j j x j c c c c j j j 1 1 1 1 1 j j c 1 1 1 1 1 1 1 1 1 6 6 6 6 6 6 6 7 7 7 7 7 7 6 5 5 5 5 5 5 5 5 5 5 - - - - - - - - ; ; ; ; ; ; ; ; ; ; ; : : : : : : ; ; - - - - - - - - - - - : : : : : : : : : : = = = = = = = : - - - ",
"H H H H H H D D D D D D D D D D D D D D D D D P P P P P N N N N P b H ] H j b b b b b b b b b b b b b b b b b b D b D P P P P P P P P P P P U U U U U U U U U U U U U U U U ' ' U U U U U %.%.%.U U ' ' U U U U U U U U U U U U U U U L '  .' L U U P D U U U D D P P N b l l l l l l l l f j j j f f f f f f f f f < < < f < < > > < < < < < < < < < < > > > > > , , , , , , , , , , , , , , = = = = = = = = = = = = = $ $ $ $ $ $ $ = $ $ = = $ $ $ $ $ $ $ $ $ $ = $ $ $ $ $ O O O O O O O O O O O $ O O O O O O O O O O O O O $ $ $ O O O O O O O O O O O O O O - $ $ 3.4X3.9 > > f j j j l H H H _ _ _ _ ` ` ` _ _ _ H H H H L D H j j j f j j 1 1 > , , 8 8 8 8 - - - - - - > - 3 > > > > 8 8 8 8 8 8 8 8 8 1 1 1 1 1 1 8 1 1 p p p p 1 1 1 p p p 1 1 1 p p p x c c c c c c c j c c c c c c c c c c c c c c c c c c c j c c c j x c j j c c c j c j j 1 1 j 1 1 1 1 1 1 1 1 1 1 1 1 6 6 k 6 6 6 7 7 7 7 7 7 7 7 7 7 7 5 5 5 5 5 5 5 5 - - - - - - - - - ; ; ; ; ; ; ; ; ; - ; ; ; : ; ; ; - - - - - - - - - - - - : : : : % : : : - - : : = = = - - - - - ",
"H H H H H H D D H D D D D D D D D D D D D D D D P P P P N N D D D D } y.r.H b D b b b b b b b b b b b b b b b b P P P P P P P P P P P P U U U U U U U U U U U U U U U U U U U U U U U U U %.u.%.U ' ' U U U U U U U U U U U U U U U D L #.7. .L D U P D P P P P D b j j b l b l j j j j j j j j j j j f f f f f f f < < < < < < < < < < > > < < < < < < > > > > , , , , , , , , , , , , , = = = = = = = = = = = = = = = $ $ $ $ $ $ $ = $ $ $ $ $ $ = $ $ $ $ $ $ $ = $ O O O O O O O O O O $ $ O O O $ : : : O O O O O O O O $ O O O O O O O O O O O O O O O O O O = - $ $ , , $ , , > f f f l l l l H H _ _ _ ` ` ` ` _ _ _ _ _ H H H H H H l l j j l f j j 1 < 1 1 8 8 8 8 8 - - - - 8 8 8 8 8 1 8 8 8 8 8 1 1 1 1 1 1 1 1 1 1 p 1 1 1 1 8 1 1 1 1 p p c j c c c c c c c c c c c c c x x c c c c c c c c c c c c x x j c c c c c c c j c j c j j j j 1 1 j j 1 1 j 1 j j j k 1 1 1 1 6 k k 6 6 B B B 6 7 7 7 7 7 7 7 7 7 7 5 5 5 5 5 5 5 - - - - - - - - - e e - - - - - - - - - - - - - - - - - - - - - - - - : : : : : : : : - - - : : : : - = - - - - - - ",
"H H H H D D D D D D D D D D D D D D D D D D D P P P P P N b b D D j ] y.3.l D P b b b b b b b b b b b b b b b b P P P P P P P P P P P U U U U U U U U U U U U U U U ' ' U U U ' U U U U U  .%.' U ' ' U U U U U U U U U U U U U U U P L  .7. .D D U U D D D D P j l j j N l b j j j j j j j j j j j j f f f j f f f f < < > > < < < > > > > > > > > > > > > > > , , , , , , , , , , , , = = = = = = = = = = = = = = = = = = = = $ = $ = = $ $ $ $ $ = = $ $ $ $ = = = = $ O $ O O O $ $ O O $ % % : % : : : = : O O O O $ $ % % $ O $ O O O O O O O O O O O = O O = O O O $ $ - 8 $ $ 8 1 > 1 g j l l l l H _ _ _ ` ` ` ` ` ` ` ` _ _ _ _ _ H H H H H l l j l l f j j 1 1 1 8 8 8 8 8 8 1 8 , 1 1 1 1 1 8 8 1 1 1 1 1 1 1 1 1 1 1 1 1 1 1 , , 1 1 1 p p c c c c c c c c c c c c c c c c c x c c c c c c c c c b c c c x c c c c c c c c c c c c j c c c p 1 j j 1 1 c 1 j j k 1 1 1 1 k p k k k M k 6 6 6 7 k 7 7 7 7 7 7 7 7 7 7 5 5 5 5 5 - - - - - - - - - e e e - - - - - - - - - - - - - - - - - - - - - - - - - - : : - : : - - : : : : : - - - - - - - - ",
"H D H H D D D D D D D D D D D D D D D D D P P P P P P P N j l D P j j F H j P b l b b b b b b b b b b b b b D D P P P P P P P P P P U U U U U U U U U U U U U U U U U ' U U U U ^ U U ' U U ' U U ' U U U U U U U U U U U U U U U U U U U  .U P D U U P P P P P N j l j j k j j j j j j j j j j f j f f f < < < < < > > < > > > > > > > > , > > > > > > , > , , , , , , , , , , , , , = , , , , = = = = = = = = = = = = $ $ = = = = = = = = $ $ $ $ = = = = = = = = = = = = O $ = = $ $ $ $ = % : : : : : : = = $ O O O % % % % O O O O O O : % O O O $ O O O O : : O O $ = $ = - $ $ - 8 , 1 1 1 g j l l l l H H _ _ ` ` ` ` ` ` ` ` ` ` ` _ _ _ _ H H H H D D H l b l j j j j 1 1 1 1 1 , 1 1 , , 1 1 8 1 1 1 1 1 1 1 1 1 1 1 1 1 c c j K R x j 1 p c c c c c c c c c c c c c c c c c c c c c c c c b b b b b b c x f c c c c c c c c c c c c c c c c p 1 j j 1 1 1 p 1 1 k 6 1 j 6 6 M k k k M 6 8 6 B 7 7 7 7 7 7 7 7 7 7 7 5 0 0 5 5 5 5 5 0 0 0 0 - - - - e e e e e e - - - - - - e - - - - - - - - - - - - - - - : : - - - : - : : : : : - : - - - - - - ",
"H D H D D D D D D D D D D D D b D D D D P P P P P P P N N j l N P D D b b b N P l b b N b b b b b b b D b b P P P P P P P P P P P U U U U U U U U U U U U U U U U U ' ' ' ^ U U ^ U U ' U U U U U U U U U U U U U U U U U U U U U P P U D P U U P P P P P P N N N j j l l j j j j j j j j j j 1 f f < f < < < < < > > > < > > > > > > > , , , > > > > > , , , , , , , , , , , 8 8 , , = , , = = = = = = = = = = = = = = = = = = = = = = = = $ $ $ $ = = = = = $ = = = = = = = = = = = : : : : % : : : : % O O = O O O O O % % % O $ $ O : % : : % % % % O O O O = % O : O O $ = O = = = - , , 8 8 1 g j j l l l l L _ _ ` ` ` ....` ........` ` ` ` ` _ _ _ _ ` H H H D D l l l l j j 1 < < c < c c < u p 1 1 1 1 1 1 p 1 1 1 p p c c 1 f 3.3.b 1 j c c j c c c c c c c c c c c c c c c c c c b b b c c b b b b b b c f c c c c b c c c c c j j c c c c 1 1 j j 1 1 1 1 1 6 6 M j j 1 6 M k k M 6 6 B B B B 7 7 7 7 7 7 7 7 7 q 7 7 0 5 5 5 5 5 0 0 0 0 - - - - e e e e e e e e - - - - e - e - - - - - - - - - ; ; ; ; : ; ; ; - - - : - - - - - - - - - - - - ",
"D b b b D D D D D D D D D D b b D D D D P P P P P P P N P P P N N N D b N N l P P b l b b b b b b b b P P P P P P P P P P P P P U U U U U U U U U U U U U U ^ U ^ U U ' ' ' ' ^ ' ' ' ' U U U U U U U U U U U U U U U U U U U U P P P P P P U P P P P P P P N N j N N j j l j j j j j j j 1 < 1 j j j < < < > > > > > > > < > > > > > > > > > , , , , , > , , , , , , , , , , , 8 8 = = = = , = = = = = = = = = = = = = = = = = = = = = = = $ $ $ = = = = = = = = = = = = = = = % : % : = = : $ = = = = : O O O O O O O O O O O $ $ = : : : : : : % % O O = : O = = : : : $ $ = = = = = - - - - 8 8 8 1 > f j j l l H H _ ` ` ..@.@...O.....$.$...........` ` ` _ _ L L L L H D D b l j j c c < b x f < < 1 1 1 1 1 1 1 1 1 p p c j c < f R | b j c j c c c c c c c c c c c c c c b b b c c b b b b b b b b b b b b c c c b b c b b b b c c c j c c c c j j j j j j 1 j 1 j c M k k 6 k M 1 B V M 6 B B B 7 7 q k 7 k k 7 7 q q 7 7 5 0 0 5 5 5 0 0 4 - e e e - - - - - e e e e - - - - - - - - - - - - - - - - - - - ; - - - ; : - : - - - : : - - : - - - - - ",
"D b D b D D D D D D D D D D D b b D D P P P P P P P P N P P P P N P P P N j N N N b b b b b b b b b N P N P P P P P P P P P P U U U U U U U U U U U ^ U U U U U U U U U U ^ ^ ^ U ' ' U U U U U U U U U U U U U U U U U U U U U P P P D P P P P P P N N N N N N j j j j k j j j j j j j 1 1 1 < j j < 1 > > > > , > > > > < > > > > > > , , , , , , , , , , , , , , , , , , , 8 , 8 = = = = , , = = = = = = = = = = = = = = = = = = = = = = $ $ = $ = = = = $ = = = = = = = = = = $ $ $ $ $ : = = $ $ = : : O O O O O : O O = O $ - - - - : : : % : % % = : : : : : : : : : : : = = = - - - - - - - 8 8 1 > > f l l l H H H ` $.$.` ..O.O.O.O.@.@.O.O.O.O.@.$.$.` ` ` ' ' _ H H L L D D l b b c j | u. ., 8 1 1 1 1 1 p c c c c c c c c j x f f c c c c c c c c c c c c c b b b x v b b b b c b b b b b b b b b b b b b b b b b b b b b c c c c c c c c j c c j j j j j 1 M c M k k k M 1 1 ^ %.^ M 6 6 7 B 7 B k B k k 7 7 q q q q q 0 0 0 0 0 0 0 0 0 0 0 e e e e e e e e e e e e - - - - - - - - - - - - - - - - - - - - - - : : : : - - : : - - - - - - - - ",
"H D D D D D D D D D D D D D D D b D P P P P P P P P P N P N N N N N N N j N P N l N N N N N N b b b N P N P P P P P P P P P P U U U U U U U U U U U ^ U U U U ^ U U U U U U U ^ ' ' U ^ ^ ^ U U U U U U U U U U U U U U U U U P U  . .L D P P P N N N N j N N N N j j j k j j j j j j j j 1 1 < j 1 1 < > > > > > > > > > > > > < < > > , , , , , , , , , , , , , , , , , , , 8 8 , , = = = = , = = = = = = = = = = = = - = % % = = = = = = = = = = = = = $ $ = $ = = $ $ = = = = $ = = $ = = O = O O O = : O O O O : : : : O O $ - 8 5 5 : : : : : : : : : : : : : : : : : : : - - - - - - - - - - - 8 8 1 1 1 j j l l H H _ _ _ #.O.O.O.&.&.&.&.&.&.&.&.&.@.@.O.X...$...` ` ` ' ` L L L D D v H m.uXu.< 1 c c j c c c j j c c c c c c c c j c c c c c c c c c c c b c b b b b b v v b b b b b b b b b b b b b b b b b b b b b b b b b b b b b c c M c c c c c j j j 1 j M M M k k M M j j ^ ^ Q M M M 6 6 B B B k k k q q q q q q q q q 0 0 0 0 0 0 0 0 0 0 0 e e 0 0 0 0 0 e e 0 0 e e e - - e e - e - - - - - - - - - - - - - : : : - - - - - - 8 6 8 - - - ",
"D D D D D D D D D D D D D D D D D P P P P P P P N P N N P N N N N N N P N N N N N N N N N N N N N N N P N P P P P P P P P U U U U U U U U U U U U U ^ ^ U U U ^ U U U ^ ^ U U ' ^ ^ ^ ^ ^ U U U U U U U U U B U U U U U U U U P U  .u. .D P P N N N j j N N N j N j j k k k j j j 1 j j < 1 1 1 1 1 1 > < < , f D f > > > > < < > < > , , , , , , , , , , , , , , , , , , , , 8 , , , = = = , = , , = = = = = = = = = = = - - - = = = = = - = = = = = = - $ = = $ = = = = = = O = = = = = = = O O O O O : : O O O O O : : : O O = - 8 5 - : : : : : O : O O : : : : : : : : : - - - - - - 8 8 - 8 8 8 8 8 1 1 1 1 g f j H H L l #.tXm...O.&.&.&.&.&.-.-.&.&.&.&.&.O.@.@.O.$.....` ` ` ` ' _ H l H 7.m.#.j b c c c c c c c c c c c c c c c c b c c c c c c c c c c c b c c b b b b v v b b b b b b b b b b b b b b b b b b b b b b b b b b b b b b c c M c c c c c j c M M M M M M M M M M M V B j j ~ ~ B 6 B B k k ! ! z q q q q q q q q q q q q 0 0 0 0 0 0 0 0 0 0 0 0 0 0 0 0 0 0 0 0 0 e - e e e - - - - - - - - - - - - - - - - - : : 5 q 8 - c  .W 6 - - ",
"D D D D D D D D D D D D D D P P P P P P P P P P P P N P N N N N N N N N N N N N N N N N N N N N N N N N N P P P P P U U U U U U U U U U ^ ^ U U U U U U ^ U ^ ^ ^ U U P j U ^ U ^ ^ ^ ^ ^ U U U U U U U U U U U U U U U U U U N D  .%. .D P P N N N N j N N j j k k k j j j j j 1 1 j 1 < < 1 1 1 > > > > f 9  .<.j > > > > > , , f N < $ , , , , , , , , , , , , , , , , , , , , , 8 8 , , , , , , = = = , , , = = = = = = = - = = = = = = $ - = = = $ - % $ - = = $ = = $ = = = = = = = $ $ O O O O = O O O O O O O O O O O O : - - - : : : : : : : : O : : : : : : : : : : - - - - - - 8 8 8 8 8 8 8 8 1 1 1 1 1 j f j l D l @.!.w...O.&.&.&.&.&.=.-.&.&.-.-.-.-.&.&.&.&.O.O.@...$.$.$.$.` ` ' H H j v D v b c c c c c c c c b b b b b b b b c b b b b b b b b b b b b b v b b b b b b b b b b b b b b b b b b b b b b b b b b b b b b b b N b b b b c c c c M M M M c M M M M M k M M M B k 1 M M V ~ 7 7 B B z z ! 7 q q q q q q q q q q q 0 0 0 0 0 0 0 0 0 0 0 0 0 0 0 0 0 0 0 0 e e e e 0 0 - - - - - - - - - - - - - - - - - - ; : 5 q 8 $ c 1. .M % - ",
"D D D D D D D D D D D D D D P P P P P P P P P P P N P P N N N N N N N N N N N N N N N N N N N N N N N N N N P P P U U U U U U U U U U U ^ ^ U U ^ ^ U U ^ U U U ^ ^ U P P %.U U ^ ^ ^ ^ ^ ^ U U U U U U U U U U U U U U U U U P D G  .W P P N N N N N N N j j k k k k k j j j 1 1 1 1 1 1 < 1 < 1 1 > > < < 9 W %.D > , , > , , , c ^ c $ , , , , , , , , , , , , , , , , , , , , , , , , , , , , , , , , , , , , , , , , , = = = = = = , , = = = = = = = = = = = = = = = = = $ = = = = = = = = O O O = O O O O O O O : O O O O : : : $ % : O O : O O O O O : : : : : : : : : - - - - - 8 8 8 8 8 8 8 8 6 6 1 1 1 1 j j l j j l H _ ` O.O...O.&.&.&.=.=.&.-.-.:.-.-.-.-.-.&.&.&.&.&.@.@.@.@...@.| H H H D G D b b b b b b c c b b b b b b b b b b b N b b b b b b b b b b b b b b b b b b b b b b b b b b b D G b P b b b b b b b b b b b b N b b b b b M M M M M M M M M M M M M M k k M M M M B B k 6 B 7 B B B ! B ! k q q q q q q q q q q q q q q q q q 0 0 0 0 0 0 0 0 0 0 0 0 0 0 0 0 0 0 0 0 - - e - e - - - - - - e - - - - - - ; : - 7 8 % - p M 6 % 8 ",
"D D D D D D D D D D D P P P P P P P P P P P P P P N N N N N N N N N N N N N N N P N N N N N N N N N N N N N P P U U U U U U U U U U U U ^ B ^ ^ ^ ^ ^ U U U U B U U U U %.u.%.U %.^ U ^ ^ ^ U U U U U U U U U U U U U U U U P U P D U P N N N N N N N b j k j k k k k k j j j 1 1 1 1 1 1 1 1 1 1 1 > > > < , < l f > , , , , , , < c 1 $ , , , , , , , , , , , , , , , , , , , , , , , > > > > > , , , , > > > , , , , , , , , , , , , , , , , , , , , , , , , = = - - = = = - = = = = = = $ = = O = = O = O O : = : : : : O O O O O O O O O O O O O O O O O : O O : : : : : : - - - - 8 8 8 6 8 8 6 6 6 6 6 6 k k j j l H H H L H $.@.` ` @.@.O.&.&.&.=.,.:.:.-.-.-.-.-.-.-.-.-.&.&.&.&.&.@...X.@.#.| ' L L D D D b b b b c b N b b b b b b b b b b b b b b b b b b b b b U U G b b b b b b b b b b b b G b G b P b b b b b b b b b b b b b N b b N b N N M M M M M M M M M M M M M k M M k M B B M M B B B B ! ! ! z ! z q q q s q q q q q q q q q q q q q 0 0 0 0 0 0 0 0 0 0 0 0 0 0 0 0 0 0 0 0 - 0 0 e 0 - - - - e e e e - - - - - - - - - - - - 8 8 8 8 ",
"D D b D D D D D D D D P P P P P P P P P P P P P N P N N N N N N N N N N N N N N N N N N N N N N N N N N N N P P U U U U U U U U U U U U ^ U U ^ ^ ^ U U U U ^ B U ^ ^ U OXGXXX^ U ' ^ ^ ^ ^ ^ U U U U U U U U U U U U U U U j B U P N N N N N N j j j l k k k k j j k j j j 1 1 1 1 1 1 1 1 > 1 1 > > > < < , , , , , , , , , , , , , , , , , , , , , , , , , , , , , > > > > > > > > > > > > > > > > > > > > > f > > > > f > > > > > f f > > > > > > > > > > > , , , , , , , , = - - - - - - = = = = = = = = $ = = = : : O O O O O O O O O O O O O O O O O O O O O O O : : : : : - - - - 8 8 8 8 8 6 6 7 7 k k k k k k j H  .#.L H ` ` _ ` $.$.O.&.O.&.>.=.-.-.:.>.,.,.,.-.-.-.-.-.-.-.&.&.&.O.@.&.@.@.` ` ' L L L D D b N N N b N N N N b b b b b b b b b b b b b b b b b U I U b b b b b b b b b b D G G G G U b D D G G U P b b b b N N b N b N N N N N N M M M M M M M M M M M k k M M M M B B B B B B B B B ! ! ! ! z z z s q q q q q q q q q q q q q q q q q q q q q q q 0 0 0 0 0 0 0 0 0 0 0 0 0 0 0 0 0 5 - - e 0 0 e 5 5 5 - - - - 5 - 5 5 5 8 - 5 8 ",
"b D D D D D D D D D D P D D P P P P P P P P P P P P N N N N N P N N N N N N P P N N N N N P P P P P P P N P P P U U U U U U U U U U U ^ ^ U ^ U U U U U U U U U U ^ U N OXGXXXU P ' ^ ^ ^ ^ ^ U U U U U U U U U U U U U U U B B U P N N N j N j j j k k k k k k j j j j j j 1 1 1 1 1 1 1 1 > > > 1 , , 8 , , , , , , , , , , , , , , , , , , , , , , , , , , , , , > > > > > > > f f f f f f f f f f f f j j j j j j j j j j j j j j j j j j j f f j f f f f f < < f < f < < < , , $ , , , = - - - - - = = = = = = = = : : : O O O O O O O O O O O O O O O O O O O O : : : : : : - - - - 8 8 8 8 8 6 6 7 k k B M M N N k D | #.H H ` ' _ ` ` ` ..O.&.&.&.&.-.-.-.-.,.,.,.,.,.,.-.-.-.-.-.-.-.-.&.&.&.@.@.$.` ` ' ' L L D b b N N N N N N N N b b b b b b b b b b b b b b b G G G b b b b b b b b b b D G G G G D D D D D G b N D D D b b D b N N N N N N N N N c M M M M M M M M M M k M M M M B B B B B B B B B B ! ! ! ! ! ! q q q q ! ! s s q q q q q q q q q q q q q q q q 0 0 0 0 0 0 0 0 0 0 0 0 0 0 0 0 0 5 5 - - - 5 - - 5 5 5 5 5 5 5 5 5 5 8 8 8 8 8 ",
"b D b D D D D D D D D D D D P P P P P P N P P N P P P P N P N N N N N N N N P P N N P N N N N P P P P P N N N U B U U U U U U U U U U U U U U U U U U U ^ ^ U U U U B N U %.%.U U U ^ ^ ^ ^ U U U U U U U U B B U N U ^ U U B N B N N N N j j k M k k k k k k j j j j 1 1 1 1 1 1 1 1 1 1 1 > > > > , , , , , , , , , , , , = , , , , , , , , , , , , > , > > > < > < f f f f f f j j j j j l l l l l l l l l l l l l l l l l l l l l l l l H H l l l l H l j l j j j j j j j f f < b < > < < < 8 8 8 8 - - - - = = - = = = = O O O O O O O O O O O O O O O O O O O O : O : : : : : : - - - 3 3 8 8 8 6 6 6 k B M B B B B b H H l U L _ ' ` ` ..$...O.O.&.&.&.-.-.-.,.,.,.,.,.,.,.,.,.-.-.-.-.-.-.-.-.&.@.@.@.$.` ` ' L L D D b N N N N N N N b b b b b b b b b b b b b b b b b b b b b b b D D b b D b G G G G D D D D D D G U D D D D P P P N N N N N N N N N M M M M M M M M M N M M M M N N B B B B B B B B B ! ! ! ! ! ! ! q q z ! ! ! ! ! q q q q q q q q q q q q q q q q 0 0 0 0 0 0 0 0 0 0 0 0 0 0 0 0 0 0 5 5 e 5 5 - 5 5 5 5 5 5 5 5 5 5 5 8 8 8 8 8 ",
"b b D D D D D D D D D D D P P N P P N P N P N N P P P P P P N N P N N N N N P P P N N N N N P P B N P P N N B B B U U U U U U U U U U U U U U U U U U U U B U U B U U U U P P U ^ ^ U ^ U U U U ^ U U U U B B B B B U g > N B j B B B N k k k k k k k k k k k j 1 1 1 1 1 1 1 1 1 1 1 1 1 > > > 8 , , , , , , , , , , , , , , , , , , , , , , , , , > > > f f f f f j j j j j l l l l H H H H H H H H H H _ _ _ _ _ _ _ _ _ _ _ _ _ _ _ _ _ _ _ _ _ H _ _ H H H H H H H H H H l j u.jX3.f j j f f f 1 1 < , , , , 8 - - - - - = = = = = = : O O O O O O O O O O O O O O O O O : : : : : : : - - - 8 8 6 6 6 k k M B B B N b U b j U L ` ` ` ` $.$.$.$.@.@.@.&.&.-.-.-.,.,.,.i.g.g.g.g.q.,.,.,.-.-.-.-.-.&.&.@.@.@.@.` ' ' L L P b N N N N N b b b b b N b b b b b b b b b b b b b b b b b b b b b D D D G G G G U G G G G G G U U U U D D D P N D b N N N N N N M M M M M M M N N N M M M M B B B B B B B B B B B ! ! ! ! ! ! ! z ! ! ! ! ! ! ! q q q q q q s q q q q q q q q q 0 0 0 0 0 0 0 0 0 0 0 0 0 0 0 0 0 0 0 0 0 0 5 5 5 5 5 5 5 5 5 5 5 5 5 5 5 8 8 5 ",
"b b b D D D b D D D D P D P P N P P N N N N N N P N U P N N N B N N N N N N P P N N N N P P N P B P U U B B B B B U U U U U U U U U U U U U ^ U ^ U U U U ^ U U B ^ ^ ^ ^ ^ ^ U ^ ^ ^ ^ U U U U ^ U U U U U ^ B U U b %.u.U N N B N N B k k k k k k k k k j k 1 1 1 1 1 1 1 1 1 1 1 1 1 1 > > , , , , , , , , , , , , , , , , , , , , , > > > > < < f f j j j j j l l H H H H H H _ _ _ _ _ _ ` _ _ _ ` ` ` ` ` ` ` ` ` ` ` ` ` ..` ` ` ` ` ..` ` ` _ ` ` _ ` ` ` _ _ _ _ _ _ _ H OXPXu.l _ l j v v v f f f < < < < 1 , , 8 - - - - - - = = = = = = = = O O O O O O O O O O O O O = : : : : = - - - 8 8 8 6 6 6 6 M B B M N %.U j P U ' L ` ` $.` ` $.$.@.@.@.&.-.-.-.-.-.,.,.g.g.g.g.g.g.g.g.h.w.,.-.-.-.-.-.-.&.@.@.| ` ' ' L G D D b N N N b b b b b b b b b b b b b b b b b b b b b b b b D G G b D D G G U G G G G G G U U U U G G U P P U U G b b N N N N N N N M M M N N N N N N N B B B B B B B B B B ~ ! ! ! ! ! ! ! ! ! ! ! ! ! ! ! ! s q q s q q q q q q q q q q q q 0 0 0 0 0 0 0 0 0 0 0 0 0 0 0 0 0 0 0 0 0 0 5 5 5 5 5 5 5 5 5 5 5 5 5 5 5 5 5 5 ",
"v b b b D D b D D D P P P P P P P N N N N P P P N N B B N P N N N N N N N P P P N N N N U U N B U U B U U U U B B B U U U U U U U U U U U U U U U U U U U U U ^ ^ U U ^ ^ ^ ^ ^ U U ^ ^ ^ U U U ^ U U U U U U ^ U N 9 FXPXP k B N N j j k k k k k k k j 1 1 1 1 1 1 1 1 1 1 1 1 1 1 1 > > > 1 8 , , , , , , , , , , , , , , , , , , , > > > > > f f f v H l l l H H H H H H _ _ _ ` ` ` ` ` ............................O.O.O.O.O.O.O.O.O.O.O.O.............O.X.....` ` ` ` _ ` H | OX| H ` _ H H H H H H H v v j f f f f < < , , , = - = - - = = = = = O O O O O O O O O O O O O O O : : = = = = - - 8 8 8 8 6 6 p M B B B U N f H L L L U ' ' ' ` $.@.$.$.@.@.&.&.&.-.-.-.-.,.i.g.g.g.g.g.g.g.g.g.g.,.,.-.-.-.-.&.@.@.$.` ' ' L L L U P D b b b b b b b b b b b b b b b b b b b b b G b b D b D D G G G G G G D G G U G U G U U U U D D D U D b b b U N N N N N N N M N N N N N N N N N B B B B B B B B B B ~ B ~ ! ! ! ! ! ! ! ! ! ! ! ! z ! q q q q a s q q q q q q q q q q 0 0 0 0 q q 0 0 0 0 0 0 0 0 0 0 0 0 0 0 0 0 5 0 5 5 5 5 5 5 5 5 5 5 5 5 5 5 5 5 ",
"b b b b b b D D b D N P P P N N N N N N N N P N N N B B N N N N N B N B N N N N N B N N P U U U U B U U U U B B B B U U U U U U U U U U ^ ^ U U U U U U U U ^ ^ ^ U U ^ ^ ^ ^ ^ U ^ ^ ^ ^ U U U U U U U U B j N U P 9 OXjXN N B N j k k k k k k k k k 1 1 1 1 1 1 1 1 1 1 1 1 1 1 > 1 , > , , , , , , , , , , , , , , , , , , , , > > > > f f j j j j H H H H _ _ _ _ _ _ ` ` ` ............O.O.O.O.O.O.O.O.O.O.O.O.&.&.&.&.&.&.&.&.&.&.&.&.&.&.&.O.&.&.O.*.O.X.O.O.O.O.O.O.O.O.` _ ` ` ..X.` ` ` _ _ _ _ H H H H H H v v j j f f < < , , , , = = - - = = = = O O O O O O O O O O O O = O O = = = = - - 3 8 8 8 8 6 6 M B U v 3.u.H P U U U ' ' ' ' ' @.$.@.@.@.@.&.&.&.-.-.-.-.,.g.g.g.g.g.g.g.g.g.g.g.g.g.,.,.-.-.&.@.@.@.$.' ' ' L U G D G D b b b b b b b b b b b b b b b b b b b b b G b G D D G G b G G G D D D G G U G U U U U U D b b G D b b P N N N N N N N N N N N N N N N N B B B B B B B B B B B B ~ ~ ! ! ! ! ! ! ! ! ! ! ! ! ! ! a w q q s q q q q q q q q q q q q q q q q q q q 0 0 0 0 0 0 0 0 0 0 0 0 0 0 0 0 0 5 5 5 5 5 5 5 5 5 5 5 5 5 5 5 ",
"b b b b b b b b b N N N b N N N P N N P P P P P N N B B B B N B B B B B N N N N N N U P P U U N N U U B U U U U B B B U B B U U U U U ^ ^ ^ ^ ^ ^ ^ U U U ^ ^ ^ ^ ^ ^ ^ ^ ^ ^ ^ U U ^ ^ ^ U U U B B B B B B B B N B M 1 N V B B M M k k k k k k 1 1 1 1 1 1 1 1 1 1 1 1 1 1 8 8 1 , 8 , , , , , , , , , , , , , , , , , , , , , > > > f f j j j l H H l l H _ ` { ` ` ` ........O.O.O.O.O.O.&.&.&.&.&.&.&.&.&.&.&.&.&.=.=.=.=.=.=.:.:.:.:.:.:.:.&.&.q.h.&.&.-.j.:.O.:.=.&.&.&.:.:.-.&.&.&.&.O.O.O.........` ` ` _ _ _ H H H H H v j f f f < < , , , = - = = = = = = = = = O O O = = O O O O = = = = = - - - > 8 8 8 8 M M > F iXvXu.D U U U U ' ' ' ' ' ' @.@.@.@.@.&.&.&.-.-.-.-.,.w.h.g.g.g.g.g.g.g.g.g.g.g.i.,.,.,.,.;.@.@.@.| ` ' ' U L D D G b b b b b b b b b b b b b b b b b G G G G G G b b G D G G G G D D G G G G G G G D D U W b b W  .U b b b b b N N N M N N N N N N N N B B B B B B B B B B B ~ B ~ ~ ! ! ! ! ! ! ! ! ! ! ! ! ! ! ! a q q s q q q q q q q q q q q q q q q q q q q 0 0 0 0 0 q q q 0 0 0 0 0 0 0 0 5 5 5 5 5 0 0 0 5 5 5 5 5 5 5 5 ",
"b b b b b b b b b N N N N N N N N N P N N N N P N B B B B N N B B B B B B N N B N N N b l N N N N U B B U U U U B B B B B B U U U U ^ ^ ^ ^ ^ ^ ^ ^ ^ ^ U ^ ^ U ^ ^ ^ ^ U ^ ^ ^ U U ^ ~ ~ ~ U B B B B B B B B B k k B k 6 B B k M k k k k k k 6 1 1 1 1 1 1 1 1 1 1 1 1 1 1 1 8 8 8 , 8 , , , , , , , , , , , , , , , , > > > > f f f j j l H H H H _ { { ` ` X...X.....O.O.&.&.&.&.&.&.&.&.&.&.&.=.=.:.:.:.:.:.>.>.>.>.>.>.>.>.i.i.i.i.i.i.i.i.>.>.x.Q.g.&.x.W.g.=.>.>.>.=.:.>.>.a.a.>.&.&.&.&.&.&.&.&.&.O.O.O.X.X.` ` ` _ _ _ H H H H v v f f < < < , , * = = > > > & = = = = = = O O O = = = = = = - = = > > > > 8 6 M , F iXvXr.l U U U U ' ' ' '  . . .@.@.@.@.@.@.;.;.;.,.-.,.-.,.i.g.g.g.g.g.g.l.l.l.g.g.g.w.,.,.,.,.;.@.@.@. .' ' ' L L G G G D D D D b b b b b b b b b b b b b b G G G b b b G G G G G G G U U G G G G G D D U U b b W  .U b U b b N N N N N N N N N N N N B B B B B B B B B B ~ ~ ~ ~ ~ ~ ~ ! ! ! ! ! ! ! ! ! ! ! ! ! ! ! s q q q q s q q q w q q q q q q q q q q q q q q 0 0 0 q q q q 0 q q 0 0 q q 0 5 5 5 5 5 5 5 5 5 5 5 5 7 7 7 ",
"b b b b b b b N N N N N N N N P N P N N N N N N P B B B B B B B B B B B B B B B B B N U %.B N U B B U U U B B B B U U B B B U U U U U ^ ^ ^ ^ ^ ^ ^ U U ^ ^ ^ ^ ^ ^ ^ ^ U U U ^ U U B B ~ ~ B B B B B B B B B B B B k B B B M k k k k k 6 6 6 6 1 1 6 1 1 1 1 1 1 1 1 1 1 1 1 , 8 8 8 , , , , , , , , , , , , , , > > < > f f f j j l l H H H _ H _ o.q.-.X.X.O.O.O.&.&.&.&.&.&.&.&.-.:.:.:.:.>.>.>.>.i.i.i.i.i.i.d.d.d.i.d.d.d.k.k.k.k.k.k.k.k.k.d.d.k.d.i.z.Q.d.i.d.d.d.i.i.a.i.i.d.a.>.9.>.:.>.>.:.:.:.:.-.-.&.&.&.O.O.X.X.` ` _ _ H H H H v v x x < < < , , , > > * - = = = = = = = = = = = = = = = = = - > > > > 8 p 1 f 1.3.L l B U B U U ' ' '  . . . . .@.@.@.@.@.;.&.&.-.-.-.-.,.i.g.g.g.g.l.l.l.g.d.g.g.g.g.h.w.,.,.;.;.@.@.@.| ' ' L L L G D D D D b b b b b b b b b b b b b b b b b b b G G G G D G G G G G G G G G G G G U U b b U U b b U P U P N N N N N N N N N N N B B B B B B B B B ~ ~ ~ ~ ~ ~ ~ ~ ~ ! ! ! ! ! ! ! ! ! ! ! ! ! ! a a q q q a q s w w q z q q q q q q q q q q q q q q q q q q q 0 0 0 0 q 7 7 q 0 5 5 5 5 5 5 7 7 5 5 5 7 7 7 ",
"b b b b b N N N N N N N N P N N N P N N N N N B N B B B B B B B B B B B B B B B U B l %.OX%.j N U B U U B B B B B B B B B B U U U U U ^ ^ ^ ^ U ^ ^ U ^ ^ ^ ^ ^ ^ ^ ^ ^ U U U U B B B B B B B B ~ B B B B B B B B B k k B k k k k k k k 6 6 6 6 6 1 6 1 1 1 1 1 1 > 1 1 1 1 > , 8 8 , , , , , , , , , , , , , , < < f f f j j l l H H H _ _ _ ` ` ` +.q.4.O.O.&.&.&.&.&.&.&.=.:.:.:.:.>.>.>.9.a.i.i.d.d.d.d.d.d.k.k.k.k.k.l.l.l.l.l.M.M.l.M.M.M.l.l.l.l.l.l.k.k.k.l.l.k.l.k.k.l.l.l.i.k.k.k.k.d.d.d.d.d.d.i.i.>.>.>.:.:.-.-.&.O.O.X...` _ _ H H H H H v v x x < u < , , , * * * > > - - = = = = = = = = = = = = & > > > 8 8 8 < < < N P P B U U U '  . . . . . . .#.#.#.@.@.@.;.&.-.-.-.-.-.,.g.g.g.l.l.l.N.l.d.g.g.g.h.h.w.,.-.,.;.@.@.@.| ` ' ' L L D G G D b b b b b b b b b b b b b b b b b b b G G D D D P G G G G G G D G G G G G U U D D G G G U U U U N N N N N N N N N B V B B B V B B B B ~ ~ ~ ~ ~ ~ ~ ~ ~ ~ ~ ! ! ! ! ! ! ! ! ! ! ! ! ! s a q a q q a a w w z z q s w q q q q q q q q q q q q q q q 0 0 q 0 q q q 7 q 7 5 5 5 5 5 5 7 7 7 7 7 7 7 7 ",
"b b b b N N N N N N N N N P N b j N N N N N B B B B B B B N B B B B B B B B B B B B j %.OX%.j N B B U U B B B B B B B B B U ~ ^ U U U U ^ ^ U ^ ^ ^ ^ ^ ^ ^ ^ ^ ^ U ^ ^ U U ^ B ~ ~ B ~ ~ ~ B B B B B B B B B B k B B k k k k 6 k k 6 6 6 6 6 6 6 6 1 1 1 8 8 8 > > 1 8 8 8 8 8 8 , , , , 1 , , , , , , > > > > f f j j j l H H H _ _ _ ` ` ........O.*.&.O.&.-.-.&.:.:.:.:.:.>.>.>.>.i.a.a.d.d.d.d.d.k.k.k.k.k.l.l.l.l.M.M.M.M.M.M.M.M.M.M.M.M.M.M.N.M.M.M.M.M.M.M.M.M.M.M.M.M.M.M.M.M.M.N.M.l.l.l.l.l.l.k.k.k.d.d.a.a.a.9.:.:.-.&.&.O.X...` ` _ _ _ H H H v v x x x u < , , , * * > > > - - = = & = = = = = & & & > > > , u 8 1 M M M N P U B U U '  . . . . . . . .#.#.#.@.@.;.;.&.-.,.-.-.,.i.h.g.d.x.1XQ.l.l.l.g.h.h.h.q.,.,.,.;.;.@.@.| ` ' ' U U U U D D D G b b b b b b b b b b b b b b b b b G D N N P D G G G U D D U G G U U U U G G U U U U U U P N U N N N P P V V B V V V V V V V V V ~ ~ B B B ~ ~ ~ ~ ~ ~ ! ! ! ! ! ! ! ! ! ! ! ! ! a a q s s q a a a w z z w q w w w q q s s q q q q q q q q q q q q q q 7 7 q q q 7 5 5 q q q 7 7 7 7 7 7 7 7 ",
"b b b N N N N N N N N N N N N N N N N N N N B B B B B B B N B B B B B B B B B B B B k N P j U B B B B B B B B B B B B B B B ^ ^ U U U U ~ ^ ^ ^ ^ ^ ^ U ^ ^ ^ ^ U U U U U U B ~ ~ ~ ~ ~ B ! B B B B B B k k B k k k k k k 6 k 6 k k 6 6 6 6 6 6 6 1 6 1 8 8 8 8 8 , 8 8 8 8 8 , 1 , , < , , < , , > , > > f f j j j l l H H H _ _ ` ` ` ..O.O.O.O.O.O.&.&.-.-.-.:.:.:.:.>.>.>.>.9.a.a.a.d.d.d.d.k.k.k.k.k.l.l.l.l.l.M.M.M.M.M.M.M.M.M.M.M.M.M.M.M.M.M.M.B.B.B.M.B.M.M.M.B.B.M.M.M.M.M.M.B.B.M.M.M.M.M.M.M.M.M.M.M.l.l.k.k.k.d.a.9.>.:.-.-.&.&.O.X.X.` ` _ H H F H H v v x x u u u , , , , , , > * * & & = = & & & & > > & > > 8 8 p p p c N N P U U U ' '  . . . . . .#.#.#.#.@.@.@.;.;.;.-.-.-.,.g.g.9.x.W.K.g.l.l.g.g.g.g.g.g.w.w.,.,.&.@.@.@.` ' ' ' U U L D D D b b b b b b b b b b b b b b N N b G P N N P D G U U U D U U G G G U U U U U U U U U U U N N U P N P B P V V V V V V V B V V V V ~ ~ B B B ~ ~ ~ ~ ~ ~ ! ! ! ! ! ! ! ! ! ! ! ! ! a a a q q q a w w w z z w w w w w w s q s s q q q q q q q q q q q q q q q q q q 5 5 7 q q q q 7 7 7 7 7 7 7 ",
"j l N N N N N N N N N N N l b U U N N N N N N B B B B B B B B B B B B B B B B B B B B B j N B B B B B B B B B B B U U B B B U U ^ ^ ^ ^ ^ ^ U U ^ ^ ^ ^ U U U U B B ~ ~ ~ ~ B B ~ B B ~ ~ B B B B B B k k k k B k 6 6 k k 6 6 6 6 6 6 6 6 6 6 6 1 1 1 1 8 8 8 8 8 8 8 8 1 1 1 , 1 , $ $ $ 9 , , > f f f j j l l l H H H _ _ ` ` ` ....O.O.&.&.&.&.&.&.-.-.:.:.:.:.>.>.>.>.>.a.a.a.a.a.d.d.d.d.d.k.k.k.k.k.l.l.l.l.M.M.M.M.M.M.M.M.M.M.M.M.M.B.B.B.B.B.B.B.B.B.B.B.B.B.B.B.B.B.B.B.B.B.B.B.B.B.B.B.B.B.M.B.B.B.B.M.M.M.M.M.M.l.l.k.d.d.a.>.>.:.:.-.&.&.O.O.X.` ` _ H F F H v v x x x u < u u u < , * > * & & & & & & & > & > > > > 8 8 8 p M c M P U U U U  . . . .%.%.%.#.#.#.#.#.#.@.@.;.;.-.-.-.-.w.-.q.x.g.a.x.x.l.l.l.g.l.g.h.w.,.,.,.;.&.@.@.$.` ' ' L L L G D D b b b b b b b b b b b b b b b G P N b D D G U G G D D D G U U b G G U U U U P P P U U U P U U N P P N B B B B B B B B B V V B B B B B ~ ~ ~ ~ ~ ~ ~ ~ ! ! ! ! ! ! ! ! ! ! ! ! ! a s q q w w q w z w w w a w w w w w w q z q q q q q q q q q q q q q q q q q q 0 q 0 7 q q q 7 7 7 7 7 7 7 ",
"j j N N N N N N N N N N N b U B B N N B N N B B B B B B B B B B B B B B B B B B B B j U B j B B B B B B B B B B B ~ B ~ B B U U ~ ^ ~ ~ ^ ^ U U U ^ ~ ~ U U U B B B ~ ~ ~ ~ B B ~ B B B B B B B B B k k k k k 7 7 6 6 6 6 6 6 6 6 6 6 6 6 6 6 6 1 8 1 8 8 8 8 8 8 8 8 8 8 , 1 1 , , 1 c , 9 > > f j j j l l H H _ _ _ ` ` ` ......O.O.&.&.&.&.&.&.-.-.:.:.>.>.>.>.>.a.a.a.a.a.a.a.d.d.d.d.d.d.d.d.d.k.k.k.k.l.l.l.M.M.M.M.M.M.M.M.M.M.M.M.M.M.B.M.B.B.B.B.B.B.B.B.B.B.B.B.B.B.B.B.B.B.B.B.B.B.B.G.G.B.B.B.B.B.B.B.B.B.B.M.M.M.M.M.M.l.l.k.d.d.a.i.>.:.-.&.&.O.O.X.` _ _ H H H H v v x x x x x u u , , * * & & & & & & & & & & & > > > 8 u p p c c b N U U U  . . . .%.%. .#.#.#.#.#.#.#.#.#.;.;.-.-.-.-.-.w.,.,.h.h.l.l.l.l.l.x.h.h.w.,.-.-.-.;.@.@.$.` ' ' L L U U G D b b b b b b b b b b b b b b b b b b D P P P P D G G D D b D U U U U U U U P P P P U N P P U U P N P B B B B B B B B ^ ^ V V V V B ~ ~ ~ ~ ~ ~ ~ ~ ~ ! ! ! ! ! ! ! ! ! ! ! ! ! a a q w w a w q w w w w w w z w w w w z q s q z q s q q q q q q q q q q q q q q q 7 q q q s 7 7 7 7 7 7 7 ",
"j j N N N N N N N N b k N N P U P N N B j k B B B B B B B B B B B B B B B B B B B B k B k B B B B B B ~ B B B B ~ ~ ~ ~ ~ ~ B B B ~ U U ^ B B B U U ~ ~ ~ ~ B B B B B B B B B B B B B B B B B k B B k 7 7 7 6 7 7 6 6 6 6 6 6 6 6 6 6 6 8 6 8 1 8 8 8 8 8 8 8 , 8 8 8 8 , , > < 9 , u.OXb > > f j l l l H H _ _ ` ` ` ......O.O.O.&.&.&.&.&.:.:.:.:.:.:.>.>.>.9.a.a.a.d.d.d.d.d.a.a.a.a.a.a.a.a.d.d.d.d.d.k.k.k.k.l.l.M.l.M.M.M.M.M.M.M.M.M.M.M.M.M.M.M.B.B.B.B.B.B.B.B.B.B.B.B.B.B.B.B.B.B.B.B.B.B.B.B.B.B.B.B.B.B.B.B.B.B.B.B.B.M.M.M.M.M.l.k.k.d.a.a.>.:.:.&.&.O.X.X.` ` _ H H H H H v v v x x < < u * * * * & & & > & & & & & & > > > u u p p c c N P U U U  . . .%. . .#.#.#.#.#.#.#.#.#.;.;.-.-.-.-.,.,.,.h.g.g.x.l.l.x.x.x.h.h.h.q.,.-.-.;.@.@.@.' ' ' U L D P D D b b b b b b b b b b b b b b b b b b G P U U P U P U P b D U U U U U U U U P U P U U U U U U U B B V V B B B B B B B ^ ^ B V B B ~ ~ ~ ~ ~ ~ ~ ~ ~ ! ! ! ! ! ! ! ! ! ! ! ! ! s a a w a ! w q w w w z z z ! ! z w w w s a s q ! ! q q q q q q q q q q q q q q q q q q q ! s 7 7 7 7 7 7 ",
"j j M M N N N N j N k k k k k N N B B B k B B B B B B B B B B B B B B B B B B B B B k k B B B B B B B B B B B B B ~ ~ ~ ~ ~ ~ ~ B B B U ~ ~ B B U B ~ ~ ~ ~ ~ B B B k B B B B B B B B B B B B k k k 7 7 7 7 6 6 6 6 6 6 6 6 6 6 6 6 6 8 6 6 8 8 8 8 8 8 8 8 , , , 8 8 , > 1 > , , , %.u.v f f l l H H _ ` ` ` ` ....O.O.O.O.&.&.&.&.-.:.:.:.:.>.>.>.>.>.>.>.9.a.a.a.a.d.d.d.d.d.a.i.>.a.9.a.9.9.a.a.a.a.a.d.d.k.k.k.k.l.l.l.l.l.l.M.M.M.M.M.M.M.M.M.M.M.M.B.B.B.B.B.B.B.B.B.B.B.B.B.B.B.B.B.B.B.B.B.B.B.B.B.B.B.B.B.B.B.B.B.B.B.B.B.B.M.B.M.M.M.M.l.l.k.d.a.a.>.:.-.&.&.O.X.` ` _ _ H H H F H v x < x u , u u , * & * > > > & & & & & > * > t u p p c c c b U U U '  . . . .#.#.#.#.#.#.#.#.#.#.;.;.;.-.-.-.-.,.,.,.h.h.h.x.x.x.x.g.g.g.g.q.,.-.,.;.@.@.@.' ' ' L L G D D D b b b b b b b b b b b b b b b b b G P P P U U P P P P U U U U U U U U U U U U P U U U U U U B B B B B B B B B B B ^ ^ ~ B ~ ^ ^ ~ ~ ~ ~ ~ ~ ~ ~ ! ! ! ! ! ! ! ! ! ! ! ! ! ! a a w w z w w w w w w z z z z a w w z ! a a q z q q q q q q q q q q q q q q 7 7 q q q q s q 7 7 7 7 7 7 ",
"j k M M N M N M N N k k k k k M B B k k B k B k k B B B B B B B B B B B B B B B B k B B k B B B B B B B B B B ~ ~ ~ ~ ~ ~ ~ ~ ~ B B B B ~ B B B B B B ~ ~ ~ ~ ~ ~ ~ B B B B ~ ~ B B B B B k B k k 7 7 7 7 7 7 6 6 6 6 6 6 6 6 6 8 8 8 8 8 8 8 8 8 8 8 8 8 8 8 , 8 , , 8 , 8 , , f 9 9 > f j l H H _ ` ` ......O.O.O.&.&.&.&.&.&.&.:.:.:.>.>.>.>.>.>.>.>.>.>.>.>.>.i.a.d.k.k.k.d.9.>.>.>.9.9.9.9.>.>.>.a.a.a.d.d.d.d.k.k.k.k.k.l.l.l.l.l.l.M.M.M.M.M.M.M.M.M.B.B.B.B.B.B.B.B.B.B.B.B.B.B.B.B.B.B.B.B.B.B.B.B.B.B.B.B.B.B.B.B.B.B.B.B.B.B.B.B.B.M.N.M.M.M.l.k.k.d.a.a.>.:.-.&.O.O.X.` ` _ _ H H F v v n x u u u u u * * * r t t & & & & & & & & > 8 u p p p c b b U U U W  . . .#.#.#.#.#.#.#.#.#.#.#.;.;.;.;.&.&.,.,.q.h.h.h.h.h.l.l.h.h.h.h.g.,.,.,.&.&.@.$.' ' ' L L D D D b b b b b b b b b b b b b b b b D U N G U G U U U U U U U P U U U U U U U U U U U U B B U U B B B B B B B B B B V V ^ ^ ^ ^ ^ ^ ^ ~ ~ ~ ~ ~ ~ ~ ~ ~ ! ! ! ! ! ! ! ! ! ! ! a a a a a a a ! a w w w w w z ! ! a a a a w q s s s s q q q q q q q q q q q q q 7 q q q q q 7 7 7 7 7 7 7 ",
"k k M M M M M M M M M k k B B B B k k k k B k k k B B k B B B B B B B B B k k k k k B B B B B B ~ ~ ~ ~ B B B ~ ~ ~ ~ ~ ~ ~ ~ ~ B ~ B B ~ B B B B B ~ ~ ~ ~ ~ ~ ! B B B B B z k B B B B k k k 7 7 7 7 7 7 7 6 6 7 6 6 6 6 8 8 8 8 8 8 8 8 8 8 8 8 8 8 8 8 8 8 , 1 , , , , , > f f f f D H H _ _ _ ` ....O.O.O.O.&.&.&.&.&.&.&.:.:.:.:.>.>.>.>.>.>.>.:.:.:.:.:.>.>.>.a.k.l.l.l.f.a.:.:.>.>.>.9.9.>.>.9.a.a.a.a.d.d.d.d.d.k.k.k.k.l.l.l.l.l.M.M.M.M.M.M.M.M.M.M.B.B.B.B.B.B.B.B.B.B.B.B.B.B.B.B.B.B.B.B.B.B.B.B.B.B.B.B.B.B.B.B.B.B.B.B.B.B.B.B.B.B.B.N.M.M.M.l.l.k.k.d.a.9.>.:.-.-.&.O.O.X.` _ _ H F F n m , u m , , u * * r r * & & & & & & & & > 8 u u p p c b b U U U  . . . . .#.#.#.#.#.#.#.#.#.#.#.@.;.;.@.;.,.-.,.w.w.h.h.h.x.l.l.h.g.g.g.w.,.-.-.&.@.@.$.' ' L L D D D b b b b b b b b b b b b N N b b N b D U U U U U U U U U P U U U U U U N U U U U U B B B B B B B B B B B B B B B ^ ^ ^ ^ ^ ^ ^ ~ ~ ~ ~ ~ ~ ~ ~ ~ ~ ~ ! ! ! ! ! ! ! ! ! a a a a a a a a a a a a w a w w ! ! ! a a a w q q q s s q q q q q q q q q q q q q q q q q q q 7 7 7 7 7 7 7 ",
"k k M M k k k B B k B B k k B k k k k B B B k k k k B B B B B B k B k B k k k k k k B k B B B B B B ~ ~ B B B ~ ~ ~ B B B B B B ~ ~ ~ ~ B B ~ B ~ ~ ~ ~ ~ ~ ~ ! B B B ! ! k k k k k B B k k 7 k k 7 7 7 7 5 5 8 8 8 8 8 8 8 8 8 8 8 8 8 8 8 8 8 8 8 8 8 8 8 8 8 , > , > < f f j l H l H H _ ` ......O.O.&.&.&.&.&.&.&.&.=.:.:.>.:.:.>.>.>.:.:.:.:.:.-.-.&.&.&.:.:.>.a.k.l.z.l.k.a.:.:.>.>.>.9.9.9.9.9.9.a.a.a.a.a.d.d.d.d.k.k.k.k.k.l.l.l.M.M.M.M.M.M.M.M.M.M.M.N.N.N.B.B.B.B.B.B.B.B.B.B.B.B.B.B.B.B.B.B.B.B.B.B.B.B.B.B.B.B.B.B.B.B.B.B.B.B.B.B.B.B.N.N.M.M.M.M.l.k.k.d.d.a.a.>.:.-.&.&.O.X.{ _ H H H x , x m f x x < , u u r * * & & & & & & & * > > u p p c c b G U U  . . . . .#.#.#.#.#.#.#.#.#.@.@.;.;.@.;.;.-.-.-.,.w.h.g.g.g.g.x.h.g.g.h.w.,.,.,.&.@.@.$.` ' ' L G D D b b b b b b b b b b b b b b b b b D D U U U G U U U U U U P U P U U U U U U U B B B B B U U U B B B B B B B ~ ~ V ^ ^ ^ ^ ^ ^ ~ ~ ~ ~ ~ ~ ~ ~ ~ ! ~ ! ! ! ! ! ! ! a ! a a w a a ! a a a w w w a w w a q w w a a w q q w s s q q q q q s q q q s q q q q q q q s 7 7 q 7 q q 7 7 ",
"k k k B k k k k k k k k k k k k k k k k k k k B k k k k B k k k k k k k k k k k k k ! z k B B B B ~ ~ ~ B B B B ~ ~ B ~ B B B B ~ ~ ~ ~ ~ ~ ~ ~ ~ ~ ~ ~ ! ! ! ! B k B k z k k k 7 7 k 7 6 1 1 B ~ 8 8 5 5 5 5 5 8 8 8 8 8 8 8 8 8 8 8 8 8 8 8 8 8 8 8 8 8 8 8 8 > > 9 > j j l l H H H _ ` ` ..O.O.&.&.&.&.&.&.&.=.=.:.:.:.>.>.>.:.:.:.:.-.&.&.&.&.&.&.&.&.&.&.&.&.=.>.d.l.z.l.d.a.:.:.:.:.9.9.9.9.9.9.9.9.a.a.a.a.s.d.d.d.d.k.k.k.k.k.k.l.l.l.l.M.M.M.M.l.M.M.M.M.M.M.N.N.N.B.B.B.B.B.B.B.B.B.B.B.B.B.B.B.B.B.B.B.B.B.B.B.B.N.B.B.B.B.N.N.N.B.B.B.B.N.N.N.N.M.M.M.M.M.l.l.l.k.d.a.a.>.:.:.-.*.+.X.{ { H ] u.E x T Y x n u u u u u r r * & & & & & & * * > 8 u p p c b P U U U  . . .#.#.#.#.#.#.#.#.@.@.#.#.#.#.;.;.-.-.,.-.,.w.g.g.g.g.x.x.g.g.g.g.,.,.,.-.&.&.@.@.' ' ' L L D D D b b b b b b b b b N b b b b b b D D U U U G G U U U P U U U U P P U U U U B B B U U U U U B B B B B B B ~ ^ ~ ^ ^ ^ ^ ^ ^ ~ ~ ~ ~ ~ ~ ~ ~ ~ ! ! ! ! ! ! ! ! ! a a a a a a a w a a a w w w w a w w w w a a a w q s q s ! q q q q s s s q q q s s q s s s q s q 7 q q s 7 7 7 ",
"k k k k k k B B k k k k k k k B k k k B k k k k k k k k k k k k k k k k z B k k k B ~ ! B B B B B ~ B B ~ B ~ B ~ ~ ~ ~ B B ~ ~ ~ ~ B ~ ~ B ~ ~ ~ ~ ~ ~ B B B B ! ! ! ! k k B B 7 7 6 p ^ u.Q p B 6 8 5 5 5 8 8 8 8 8 8 8 8 8 8 8 8 8 8 8 8 8 8 8 8 8 8 8 , , 1 j l U D f l H _ _ ` ` ..O.O.O.&.&.&.&.&.&.=.:.:.:.:.:.:.:.:.:.:.:.&.&.&.&.&.&.O.O.O.O.O.O.O.&.&.&.&.>.d.k.l.z.k.9.:.:.:.:.:.8.8.9.9.9.9.9.9.9.a.a.a.s.a.s.d.d.f.f.k.k.f.k.k.k.k.k.k.k.k.k.l.l.l.z.l.M.M.M.M.N.N.N.N.B.B.B.B.B.B.B.B.B.B.B.B.B.B.B.B.N.N.N.N.N.N.N.N.N.N.N.N.N.N.N.N.N.N.N.M.M.N.N.N.M.M.M.M.l.l.k.d.d.a.a.9.:.-.&.O.+.` m.IXOX> T v v Y x u x u u u u u * * & & & & & & > * > u u p p c c P U U U  . . .@.#.#.#.#.#.#.#.#.#.#.#.;.;.;.;.;.,.,.,.,.g.g.g.g.g.g.g.g.g.g.g.,.,.-.-.&.@.@.` ' ' L L D D b b b b b b b b b N b b N N b D U N D D U U U U U U U U U U U U U U U B B B B B B B U U ^ ^ ^ ^ ^ ^ ^ B B ^ ^ B ^ ^ ^ ^ ~ ~ ~ ~ ~ ~ ~ ~ ~ ~ ~ / ~ ! ! ! ! ! ! ! a a a a a a a w w a w w a a w w w a a w w w q q q ! ! ! w q q q q q q q q q s q q q q s s q q q q q 7 7 7 7 ",
"k k k k B k k B k k k k k k k k k k k k k k k k k k k k k k k k k k k z z z B k k k ! ! z ~ B ~ ~ ~ ~ ~ B B ~ ~ ~ ~ ~ ~ ~ B ~ B ~ ~ B ~ ~ B ~ ~ ~ ~ ! ! ! k k k z ! z z k k k B ! 7 8 B u.AXOX= - 6 8 8 5 5 5 8 8 8 8 8 8 8 8 8 8 8 3 - 8 8 8 8 8 8 8 8 1 , > j f U OXu.H H _ ` ....O.O.O.O.&.&.&.=.=.:.:.:.:.:.:.:.:.:.:.-.-.&.&.&.&.O.O.O.O.O...O.O.O.O.O.O.&.&.&.:.a.k.z.z.f.9.:.:.:.:.:.8.8.8.8.8.9.9.9.9.9.9.a.a.a.a.a.a.s.a.a.a.>.a.f.f.f.f.f.f.f.f.f.k.k.k.k.l.l.z.z.M.M.M.M.N.N.N.N.N.N.N.N.N.N.N.N.B.B.N.N.N.N.N.N.N.N.N.N.N.M.M.M.M.M.M.M.M.M.M.M.M.M.M.M.M.M.M.M.M.M.z.k.k.k.k.d.a.a.:.:.8.O.m.hXt.H H H T F v v n m x u u u u r * * * & & & * * > > , u u p p c P U G U '  . .@.@.#.#.#.#.#.#.#.#.#.#.@.#.#.;.;.,.,.-.,.,.g.g.g.h.h.g.g.g.g.h.q.,.-.,.&.@.$.` ' ' L L D D b b b b b b c b b b b N N b b N b D D G G U P U P U U U U U U U U B B B B B B B B U U ^ ^ ^ ^ ^ ^ ^ ^ B B B ^ ^ ^ ^ ^ ~ ~ ~ ~ ~ ~ ~ ~ ~ ~ / / ~ ~ ! ! ! ! ! a ! a a a a a a w a a w w a a a a a w a w w a q q w z ! ! w q q q q q q q q q s q q q s q s q q q 7 7 7 7 7 7 ",
"k 7 k k k k k k k k k k k k k k k k k k k k k k k k k k z z k k k k k k z z ! k k ! ! ! z ! ! ~ ~ ~ ~ ~ ~ ~ B ~ ~ ~ ~ ~ ~ ~ B ~ ~ ~ ~ B ~ ~ ~ ! ! ! ! ! k k k k k k z 7 7 7 7 7 ! 7 8 p u.jXu.= - q 5 - 8 8 8 8 8 8 8 8 3 8 3 3 3 - 3 - - - 8 8 8 8 8 1 j > f j f  .!.t._ ` ....O.O.O.O.&.&.&.=.=.:.:.:.:.:.:.=.:.&.&.&.&.&.&.&.O.O.O.......O.O...X.X.O.O.O.O.&.&.*.-.9.a.f.f.a.8.:.:.:.:.-.8.8.8.8.8.8.8.8.8.8.9.9.9.9.9.9.9.0.:.9.Y.Y.0.8.9.s.s.0.0.s.s.s.s.s.f.f.f.f.k.k.k.z.z.z.z.M.M.M.M.M.M.M.N.N.N.N.N.N.N.N.M.M.N.N.M.M.M.M.M.M.M.M.M.M.M.M.l.l.l.l.l.l.l.l.l.l.M.M.M.M.M.l.M.M.l.k.k.k.a.a.s.-.O.....5.X.] } _ H H F F n m x u u u u u r r * r * & * * * * u u p p c b b G G ' '  . .@.@.#.#.#.#.#.#.#.#.#.@.@.@.;.;.,.-.-.-.,.h.h.h.h.h.g.g.g.h.g.,.,.,.,.&.@.$.` ' ' L L D b b b b c c c b b b b N N N b b U D v v v b b U U U U U U U P U U B B B B B B U U U W W ^ B B B ^ B ^ ^ ^ ^ ^ ^ ^ ^ ^ ^ ~ ~ ~ ~ / ~ ~ ~ ~ / / / ~ ! ! ! ! ! ! a a a a a a a w a a w w a a a a a w w a a ! s w w q ! ! ! q q q q s q q s s s q s q s q q z q q q q 7 7 7 7 ",
"k k k k k k k 7 k k k k k k 7 7 k k 7 7 k k k k k z q z q q q z z k k k k z z k k z z ! k z ~ ~ ~ ~ ~ ~ ~ ~ ~ ~ ~ ~ ~ ~ ~ ~ B B ~ ! ! ! ! ! ! ! ! ! ! ! k k k k k 7 7 7 7 7 7 7 7 7 7 6 V Q p 8 8 8 8 5 8 8 8 8 8 8 8 8 3 - - - - - - - - 8 8 8 8 8 1 1 j f j H H ` 7.#...O.O.O.&.O.&.&.&.=.=.>.>.>.:.:.=.=.&.&.&.&.&.O.O.O.O...............X.X.X.X.O.O.O.&.*.*.*.-.-.-.:.8.8.8.5.-.-.-.-.5.5.5.5.5.5.8.8.8.8.8.8.8.8.8.8.8.9.0.-.0.2X2Xe.5.0.0.8.0.8.8.9.0.0.0.0.s.s.s.s.s.f.f.f.j.z.z.z.z.z.z.z.z.z.z.z.M.M.M.M.M.M.M.M.M.M.M.M.M.M.z.z.l.l.l.l.l.l.l.l.l.l.k.k.k.k.k.l.l.l.M.M.M.K.U.N.l.l.l.k.f.d.a.f.9.9.8.O.O.+.X.{ { ] H F F n v x x u u u u r r * * * * * * r u u p p c c x b L L |  . . .@.@.#.#.#.#.#.#.#.@.@.@.@.;.;.;.-.,.,.,.,.h.h.h.h.g.h.g.g.g.q.,.-.-.&.@.@.$.` ' L D D D b b b b b b b b b N N N b b P G F ] ] H D U U U U U U U P U U B B B B B U U U U U W W U U B B B ^ ^ ^ ^ ^ ^ ^ ^ ^ ^ ^ ~ ~ / / ~ ~ ~ ~ / / ~ ~ ! ! ! ! ! ! a a a a a a a w w w w w a a a a a w a a w a q q q w ! ! z a s s s q q q s s s q s s q s s q q q q q q 7 k 7 ",
"k k k k k k 7 7 k k 7 k k 7 k 7 7 7 7 7 7 7 7 7 7 k k 7 q q q q 7 k k z k k k k z z z z z z ! ! ! ! z z ~ ~ ~ ~ ~ ~ ~ ~ ~ ! ! ! ! ! ! ! k k k z ! z ! ! z z k 7 7 7 7 7 7 7 7 7 7 7 7 8 8 - - 8 5 3 8 5 8 8 8 8 8 8 8 8 3 3 - - - - - - - 8 8 8 1 j j l j l _ _ _ ` ` ..O.&.&.&.&.&.&.&.=.:.:.>.>.>.:.:.-.&.&.&.&.O.O.........` ` ........X.X.O.O.O.O.O.O.&.&.*.-.*.-.-.-.-.-.-.5.-.-.5.*.4.4.4.5.5.5.5.5.5.5.5.5.5.5.5.5.5.5.5.-.8.n.n.4.2.6.4.5.5.5.5.6.0.0.0.0.0.0.0.0.0.0.0.0.0.s.s.s.f.f.j.f.k.z.z.z.z.z.z.z.z.z.z.z.z.z.z.z.z.z.z.z.z.k.k.l.l.l.k.k.k.k.k.k.k.k.k.k.k.l.l.l.l.K.E.V.l.l.l.l.l.k.k.k.k.d.9.:.:.-.*.O.X.X.{ ] H F F n m m u u u u u r r r r * r r r u u u p p x n G G L |  . . .@.@.#.#.#.#.#.#.#.#.#.@.@.@.;.;.;.,.,.,.,.h.h.h.h.g.g.g.g.g.h.,.-.-.&.@.@.$.` ' L L D D b b l j j l b b b c c c b b H r.iXm.H l U U U U U U U U B B U U U U B U U U U U U U U U U ^ ^ ^ ^ B ^ ^ ^ ^ ^ ^ ^ ^ ^ ~ / / / / / / / / / / / ! ! ! ! ! ! a a a a a a a w a w w a w a a w a a a a a a a a a w s w q s s q s s q s ! q q q s s s s ! s q q q q 7 q q ",
"k k k k 7 7 k 7 k k 7 7 7 7 7 7 7 7 7 7 7 7 7 7 7 7 7 7 q q q q 7 z z k z k k k k k z z ! z ! ! ! ! z z ! ! ! ! ~ ~ ! ~ ~ ! ! ! ! ! ! ! z z z k z z z z z k 7 7 7 7 7 7 7 7 7 7 5 7 5 5 5 4 5 5 3 5 5 5 8 8 8 8 3 3 3 - 3 8 - 3 8 8 8 8 8 8 1 1 j l l l H _ ` ` ....O.&.&.&.&.&.=.=.=.=.=.=.>.>.:.=.&.&.&.O.O.O.......` ` ` ............X.X.X.O.O.O.O.*.*.*.*.*.*.*.-.-.-.-.-.-.5.*.*.*.*.4.4.4.4.4.4.4.4.4.4.4.4.4.4.4.*.4.4.4.4.+.2.2.+.2.2.2.2.2.4.4.4.4.4.4.4.4.4.5.5.5.6.6.6.0.0.0.0.0.0.s.s.s.s.s.f.f.f.f.j.f.z.k.k.k.z.z.z.k.z.z.z.z.k.k.k.k.k.k.k.k.k.f.f.f.f.f.f.f.f.k.k.d.l.N.M.l.z.M.M.M.M.l.k.k.k.f.s.s.9.8.-.*.O.X.{ ] ] H F n n m m u u u u u r r r r r r r * u u u u x m b G L L '  . . . .#.@.#.#.@.#.@.#.#.@.@.@.@.@.;.,.,.,.,.,.h.h.h.h.h.g.g.g.h.,.-.-.&.@.@.$.` ' L L D D b b l l l b b b b j N U j f m.IXPX3.j U P U U U U U U B B U U U U U B U U U U U U U B ^ ^ ^ U U B B ^ ^ ^ ^ ^ ^ ^ ^ ~ / / / / / / / / / / / ! ! ! ! ! ! a a a a a a a w w a w w a a a a w a a a a a a a a z z s ! ! s s s q q ! ! q s q s ! s ! ! ! ! q q q q q q ",
"k k k k k k 7 7 7 7 7 7 7 7 7 7 7 7 q q 7 7 7 7 7 7 7 7 q q q 7 q q q z z q k k k k k z z z ! z z ! z z z k ! ! ! ! ! ! ! ! ! ! ! ! ! ! z z z z z z z z ! q 7 7 7 7 7 7 7 7 7 7 5 5 5 5 5 5 5 5 8 8 8 8 8 3 3 3 3 3 3 - 3 8 8 8 8 8 8 8 1 1 < f l l H ` ` ` ..O.O.&.&.&.&.=.=.=.=.=.=.=.=.=.=.=.&.&.&.&.O.....` ` ` ` ` ` ` ` ......X.X.X.O.X.O.O.O.+.+.O.*.4.*.-.*.*.-.*.*.4.*.*.*.+.+.+.+.+.+.o.+.+.+.2.2.2.+.2.2.+.2.o.o.2.2.o.o.o.} 2.2.2.2.2.2.2.2.2.2.2.2.2.2.2.2.2.2.4.4.4.4.6.6.6.0.0.0.0.0.0.0.0.0.s.s.s.s.f.f.f.f.j.j.j.z.z.z.z.z.k.k.k.k.k.k.k.k.f.f.f.f.f.d.d.d.f.d.d.a.a.d.k.l.z.M.M.M.M.l.z.z.z.k.k.f.s.a.9.8.-.*.+.X.{ ] H H F n n m m u u u u u r r r r r r r u u u u m x b n v L '  . . . .@.#.@.@.@.@.@.#.@.@.@.@.@.@.;.&.-.-.-.,.h.h.h.h.h.g.h.g.h.,.-.-.&.@.@.$.` ' L L D D b b l l b b b b N N b P j m.IXPX| H U U U U U U U U B B B U U U U B B B U U U U U U ^ ^ B U %.u.%.^ ^ ^ ^ ^ ^ ^ ^ ^ ^ ^ / / / / / / / / / ! ! ! ! ! ! a a a a a a a w w a a a a a a a a a a a a a w a a w a ! ! ! ! ! ! s s ! ! s ! ! s ! ! ! ! ! ! ! ! s ! q q ",
"k k k k k 7 7 7 7 7 7 7 7 7 7 7 q 7 7 q 7 7 7 7 q 7 7 7 q 7 q q q q q q q q k z k z z z z z z z z z z z z ! k z z ! ! ! ! ! ! ! ! ! ! z z z z z z q q z z q 7 7 7 7 7 7 7 7 7 7 5 5 5 8 5 5 5 5 4 3 3 3 3 - 3 3 - - - - 8 8 8 8 8 8 1 1 1 j l H l _ _ ` ....O.O.&.&.&.&.=.=.=.=.=.=.=.=.=.&.&.&.&.O.O...` ` ` ` _ ` _ ` ` ` ` ` X.X.X.X.X.O.X.X.O.O.O.*.*.+.+.+.*.*.*.*.*.+.+.+.+.+.+.+.o.o.o.o.o.o.o.o.} } } } } } } } } } } } } } } 1.1.[ } 1.1.1.1.1.1.2.1.2.2.2.2.2.2.2.2.2.2.2.2.2.4.4.4.5.5.5.5.8.0.0.0.0.0.0.0.s.s.s.s.s.s.f.f.f.f.f.f.f.f.f.f.f.f.f.f.f.f.f.a.a.a.a.a.a.a.a.a.a.d.f.k.k.l.l.l.l.z.z.z.z.z.k.k.f.f.s.9.8.-.*.+.X.{ ] _ H F n n m m u u u r r r r r r r r r u u u u x x x G G U '  . . . .@.@.@.#.@.@.@.@.@.@.@.@.@.&.&.-.;.-.,.i.h.h.h.h.g.g.g.g.,.-.-.&.@.$.$.` ` ` L L D b b b l b b b P c c U H 7.m.u.v D U U U U U U U U B B B U U U B B B B ^ B U W W W W %.B U OX!.%.B ^ ^ ^ ^ ^ ^ ^ ^ ^ ^ ^ ^ / / / / / / / ~ / ~ ! ! ! a a a a a a a a a a a a a a a w w w w a a a a a a a a ! ! ! ! ! s s s ! ! ! ! s s ! ! ! ! ! ! ! ! ! ! ! ! ",
"k k 7 k k k k 7 7 7 7 7 7 7 7 7 7 7 q q 7 7 7 7 q q 7 q 7 7 q q 7 z z q z z z z q q z z z z z z z z z ! z z ! ! ! z ! ! ! ! ! ! ! ! z z z z z z 7 q 7 7 q q 7 7 7 7 7 5 5 5 5 5 5 5 5 5 8 8 8 8 3 3 3 3 3 3 - - - - - - - 8 8 8 8 1 1 j l l l L ` ` ` ..O.O.O.&.&.&.=.=.=.=.=.=.=.=.&.&.&.&.O.....` ` ` _ _ _ _ _ _ ` ` ` ` ` ` ` { X.X.X.X.X.X.O.O.O.*.&.&.*.o.+.+.*.+.+.o.o.o.o.o.o.o.} } } } } } } } [ [ [ [ [ [ [ [ [ [ [ [ [ 1.1.1.1.1.[ [ [ [ 1.1.1.1.[ } } [ } } } } } 1.1.2.2.2.2.2.2.2.2.4.4.4.4.6.5.6.6.0.0.0.0.0.0.0.0.0.0.0.s.s.s.s.s.s.s.s.s.f.f.s.s.s.a.a.s.a.a.a.9.9.9.9.9.a.a.f.k.k.k.k.k.l.z.l.z.z.z.k.k.f.s.a.9.8.-.*.O.X.{ ] H H F n n m m u u r r r r r r r r r r r u u u c b v G L L | |  . .@.@.@.@.@.#.#.@.@.@.@.@.@.@.@.;.;.,.,.,.h.h.g.g.g.g.g.g.,.-.-.-.&.@.$.` ' ' L D D b b b b b b N l N N v F v v c D U U U U U U U U B B B U U U B U B U W ^ ^ W W U W ^ B U u.u.%.U ^ ^ ^ ^ ^ ^ ^ ^ ^ ^ ^ ^ ^ / / / / / / / ~ ! ! ! ! ! a a a a a a w a a w a a a a a a a a a a w w a a a a a s a s a ! ! s s ! ! ! ! ! ! ! ! ! ! ! ! ! ! ! ! ! ",
"7 7 7 7 7 7 7 7 7 7 7 7 7 7 7 7 7 q q 7 7 7 7 7 q q q q q q q q q q q q z z z z q q z z z z z z z z z z z z ! z z z z z ! ! ! ! z z z z z z z q 7 q 7 7 q 7 7 7 7 7 5 5 5 5 5 5 5 5 5 5 8 8 - 3 3 3 3 3 3 5 - - - - - - 8 8 8 8 1 j j l l L ` ` ` ....O.O.O.&.=.=.:.=.=.=.=.=.&.&.&.&.O.O.....` _ _ _ _ _ _ _ _ _ ` ` ` ` ` { { { X.X.X.X.X.X.O.O.O.+...4.iXgXn.o.X.+.o.} } } } } } } } [ [ [ [ [ [ E E E E E E E E E E E E E E E E E E E ( E E E E E E [ [ [ [ [ [ [ [ [ [ [ [ [ } } } } } 2.2.2.2.2.2.2.2.4.4.4.4.4.4.6.5.6.6.6.0.0.0.0.0.0.0.0.0.0.0.s.s.s.s.s.s.s.a.s.9.a.9.9.9.9.8.9.9.9.a.a.f.f.f.f.k.k.k.z.k.z.z.z.k.f.f.s.9.8.-.-.*.O.X.{ ] H F F n m m u u u r r r r r r r r t r u u p u c b G G L L |  . . .@.@.@.@.@.@.@.@.@.@.@.@.@.@.;.;.,.,.,.g.g.h.g.g.g.g.g.,.-.-.-.&.@.$.` ` ' L L D D D D b b N b b b U f j U P U U G U U U U U B B B B U U U U U B U B ^ ^ W U U ^ ^ ^ ^ U U U %.%.^ ^ ^ ^ ^ ^ ^ ^ ^ ^ ^ ^ ^ / / / / / / ~ ! ! ! ! ! a a a a a a a a a a a a a a w w w a w w w w a a a s a s a s s a ! ! ! ! ! ! ! ! ! ! ! ! ! ! ! ! ! ! ! ! ",
"7 7 7 7 7 7 7 7 7 7 7 7 7 7 7 7 7 7 7 7 7 5 7 7 q q q q q q q q q q q q q q z z z z q z z z z z z z z z z z ! z z z ! z z z ! z z z z z z q q q q q q 7 7 7 7 7 7 5 5 5 5 5 5 5 5 5 5 5 3 - - 3 - 3 3 - - - 4 - - - - - 8 8 8 1 j j l D ` ` ` ....O.O.O.&.&.&.=.=.:.:.=.=.=.&.&.O.O.O.....` ` _ _ _ _ _ _ _ _ _ _ ` ` ` { { { X.X.X.X.X.X.X.X.X.+.+.X.` 4XIXIXbX2.H 1.} [ [ [ [ E E [ E E E E E Y Y Y Y Y Y Y Y Y Y Y Y Y Y Y Y Y Y Y Y Y Y Y Y Y Y Y E E E E E E E E E E E E [ [ [ [ [ [ [ [ } } 1.} 2.2.2.2.2.2.2.2.2.2.2.4.4.4.5.5.6.5.6.0.0.0.0.0.0.0.0.0.0.0.0.0.9.0.9.9.9.9.8.8.8.8.8.8.9.9.9.a.s.a.f.f.f.f.k.k.z.z.z.k.k.k.f.s.9.8.-.-.*.+.X.{ ] T F F n m u u u r r r r r t t r r r r * u p u b b v F L |  . . .@.@.@.@.@.@.@.@.@.@.@.@.@.@.@.;.;.-.,.,.g.g.g.g.g.g.g.,.,.-.-.&.@.$.` ` ' ' L L D D D b b b b c N l U U P U P U U U U U B U B B B B U U U U B B B ^ ^ ^ U W ^ ^ ^ ^ ^ ^ ^ %.^ B ^ ^ ^ ^ ^ ^ ^ ^ / / / / / / / / / / ~ ~ ~ ~ ! ~ ! a a a a a a a a a a a a a a a a a a a a a a a a s a s a ! ! a ! ! ! ! ! s ! ! ! ! ! ! ! ! ! ! ! ! ! s ",
"7 7 7 7 7 7 7 7 7 7 7 7 7 q 7 q q 7 q 5 5 5 7 7 q 0 0 q q q q q q q q q q q q q q q q q z z z z z z z z z z z z z z ! ! z ! z ! z z z z q q q q q q 7 7 7 7 7 7 5 5 5 5 5 5 5 5 5 5 5 8 - - - - - - - - - : - - - 8 8 8 8 1 j j l D L ` ` ` ..O.O.O.&.&.=.=.=.=.=.=.=.=.&.&.O.O.....` ` _ _ _ _ _ _ _ _ _ _ _ _ ` ` ` ` { X.X.X.X.X.X.X.X.X.X.X.X.o.{ H iXIXIXbX1.F E [ E Y Y Y E 3.1.E Y Y Y Y A A A Z Z A A A Z Z A A A A A A Y Y Y Y Y Y Y Y Y Y Y Y Y Y Y Y Y Y Y Y Y T T E E E E E E E [ [ [ } } } } } 1.2.o.2.2.2.2.2.2.2.2.2.4.4.4.4.4.4.6.6.6.0.0.0.0.0.0.0.8.8.0.0.9.8.8.8.8.8.8.8.8.8.8.8.8.9.9.9.a.a.s.f.f.k.z.z.z.k.k.k.f.f.a.9.8.5.*.+.X.{ ] ] H F n x u u u u r r r t t r r & & r r u u u m x n F G ' |  . . .@.@.@.@.@.@.@.@.@.@.@.$.@.@.;.;.-.-.,.g.g.g.g.g.g.g.i.,.-.-.&.@.$.$.` ' ` L L D D D b b b b b P U b P P P U U U U B B B B B B U U U U U B B U ^ U ^ U W ^ ^ W ^ ^ ^ ^ ^ ^ ^ ^ ^ ^ ^ ^ ^ ^ ^ ^ ^ / / ^ / / / / ~ ~ ~ ~ ~ ~ ~ ! a a a a a a a a a a a a a a a a a a w a w a a s ! ! ! ! ! a a ! ! ! ! ! ! s ! ! ! ! ! ! ! ! ! ! ! ! ! ",
"k k 7 7 7 7 7 7 7 7 7 q q q q q q q 7 5 7 7 5 q 5 0 5 7 q q q q q q q q q q q q q q q q z z z z z z z z z z z ! ! ! ! z z z z z z z z q q q q q q 7 7 7 7 5 5 5 5 5 5 5 5 5 5 5 5 5 5 5 - 3 3 - - - 3 - - - = - - 8 8 8 1 j l l D L ` ` ` ..O.O.&.&.&.&.=.=.=.=.=.&.&.&.&.O.O...` _ _ _ H _ H _ _ _ _ _ _ _ _ _ ` ` ` { { X.X.X.X.X.X.X.X.X.X.{ { } } H 3.jXjXBXY n Y A Z Z A Z Y 3.3.( Z C C C Z Z Z Z C C C Z Z Z A Z Z A Z A A A A A A A Z A A Z Z Z Z Z Z Z Z Z Y Y Y Y Y Y Y Y Y T T T E E [ [ [ [ [ [ } } } } } } 1.1.2.2.2.2.2.2.2.2.2.2.4.4.4.5.5.5.5.5.0.0.8.8.8.8.8.8.8.8.8.8.8.8.8.-.8.8.8.8.8.8.9.9.9.a.s.f.f.k.k.k.k.k.k.k.f.s.a.9.-.-.*.O.X.{ ] H F F n m u u u r r r r r t t t r r r r u u m b n n G R  . . . .@.@.@.@.@.@.@.@.@.@.@.@.@.@.&.-.,.-.,.g.g.g.g.g.g.g.g.,.-.-.&.@.@.$.` ` ' ' L L D D D b b b D P P P P U U U U U B B B B B B B B U U U U U U ^ U W U ^ ^ ^ ^ ^ U ^ ^ ^ ^ ^ ^ ^ ^ ^ ^ ^ ^ ^ ^ ^ ^ / ^ ^ / / / / ~ ! ~ ~ ~ ~ ~ d a a a a a a a a a a a a a a a a a a a a a a a a s s s ! ! s ! ! ! ! ! ! ! ! ! ! ! ! ! ! ! ! ! ! ! ! ",
"7 7 7 k 7 7 7 7 7 7 q 7 q q q q 0 5 7 5 5 5 5 5 5 5 0 5 0 q q q q q q q q q q q q q z z z z z z z z z z z ! z ! ! ! ! z ! z z z q q z q q q q q q 7 7 7 5 5 5 5 5 5 5 5 5 5 5 5 5 5 5 5 - 3 - - 3 - 3 3 - - - - 8 1 1 1 j l D L L ` ` ` ..O.&.&.&.&.&.=.=.=.=.=.&.&.&.O.O...` ` _ _ H H H H H _ _ _ _ _ _ _ ` ` ` ` { X.{ X.X.X.{ { { { X.{ { { [ ] T E m u m Z C C C C C C i C Z ( ( A C C i C C C Z Z A C C C C C Z Z Z Z Z Z Z A A Z Z Z Z Z Z Z Z Z Z Z Z Z Z Z Z Z Z Y Y Y Y Y Y Y Y Y Y E E E E [ [ [ [ [ [ [ } } } } 1.} } 1.2.2.2.2.2.2.2.2.2.4.4.4.4.5.5.5.5.5.5.5.8.8.8.8.8.5.5.5.5.5.8.8.5.5.5.8.8.8.8.8.9.9.s.s.f.f.k.k.k.k.k.f.s.a.9.8.-.*.+.X.{ ] ] H F n m u u u u r r r t t t t r r r r u u u n m x K R ' |  . .@.@.@.@.@.@.@.@.@.@.@.@.@.@.&.&.-.-.,.g.g.g.g.g.g.g.g.,.-.-.&.@.@.$.$.` ' ' L L D D D D D P P P P U U U U U B B B B B U B U U U U U U U B U U U ^ ^ ^ ^ ^ ^ ^ ^ ^ ^ ^ ^ ^ ^ ^ ^ ^ ^ ^ ^ ^ ^ ^ / ^ / / / / / / ~ ~ ~ ~ ~ d d a a a a a a a a a a a a a a a a a a a a a a a a s ! ! ! ! q ! ! ! ! ! ! ! ! ! ! ! ! ! ! ! ! ! ! ! ! ",
"k 7 7 7 7 7 7 7 7 7 q q 7 q 7 q 7 5 5 5 5 5 5 0 5 5 0 5 0 0 q q q q q q q q q q q q z z q q z z z z z z z z ! ! z ! z z z z q z q q q q q q q q q 7 7 7 5 5 5 5 5 5 5 5 5 5 5 5 5 5 4 4 4 3 - - - 3 3 - $ p ^ V 8 1 j j l L ` ` ` ` ....O.&.&.&.&.=.=.=.=.&.&.&.&.O.O.....` _ _ H H H H H _ _ _ _ _ _ ` ` ` ` ` ` ` { { { { { { { { { { ] ] ] T Y Y Z Y C u C C i i i i i i i i i C i i i C i C C C u u m m C C C C C C Z Z Z Z Z Z Z Z Z Z Z Z Z Z Z Z Z Z Z Z Z Z Z Z Z Z Z Z Z Z Z Y Y Y Y Y Y T E E E E E E [ [ [ [ [ [ [ [ [ } } } } 2.2.2.2.2.2.2.2.2.2.4.4.4.4.4.5.5.5.5.5.8.0.0.5.*.5.5.5.5.5.5.5.5.5.5.5.-.5.8.8.9.a.s.f.f.k.k.k.f.f.f.s.9.9.8.-.*.O.X.{ ] T F n n m u u u r r r t t t t & & r r r u m u x n F H L |  . .@.@.@.@.@.@.@.@.@.@.@.@.@.@.&.&.-.-.,.g.g.g.g.g.g.g.a.>.-.-.-.&.@.@.$.` ` ' L L U D P P D N P U U U U U U U B B B U U U W U U U U ^ ^ B ^ U ^ ^ ^ ^ ^ ^ ^ ^ ^ ^ ^ ^ ^ ^ ^ ^ ^ ^ ^ ^ ^ ^ ^ ^ ^ ^ ^ / / / / / ~ ~ ~ ~ ~ ~ d a a a a a a a a a a a a a a a a a a a a a ! a ~ ! ! ! ! ! ! ! ! ! ! ! ! ! ! ! ! ! ! ! ! ! ! z B ! ! ",
"7 7 7 k 7 7 7 7 7 7 q q 7 7 7 q 7 5 0 5 0 5 5 0 0 0 0 0 0 0 q q q q q q q q q q q q q z z z z z z z z z z z ! ! z ! z z z z q q q q q q q q q q q 7 5 7 5 5 5 5 5 5 5 5 5 5 5 5 5 5 - - - 4 4 4 - - - - $ ^ oXu., 1 b D L ` ` $.....O.&.&.&.&.&.&.=.&.&.&.&.&.O.O...` ` _ _ _ H H H H _ _ _ _ _ ` ` ` ` ` ` ` ` { { { { { { { { ] ] ] T T T Y Y Z C C u u u u i y i i i i i i i i y i y y i i i u C A 1.Y u C C C C C C C C Z Z Z Z Z Z Z Z Z C Z Z Z Z Z Z Z Z Z Z Z Z Z Z Z Z Z Z Z Y Y Y Y Y Y Y Y Y Y T T E E E E E E E [ [ [ [ [ } } } 1.2.2.2.2.2.2.2.2.2.2.2.4.4.4.4.4.4.5.n.4XY.0.*.4.4.5.5.5.5.5.5.4.*.*.*.4.5.5.5.8.9.s.s.f.f.f.k.k.k.f.f.a.9.8.-.*.+.X.{ ] ] H F n m u u u r r r r t t & t t & & y y r u m x F H ' ' |  .@.@.@.@.@.@.@.@.@.@.$.@.@.@.&.&.-.-.,.i.g.g.g.g.g.d.a.>.-.-.-.&.@.@.$.` ` ' L L L P P P P P P U U U U U U B B U U U U W W W W ^ ^ ^ ^ ^ W ^ ^ ^ ^ ^ ^ ^ ^ ^ ^ ^ ^ ^ ^ ^ ^ ^ ^ ^ ^ ^ ^ ^ ^ ^ ^ ^ / / / / / ~ ~ ~ ~ ~ ~ d d d a a a a a a a a a a a a a a a a a a a ! / / / ! ! ! ! ! ! ! ! ! ! ! ! ! ! ! ! ! z ! ! ! z B ! ! ",
"k k 7 7 7 7 7 7 7 7 7 q q q 0 0 7 7 5 5 5 5 5 0 0 0 0 0 0 q q q q q q q q q q q q q z q q z z z z z z z z z z z z z z z z q q q q q q q q q q q q 7 5 5 5 5 5 5 5 5 5 5 5 5 - 5 - - - - 5 4 4 4 - - - - $ B %.B > l L ` ' ` $.$.O.&.&.&.&.&.&.&.&.&.&.&.&.O.O.....` ` _ _ _ _ H H H _ _ _ _ _ ` ` ` ` ` { X.X.{ { { { { ] ] ] ] ] T T F Y Z Z n m m C u u y y y y i y i i i i i i y y y i i i i y C BXPXBXA u C C C C C C C C C C Z Z Z Z C C C C C C C Z Z Z Z Z Z Z Z Z Z Z Z Z Z Z Z Z Z Z Z Z Z Z Y Y Y Y Y Y Y Y Y Y T T E E E [ [ [ [ } 1.1.1.2.2.2.2.2.2.2.2.2.2.2.2.2.+.0.3XhX4Xe.+.4.4.4.4.5.4.5.5.4.*.*.*.*.*.*.4.5.8.8.9.s.s.f.f.k.k.k.k.f.s.a.9.8.-.*.O.X.{ ] T F n m m u u u r r t t t t t & r * + & u m m n n F L ' | | | @.@.@.@.@.@.@.@.@.@.@.@.@.&.&.-.-.,.g.g.g.g.g.g.d.a.i.,.-.-.-.&.@.@.` ' ` ' L L U P P P U U U U B B B U U U B B U U W ^ U U U ^ U ^ ^ ^ ^ ^ ^ ^ ^ ^ ^ ^ ^ ^ ^ ^ ^ ^ ^ ^ ^ ^ ^ ^ ^ ^ ^ ^ / / / / / / ~ ~ ~ ~ ~ ~ ~ ~ ~ d a a a a a a a a a a a a a a a a a a a ! / / ! q s ! ! ! ! ! ! ! ! ! ! ! ! ! ! ! ! ! ! ! ! ! ! ! ",
"7 7 7 q q 7 7 7 7 7 7 q q 7 0 5 7 7 5 5 5 5 5 0 0 0 q 0 0 q q q q q q q q q q q q q z q q z q z q q z z z z z z z z z z q q q q q q q q q q q q 5 5 5 5 5 5 5 5 5 5 5 5 5 5 5 5 - - - - 4 4 3 8 8 - 8 7 8 , f l D L ` ` $.$.@.@.&.&.&.&.&.&.&.&.&.&.&.&.O.O...` _ _ _ _ H H _ _ _ _ _ _ ` ` ` ` ` ` { { X.X.X.{ { { ] ] ] ] T T F F F n n m m m u u u u y i y y y y y y y y y i i y y y y y i i y ( bXUXhXY u C C C C C C C C C C C C Z Z C C C C C m C Z Z Z Z Z C Z Z C Z Z Z Z Z Z Z n Z Z Z Z Z Z Z Z Z Z Z Z Z Y Y Y Y Y Y T T E E E E [ [ } } 1.1.1.1.2.2.2.2.2.2.2.2.2.o.6.4XwXn.6.+.4.4.4.4.4.4.4.4.4.4.*.*.+.+.+.*.*.4.5.5.8.9.s.f.f.k.k.k.f.f.f.s.9.8.-.*.+.X.{ ] H H n n m u u u r r r t t t t r r Q i r u u u x n F L L ' | | @.@.@.@.@.@.@.@.@.@.$.@.@.&.&.-.-.,.g.g.g.g.g.d.d.a.i.,.-.-.-.&.@.@.$.` ` ' ' U U U P U U U B B B U U U U B U U U W ^ U ^ U ^ ^ ^ ^ ^ ^ ^ ^ ^ ^ ^ ^ ^ ^ ^ ^ ^ ^ ^ ^ ^ ^ ^ ^ ^ ^ / / / ^ / / / / / ~ ~ ~ ~ ~ ~ ~ ~ ~ ~ ! a a a a a a a a a a a a a a a a a ! s ! ! ! q ! ! ! ! ! ! ! ! ! ! z ! ~ ~ ! ! ! ! ! ! ! ! ! ! ",
"k k 7 7 7 q 7 7 7 7 7 7 5 5 5 5 0 0 5 5 5 5 5 0 0 0 0 q q 0 q q q q q q q q q q q q q q z z z z z z z z z q z z z z q q q q q q q q q q q q q q 5 5 5 5 5 5 5 5 5 5 5 5 5 5 5 5 - - - - 3 3 3 - 8 8 8 k M l D L ` ' ` $.@.@.&.&.&.&.&.&.&.&.&.:.&.&.&.O.....` _ H H H H H _ _ _ _ _ ` ` ` ` ` ` { { { { { { { ] ] ] ] H T F F n n n m m m u u u u y y y y t y y y y y y y y y y y y y C i y i i i C BXbXBXC i C C C C C C C C C Z Z Z Z Z Z Z Z Z Z C Z Z Z Z Z Z Z Z Z m n Z Z Z Z Z Z Z Z Z Z Z n n Z n n n n Z Z Z Z Z Z Z Y Y Y Y T T T E [ [ [ } } } 1.1.1.1.2.2.2.2.2.2.} 2.e.n.r.3.2.4.4.2.2.2.2.4.4.2.4.2.+.+.o.+.+.+.+.+.4.4.5.8.0.s.f.k.k.k.k.f.f.s.a.9.8.-.*.+.X.{ ] H F n m m u u u r r t r t + Q jX3.& r r u u x n F F L ' | | @.@.@.@.@.@.@.@.@.@.@.@.@.@.&.-.-.,.i.g.g.g.k.k.d.g.g.,.-.-.-.;.@.@.@.` ` ' U U U U U U B B B U B B U U U U U U U ^ U ^ ^ ^ ^ ^ ^ ^ ^ ^ ^ ^ ^ ^ ^ ^ ^ ^ ^ ^ ^ ^ ^ ^ ^ ^ ^ ^ ^ / / / / / / / / / / ~ ~ ~ ~ ~ ~ ~ ~ ~ ! ! ! a a a a a a a a a a a a a a a ! ! s s s ! ! ! q q ! ! ! ! ! ~ B ! ^ / ! ! ! ! ! ! ! ! ! ! ",
"7 7 7 7 q q 7 7 7 7 7 7 7 7 7 7 0 0 5 5 5 5 5 0 0 0 0 0 q q q q q q q q q q q q q q q q q z q q z z q q q q z z z q q q q q q q q q q q q q 0 5 5 5 5 5 5 5 5 5 5 5 5 5 5 5 4 - - - - 4 - 3 8 8 8 8 8 k b P L _ ` $.$.@.&.&.&.&.&.&.&.&.&.&.:.w.-.O.O...` ` _ H H H H _ _ _ _ ` ` ` ` ` ` ` ` { { { { { { { ] ] T H H F n n n m m u u u y y y y y y y y t r y i y y y y y y y y y y C 3.( i u i C i C ( A C C C Z C C C C C C C Z Z Z Z Z Z Z Z Z Z Z Z Z Z Z Z Z Z Z m n n Z Z Z Z Z Z Z m C Z n Z n n n n n n Z Z n Z Z Z Z Z Z Z Y Y Y Y T E E E [ [ [ [ } } } 1.1.1.2.2.2.2.2.2.2.3.2.2.2.2.2.2.2.2.2.2.2.2.2.2.2.o.o.o.o.o.o.o.+.+.4.5.8.0.s.f.f.f.k.f.f.f.s.9.8.-.*.+.X.{ ] T F n n m u u u r r r t + p OXi & t r r u u x v n F H ' | | @.@.@.@.@.@.@.$.@.@.@.@.@.&.&.-.-.,.i.g.g.g.g.g.g.g.g.,.-.-.-.&.@.@.@.@.' ' U U U U U U B U U U U U U U U U U W W ^ ^ ^ ^ ^ ^ ^ ^ ^ ^ ^ ^ ^ ^ ^ ^ ^ ^ ^ ^ ^ ^ ^ ^ / ^ ^ ^ ^ / / / / / / / / / / / / ~ ~ ~ ~ ~ ~ ~ ~ ~ ~ ! a a a a a ! ! a a a a a a a ! ! s s ! ! ! ! ! ! ! ! ! ! ! ! ~ / / ^ ~ ! ! ! ! ! ! ! ! ! ",
"7 7 7 7 7 q q 7 q q 7 7 7 7 7 7 q q 5 5 5 0 0 0 q 0 0 0 0 0 q q q q q q q q q q q q q q q q q q q q z z z z z z q q q q q q q q q 7 q q q q 0 0 5 5 5 5 5 5 5 5 5 5 5 - - 4 4 - - - - - - 5 5 8 6 6 k l l L ` ` ..O.O.&.&.&.&.&.&.&.&.&.&.&.&.-.-...` ` _ _ H H H _ _ _ ` ` ` ` ` ` ` ` ` ` ` { { { { ] ] _ H T F F n n m m u u y y u y y y t t t r t t t t y y y y y y y y y y y y C ( ( m u C C C u u i C C C C C C C C Z Z Z Z Z Z Z Z Z Z Z Z Z Z Z Z Z Z Z Z Z Z m Z Z Z Z n Z n n n n Z n n n n n Z Z n n Z Z Z Z Z Z Z n Z Z Z Z Z Z Y Y Y T E E E [ [ [ [ } } 1.2.2.1.1.1.1.1.2.2.2.2.2.2.2.2.2.2.2.2.2.2.2.2.o.o.o.o.o.} } } o.o.+.4.5.9.s.s.f.f.f.f.f.f.s.a.9.8.-.*.+.X.] T Y F n m u u u u r r t & + & r & t r r u u u m n F H ' | | | @.@.@.@.@.@.@.$.$.$.@.@.@.&.-.-.,.g.g.g.g.g.g.g.g.g.q.-.-.-.&.&.@.@. .' ' ' U U U U U U U U U U U U U ^ %.^ U U ^ ^ ^ ^ ^ ^ ^ ^ ^ ^ ^ ^ ^ ^ ^ ^ ^ ^ ^ ^ ^ ^ ^ ^ / / / ^ ^ ^ / ^ / / / / / / / ~ ~ ~ ~ ! ! ~ ~ ~ ~ d d a a ! w ! / / ! a ! a a a a ! ! a a ! ! ! ! ! ! ! ! ! ! ! ! ! / / ~ ! ! ! ! ! k ! ! ! ! ",
"7 7 7 7 q 7 7 7 q 7 7 7 7 5 7 7 q q 5 5 0 0 q 0 0 0 0 q 0 0 q q q q q q q q q q q q q q q q z z q q q q z z z z q q q q q q q q q q q q 0 0 0 5 5 5 5 5 5 5 5 5 5 5 5 5 - - 4 4 - - - 8 8 8 8 6 k j l D L ` $...O.O.&.&.&.&.&.&.&.&.&.&.&.O.O.X...` _ _ _ H H H _ { X.X.X...` ` ` ` X.X.X.{ ` { { ] _ _ H F F n n n m u u u u y y y r t r r r r r t t t y y y y y y y y y y y u y y y C C i C C u C C C C C C Z Z Z Z Z Z Z Z Z Z Z Z Z Z Y Z Y Y Z Z Y Y Y n Y Z Z n n Z Z Z Z n T 1.Y Z Y Z Z n n n n Z Z n Z Z Z Z n n Z n n Z n Z Z Z Z Z Y Y Y T T T E E [ [ [ } 1.1.1.1.1.1.1.1.1.1.1.1.2.1.1.2.2.2.2.2.2.2.2.2.2.2.o.o.} } } } } } o.o.+.4.8.9.s.s.f.f.f.f.f.f.s.9.8.-.*.+.X.{ ] T F n m u u y u r r t r r t t t r r r r u u x n F H ' | | @.@.@.@.@.@.@.@.$.$.$.@.@.&.&.-.-.,.g.g.g.g.g.l.g.g.g.q.,.-.-.,.&.@.@. .' ' ' U U U U U U U U U U U U %.%.^ ^ U ^ ^ ^ ^ ^ ^ ^ ^ ^ ^ ^ ^ ^ ^ ^ ^ ^ ^ ^ ^ ^ ^ ^ ^ / ^ ^ ^ ^ ^ ^ / / / / / / / ~ ~ ~ ~ ~ ! ! ~ ~ ~ ~ d d a a ! a ! / / ! ! ! a a a a a ! a a ! ! ! ! ! ! ! ! ! ! ! ! ! ! ! ! ! ! ! ! ! ! ! ! ! ! ",
"7 7 7 7 7 q 7 7 7 7 7 7 7 5 5 5 q 7 7 5 0 0 0 0 0 0 0 q 0 0 q q q q q q q q q q q q q q q q q q q q q q q q q q q q q q q q q q q q q q 0 0 0 5 5 5 5 5 5 5 5 5 4 4 4 5 4 4 - - - - - 5 5 8 6 B k P L ` ` $.@.O.O.&.&.&.&.&.&.&.&.&.&.O.O.....` _ _ _ H H H H H _ { { X.O.X.` ` _ ` X.X.X.{ { ` ] H H F H F n m m u u y u u r r t t t t y t t r t t t t y y y y u u y u u u u u i u u u m C C C C C Z Z Z Z Z Z Z Z Z Z Y Y Y Y Y Y Y Y Y Y Y Y Y Y Y Y Y Y F F Y Y Y Y Y Y Y Y T r.y.1.Y Y Y Y Y Y Y Y Y Y Y Y Z Z n Z n n n n Z n n n n n Z Z Y Y Y Y Y T T T E [ [ [ } 1.1.1.1.1.1.1.1.1.1.1.1.1.2.2.2.2.2.2.2.2.2.2.2.2.} } } } [ [ [ [ } } o.4.5.0.0.s.f.f.k.k.f.f.f.a.9.8.*.+.o.{ ] T Y n m m u y u r r r t t t t t t t r u u u x v F F _ _ { @.@.@.@.@.@.@.@.@.@.@.@.@.&.&.-.-.q.i.g.g.g.g.g.g.g.g.q.,.,.,.,.;.@.@. .' '  .' U U U U U U U U U U ^ %.^ ^ ^ ^ ^ ^ ^ ^ ^ ^ ^ ^ ^ ^ ^ ^ ^ ^ ^ ^ ^ ^ ^ ^ ^ ^ ^ ^ ^ ^ ^ ^ ^ / / / / / / / / / / ~ ~ ~ ~ ! ~ ~ ~ d d d a a ! a a ! a w a a a a a a a a a a ! ! ! ! ! ! ! ! ! ! ! ! ! ! ! ! ! ! ! ! ! ~ ! ! ! ! ",
"7 7 7 q q q 7 7 7 7 7 5 5 5 5 5 q 7 q 7 5 0 0 0 0 q q q q q 0 0 q q q q q q q q q q q q q q q q q q q q q q q q q q q q q q q q 7 q 5 5 0 0 5 0 5 5 5 5 5 4 5 5 4 4 4 4 4 4 - - - - - 5 6 8 k k f L ' ` $.@.O.&.&.&.&.&.&.&.&.&.&.O.O.@.....` _ _ _ H H H H _ _ _ _ _ _ ` ` ` ` ` _ ` { { _ _ _ H F F E 1.Y m u u y y r r r r r t t r & t t t t t t t y y y y y u u u u u u u i i i C C C C C Z Z Z Z n Z Z Y Y Y Y Y Y Y Y Y Y T T T T T T T T T T T T [ r.3.H H T T T T T T Y T y.eX2.F T T T T T T T T Y Y Y Y Y F F F F n n Z Z n n n n Z Z Z Y Y Y Y Y Y Y E E E [ [ [ } 1.1.1.1.1.1.1.1.1.1.1.1.2.2.2.2.2.2.2.2.2.2.1.1.} } } [ [ [ [ [ [ [ o.2.4.5.0.0.s.f.z.z.z.f.f.s.9.8.5.*.+.X.{ ] T F n m u u u r r r r r t t t t r r r u u x m F F H _ { @.@.@.@.@.@.@.@.@.@.@.@.@.&.-.-.-.,.g.g.g.g.g.g.g.g.g.g.w.,.,.,.;.@.@. . . . .' U U U U U ^ ^ U U ^ ^ ^ ^ ^ ^ ^ ^ ^ ^ ^ ^ ^ ^ ^ ^ ^ ^ ^ ^ ^ ^ ^ ^ ^ ^ ^ ^ ^ ^ ^ / ^ ^ ^ / / / / / / / / / / ~ ~ ~ ~ ~ ~ d d ~ d d a a a a w a a w a a a a a a a a a a ! ! ! a ! ! ! ! ! ! ! ! ! ! ! ! ! ! ! ! ! ! ! B ! ! ",
"7 7 7 7 7 7 7 7 7 7 7 7 7 7 5 0 7 7 5 5 q q 5 0 0 5 0 q q q q q q q q q q q q q q q q q q q q q q q q q q q q q q q q q q q 7 7 q 5 5 0 0 0 0 5 5 5 5 - - 4 4 4 4 4 5 5 4 - - - - - 8 5 6 k l U %.' _ ..X.O.&.&.&.&.&.&.&.&.&.O.O.$.....` ` _ _ _ _ _ _ _ _ _ _ _ _ _ _ X.X.` +.r.X._ _ _ H H F F n n E ( ( m y y r r r r r r r t t t t Q t t t t y y y u y u u u u u m m C C m m C C Z Z Z Z Z Z Z Z Z Y Y Y Y Y T T T T T T T T ] ] ] ] ] { { ] ] ] } 3.n.y.] _ ] ] ] ] ] ] T H 1.r.} T ] T ] ] ] T T T T T T Y Y F F F F F F Y Y n n n n n Z Z Z Z Z Z Z Z Y Y Y Y E E [ 1.1.1.1.1.1.1.1.1.2.1.1.1.2.2.2.2.2.2.2.2.2.1.1.1.1.} } [ [ [ [ E E E E [ } 2.4.5.0.s.f.k.z.f.f.f.s.9.8.5.*.+.X.{ ] T F n m m u u u t r t t t t t t r r r u u u x v F H { { @.@.@.@.@.@.@.@.@.@.@.@.@.&.-.-.-.,.h.h.g.g.g.g.g.g.g.g.q.-.,.,.;.@.@. . . . .' U U U ^ ^ ^ U U U U U ^ ^ ^ ^ ^ ^ ^ ^ ^ ^ ^ ^ ^ ^ ^ ^ ^ ^ ^ ^ ^ ^ ^ ^ ^ ^ ^ ^ ^ ^ / / / / / / / ~ ~ / ~ / ~ ~ ~ ~ ~ d d ~ ~ d a a a a a a w a a a a a a a a a a a a ! ! a ! ! ! ! ! ! ! ! ! ! ! ! ! ! ! ! ! ! ! ! ! ! ! ",
"7 7 7 7 7 7 7 7 7 7 7 7 7 7 7 7 7 7 5 7 q q q q 5 0 7 0 q q 0 q q 7 q q q q q q q q q q q q q q q q q q q q q q q q q q q q 7 7 5 5 0 5 0 0 0 5 5 5 4 4 - - - 4 4 4 4 4 - - - - 5 8 5 7 k P f %.fX7._ @.O.&.&.&.&.&.&.&.&.O.O.@.$...` ` _ _ _ _ _ _ _ _ _ _ _ _ ` ` { X.X.` ` y.m.2.H H H F n n m x m C A C y r r r r r r r r r t t + ) BXt t y y y y y y u u u u u m m C C C C C Z Z Z Z Z Y Y Y Y Y T T T T T T ] ] ] ] ] ] ] { { } } { { { X.o.o.{ { { 6.2.` { { { { { { { { { { { { { { { ] { ] ] ] ] ] ] ] T T T H T H T F F Y n n Z Z n Y Y n n Z Z Z Z Z n n E Y n Y E [ [ 1.2.o.1.1.1.1.1.2.2.2.2.2.2.2.2.2.1.1.1.1.1.1.1.} } [ 1.[ E E E Y E E [ o.2.4.0.s.f.f.f.k.f.f.s.a.9.8.-.+.X.{ ] T T F n m u y y r r r r t t t t t t r r u u x v F _ ` { X.@.@.@.@.@.@.@.@.@.@.@.&.&.-.-.-.,.h.g.g.g.l.l.g.g.g.g.q.,.,.,.;.@.@. . . . .U U U ^ ^ ^ W ^ W W ^ ^ ^ ^ ^ ^ ^ ^ ^ ^ ^ ^ ^ ^ ^ ^ ^ ^ ^ ^ ^ ^ ^ ^ ^ ^ ^ ^ ^ ^ ^ / / / / / ~ / ~ ~ ~ ~ ~ ~ ~ ~ ~ ~ d d ~ ! ! a a a a a a a a a a a a a a a a a a s ! ! a ! ! ! ! ! ! ! ! ! ! ! ! ! ! ! ! ! ! ! ! ! ! ! ",
"7 7 7 7 7 7 7 7 7 7 7 7 7 7 7 q q 5 7 5 q q q q 0 q q q q q 0 0 q 7 7 7 q q q q q q q q q q q q q q q q q q q q q 7 q q 0 q 5 5 5 5 5 5 5 5 5 5 5 5 4 - - - - 4 - 4 4 4 - - - 5 5 6 6 k P U f ' oX7...&.O.&.&.&.&.&.&.@.@.O.$.$.$.` ` _ _ _ _ _ _ _ _ _ _ _ ` ` ` ..X...X...` 6.r.} H F F n m u u u u u y r r t t r r r r r r t t y & ( OXy y y y y u u u u u C m m m Z C Z Z Z Z Y Y Y Y Y T T T T ] ] ] ] ] ] { } { } } { o.o.o.o.o.+.X.X.X.O.+.+.+.+.X.+.+.X.O.X.X.O.O.O.O.X.X.X.X.+.X.X.X.X.X.X.{ { { { { { ] ] ] ] ] ] H F 1.1.F n Y Y F F F Y F n Z n Z Z n n Y Z E E Y Y [ } } o.2.2.2.2.2.2.2.2.2.2.2.2.1.1.2.1.2.1.1.1.1.1.1.1.1.1.E E E E Y E E [ } 2.4.0.0.s.f.j.k.k.f.f.s.9.8.-.*.O.X.{ T T Y n m u y y r r r t t t t t t t r r u u x v H _ ` X.@.@.@.@.@.@.@.@.@.@.@.@.&.&.&.-.,.w.g.g.g.x.x.x.h.h.g.g.w.,.,.,.;.@.#. . . .' W ^ ^ ^ ^ ^ ^ ^ ^ ^ ^ ^ ^ ^ ^ ^ ^ ^ ^ ^ ^ ^ ^ ^ ^ ^ ^ ^ ^ ^ ^ ^ ^ ^ ^ ^ ^ ^ ^ / / / / / / / ~ / / / ~ ~ ! ! ~ ~ ~ d d ~ d ! a a a a a a a a a a a w a a a a a a s s ! a ! ! ! ! ! ! ! ! ! ! ! ! ! ! ~ ! ! ! ! ! ! ! ! ",
"7 7 7 7 7 7 7 7 7 7 7 7 7 7 7 q q q 7 7 q q q q 7 7 q q 7 q q q q q q q q q q q q q q q q q q q q q q q q q q q q 7 7 q 5 5 5 5 5 5 5 5 5 5 5 5 5 4 4 4 - - - - 4 - 4 - - 5 5 5 8 6 k N P ' ' ` _ ..O.&.O.&.&.&.&.&.O.O.$.$.$.$.` ` ` _ _ _ _ _ _ _ _ ` ` ` ` ` ` ....` ` X._ H ] F v v m u u u u r r r r r r r t t t r r r r t r u y y u u i i u u u m m m C C n n Z Z Z Z Y Y Y Y T T T T ] ] ] } } } { } } o.o.o.o.o.+.+.+.+.+.*.*.*.-.5.-.*.*.*.*.*.-.-.-.*.*.*.*.*.*.*.*.&.&.&.&.*.*.*.O.O.O.O.O.X.X.X.X.X.X.X.{ { { { _ { m.m.} F H H H H F F F F F F F n Y Y x T eX9X1.Y [ [ } } o.o.2.2.2.2.2.2.2.2.2.2.2.2.2.2.2.2.1.1.1.1.1.1.1.1.[ E E E E Y Y Y E [ } 2.6.0.s.f.z.z.z.k.f.s.a.9.8.*.+.o.{ ] T F n m u u u u r r t t t t & t t r r u u x F H _ ` X.@.O.@.@.@.@.@.@.@.@.@.@.@.&.-.-.,.,.g.g.h.x.x.x.x.g.g.h.h.w.,.;.;.#.#. . . . .%.^ ^ ^ ^ ^ ^ ^ ^ ^ ^ ^ ^ ^ ^ ^ ^ ^ ^ ^ ^ ^ ^ ^ ^ ^ ^ ^ ^ ^ ^ ^ ^ ^ ^ ^ ^ ^ / / / / / / / / / / / ~ ~ ! ! ~ ~ ~ d d ! d d a a a a a a a a a a a w w a a a a a a a ! a ! ! ! ! ! ! ! ! ! ! ! ! ! ! ~ ! ~ ! ! ! ! ! ! ",
"7 7 7 7 7 7 7 7 7 7 7 7 q q 7 7 q q q q q 7 7 q q q q q q q q q q q q q q q q q q q q q q q q q q q q q q q q q q 0 0 0 0 5 5 5 5 5 5 5 5 5 5 5 5 4 4 4 4 - - - - - 4 4 5 8 8 8 6 k N P U ' ' ` $.&.&.O.@.@.O.O.@.@.@.$.$.$.` ` ` _ _ _ _ _ _ _ _ _ _ ` ` ` ` ` ` ` ` ` ` _ H F v x x u u u u r r r r r r r r r r r r r r r t t r r y y y u u u u u m m m n Z Z n F F Y Y T T T T T ] ] ] { { { ] { { X.X.o.+.+.+.+.+.+.*.*.-.-.-.-.-.8.j.z.j.8.-.:.:.:.:.:.:.-.-.:.:.:.-.:.-.-.-.-.-.-.-.-.*.*.&.&.&.&.&.&.O.O.O.O.X.X.X.{ X.+.n.n.o.H _ _ _ H H H H H H H H F Y Y < 2.bXMXr.n E T [ } o.o.+.2.2.2.2.2.4.4.3.2.2.2.2.2.2.2.2.2.1.1.1.1.1.1.1.( E E E Y Y Z Z Y Y [ 2.4.0.0.f.z.k.z.k.f.f.a.9.8.-.+.o.{ ] T F n m m u u u r r t t t t t t t r r u u x n H _ ` X.X.O.O.@.@.@.@.@.@.@.@.@.&.&.-.-.-.,.g.g.h.h.l.x.h.h.h.h.w.w.,.;.;.#.#. . . .%.%.%.%.^ ^ ^ ^ ^ ^ ^ ^ ^ ^ ^ ^ ^ ^ ^ ^ ^ ^ ^ ^ ^ ^ ^ ^ ^ ^ ^ ^ / / ^ ^ ^ ^ / / / / / / / / / / / / ~ ~ ~ ~ ~ ! ! ! ~ d a a a a a a a a a a a a a a a a a a a a a a a a a ! ! ! ! ! ! ! ! ! ! ! ! ~ ~ ~ ~ ! ! ! ! B ",
"7 7 7 7 7 7 7 7 7 7 7 7 7 7 7 7 q q q q 7 q 0 0 q q q q 5 5 q q 0 q q q q q q q q q q q q q q q q q q q q q q q 0 0 0 0 5 5 5 5 5 5 5 5 5 5 5 5 4 4 4 4 4 - - - - - 4 4 5 8 6 6 k N P L ` ` ` $.@.-.@.O.@.@.@.@.@.$.$.$.` ` ` _ _ _ _ _ _ _ _ _ _ _ ` ` ` ` ` ` ` _ _ H H F v x x u u u r r r r r t t r r r r r r r r r r t y y y y y u C u u m m C n n Z Y Y F F Y T T H H ] ] ] ] { { { } { X.+.4.+.+.+.+.*.*.*.*.*.-.-.-.:.:.:.:.:.9.z.Y.F.s.:.>.>.>.>.9.>.>.>.>.>.>.>.>.>.>.:.:.:.:.:.:.:.-.-.-.-.-.-.&.&.*.&.&.&.O.O.X.O.X.4.+.` ` { { { { ] _ _ _ _ H H } [ F v [ iXiX] F T T ] [ } o.o.+.2.2.4.4.4.4.4.4.3.3.3.3.3.2.2.2.2.1.1.1.1.1.1.1.( E E Y Y Y A A Z Y [ 1.2.5.0.f.z.z.z.k.k.f.a.9.8.-.*.X.{ ] T F n n m u u u r r t t t t t t t r r u u m v H _ ` ..X.O.O.@.@.@.&.@.@.&.&.&.&.&.-.-.-.w.h.h.g.l.x.x.h.h.h.h.w.w.,.;.;.#.#. . .%.%.%.%.%.^ ^ ^ ^ ^ ^ ^ ^ ^ ^ ^ ^ ^ ^ ^ ^ ^ ^ ^ ^ ^ ^ ^ ^ ^ ^ ^ / / ^ ^ ^ / / / / / / / / / / / ~ ~ / ~ ! ~ ~ ! ! ! ~ d d d a a a a a a a a a a a a a a a a a a a a a a a ! ! ! ! ! ! ! ! ! ! ! ~ ~ ~ ~ ~ ~ ! ! B B ",
"7 7 7 7 7 7 7 7 7 7 7 7 q q 7 7 7 7 q q q 7 0 q q q q 0 0 0 0 q q q q q 0 q q q q q q q 0 0 0 q 0 0 q q q 0 q q 0 0 0 0 5 5 5 5 5 5 5 5 5 5 5 5 4 4 4 4 4 - 4 - 4 4 4 4 8 6 6 k N P U ' ` $.$.@.@.@.@.@.@.@.@.@.$.$.` ` ` ` ' _ _ _ _ _ _ _ _ _ _ ` ` ` _ _ _ _ _ H F H v x u u u u r r r t t t r r r r r r r r r r r r u y y y u u u m m C m n Z Z Z Y Y T T T T ] 3.r.3.] ] { o.X.o.o.+.o.o.+.n.4Xe.*.*.*.-.-.-.:.:.8.8.9.9.9.9.>.>.a.z.F.z.a.>.a.a.a.a.a.a.a.a.a.a.a.>.9.>.>.>.>.>.>.>.>.>.:.:.:.:.:.:.:.:.-.&.-.&.O.&.&.*.O.O.O.X.X.X.O.O.X.X.X.{ { { _ { r.r.] H F [ ] F Y F T T ] { { o.o.+.+.4.4.4.6.4.4.4.4.4.4.4.3.3.3.2.2.2.1.1.1.1.1.1.( ( E Y Y A A Z Z Z E [ 2.5.0.f.z.z.z.z.k.f.s.9.8.-.*.X.{ ] T F n n m u u u r r t t t t t t t r r u u x v F H _ ` X.O.@.@.&.&.&.&.&.&.&.&.-.-.-.-.-.q.g.g.h.x.x.x.x.x.x.h.w.w.;.;.;.#.#. . . . .%.%.%.^ ^ ^ ^ ^ ^ ^ ^ ^ ^ ^ ^ ^ ^ ^ ^ ^ ^ ^ ^ ^ ^ ^ ^ / / / / ^ / / / / / / / / / / / ~ ~ ~ ~ / / ~ ~ ~ ~ ! ! ~ a d d a a a a a a a a a a a a a a a a a a a a a ! a ! ! ! ! ! ! ! ! ! ! ! ! ~ ~ ~ ~ ~ ! ! B B ",
"7 7 7 7 7 7 7 7 7 7 7 7 7 q 7 7 7 7 7 7 7 5 7 q q q q q 0 5 0 0 0 0 0 0 0 q q 0 q q q q 0 0 0 0 0 0 5 5 q 0 5 0 0 5 5 5 5 5 5 5 5 5 5 5 5 5 5 5 4 4 4 - - - - 4 4 4 4 8 6 k j P U U ' ` $.$.@.@.@.@.@.@.@.$.$.$.` ` ` ' ` ` _ _ _ _ _ _ _ _ _ _ ` ` ` ` _ _ _ H H F v x u u u u r r t t t t t t r r r r r r r r r r u u y y u u m m m m n n Z Z Y Y Y T T ] ] ] ] } r.n.r.o.{ o.+.+.+.*.*.*.+.+.n.Y.e.*.-.:.:.8.9.9.9.9.9.a.a.a.a.a.a.a.f.k.k.d.a.d.d.a.d.d.d.d.d.d.a.a.a.a.a.a.a.i.i.i.i.i.i.i.>.>.>.>.>.>.>.:.:.>.&.:.x.q.&.&.*.&.*.&.&.O.O.O.O.O.O.X.X.` X.e.e.` _ ] H H ] } } ] H ] { { { X.o.o.+.4.4.6.6.6.6.6.6.6.6.4.4.4.3.2.2.2.2.1.1.1.1.1.( ( Y Y Y A Z C C Z Y [ 2.4.0.s.z.z.z.z.k.f.f.s.9.-.*.+.X.{ ] H F n m u u u r r t t t t t t t r r u u m F v H _ { O.@.@.&.&.&.&.&.&.&.&.-.-.-.-.-.,.q.g.h.h.x.x.x.x.x.x.h.w.w.;.;.;.#.#. . . . .%.%.%.^ ^ ^ ^ ^ ^ ^ ^ ^ ^ ^ ^ ^ ^ ^ ^ ^ ^ ^ ^ ^ / ^ / / / / / / / / / / / / / / / ~ ~ ~ ~ ~ / / ~ ~ ~ ~ ! ~ ! ~ a d a a a a a a a a a a a a a a a a a a a a ! a ! ! ! ! ! ! ! ! ! ! ! ! ~ ~ ! ~ ~ ! ! ! B B ",
"7 7 7 7 7 7 7 7 7 7 7 7 7 7 7 q 7 7 7 q q q q q q q q 7 0 0 0 0 0 0 0 0 q q q q q 0 0 0 0 0 5 5 0 0 0 0 0 0 5 5 5 5 5 5 0 5 5 5 5 5 5 5 5 5 5 5 - - - - - - - 5 5 5 5 6 k j P U U ' ` $.@.@.@.@.@.@.@.$.$.$.` ` ` ` ` _ _ _ _ _ _ _ _ _ _ ` ` ` ` ` ` _ H H F H v x u u u r r r t t t t t t t t t r r r r r u y u u u u u u m m m n n F F Y Y T T T ] ] ] { } { { { 2.r.4.X.X.+.+.+.*.*.*.-.-.*.8.0.-.-.:.9.9.a.9.a.a.a.a.a.a.d.d.d.d.d.d.d.f.d.d.d.d.d.d.d.d.d.d.d.d.d.d.d.d.d.d.d.d.d.d.a.i.d.a.a.i.i.i.>.>.>.:.g.&.g.uXm.O.-.-.&.&.&.&.&.&.&.&.&.O.O.O.....O.O.` ` o.X.X.` r.y.2._ _ { { { { X.X.+.+.4.4.5.5.5.0.0.0.0.6.6.4.4.3.3.3.2.2.1.1.1.1.1.( ( ( Y A A C C C Z Y [ 2.4.0.s.j.z.z.z.z.f.f.a.8.-.-.O.X.{ ] T F n m u y u r r t t t t t t t t r * u x < j H { X.O.O.-.*.-.&.&.-.&.-.-.-.-.-.-.,.w.w.h.h.x.x.x.x.x.x.x.h.w.w.7.;.<.<.#.%. .%.%.%.^ ^ ^ ^ ^ ^ ^ ^ ^ ^ ^ ^ ^ ^ ^ ^ ^ ^ ^ ^ ^ ^ ^ ^ / / / / / / / / / / / / / / / / / / / / / ~ ~ ! ~ ~ ~ ~ ! ! a a d a a a a a w a a a a a a a a a a a a a a ! ! ! ! ! ! ! ! ! ! ~ ~ ! ! ~ ~ ~ ~ ~ ~ ~ ~ B ",
"7 7 7 7 7 7 7 7 7 7 7 7 7 7 q q 7 7 7 7 q q q q q q q q q 0 0 q 5 0 0 q q 0 q q 0 0 0 0 0 5 5 5 0 5 5 0 0 5 5 5 5 5 5 0 0 0 5 5 5 5 5 5 5 5 5 5 - - - - - 4 4 5 5 8 6 k j P U ' ' ` $.@.@.@.@.@.@.$.$.$.` ` ` ` ` ' ' ' _ _ _ _ _ _ ` ` ` ` ` ` ` ` _ H H H v x x u u u * * t t t t t t t & t t r r r r u u y y y y u u m m n n n n F Y T T T ] ] { { { { } o.o.X.X.X.X.X.X.*.*.*.-.-.-.-.:.8.8.8.9.8.9.9.a.a.a.a.a.a.f.f.f.f.k.k.k.k.k.k.k.k.k.k.k.k.k.k.z.z.z.z.z.z.k.k.k.k.k.k.k.k.k.k.k.d.d.d.d.d.d.d.d.a.i.>.f.=.a.Q.x.&.:.:.:.:.&.&.&.&.&.&.&.&.&.&.&.O.O.O...X.X.` ` X.6.r.+._ ` { ` ` ` { X.X.O.+.*.5.5.8.0.0.0.0.0.0.6.6.4.4.3.3.3.2.2.1.1.1.1.( ( ( ( A A A Z Z Z Y E 2.4.0.s.z.z.z.z.z.k.f.a.8.-.*.+.X.{ ] T F n m u y u r r t t t t # t t t * u u K 3.H _ { X.O.*.-.-.-.-.-.-.-.-.-.-.-.-.-.-.,.h.h.h.x.x.x.x.x.x.x.h.w.w.7.<.<.<.%. .%.%.%.^ ^ ^ ^ ^ ^ ^ ^ ^ ^ ^ ^ ^ ^ ^ ^ ^ ^ ^ ^ ^ ^ ^ ^ / / / / / / / / / / / / / / / / / / / / ~ ~ ~ ! ~ ~ ~ ~ ~ ~ d a a a a a a a a a a a a a a a a a a a a a a a ! ! ! ! ! ! ! ! ! ! ! ~ ~ ~ ~ ~ ~ ~ ~ ~ ~ B ",
"7 7 7 7 7 7 7 7 7 7 7 7 7 q q q 7 q q q q q q q q q 0 0 q q q q 5 0 0 q 0 0 0 0 0 0 0 0 0 5 5 0 0 5 5 5 5 5 0 5 5 5 5 5 0 0 5 5 5 5 5 5 5 5 4 - - - - - - 4 5 5 5 6 k j N U U ' ' $.@.@.@.@.@.@.$.$.$.` ` ` ` ` ' ' _ _ ' _ _ _ ` ` ` ` ` ` ` ` _ _ H F H v x u u u r * & & & t t & t t & t t t r r r u u y u u u u u m n Z Y Y F F T T ] ] { { { X.o.o.o.o.+.+.+.+.+.*.*.*.5.-.:.:.8.8.9.9.9.9.s.s.s.f.f.f.f.f.f.f.k.k.z.z.z.z.z.z.z.z.z.N.N.N.N.N.N.N.N.F.N.N.N.N.N.N.N.N.N.N.N.z.z.z.z.z.z.z.z.k.k.k.k.f.f.d.d.a.a.a.d.g.i.a.>.>.:.:.>.:.:.:.:.=.=.&.&.&.&.&.&.&.O...X.X.O.O.......` { ` ` ` ` { X.X.O.+.*.5.5.8.9.0.0.0.0.0.0.6.6.4.4.3.r.3.2.1.1.1.1.( ( ( Y A A A A Z Z Y E 1.4.0.s.j.z.z.z.z.z.f.9.:.5.*.*.o.{ ] T Y n m u y u r r t t t # # t t r u * u.OXF H { X.O.&.-.-.-.-.-.-.-.-.-.-.,.-.-.-.-.w.h.h.x.x.x.x.x.x.x.x.h.w.w.7.<.<.<.#.%.%.%.%.^ ^ ^ %.^ ^ ^ ^ ^ ^ ^ ^ ^ ^ ^ ^ ^ ^ ^ ^ ^ ^ ^ / / / / / / / / / / / / / / / / / / ~ / / / ~ ! ~ ~ ~ ~ ! a a a d a d d a a a a a a a a a a a a a a a a a a ! a a ! ! ! ! ! ! ~ ~ ~ ~ ~ ~ ~ ~ ~ ~ ~ ~ ~ ",
"7 7 7 7 7 7 7 7 7 7 7 7 7 7 7 q 7 7 q q q q q q q q 0 0 q 0 0 0 0 0 0 0 0 0 0 0 0 0 0 0 0 5 5 5 5 5 0 5 5 - e 5 5 5 5 5 0 0 5 5 5 5 5 - 5 5 4 - - - - - 4 4 5 5 6 k j j P U ' ' $.@.@.@.@.@.X...$.` ` ` ` ' ' ' ' ' _ _ _ _ _ _ ` ` ` ` ` ` _ _ H H F v x u u u r r * & & & & t t t t t & t t r r u u u u u u u u m m n Y T T T T ] ] ] { { o.o.o.+.+.+.+.+.*.*.*.*.-.5.5.8.8.9.9.9.9.0.s.s.s.f.f.f.k.z.z.z.z.z.z.z.z.N.N.F.F.F.F.F.F.Y.Y.Y.Y.Y.Y.Y.Y.Y.K.K.K.K.K.K.K.K.K.K.K.K.K.Y.Y.Y.Y.Y.Y.Z.N.N.N.z.z.z.z.l.k.k.k.k.l.l.d.d.a.a.i.>.i.i.>.>.>.>.>.=.=.=.&.&.&.&.&.&.&.O.O.O.O.O.O...` ` ` ` ` ` ` X.X.O.+.*.-.-.8.9.0.0.s.s.e.e.0.6.6.r.r.r.3.2.2.1.1.1.( ( ( Y Y A A A Z Z Y E 1.4.0.0.j.z.z.z.M.K.Q.j.8.5.-.*.o.} ] T F n m u y r r r t t t # t t t r = Q %.n H ] X.X.O.-.-.-.-.-.-.-.-.-.-.,.,.,.,.,.,.w.h.h.x.x.x.x.x.x.x.h.h.w.w.7.<.<.#.#.%.%.%.%.%.^ ^ ^ ^ ^ ^ ^ ^ ^ ^ ^ ^ ^ ^ ^ ^ ^ ^ ^ ^ ^ / / / / / / / / / / / / / / / / / / / ! ! / ~ ! / ~ ~ ~ a a a a d d w w w w a a w a a a a a a a a a a a a a a a ! ! ! ! ! ! ! ! ~ ~ ~ ~ ! ! ~ ~ ~ ~ ~ ~ ",
"7 7 7 7 7 7 7 7 7 7 7 7 7 7 7 7 q q q q 7 7 q q q 0 7 q 0 5 0 5 5 0 0 0 0 0 0 0 0 0 0 0 0 0 0 5 5 5 0 5 - 5 0 5 5 5 5 5 5 5 5 5 5 5 5 5 5 5 - - 5 5 - - 4 4 8 8 6 k N P U ` ` $.@.@.@.@.@.$.$.` ` ` ` ' _ _ ` ' ` ` _ _ _ _ _ ` ` ` ` ` _ _ _ H F v x u u u , r * & & & & & & & t t t t t r r r u u y u u u m m m n n Y T [ } ] ] ] { { X.+.+.+.+.*.*.*.-.5.-.-.-.-.:.8.9.9.a.a.s.s.s.f.j.j.z.z.z.z.z.b.N.F.F.F.F.Y.Y.Y.I.I.I.I.U.U.U.U.U.U.U.U.U.U.U.U.U.U.U.U.U.U.U.U.U.U.U.U.U.U.U.U.U.U.K.K.K.K.K.K.K.Y.Z.Q.N.N.N.z.z.l.k.k.d.d.d.d.d.i.i.i.i.i.>.>.>.>.:.=.=.&.&.&.&.&.&.O.&.&.O.O.............` ......O.O.*.-.:.8.9.s.s.s.s.s.0.e.e.e.6.6.r.3.3.2.1.1.1.1.( ( Y Y Y A A A Z A E 1.2.0.s.z.z.M.M.W.hXQ.:.9.8.-.*.+.{ ] T Y n m u y r r t t t t t t t t t * u x F H ] { O.*.-.-.:.-.-.-.-.-.-.-.,.,.,.,.,.w.w.h.x.x.x.x.x.x.x.x.h.w.w.w.7.;.#.%.%.%.%.%.%.^ ^ ^ ^ ^ ^ ^ ^ ^ ^ ^ ^ ^ ^ ^ ^ / ^ ^ / / / / / / / / / / / / / / / / / / / ~ ~ ! ! / / ~ / ~ ~ d a a a a d s w w w w s w w a w a w w a a a a a a a a a ! ! ! ! ! ! ! ! ! ! ! ~ ~ ~ B ~ ~ B ~ B B ",
"7 7 k k 7 7 7 7 7 7 7 7 7 7 q 7 q q 7 q 7 7 7 q q 5 q 0 0 0 5 5 0 5 0 0 0 0 0 0 0 0 0 0 0 0 5 5 0 5 5 5 0 5 - - % 5 5 - 5 5 - - 5 5 5 - 5 5 - - 4 5 - - - 8 8 8 k j P U ` ' ` @.@.@.@.@.@.` ` ` ` ` _ ' _ _ ` ` ' ' _ _ _ _ ` ` ` _ ` _ _ H F v v x u u , * * * & & & & & & & t t t t r r r u u y u u m m m n n n F Y T [ 2.2.{ { { X.o.+.+.*.*.*.-.-.-.5.5.8.9.8.8.9.a.a.s.f.f.j.z.z.z.z.z.F.F.F.F.F.Y.J.J.J.I.I.I.I.U.U.U.U.U.U.U.U.U.U.U.U.U.U.U.U.U.U.U.U.U.U.U.U.U.U.E.E.E.E.E.E.E.E.E.E.E.E.E.E.E.E.E.E.E.E.T.T.Q.K.N.N.z.z.l.l.l.k.d.d.d.i.i.i.i.i.i.>.:.:.=.=.&.&.&.&.&.&.&.&.&.O.O.O.O.X.............O.&.&.-.:.>.9.a.s.s.s.s.s.e.e.e.e.6.r.r.r.3.2.1.1.1.( ( ( ( Y A A A A Y E 1.2.0.0.z.M.M.K.1Xz.s.f.a.8.-.*.o.{ ] T F n m u y r r t t t t t t t r r u u x F H _ X.&.-.:.:.-.-.-.-.-.-.,.,.,.,.,.,.,.w.h.x.x.x.x.x.x.x.x.x.h.w.w.w.7.;.#.%.%.%.%.%.%.%.^ ^ ^ ^ ^ ^ ^ ^ ^ ^ ^ ^ ^ / / ^ / / / / / / / / / / / ~ / / / / / / / / / / / ~ B ~ ~ ~ / ~ d d a a a w d d s w w w w w a w a w w a a a a a a a a a a a ! ! ! ! ! ! ! ! ! ~ ~ ~ ~ ~ ~ ~ B B B ",
"7 7 7 7 7 7 7 7 7 7 7 7 7 7 7 7 q q 7 7 7 7 q q q q q 0 0 5 0 0 0 5 0 0 0 0 5 0 0 0 0 0 0 0 5 5 5 5 5 5 0 - 5 5 % - 5 - - - - - - - - - 5 5 4 - - - - - 5 8 6 6 j P U ` ' ` @.@.@.@.@.$.` ` ` ' ' ' ' ` H H H L ` _ _ _ _ _ ` ` _ _ _ H F v v x u u u r * & & & + & & & t t t t t r r r u u u y u u u m n n Z Y Y T T ] { 2.2.o.X.o.+.+.*.*.-.-.-.-.:.8.8.-.8.9.a.a.f.f.k.z.z.z.z.F.F.F.F.Y.J.J.I.I.I.;XI.I.;X;X;X;X;X;X;X;X;X;XU.U.U.U.U.U.U.U.U.U.U.U.U.U.U.U.U.U.U.U.E.E.E.E.E.E.E.E.E.E.E.E.E.W.1X1X1X1X1X1X1X1X1XW.W.E.T.Q.K.Z.N.Z.z.l.l.l.k.k.d.d.i.i.i.>.>.>.>.>.:.=.=.&.&.&.&.&.&.&.&.O.O.O.O.O.O.....O.O.&.&.-.:.>.a.a.s.f.j.j.s.s.s.e.e.e.6.r.r.r.3.2.1.1.1.( ( ( ( ( Y A A A E [ 2.6.0.z.z.M.k.z.z.z.f.a.8.5.*.o.{ ] T Y m m u y r r t t t t t t t r u u u x n H { O.&.-.:.-.-.-.-.-.-.,.,.,.,.,.,.,.,.w.h.x.x.x.x.x.x.v.c.c.h.w.w.w.;.<.<.%.%.%.%.%.%.^ ^ ^ ^ ^ ^ ^ ^ ^ ^ ^ ^ ^ / / / / / / / / / / / / / / / / / / / / / / ! / / B  .t.%./ ~ ~ ~ d d a d d s s s s a s w w w w a w w w a a a a a a a a a a a a ! ! ! ! ! ! ! ! ~ ~ ~ ~ ~ B ~ B B B ",
"7 7 7 7 7 7 7 7 7 7 7 7 7 7 q 7 7 7 7 q 7 7 q q 7 q q 7 0 0 0 5 5 5 0 5 0 0 5 0 0 0 5 5 0 5 - - 0 5 5 0 - % ~ / 5 % - - - - - - - - - - - - - - 4 - - 5 8 8 6 k N U ' ' ` ` @.@.@.$.` ` ` ` ' ' ' _ ' ` H L H L L ' _ _ _ _ _ _ _ _ H H v x u u , r * & & & & & & & t t t t t t r r r u u u u u u m m n F Y T T ] ] { { X.+.+.+.+.+.*.*.-.-.-.5.:.8.9.9.:.9.x.x.a.k.z.z.z.N.F.F.F.J.I.I.I.;X;X;X;X;X;X-X;X;X;X;X;X;X;X;X;XU.U.U.U.U.U.U.U.U.U.U.U.U.U.U.U.U.U.U.K.K.U.U.U.U.E.E.E.E.E.E.E.E.E.E.E.E.W.W.W.1X1X1X1X1X1XrXrX1X1X1XW.E.E.T.Q.N.x.x.l.l.g.g.g.i.i.i.i.i.i.i.>.>.>.=.=.=.=.=.&.&.&.&.&.&.&.O.O.O.O.O.O.O.&.&.&.:.>.a.a.f.f.j.j.s.s.s.e.e.e.r.6.r.r.3.2.1.1.1.1.( ( ( ( Y A A Y Y [ 2.5.0.z.z.z.z.z.z.k.f.a.9.5.*.o.{ ] T n m u u y t r t t t t t t t r u u u x F _ { O.-.:.8.q.,.-.-.-.,.,.,.,.,.,.,.,.,.w.h.x.x.x.x.x.x.v.c.c.h.w.w.7.<.<.<.%.%.%.%.%.^ ^ ^ ^ ^ ^ ^ ^ ^ ^ / / / / / / / / / / / / / / / ! ~ / / / / ~ / / ~ ! / / 6 OXbXu.z / / ~ d d d d d d w s d s s w s s s w w w w a a a a a a a a a a a s s ! ! ! ! ! ! ! ~ ~ ~ B B B ~ B B B ",
"k 7 7 7 7 7 7 7 7 7 7 7 7 7 7 7 q q q 7 7 7 q q q q q q 0 5 0 0 0 0 5 5 5 0 0 0 5 5 - e 0 e 0 0 0 0 - 0 - - / / 5 - 5 - - - - - 5 5 - 4 - - - 4 4 5 8 8 8 6 k N U ' ' ' ` $.@.@.@.` ` _ ' ' ' ' _ ' _ ' ' L L H ` ' _ _ _ _ _ _ _ H H v x < u r r * & & & & + + & t t t t t r r r r u u u u u m m n n Y F ] ] ] { { X.X.+.*.*.*.-.-.-.-.:.:.8.8.9.9.a.a.9.Q.uXyXz.z.N.F.F.F.J.J.I.=X=X;X-X-X-X-X;X;X=X=X;X;X;X;XI.I.I.I.I.U.U.U.I.U.U.U.K.K.K.K.K.K.K.K.K.K.K.K.K.K.K.K.K.K.K.K.K.K.K.T.T.T.T.T.T.T.E.E.E.E.E.E.W.1X1X1X1X1X1X1X1X1X1XW.W.E.Q.K.x.Z.x.x.x.g.g.g.i.i.i.i.i.i.i.,.>.>.>.=.=.=.&.&.&.&.&.&.&.O.O.O.O.O.O.&.&.&.:.>.9.a.f.f.f.f.j.j.j.s.e.e.r.6.r.r.r.3.2.1.1.1.( ( ( ( A A A Y Y 1.2.6.0.j.z.z.z.z.z.k.f.s.8.-.*.+.{ ] T n m m u y r r t t t t t t r t r y x n F _ X.O.-.:.-.w.q.q.-.-.-.,.,.,.,.w.,.,.w.w.h.x.x.x.x.x.x.x.c.x.h.w.w.7.;.<.%.%.%.%.%.^ ^ ^ ^ ^ ^ ^ ^ ^ ^ / / / / / / / / / / / / / / ~ ~ ~ ~ ~ / / / ~ ~ ~ ! / / ! %.BX%.z / / ~ ~ a a a d s w s s d w s s s s s w w w w w a a a a a a a s s s ! ! ! ! ! ! ! ! ~ ~ ~ ~ ~ ~ B B B B ",
"7 7 7 7 7 7 7 7 7 7 7 7 7 7 7 q q q q 7 7 q q q q 7 0 5 5 5 5 0 5 5 5 5 0 0 0 0 - - - - 0 0 e 0 0 0 - - - - q 7 5 - 5 - - - - - 4 - - 4 4 5 - - 4 8 8 6 6 k j P U ' ` ` ` $.$.$.` ' ' _ ' ' ' ' H L L _ H H ' L _ _ _ _ _ _ _ H H v x u , * * & & & & & + + + + t t t t t r r r r u u u u u m m n n Y T T ] { X.o.+.+.+.*.*.-.-.8.8.8.9.9.a.a.a.a.a.f.f.a.Y.hXgXY.F.J.J.I.I.=X;X-X-X-X-X-X-X-X;X;X;X=XI.I.I.I.I.I.I.I.J.J.J.J.K.J.J.K.K.K.K.K.K.K.C.C.K.K.K.C.C.C.C.C.C.C.C.C.C.C.C.K.T.T.T.T.T.T.T.T.T.T.T.T.E.E.W.W.W.W.W.1X1X1X1XrX1X1X1XW.R.E.T.K.x.Z.x.x.g.g.g.g.i.i.i.i.i.i.i.,.>.>.>.=.=.=.&.&.&.&.&.&.&.O.O.O.O.O.&.&.=.:.9.a.f.k.k.k.z.z.j.j.j.e.e.6.6.r.r.r.3.1.1.1.1.( ( ( A A A Y E 1.2.4.0.j.z.z.z.z.z.k.f.s.8.-.*.o.{ ] T n n u y y r r r t t t t r t t u u u n F _ X.&.-.:.w.w.q.w.w.,.w.w.,.,.,.,.,.w.w.h.x.x.x.x.x.x.x.v.c.h.w.w.w.;.;.<.%.%.%.%.%.^ ^ ^ ^ ^ ^ ^ ^ ^ / / / ^ ^ / / / / / / / / / ~ ~ ~ ~ ~ ~ ~ ~ ~ ~ ! ~ ~ / / z k ~ ~ ~ / / ! d d a d d w w s d w s s s s s w w w w w a a a a a a a s s s ! ! ! ! ! ! ! ! ~ ~ ~ ~ ~ ~ V B B B ",
"7 7 7 7 7 7 7 7 7 7 7 7 7 7 z z 7 7 7 7 7 q q q 7 5 5 5 5 5 5 5 5 5 5 5 5 0 0 0 - - - - - - e - - - - - - - - - 5 5 - - - - - - - - - 4 - - 5 - - 8 8 6 k j P L ' ' ` ` $.` ` ` ' ' ` ` ' ` L L L L L L L L H H _ _ _ _ _ H H H v x u u * * & & & & t t + + & & & t t t r r r u u u u u m m n n Y Y T ] ] { X.+.4.*.*.*.-.-.-.8.9.9.a.a.a.d.f.f.k.k.z.z.z.F.U.;XJ.I.=X=X=X=X=X-X-X-X-X-X;X;X;XI.I.I.I.L.I.J.J.J.J.K.K.K.J.V.V.V.V.V.V.V.V.V.V.V.Z.Z.Z.Z.Z.Z.Z.Z.Z.Z.Z.Z.Z.Z.C.C.C.C.C.A.C.A.A.A.A.A.A.A.T.T.T.T.R.R.R.R.W.W.W.W.W.1X1X1X1XrX1X1X1XW.W.Q.Q.Q.x.x.x.h.h.h.h.i.i.i.i.i.i.i.i.>.>.>.>.=.=.=.=.&.&.&.&.&.O.O.O.O.&.&.:.:.>.a.f.f.k.z.z.z.z.j.j.j.e.e.r.r.r.r.r.2.2.1.1.1.( ( ( Y Y Y E 1.2.4.0.s.z.z.z.z.z.k.f.a.9.5.*.X.{ ] T F m u u y r t r t t # t t t r r u m n F { O.*.-.:.8.q.q.-.w.w.w.w.,.,.,.,.w.w.h.x.x.x.x.x.x.x.v.c.c.h.w.w.7.<.<.<.%.%.%.%.^ ^ ^ ^ ^ ^ ^ ^ / / ^ / ^ ^ ^ ^ / / / / / / / ~ ~ ~ ~ ~ ~ ~ ~ ~ ! ! ~ ~ / / ~ / / ^ ~ ~ / ~ ~ d d d d s s w d d s s s s w w w w w w a a a a a a a a s s ! ! ! ! ! ! ! ! ~ ~ ~ ~ ~ ~ ~ ~ B B ",
"7 7 7 7 7 7 7 7 7 7 7 7 7 7 7 7 7 7 7 7 7 7 7 q 7 7 5 5 5 5 5 0 5 5 5 5 5 5 e e - - - - - - - - - - - - - - - - 5 5 - - - - - - - - - - - - - 5 8 8 6 k k P U ` ' ` ` ` ` ` ' ' ' ` L L L L L L L L ' ' ' ' L H _ _ H H H H v x x u , * & & & + & & + + + & & t & t r r r u u u u u m m n n F Y T ] ] { { o.+.*.5.5.5.5.8.8.8.9.9.a.f.f.k.k.k.z.z.N.F.F.F.J.J.I.=X=X=X=X-X=X=X=X=X;X;X;XI.I.I.I.L.H.H.H.K.K.K.J.V.Z.Z.Z.Z.Z.Z.Z.Z.Z.Z.Z.Z.Z.Z.Z.Z.Z.Z.Z.Z.Z.Z.Z.Z.Z.Z.Z.Z.D.D.D.D.D.D.Z.D.A.A.A.D.D.A.A.A.S.S.S.S.R.R.R.R.R.R.W.W.W.W.W.1X1X1X1XrXrX1X1XW.E.Q.K.Q.x.x.x.h.h.h.i.i.i.i.i.i.i.i.i.i.>.>.>.=.=.=.&.&.&.&.&.&.&.&.&.&.=.=.i.d.d.k.z.z.z.z.z.z.b.n.j.r.6.6.r.r.r.r.3.2.1.1.( ( ( Y Y E ( 1.2.4.e.s.j.z.z.z.z.k.f.s.8.-.*.X.{ ] T n m u y r t r r t t t t t t r u y u n H ` O.*.:.8.q.q.q.w.w.w.w.,.,.,.,.,.w.w.h.x.x.x.x.x.x.v.v.c.c.h.w.w.7.<.<.%.%.%.%.^ ^ ^ ^ ^ ^ ^ ^ / / ^ ^ / ^ ^ ^ ^ / / / ~ / / / ~ ~ ~ ~ / ~ / ! ! ! ! / ~ ~ / / ^ / ~ ~ / ~ ~ d d d d w w w w d s d s w w w a a w w w a a a a a a s a s s ! ! ! ! ! ! ! ~ ~ ~ ~ ~ ~ ~ ~ B B ",
"k 7 k k 7 7 7 7 7 7 7 7 7 7 7 6 ~ ^ k 7 5 7 7 5 5 5 5 5 0 0 5 5 5 5 5 - 5 5 e e e - - e - - - - - - - - - - - - - - - - - - - - - - - - - - - 8 8 8 k j N U ' ' ` ` ` ` ' ' ' ' L L L L L L L L L L H H H ' ' H _ _ H H H v x u u u r & & & + + + + + + + t t t t r r r u u u u m m n n n Y T ] ] { { o.o.+.*.5.8.8.8.8.8.9.a.a.s.f.k.k.z.l.M.N.F.J.J.I.=X=X=X-X-X-X=X=X;X;X=X=XI.I.L.L.H.H.J.H.J.J.V.V.V.N.N.Z.N.Z.Z.Z.Z.Z.Z.Z.Z.Z.Z.Z.Z.Z.Z.Z.Z.Z.Z.Z.Z.Z.Z.Z.Z.Z.x.x.x.x.D.D.c.c.Z.Z.Z.Z.D.Z.Z.Z.Z.D.D.D.D.D.S.D.S.S.R.R.R.R.R.R.R.W.W.W.W.W.W.1X1X1X1XW.W.W.Q.Q.D.D.x.x.x.h.h.i.i.i.i.i.i.i.i.i.i.>.>.>.=.=.=.:.&.&.&.&.&.&.&.=.=.>.i.i.d.k.l.z.z.z.z.N.z.j.j.e.e.r.6.6.r.r.r.r.1.1.1.( Y Y Y ( ( 1.2.4.e.s.j.z.z.z.z.f.f.a.8.-.*.X.{ ] Y n m u y y r y y r t t t t r r y y m n H X.+.-.9.q.q.q.w.w.w.,.,.,.,.,.,.,.w.w.h.x.x.x.x.v.x.x.v.v.c.h.w.7.7.<.<.%.%.%.^ ^ ^ ^ ^ ^ ^ ^ ^ / ^ ^ / ^ ^ ^ ^ ~ / / ! ~ ~ ~ ~ ~ ~ / / ~ ~ ! ~ ~ ! ! ~ / ~ ~ ~ ~ / / / / ~ d d d s w w d w d s s w w s w a a w w w w w a w w a a a a a s ! ! ! ! ! ! ! ! ! ~ ~ B ~ ~ ~ B ",
"7 k 7 7 7 7 7 7 7 7 6 7 7 7 6 B ^ ^ k 8 5 5 5 5 5 5 5 5 5 5 5 5 - - - - - - - - e - - - - - - - - - - - - - - - - - - - - - - - - - - - - - 8 8 8 6 k N P U ' ` ` ` ' ' ' ` L L L L L L L L L L L H H ' ' l H H H H H H v x u , r * & & + + + + + + & t t t t r r r u u u u u m m n F Y T ] ] { X.X.+.+.+.*.-.5.8.8.9.9.a.s.f.f.k.z.z.M.N.N.L.;X;XI.I.=X=X-X-X=X=X=X=XI.I.I.I.L.L.H.H.G.J.J.V.V.N.N.N.N.N.M.Z.Z.Z.l.Z.Z.l.Z.Z.Z.l.x.x.Z.Z.Z.x.x.x.x.x.Z.Z.x.x.x.Z.Z.x.Z.c.c.D.D.c.c.c.Z.D.D.D.D.D.D.D.D.D.D.S.S.D.S.S.S.S.S.S.R.R.R.R.R.R.R.R.W.W.W.W.W.W.W.W.W.W.W.R.Q.Q.D.x.x.h.h.h.p.p.p.p.i.i.i.i.i.i.i.>.>.>.=.=.=.:.&.&.&.&.&.=.=.=.>.i.d.k.l.M.z.M.z.z.z.z.j.j.e.r.r.r.y.y.r.r.2.1.1.( ( Y Y E 1.1.1.3.e.e.x.z.z.z.z.k.f.a.8.-.*.o.{ T Y n m u y y C ( i r r t t t r t r u u 1.y.4.*.8.9.q.q.q.q.w.w.,.w.w.,.,.,.w.w.h.h.x.x.x.x.x.v.v.v.c.c.h.w.7.<.<.%.%.%.%.^ ^ ^ ^ ^ ^ ^ / / ^ / / ~ ~ / ~ / / / ! / ~ ~ ~ ~ ~ ~ ~ ~ ~ ! ! ! ! ! ! ~ ~ ~ ~ ~ / / / / ~ ~ d a d w w w w d w s w s w w w w w w w w w w w w w a a a s s ! ! ! ! ! ! ! ! ~ ~ B B ~ ~ ~ B ",
"7 7 7 7 7 7 7 7 7 6 6 6 7 7 6 k ^ ^ k 8 8 5 5 5 5 5 5 5 5 5 5 5 - - - - - - - - - - - - - - - e e - - ; - - - - - - - - - - - - - - - - - - 8 8 8 k j P L ' ' ` ` ` ' ' L L L L L L L L L L L L H j | t.t.' H H H H H v x < , * & & & + + + & + t t t t t r r r r u u u u m m n n F T T ] { { X.o.+.*.*.4.5.8.8.9.9.a.d.f.k.l.z.M.N.N.J.G.H.;XwXwX>X=X=X=X=X=X=X=XI.I.L.L.L.H.H.J.J.V.V.N.N.N.M.M.M.M.M.M.Z.l.l.l.l.l.l.x.x.Z.Z.Z.Z.x.Z.Z.Z.Z.Z.Z.Z.Z.Z.Z.Z.c.Z.c.c.c.c.D.D.D.D.D.D.D.D.D.D.D.D.D.D.D.D.D.D.D.D.D.D.S.S.S.D.S.S.S.S.R.R.R.R.R.R.R.R.R.W.W.W.W.W.W.W.W.W.R.Q.Q.D.c.c.h.h.h.h.p.p.p.i.i.i.i.i.i.i.>.>.>.=.:.:.:.&.:.:.=.=.=.=.>.i.d.l.l.l.l.l.z.z.z.z.z.j.j.e.y.n.n.y.r.3.3.1.1.( ( Y Y ( ( 1.2.4.e.j.x.z.z.z.z.k.f.a.9.-.*.X.{ T Y n m u u A ( i t r t t t t r r u u r.eX6.+.5.8.q.g.g.q.w.w.w.w.w.w.,.,.w.w.w.h.x.x.x.x.x.x.v.v.v.c.h.w.7.7.<.<.%.%.%.^ ^ ^ ^ ^ ^ ^ / / / / ~ ~ ^ ^ B ^ / / ! / ~ / ~ / ~ ~ ~ ~ ~ ~ ! ! ! ! ! / ~ ~ ~ ~ ~ / / / ~ ~ d d s s w w w d s w w w w s w w w w w a w w a a s a s ! s ! ! ! ! ! ! ! ! ! ! ! B B ~ ~ B B ",
"7 7 7 7 7 7 7 7 6 6 6 7 7 k 6 8 k k 6 5 5 5 5 5 5 5 5 5 5 5 5 - - - - - - - - - - - - - - - - - - - - ; ; - - - - - - - - - - - - - - - - - 8 8 k j P U ' ' ` ` ' ' ` L L L L L L L L L L L L H L H _ 7.7.H H H H v x u , * * & & + + + + + & t t t t t r r r u u u u u m m n F F T ] ] { o.o.+.+.*.-.5.8.8.9.9.s.f.f.k.k.z.M.N.J.J.H.L.I.I.:X0X0X>X=X=X=X=XI.I.I.L.H.H.H.J.J.V.N.N.N.M.M.M.M.M.Z.Z.Z.l.l.Z.Z.Z.l.x.Z.Z.Z.Z.Z.Z.Z.Z.Z.Z.Z.D.D.D.D.c.c.D.D.c.c.c.c.c.c.D.S.D.D.D.D.D.D.D.D.D.D.D.D.D.D.D.D.D.D.D.D.D.S.S.S.S.S.D.S.S.S.S.S.S.S.R.R.R.R.R.R.R.R.R.R.R.W.R.R.R.R.Q.Q.D.c.c.x.h.h.p.p.p.p.p.p.i.i.i.i.i.>.>.>.=.:.=.:.:.=.=.&.=.>.>.i.i.k.l.M.K.rXE.F.F.F.b.j.j.n.n.n.y.r.r.3.1.1.1.1.( ( Y E ( 1.2.4.e.x.m.Q.Q.N.z.k.f.a.9.-.*.X.{ T Y n u u u u r t r t t t t t r r u ( r.2.` +.-.q.q.q.q.q.w.w.w.w.w.,.w.w.,.w.w.h.x.x.x.x.Z.v.v.v.v.c.h.w.7.7.<.%.%.%.^ ^ ^ ^ ^ ^ ^ / / / / ^ %.u.t.^ ! ~ ! / / ~ ~ / / ~ ~ ~ ~ ~ ~ ~ ! ! ! ! ! ~ / / ~ ~ / / / / ~ ~ d d s w w w d w w w s w w w a a q q q w a w a s s s s ! ! ! ! ! ! ! ! ! ! ! ! B B ~ B B B ",
"6 6 7 7 7 7 7 7 6 6 6 6 6 k 7 8 6 8 5 5 5 5 5 5 5 5 5 5 5 5 5 - - - - - - e - e - - - - ; ; ; ; ; ; ; ; ; ; ; ; - - - - ; - - - - - - - - 8 8 6 j P U L ' ' ` ' ' ` L L L L L L L L L L L L H H H H H H H H H H v x u u * & & + + + + + # # t t & & t t r r r y u u u m n n F T T ] { { X.+.+.*.*.5.8.8.9.9.a.f.f.k.z.z.M.N.J.G.H.L.I.=X=X=X=X:X>X-X=X=XI.I.L.L.H.J.J.J.V.N.N.M.M.M.l.l.l.l.l.l.Z.Z.Z.Z.Z.Z.Z.Z.Z.Z.A.A.A.A.A.A.A.A.A.A.A.A.Q.Q.D.D.D.D.D.D.D.D.D.D.D.D.D.D.D.D.D.D.D.D.D.D.D.D.D.D.D.D.D.D.D.D.D.D.D.S.S.S.D.S./.D.S.S.S.S.S.S.S.S.S.S.S.S.R.R.R.R.R.R.R.R.R.R.R.Q.D.D.c.c.c.p.c.p.p.p.p.p.p.i.i.i.i.,.>.>.>.=.=.=.=.=.:.:.:.:.>.>.i.l.M.E.hXuXJ.N.F.b.b.n.n.n.n.e.r.r.r.3.2.1.1.1.( ( Y E 1.1.2.6.w.x.m.Q.Q.N.z.k.f.d.9.-.*.X.{ T Y n u y y r r t t t t t t r r r u m F H X.*.:.q.q.q.q.w.w.w.w.w.w.w.w.,.,.w.w.x.x.c.v.v.v.v.v.v.v.c.h.w.7.<.<.%.%.%.^ ^ ^ ^ ~ ~ / / / ~ ~ %.t.OX%.! / ~ / / ~ / / ~ ~ ~ ~ ~ ~ ~ a a a a ! ! ~ ~ ~ ~ / ~ ~ / / ~ ~ ~ d d w w w d d d w w w w a ~ ~ ! q w a a s q a a s s s ! ! ! ! ! ! ! ! ! ! ! ! ~ ! B B B ",
"6 6 7 7 7 7 7 7 6 6 8 8 8 7 7 7 6 8 5 5 5 5 5 5 5 5 5 5 - - - - - - - - e - - - - - - ; ; ; ; ; ; ; ; ; ; ; ; ; ; ; - - : ; - ; - - - - 8 8 6 k l D L ' ` ' ` ` L L D D D L L L L L L L L L H H H H H H H H v x x < , * & & + + + + + + # t t t t t t r r u u y u u m n n F T ] ] } o.+.+.*.*.5.5.8.9.9.a.s.f.k.z.z.N.N.J.H.L.L.I.=X=X-X-X-X=X=X=XI.I.L.L.J.J.J.J.N.N.N.N.M.M.l.l.l.l.l.l.Z.Z.Z.Z.Z.Z.Z.Z.T.T.Q.Q.Q.Q.Q.Q.T.Q.Q.Q.Q.Q.Q.Q.Q.Q.D.D.D.D.D.D.D.D.D.D.D.D.D.D.D.D.D.D.D.D.D.D.D.D.D.D.D.D.D.D.D.D.D.D././././.D.D._.'./.D.S.S./.~.~.~.S.S.S.S.S.S.S.S.S.S.R.S.R.R.R.R.R.S.D.D.D.c.c.c.c.p.p.p.p.p.p.i.i.i.i.i.i.>.>.>.>.>.=.:.=.:.:.:.>.i.k.i.Z.1XE.F.N.F.F.F.b.b.n.n.n.y.r.r.r.r.3.3.1.1.1.( Y Y 1.1.3.6.w.m.m.Q.Q.x.z.k.f.a.9.-.*.O.{ ] Y n u u y t t t t t t t t r t u u n F _ O.&.:.q.q.q.q.w.w.w.w.w.w.,.,.;.,.w.h.x.v.v.v.v.v.v.v.v.c.h.w.7.7.<.<.%.%.%.^ ^ ^ ^ / / / / / ~ ~ ^ %.^ / / / ~ / / ~ ~ / ~ ~ ~ d ~ ~ ~ a a a ! ! ~ / / ~ / ~ ~ ~ ~ ~ ~ ~ d d w w w w s w w w w w a / / / s w w w q s a a a s s s s ! ! ! ! ! ! ! ! B B ! ! ~ V V ",
"6 6 6 7 7 6 7 6 7 7 7 7 7 7 7 5 7 8 5 5 8 5 5 5 5 5 5 - - - - - - - - - - - e e ; - - - ; ; ; ; ; ; ; ; ; ; ; ; ; ; - ; ; ; - : - - - - 8 8 k j P L L ' ` ` H L L D D D D D D D D D D D L L H H H H F H H v f < , * & & + + + + + + + + + # t t t t r r u y u u m m n F Y T ] { } o.+.*.*.-.5.8.9.9.a.f.f.k.z.z.N.N.J.H.H.I.I.=X=X-X-X-X-X=X=X=XI.L.L.J.J.F.F.N.N.M.M.M.M.l.l.l.l.N.N.N.Z.Z.Z.Z.K.T.T.T.T.T.R.R.W.W.R.R.R.R.R.Q.Q.Q.Q.D.D.D.D.c.c.c.c.c.c.c.c.c.c.c.c.D.D.D.D.D.D.D.D.D.D.D.D.D.D.D.D.D.D.D.D.D./././././.D./._._./.D.S././././.~./.~.~.~.~.~.~.S.S.S.S.S.S.S.S.S.S.S.S.D.D.D.c.c.c.c.c.c.p.p.p.p.p.i.i.i.i.i.i.>.>.>.>.>.>.>.=.:.:.i.i.i.k.M.N.N.N.N.J.F.F.F.b.b.n.n.y.y.r.r.r.3.3.3.1.1.( E 1.1.1.3.e.h.m.m.Q.Q.x.z.k.d.a.9.-.-.+.} ] Y Z m u y t t t t t t t t r t y u n H { O.&.-.q.q.w.w.w.w.w.w.w.,.w.v.v.w.w.h.x.x.x.v.v.v.v.x.x.x.h.w.7.<.<.%.%.%.%.^ ^ ^ / / / / ^ / ~ ~ ^ ^ ^ ^ ^ ~ ~ / / ~ ~ ~ ~ ~ d ~ ~ d d ~ ! ! ! ! / / / / ~ ~ ~ ~ ~ ~ ~ ~ d d w d w w w w w w w a / / / q w a a a s a a s s s ! s ! ! ! ! ! ! ! ! B B B ! ~ V V ",
"6 6 6 6 6 6 6 8 7 7 7 5 5 7 5 5 7 5 8 8 8 8 5 5 5 5 - - - - - - - - - - - - - - ; ; ; ; ; ; ; ; ; ; ; ; ; : ; ; ; ; ; ; ; ; ; ; : - - 8 8 8 k P L ' ' L l l H L D D D D D D D D D D D D L L H H H H F v x x u r * & + + + + + + + + # # + t t t t r r u u u u m n n F T T ] { o.+.*.*.5.5.8.9.9.a.s.f.k.z.M.N.F.J.H.L.I.I.=X=X=X-X-X=X=X=X=XI.L.J.J.J.F.N.N.M.M.M.M.l.l.l.l.l.N.Z.Z.Z.K.K.T.T.T.E.E.W.W.W.W.W.R.W.R.R.Q.Q.Q.D.D.v.v.v.v.c.c.c.c.c.c.c.c.c.c.c.D.D.D.D.D.D.D.D.D.D.D.D.D.D.D.D.D.D.D.D.D.D./././././././././././././././././././././././.~.~.~.~./.S.S.S.S.S.S.S.Q.Q.S.S.S.D.D.D.D.D.D.c.c.c.p.p.p.p.p.p.p.i.i.i.i.i.>.>.>.>.>.>.=.:.i.i.i.i.l.M.M.N.N.V.J.J.F.F.F.b.n.n.y.r.r.r.r.r.3.3.3.1.1.E ( 1.2.4.r.m.m.Q.Q.Q.N.z.k.d.a.9.8.5.+.} T Z m u y y t t t t t t t r t t y m F H ` &.-.-.q.q.w.w.w.w.w.w.,.w.].!.;.w.h.x.x.x.v.v.D.v.x.x.x.x.w.w.<.<.<.%.%.%.^ ^ ^ ^ / / / / / / / / / / / / ! ~ / / ~ ~ ~ ~ ~ ~ ~ d d d ~ ! ! ! ! ~ / / / ~ d ~ ~ ~ ~ ~ ~ ~ d d d d w w w w w w w a ! a q w w w w a a w a s s s s ! ! ! ! ! ! ! ! B B B B ~ V B ",
"6 6 6 6 6 6 6 8 5 7 7 5 5 8 5 5 7 5 5 5 8 5 5 5 5 5 - - - e e e - - - - - - - - ; ; ; ; ; : ; ; ; ; ; ; : : : ; ; : : : : - : : : - - 8 8 k l L L ' ' @.t.7.l D D D D D D D D D D D D H D D D H H v v x < , * * & + + + + + + + + + + + & t t t r r r y u u m n n Y T ] { X.+.+.+.*.8.8.8.0.a.s.f.f.k.z.N.F.J.H.L.I.I.=X=X-X-X=X-X=X=XI.I.L.L.J.F.F.N.N.M.M.z.z.M.M.M.N.N.Z.Z.Z.K.T.T.E.E.W.W.W.W.W.W.W.W.W.Q.Q.Q.Q.D.m.v.v.c.c.c.c.c.c.c.c.c.c.c.c.c.c.D.D.D.D.D.D.D.D.D.D.D.D.D./././.D.D.D././././././././././././././././././././././././././././././././././././././.S.S.S.D.S.D.D.S.D.D.D.D.D.D.D.D.c.c.c.c.p.p.p.p.p.p.i.i.i.i.>.i.>.>.>.>.>.i.i.i.i.i.l.M.M.N.V.J.J.J.F.F.F.b.b.n.n.e.r.r.r.r.3.r.3.1.( E E 1.2.4.w.v.Q.Q.Q.Q.x.z.k.f.s.9.8.4.+.] Y Z m u y y t t t t t t t r t y u m F _ X.&.:.q.q.q.q.q.w.w.w.,.w.!.m.w.w.w.h.x.x.x.Z.Z.Z.x.x.v.c.h.w.7.<.<.%.%.%.^ ^ ^ ^ / / / / / / / / ~ / / ! ! / / / ~ ~ ~ ~ ~ ~ ! ! ! a d a ~ ~ ! ! ~ / / ~ ! d d d ~ ~ ~ ~ ! d s d w w w w w w w w 0 0 0 w a a a w a a q s s a s ! ! ! ! ! ! ! ! ! B ! ! ! ~ ! ",
"6 6 6 6 8 6 6 8 8 5 5 8 8 8 8 8 5 5 5 5 8 8 - - 5 5 5 - - - - - e - - - - - - - ; ; ; ; ; : : ; ; ; ; ; ; : % % ; : : : : : : : - - 8 8 6 l l L ` H H t.PXiXf j D D D D D D D D D H D H D H H H v v x < , * & & + + + + + + + + + + + & & t t r r u y u u m n Y Y T ] } X.+.*.*.*.5.8.9.9.s.f.f.k.z.N.N.J.H.L.I.=X=X=X=X=X=X=X=X=XI.I.L.L.J.J.F.N.N.M.M.M.M.N.N.N.N.Z.Z.Z.K.T.T.W.W.W.1XrXrXrXrXrXW.W.W.Q.Q.D.m.v.v.c.c.c.c.c.c.c.c.c.c.c.c.c.c.c.c.D.D.D.D.D.D.D.D.D.D.D.D.D.D./././././././././././././././././././././././././././././././././././././././././././././././.S.D.D.D.D.S.D.D.D.D.D.D.D.D.D.c.c.c.c.p.p.p.p.p.p.p.i.i.i.i.>.>.>.>.>.>.>.>.i.i.i.l.M.M.N.V.V.J.J.J.F.F.b.n.n.n.n.r.r.r.r.y.y.1.( E E [ 1.2.r.w.m.m.].Q.Q.x.z.f.f.f.f.0.+.} ] Y m u u y y t t t t t t t t t y u n F { O.-.:.q.g.g.q.w.w.w.w.,.w.w.w.w.w.h.x.x.x.x.x.x.Z.x.v.v.c.h.w.<.<.<.%.%.%.^ ^ ^ ^ / / / / / / / ~ / / ! / / / / ~ ~ ~ ~ ~ ~ ! ! ~ a d d d ~ ! ! ~ / / / ~ ~ d d ~ ~ ~ ~ ~ d s d s w s w w w w w w w w w a w w q w s s q s s s ! ! s s ! ! ! ! ! ! ! ! ! ! B ",
"6 6 6 8 8 6 8 8 8 8 8 8 8 8 8 8 5 5 8 8 - - - - 5 5 - - - - - - - - - - - - - - ; ; ; ; ; ; ; ; ; ; ; ; ; : % ; ; : : : : : : : - 8 8 6 k j L L ` ` H @.!.u.f j b v H D D D D D D H H D D H v v x u < , * & + + + + + + + + + + + + + t t r r r u y u m m n F T ] { { o.*.*.-.5.5.8.9.s.f.f.k.z.z.N.F.J.L.I.I.=X=X=X-X-X=X=X=XI.I.L.H.H.J.J.N.N.M.M.M.M.M.N.N.N.Z.Z.K.K.T.E.W.W.rXrXrXrXrXrX`.W.W.Q.Q.Q.m.v.c.c.c.c.c.c.c.c.c.c.c.c.c.c.c.c.c.c.D.D.D.D.D.D.D.D.D.D.D././././././././././././././././././././././.^.^.^.^.^.^.^./.^.^.^.^././././././././././././././././././././.S.S.D.S.S.D.D.D.D.D.D.D.D.D.D.D.D.c.c.p.p.p.p.p.p.i.i.i.i.i.>.i.i.i.>.>.i.i.i.k.l.M.N.N.V.J.J.J.J.F.F.F.n.n.n.y.y.y.r.y.r.1.1.1.[ 1.1.2.4.e.m.m.].].].Q.x.z.f.N.E.n.5.+.} T Z C u u y t t t t t t t t t r y u n H ` O.:.q.q.g.g.w.w.w.w.w.-.w.w.w.w.h.x.x.x.v.v.x.v.v.v.v.c.x.w.7.<.<.%.%.%.^ ^ ^ ^ / / / / / / / / / ! ~ / / ~ ~ / / / ~ d d ! ~ ~ d a a d d ~ ! / / / / ~ ~ d d ~ ~ ~ / ~ ! a a w w s w w w w w w w w w w q q w a q q s s s ! ! ! s ! ! ! ! ! ! ! B ! B ! ! ",
"8 8 8 8 8 8 8 8 8 8 8 8 8 8 5 8 8 8 8 - - - - - 5 5 5 - - - - - - - - - - - - - ; ; ; ; ; ; ; ; ; ; ; ; ; : : ; ; ; : : : : : : - 8 8 k j P L ` ` L L l l l D D b v D D D D H H D D H D D b v x < , * & & + + + + + + + + + + # + + & t t r r u y u m m n Y T ] { o.o.+.4.5.8.8.9.a.s.f.k.k.M.N.V.J.H.L.I.=X=X=X-X-X=X=X=XI.I.L.H.J.J.J.N.N.N.M.M.M.M.M.Z.Z.K.K.T.T.E.W.W.rXrXrXrXrXrXrX`.W.Q.Q.m.v.v.c.c.c.c.c.c.c.c.c.c.c.c.c.c.c.c.c.c.D.D.D.D.D.D.D.D./././././././././././././././././././.^.^.^.^.^.^.^.^.^.^.^.^.^.^.^.^.^.^.^.^.^.^.^.^.^.^.^.^././././.~././././././././././.S.S.S.S.S.D.D.D.D.D.D.D.D.D.D.c.c.c.p.p.p.p.p.p.p.p.i.i.i.i.i.i.>.>.>.>.i.i.k.l.M.M.N.V.J.G.J.J.J.F.F.b.n.n.n.y.r.r.1.1.3.1.1.1.1.2.2.6.w.m.!.].].'.Q.x.z.Y.1XZ.8.4.o.[ Y Y C u y y t t t t t t t t t t u n F _ X.-.:.,.q.g.h.w.w.w.w.w.w.w.w.w.h.h.x.x.v.v.v.D.v.v.v.x.x.h.w.7.<.<.%.%.%.^ ^ ^ ^ ^ ^ / / / / / / / / / / ~ ~ / / / ~ d d ~ ~ d a a d d d ! ! ! / / / / ~ d d d ~ ~ / / ! ! a a w w w w w a w w w w a w q q a s s s s s s s ! s s s ! ! ! ! ! B B B B ! ! ",
"8 8 8 8 8 8 8 8 8 8 8 8 8 8 8 8 8 8 8 8 5 - 5 - - - - - - - - - - - - - ; - - ; : ; ; ; ; : ; ; : ; ; : ; ; : : ; ; : : % : : : - 8 k j j P L L L L D l l l D D b D D D D D D H H H H v v v f < , * & + + + + + + + + + + + + + + t t r r r u y u m n Z Y T ] { X.+.+.*.-.8.9.9.s.f.k.z.z.N.V.G.H.L.I.=X=X=X-X-X-X=X=XI.I.I.L.J.J.J.F.N.N.M.M.M.N.N.Z.Z.C.K.T.T.W.W.rXrXrXrXrXrXrX`.W.Q.Q.m.v.c.c.c.c.c.c.c.c.c.c.c.c.c.c.c.c.D.c.c.c.D.D.D.D.D.D.D.D.D./././././././././././././././.^.^.^.^.^.^.^.^.^.^.^.^.^.^.^.^.^.^.^.^.^.^.^.^.^.^.^.^.^.^.^.^.^.^.^.^.^.^.^.^.^.^./././././././././.S.S.D.D.D.D.D.D.D.D.D.D.D.D.D.c.c.p.p.p.p.p.p.p.i.i.i.i.i.i.i.i.>.i.i.i.i.l.M.M.N.V.G.G.H.J.J.F.Y.b.n.n.n.4XeXy.3.3.2.1.1.1.2.2.4.0.h.m.!.].].).Q.x.N.Y.z.9.0.4.o.] Y Z u y y t t t t t t t t t t y m Y T { +.-.:.q.q.g.g.w.w.w.w.w.w.w.w.h.h.x.x.c.v.v.v.v.x.x.x.x.c.h.w.<.<.%.%.%.%.^ ^ ^ ^ ^ / / / / / / / / ~ d ~ ~ ~ ~ ~ ~ ~ d d d d d a a a a a ! ! / / / / ~ d d d d ~ / / / ! a w w w w w w w w w a a w w q q q s s s s s s s s s s ! ! ! ! ! B B B B B B B ",
"8 8 8 8 8 8 8 8 8 8 8 8 8 8 8 8 8 8 8 8 5 5 5 5 - - - - - - - - - - - - : ; ; ; ; ; ; : ; : ; ; : ; : : ; ; % : ; ; : % : : - - 8 6 k j P P U L L L l D b D D D b b D D D D D H H v v v x f < , * & + + + + + + + + + + + + + + t t r r r u y u m n n Y T T { o.+.+.*.-.8.9.s.s.f.k.z.M.N.J.H.L.I.=X=X=X-X-X-X=X=X=XI.L.L.H.J.J.F.N.N.M.M.M.M.Z.Z.Z.K.T.T.E.W.1XrXrXyXuXrXrXrX`.Q.Q.m.v.v.c.c.c.c.c.c.c.c.c.c.c.c.c.c.c.v.D.D.D.D.D.D.D.D.D././././././././././././././.^.^.^.^.^.^.^.^.^.^.^.^.^.^.^.^.^.^.^.^._.^.^.[.[.(.(.(.(.(.(.(.[._.(.(.(.(.(.(.^.^.^.^.^.^.^.^.^.^.^.^.^.^././././././.~.~.S.S.S.D.D.D.D.D.D.D.D.D.c.c.c.p.p.p.p.p.p.i.i.i.i.i.i.i.i.i.i.i.i.i.l.l.M.B.V.G.G.H.L.J.J.Y.Y.n.n.0X4Xy.r.r.r.2.2.2.2.2.4.6.q.x.m.].].].).Q.N.z.k.f.0.5.+.} T Y m u y y t t t t t t t t t t y m n T { +.-.8.q.q.g.q.w.w.w.w.w.w.w.h.h.h.x.x.x.x.v.v.x.x.x.x.c.c.h.7.<.<.%.%.%.%.^ ^ ^ ^ / / / / ~ ~ ~ / ~ ~ / ~ ~ ~ ~ d d d d d d d a a d d a a ! ! / / / ~ d d d d ~ ~ / / ~ ! a w s w w w s w w w w w w q q q s q q q s s s s s s s ! B B ! B B B B B B B ",
"8 8 8 8 8 8 8 8 8 8 8 8 8 8 5 8 8 8 8 - 5 5 5 5 5 5 - - - - - - - - - - ; ; ; ; ; ; ; ; ; ; ; : : ; : : : ; ; : ; ; ; : : - - 8 8 k j P P P U D L l l l b P b b b b b D b b b v l b j f f < , * & + + + + + + + + + + + + + + & t t r u u u u m n n Y ] T _ o.+.+.*.-.8.9.s.f.k.z.z.N.J.H.L.L.I.=X=X-X-X-X=X=X=XI.L.L.J.J.J.N.N.N.M.M.M.M.M.Z.Z.K.T.E.E.W.rXrXrXuXrXrXrX`.W.Q.Q.v.c.c.c.c.c.c.c.c.c.c.c.c.c.c.v.c.c.D.D.D.D.D.D.D.D.D.D./././././././././././././././.^.^.^.^.^.^.^.^.^.^.^.^.^.^.^.[.[.(.(.(.(.(.^.[.[.(.[.(.(.(.(.(.[.[.(.(.[.[.(.(.(.(.[.[.[.[.[.[.[.[.(.^.^.^.^.^.^.^././././././.~.S.S.S.D.D.D.D.D.D.D.D.c.c.c.p.p.p.p.p.p.p.p.i.i.i.i.i.i.i.i.i.i.i.l.M.M.B.B.G.G.H.L.L.J.Y.Y.b.b.n.y.y.y.r.r.r.3.3.4.4.5.0.j.m.!.].].].).Q.N.z.k.s.8.*.o.] T Z m u y y t t t t t t t t t r y Z Y ] X.*.8.q.q.g.g.w.w.w.w.w.w.w.h.h.h.h.x.x.x.x.x.x.x.v.v.v.c.h.w.7.<.<.%.%.%.%.^ ^ ^ / / / / / / / / / / / / / ~ ~ d ~ d d d d d a a a a a a ! ! / / / ~ d d d d d ~ / / / ! ! a a w a w w w w w w w w q w q q q q q q s s s s s s ! B ! ! ! B B B B B B ",
"8 8 8 8 8 8 8 8 8 8 8 8 8 5 8 8 - - - - 5 5 5 - 5 - - - - - - - - - - - ; ; ; ; ; ; ; ; ; ; : : ; ; ; : : : ; ; % : : : - - - 8 8 k j P P P P l l l l l b D b b b b b b b b b v l f f < < , * & + + + + + + + + + + + + + t & & t r y y u u m Z Y Y ] { { { X.+.*.5.8.9.s.f.z.z.N.N.G.H.L.I.=X=X-X=X=X=X=X=XI.L.L.H.J.F.F.N.N.M.M.M.M.M.Z.Z.K.K.E.W.W.rXrXyXyXrXrX`.W.Q.Q.D.v.c.c.c.c.c.c.c.c.c.c.c.v.v.v.v.v.v.D.D.D.D.D.D.D.D.D.D././././././././././././././././.^.^.^.^.^.^.(.(.(.(.(.(.(.(.[.[.(.(.(.(.[.[.^.^._._.(.^.^.(.(.(.(.[.(.(.(.[.(.(.(.(.(.(.[.(.[.[.[.[.[.(.(.(.(.[.^.^.^.^.^.^././././.~.~.S.S.S.D.D.D.D.D.D.D.c.c.c.p.p.p.p.p.p.p.p.p.i.i.i.i.i.i.i.i.i.i.l.M.M.B.B.G.H.J.L.L.J.Y.Y.Y.b.n.n.y.y.r.r.r.4.4.4.6.0.e.x.m.!.].XX'.].Q.N.z.f.9.8.*.o.] Y Z u u y t t t t t t t t t r y C m Y ] +.-.-.q.q.q.q.w.g.w.w.h.h.h.h.h.h.x.x.x.x.x.x.D.v.v.v.c.c.h.7.7.<.<.%.%.%.^ ^ ^ / / / / / / ~ ~ / / / / ~ ~ ~ ~ ~ ~ d d d d a a a a d a ! ! / / / / ~ d d d d ~ ~ / ~ ~ ! w a a w w w w w w w w w q w q q q q s q s s q q s s s B ! B B B B B B B B ",
"8 8 8 8 8 8 8 8 8 8 8 8 8 8 8 5 - - 5 5 5 5 - - 5 - - - - - - - - - - - ; - ; : ; ; ; ; ; ; : ; : ; : : : ; ; ; % % : : - - 8 8 g l P P P P l l l l l l j N N b b b b b b b v v f f 1 , * * & + + + + + + + + + + + + # t t t t r u u u u m n Y Y T { { m.iXr.+.5.8.9.s.f.z.M.N.J.H.H.L.I.=X-X-X-X=X=X=XI.I.L.J.J.J.F.N.N.N.M.M.M.N.Z.Z.K.K.E.W.1XrXrXyXuXrXrXrXW.Q.D.v.c.c.c.c.c.c.c.c.c.c.c.v.c.v.v.v.v.v.D.D.D.D.D.D.D././././././././././././././.^.^.^.^.^.^.^.^.^.^.(.(.(.[.[.[.[.[.(.[.(.(.(.[.[.[.^.[.^.^._.^.^._.^.^._.[._.[.(.(.(.[.[.(.(.(.(.(.(.(.(.(.[.[.(.(.(.(.(.[.[.[.(.(.(.(.^.^.^.^.^./././.S.S.S.S.D.D.D.D.D.D.D.c.c.c.c.c.p.p.p.p.p.p.i.i.i.i.i.i.i.i.i.i.M.M.N.B.B.G.H.H.L.I.J.J.Y.Y.Y.n.n.n.y.r.r.6.6.6.6.0.0.s.x.Q.].'.XX].`.K.Z.k.a.9.-.+.} T Y C u y y t t t t t t t t t y m m F T X.+.-.8.q.g.g.g.w.w.w.h.g.h.h.g.h.x.x.x.x.x.x.D.Q.Q.v.v.v.c.w.w.<.<.%.%.%.^ ^ ^ / / / / / / / / / / / ~ ~ d d d ~ ~ d d d d d a d d d a a ! ! / / / ~ d d d d d ~ ~ ~ ~ ! ! a a a a w w w w w w w w w q q q q q q q q q q s q 7 ! B B ! k k B B B B ",
"8 8 8 8 8 8 8 8 8 8 8 8 8 8 - - - - - - - - - - - - - - - - - - - - - - - - - ; % % % : ; ; : ; : : : : ; : : : : : : : - 8 8 6 k j P l l l l l l l l l j j N N l l b l l b l f f < , , & & + + + + + + + + + + + + # # t t r r u u u m m n F T T ] { { m.uXe.*.8.9.f.k.z.N.N.J.H.L.I.=X=X=X=X=X=X=XI.I.L.J.J.F.F.F.N.N.M.M.M.N.Z.V.K.K.E.E.1XrXyXuXuXyXrXrXW.Q.Q.v.c.c.c.c.c.c.c.c.c.c.v.v.v.v.v.v.c.D.D.D.D.D.D.D.D.D././././././././././././.^.^.^.^.^.^.^.^.(.(.(.(.(.(.[.[.[.(.[.[.[.[.[.(.[.[.(.[.(.^.^.^.^.^.^.^.^.^.^._._._.^.^.^.^.^._.[.^.^.(.[.(.}.+X[.(.(.|.+X[.(.(.(.(.(.(.(.[.[.(.(.^.^.^.^.^.~./.~.S.S.S.S.D.D.D.D.D.D.D.D.c.c.c.c.c.c.p.p.p.p.i.i.i.i.i.i.i.i.i.M.M.M.B.G.G.H.L.L.I.I.I.Y.Y.Y.b.n.n.y.y.r.r.6.0.0.0.s.j.v.Q.].XXXX].`.A.z.f.9.8.*.o.] T Y i u u y t t t # t t t t t u m n F ] X.+.-.9.g.g.g.w.q.w.h.g.g.h.h.h.h.x.x.x.x.x.Z.D.Q.D.v.v.c.h.w.7.<.<.%.%.%.^ ^ / / / / / / / / ~ / ~ ~ ~ d d d d d d d d d d d d d d d a ! ! ~ / / ~ d d d d d a ! ~ ~ ~ ! a w a w w w w w w w w w w q q q q q q 0 q q q s q 7 B k 7 B k ~ B B B B ",
"8 8 8 8 8 8 8 8 8 8 8 8 8 - - - - - - - - - - - - - - - - - - - - - - - - ; - ; % ; - % ; : ; ; ; : ; ; ; : % : : : - - - 8 8 k j j P P j l l l j l l l j l j j l l l l j j j j 1 , , * & + + + + + + + + + + + + # # t t r r u u u m n n F T ] { o.{ { r.e.*.5.0.f.z.z.N.J.H.H.L.I.=X=X-X=X=X=X=XI.L.J.J.F.F.F.N.N.M.M.M.M.N.F.K.K.T.E.1X1XrXuXuXrXrX`.W.Q.Q.v.c.c.c.c.c.c.p.c.c.v.c.v.v.D.v.v.c.c.D.D.D.D./.D.D./.D./././././././././.^.^.^.^.^.^.^.^.(.(.(.(.(.(.(.(.(.[.}.}.[.(.(.(.^._.^.^.^.^.^.^.^.^.^.^.^.^.^.^.^.~.^.^.^.^.^.^.^.^.^.^._.^.^._.}.[.}.@X[.^.(.CXCX[.^.^.^.(.(.(.(.(.[.[.(.(.(.(.^.^.^.^.~././././.S.S.D.D.D.S.S.D.D.c.c.c.c.c.c.c.p.p.p.i.i.i.i.i.i.i.i.k.M.M.M.V.G.G.H.L.L.I.I.I.I.Y.Y.Y.b.n.n.n.e.r.e.0.0.s.f.x.Q.].XXXXXX'.Q.x.z.s.9.-.+.o.[ T m u u y y t t t t y t t + * 3.3.Z F ] X.*.8.g.g.q.g.q.w.h.g.h.h.h.h.h.x.x.x.x.x.Z.D.A.D.v.v.v.x.w.7.7.<.<.%.%.%.^ ^ / / / / / / / / / / / / d d ~ ~ ~ d d d d d d d d d d a a ! / / ~ ~ ~ d d d d a ! ~ ~ ~ ! ! a a a w w w w w w w q q q q q q q q q q q q q q 7 q 7 B 6 B B k B B B ",
"8 8 8 8 8 8 8 8 8 - 8 8 8 - - - - - - - - - - - - - - - - - - - - - - - ; ; : ; - 0 - - ; % ; - ; ; : ; ; ; ; : : : - - - 8 6 k j j l l l l l l j j j j j k j j l l j j j j 1 < , * * & + + + + + + + + + + + + # # t t r r u u u m n F F T ] ] { +.+.+.*.5.0.0.f.z.z.N.J.H.L.I.I.=X=X=X=X=X=XI.I.L.L.J.F.F.N.N.N.M.M.N.N.Z.K.K.T.E.W.rXrXyXuXtXrXW.R.Q.Q.v.c.c.c.c.c.c.c.c.c.c.v.v.c.D.D./.D.c.c.D.D.D.D././././././././././././.^.^.^.^.^.^.^.^.^.(.(.(.[.(.[.(.(.(.[.(.[..X}.^.^.^.^.^.^.^.^.^.^.^.^.^.^.~.~.^.~.~.~.~.~.~.~.~.~.~.~.~.~.~.~.~.~.~.^.[.^.~.^.^.^.^.}.[.^.^.^.^.^.^.(.(.(.(.(.(.(.(.(.(.(.^.^.^.^.^././././.S.S.S.S.S.D.D.D.D.D.c.c.c.c.c.c.p.p.p.p.i.i.i.i.i.i.l.l.M.N.B.B.G.H.L.L.I.I.I.I.Y.Y.Y.b.n.n.n.j.e.e.0.s.f.z.x.Q.].XXaXXX].Q.N.z.s.8.5.o.] ] Y m u y y t t t t t t t t y eXeXY x Y ] X.5.q.q.g.h.x.g.w.g.w.w.h.h.h.h.x.x.x.x.Z.D.A.D.v.v.v.x.h.w.7.<.<.%.%.%.^ ^ / / / / / / / / / / / d d d d ~ ~ d d d d d d d d d d a a ! ~ ~ ~ ~ ~ ~ d d s a ! ~ ^ ~ ~ ! a a w w w w w w w q q q 0 q q q q 0 q q q 7 7 5 7 ! 7 ! 1 M > k B B B ",
"8 8 8 8 8 8 8 8 8 - - 5 5 5 - - - - - - - - - - - - - - - - - - - - - - : : : : e 0 - - : : ; ; ; : : ; ; ; ; : : % - - 8 8 g k j j l l l l l l l j j j j j j j j j j j j 1 1 < * & & + + + + + + + + + + + + + # t t r r u u m m n F T T ] { { X.+.*.5.8.0.j.z.z.N.J.H.H.L.I.=X=X=X=X=X=X=XI.L.L.J.F.F.N.M.z.z.M.M.M.Z.K.K.K.E.W.1XrXyXuXyXrX`.W.Q.Q.v.c.c.c.c.v.v.c.v.D.D.D.c.v.v.v.v././.v.v.v.D.D.D.D././././././././.^././.^.^.^.^.^.^.^.(.[.(.(.(.[.[.[.[.(.(.(.(.(.(.[.[.^.^.^.^.^.^.^.^.^.^.^.^.^.~.[.[._.~.~.~.~.~.~.~.~.~.~.~.~.~.~.~.~.~.~.~.~.~.S.S.~.~.~.~.~.~.~.^.^.^.^.^.^.^.^.(.(.(.(.(.(.(.^.^.^.^.^.^.^./././.~.S.S.D.D.D.D.D.D.D.c.c.c.c.c.c.c.p.p.p.i.i.i.i.i.i.l.M.M.B.B.B.G.H.L.L.I.I.I.I.Y.Y.Y.b.n.n.n.j.j.s.s.f.z.z.Q.].].XX.XXX].Q.z.f.8.5.+.` 3.y.1.u u y y t t t t t t t t 3.3.C u n T { +.5.w.g.x.x.x.g.w.w.h.h.g.g.x.x.x.x.x.Z.Z.Z.x.v.v.v.x.x.h.7.<.<.<.%.%.%.^ ^ / / / / / / / / d / / ~ ~ d d d d d d d d d d d d d d d ! ! / / / ~ d d d d a ! / / ^ ~ ! ! w w w w w w w w w w 0 0 0 q q q q 0 0 q 7 7 7 7 ! q 1 1.m.1.j B B B ",
"- 8 8 8 - - - - - - - - - - - - - - - - - - - - - - - - - - - ; - ; ; ; - ; : : - e - ; : : ; ; ; % : ; ; ; : : - % - 8 8 8 k j j j j j j j j l j j k j j j j j j j j j 1 1 , * & & + + + + + + @ + + + + + + + t t r r u u m m n F T ] ] { X.+.*.*.5.8.s.z.z.z.N.J.H.L.I.I.=X=X=X=X=XI.I.I.L.J.J.F.F.N.z.z.l.l.M.N.F.K.K.E.W.1XrXyXyXyXrXrXW.Q.D.v.c.c.c.c.c.v.v.v.c.v././.D.c.v.v.v.v.D.D.D.D.D./././././././././././.^.^.^.^.^.(.(.(.(.(.[.(.[.[.(.(.[.[.[.[.(.(.[.(.(.(.[.^.^.^.^.^.^.^.^.^.^.^.^._.^._.GXGX}.~.~._._.^.^.~.~.~.~.~.~.~.~.~.S.S.S.S.S.S.S.S.S.S.S.S.S.S.S.~.~.~.~.~.^.^.^.^.^.^.^.^.(.(.(.(.(.(.^.^.^.^.^././.~.S.D.D.D.D.D.D.D.D.D.c.c.c.c.c.p.p.p.p.p.i.i.i.i.i.i.M.M.B.B.B.G.H.L.L.I.I.I.I.I.Y.Y.b.b.n.n.n.j.j.j.z.z.z.Q.].'.XX.X X'.Q.x.9.9.5.X.r.4Xr.n m u y y t t t t t t # r r y u Z Y ] } *.-.g.x.z.x.h.w.w.g.h.g.g.h.x.x.x.x.Z.Z.Z.Z.Z.v.v.x.x.h.w.7.<.<.%.%.%.^ ^ / / / / / / / / / / / / ~ d d d d d d d d d d d d d d w w ! ~ ~ / ~ ~ d d d d ! ~ ~ ^ ~ ~ ! w w w w w w w w 0 0 0 0 q q q q q q 0 q 7 7 s 7 7 ! f 4XvXy.F k B M ",
"- - - - - - - - - - - - - - - - - - - - - - - - - - - - - : - : ; : ; ; : : : : : : : : : : ; ; ; ; ; : ; ; ; : - - 8 8 8 g k k j j k k k k j j j j k k j j j j j j 1 1 1 , * & + + + + + @ + + @ + + + + + + t t r r u u m m n F T ] { X.o.+.*.5.8.8.0.j.z.N.N.J.H.L.I.I.=X=X=X=X=XI.I.I.J.J.F.F.N.N.z.z.z.z.M.F.K.K.U.E.1XrXyXyXyXrXrXW.R.Q.v.c.c.c.c.c.c.c.v.v.v.v.v.v.v.v.v.v.v.v.v.D.D.D././././././././././././.^.^.^.(.[.(.(.(.[.(.[.[.[.[.[.(.[.[.[.[.[.(.(.[.[.[.[.[.(._.[.[.[.[.[.[.[.[.[.[.[.(.[.KXKXVX[.[.[.[.[.[.[.[._.^.^.^.^.~.~.~.~.~.S.S.S.S.S.S.S.S.S.S.S.S.S.S.S.~.~.~.~.~.^.^.^.^.^.^.(.(.^.(.(.(.(.^.^.^.^.^././.~.S.S.D.D.D.D.D.D.D.D.D.c.c.c.c.p.p.p.p.i.i.i.i.i.l.M.M.B.B.G.G.H.L.L.I.I.I.=X=XY.Y.Y.Y.n.n.b.j.j.z.z.z.Q.Q.].XXaXaX X).Q.f.a.8.+.o.r.1.n m C i y t t t t t t t i t t u C n T ] o.+.9.g.x.g.q.w.g.g.g.g.g.h.h.x.x.x.x.Z.Z.Z.Z.v.v.v.c.c.w.7.<.<.<.%.%.%.^ / / / / / / / / / d / / ~ ~ d d d d d d d d d d d d a w w ! ! ~ ~ / ~ d d d d a ! ~ ^ ~ ~ ! w w w w w w 0 w q q w q q q q q q q q q 7 7 q 7 B ! j u.iX3.b 6 k B ",
"- - - - - - % % - - - - - - - - - - - - - - - - - - - - - ; : : ; ; : : : : : : : : : : : : : ; ; ; ; : ; : : - - - 8 8 8 g g g g g k k k k j j j j j j j j j j 1 1 1 8 , * = + + + + + + + + @ + # t # + + + t r r u u m n n F T ] { X.+.*.5.5.8.0.s.j.z.F.N.J.H.L.I.I.=X=X=XI.I.I.I.L.J.J.F.N.N.z.z.z.z.M.N.F.K.U.E.<X1XrXyXyXyXrX1XR.Q.m.v.c.c.c.c.c.v.v.v.v.v.v.v.v.v.v.v.D.v.v.D.D./././././././././././././.^.^.^.(.[.(.[.[.[.[.[.[.[.[.[.{.{.{.[.[.[.[.[.[.[.[.[.[.[.[.[.[.}.}.}.}.}.|.|.|.|.|.+X|.|.SXDXCX+X.X.X|.|.|.|.|.{.{.{.[.[.[._._.^.^.~.~.~.S.S.S.S.S.S.S.S.S.S.S.S.S.S.S.~.~.~.~.~.~.^.^.^.^.^.^.^.(.(.(.(.^.^.^.^.^./././.S.S.D.D.D.D.D.D.D.D.D.c.D.c.x.x.p.p.i.i.i.i.i.M.M.M.B.B.G.H.H.L.I.I.=X=X=X=XY.Y.Y.Y.b.n.b.z.z.z.z.N.Q.].'.XXVXaX X].x.f.9.8.o.} ] T Y Z C i y t t t t t t t t t y u m Y T ] o.5.9.s.g.h.g.g.g.w.g.g.h.h.x.x.x.x.x.Z.Z.x.D.v.v.v.c.h.w.7.<.<.%.%.%.^ ^ / / / / / / d d d / ~ ~ ~ d d d d d d d d d d s a a a ! ! / ~ ~ / ~ d d d d d ! ~ ^ ^ ~ ~ z w w w w w 0 0 0 q 0 0 0 0 q q q q 0 q q 7 7 7 k B 6 N b j k 7 B B ",
"- - - - - - - - - - - - - - - - - - - - - : : - - - - - - ; ; ; ; ; : ; : : : : : : ; ; : ; : ; ; ; : : : % : - - 8 8 8 8 g g 1 9 1 g k j j j j j j j j j 1 1 1 1 1 8 > * = + + + + + + + + + @ + # t t t t t t r u u u m n F T ] { o.+.*.5.8.8.0.s.z.z.F.J.J.H.I.I.=X=X=XI.I.I.I.L.L.J.F.F.N.N.z.z.z.z.M.N.J.K.U.E.1XrXyXyXyXrXrXW.Q.m.v.c.c.c.c.c.v.v.v.v.v.v.v.v.v.v.v.v.v.D.v.D.D.D././././././././././.^.^.^.^.(.[.[.[.[.[.[.[.{.{.{.{.{.{.{.|.{.[.[.{.{.{.[.[.{.}.{.}.|.|.|.|.|.|.+X+X+X+X@X@X@X@X#X#X#XCX#X#X#X#X#X#X#X@X@X@X@X@X+X+X.X.X|.}.[.[.[._._.^.~.~.~.~.S.S.S.S.S.A.S.S.S.S.S.S.S.~.~.~.~.^.^.^.^.^.^.^.^.^.^.(.^.^.^.^.^././.~.S.D.D.D.D.D.D.D.D.D.D.c.c.x.p.p.p.i.i.i.i.i.M.M.M.B.B.G.G.H.L.I.=X=X=X=X=X,XY.Y.Y.Y.b.b.z.z.z.z.Z.Q.'.XXaXVXaX'.Q.x.s.8.5.2.} [ E Y C i y t t t t t t t t t t y i C Y T { +.8.9.g.x.g.g.g.q.g.g.h.h.h.x.x.x.x.Z.Z.x.Z.x.v.v.c.h.w.7.<.<.%.%.%.%.^ / / / / / ~ / d d d d ~ ~ d d d d d d d d d d w a d d ~ / ~ / ~ / ~ ~ d d d d d ~ ^ ^ ~ ~ z a w w w w w w w q 0 0 0 q q q q q q q q q 7 ! 7 6 B B M M B B k B ",
"% - - = - - - - - - - - - - - - - - - - % % - - - - - ; ; : : : ; : : : ; : : : ; : ; - ; ; ; ; ; ; % : : : - - - 8 8 8 8 g g j l j 1 g k j j j j j 1 1 1 1 1 1 1 8 > - = + + + + + + + + + + + + t t t t & r r u u u m n F T ] { X.+.*.5.8.0.0.s.z.z.F.J.H.L.I.I.I.=X=XI.I.I.L.J.J.F.F.F.N.M.z.z.z.M.N.J.K.K.E.E.1XyXyXyXrXrX`.W.Q.m.c.c.c.c.c.c.c.v.v.v.v.c.c.v.v.v.v.v.v.D.D.D.D.D./././././././././.^.^.(.[.(.(.[.[.[.{.{.{.{.{.{.{.{.{.{.{.|.|.|.{.}.}.}.}.}.}.}.|.|.|.+X+X+X+X+X@X@X#X#X#X#X#X#X#X#X#X#XCXCX#X#XCXCX#X#X#X#X#X#X#X#XCX#X#X#X#X@X+X+X|.}.}.[.[._._.^.~.~.S.S.S.S.S.A.A.S.S.S.S.S.S.~.~./.~._.^.^.^.^.^.^.^.(.^.^.^.^.^././.~.S.S.S.D.D.D.D.D.D.D.D.D.D.c.p.x.p.p.i.i.i.i.l.M.M.B.B.G.H.L.L.I.=X=X-X-X=X=XY.Y.Y.Y.b.b.z.z.z.N.K.R.].XXVXVXaX].Q.j.0.8.4.o.} E Y Z C i y t t t t t t t t t y u C Z T ] o.*.8.9.9.j.Q.Q.g.w.g.h.h.h.h.x.x.x.x.Z.Z.x.D.v.v.c.h.h.w.7.<.<.%.%.%.^ / / / / / / d d d d d ~ ~ d d d d d d d d d d d w w d / ~ ~ ~ ~ ~ ~ ~ d d d s d ! ~ ^ ^ ~ ! w w w w 0 w w w q 0 0 0 q q q q q q q q q q 7 7 7 7 q M p 6 7 k M ",
"- - = - - - - - - - - - - - - - - - - - - % : - - - ; ; ; : : : : : ; : : ; : : ; : ; - - ; : : ; ; : : - - - - - 8 8 6 g g j U %.U g g k j j 1 1 1 1 1 1 1 1 8 8 = = = + + + + + + + + + + + + + t t + & t r u u m m n F T { X.o.+.*.5.8.9.s.f.z.z.F.J.H.L.I.I.I.I.=X=XI.I.J.J.F.F.F.N.N.N.M.z.z.M.N.J.K.U.E.1X1XyXyXrXrXW.W.Q.D.v.c.c.c.c.c.c.c.c.v.v.v.D.D.D.v.v.v.v.D./././.v./././././././././.^.^.(.[.[.[.[.{.{.{.{.|.{.|.|.}.}.{.{.{.{.{.|.|.|.|.|.|.|.|..X|..X+X+X+X@X#X#X#X#X#X#X#X#X#XCXCXCXCXCXCXCXCXCXCXCXCXCXCXCXCXCXCXCXCXCXSXCXCXCXCXCXCX#X#X#X@X@X+X|.}.[.[._.^.~.~.S.S.S.A.A.A.A.A.A.A.S.S.S.~.[.^././.^.^.^.^.^.^.^.^.^.^.^.^.~./.~.S.S.D.D.D.D.D.D.D.D.D.D.D.x.x.p.i.i.i.i.i.l.M.M.B.B.G.H.L.I.=X=X-X-X-X,X=X=XY.Y.Y.F.F.N.N.N.Z.T.R.].aXVXVXpX].v.j.0.5.+.} [ E Y C i y t t t t t t t t t t y u C Y T { +.-.8.:.x.yXW.g.w.g.g.g.h.h.x.x.x.x.x.Z.Q.Q.x.x.x.x.c.h.w.<.<.<.%.%.%.^ / / / / / / / / ~ ~ ~ ~ ~ ~ d d d d d d d d w w w a d ! ! ! ~ ~ ~ ~ d d d d d ! ~ ^ ^ ~ ! z a w w 0 0 w 0 q 0 q q q q q q q q 0 7 7 7 5 5 s 7 6 7 7 7 7 k k ",
"$ = - - - - % - = = - - - - - - - - - - : % % ; - ; ; ; ; ; ; ; : : ; ; : : : : : : - - - - - ; ; ; % : - - - - 8 8 8 8 g g g N W P g g j 6 1 1 1 1 1 1 1 1 8 8 - = = & + + + + + + @ + + + + + + + + + & y u u u m n F T { X.+.*.*.5.8.0.s.j.z.z.F.J.H.L.I.I.I.I.I.=XI.I.J.F.F.F.F.F.N.N.N.z.z.N.N.Y.K.U.<X1X1XyXyXrXrXW.R.Q.v.c.c.c.c.c.c.c.c.v.v.v.v.v.D.D.D.D.v.D././././././././././././././.^.(.[.[.[.{.{.{.{.|.|.|.|.|.|.}.|.}.}.{.{.}.}.|.|.|.|.+X+X+X+X+X+X+X@X#X#X#X#XVXCXCXCXCXCXCXCXCXCXCXCXCXCXCXCXCXCXCXCXCXCXCXCXCXCXCXCXSXSXSXSXSXSXSXSXSXCXCXCXCX#X#X@X@X+X|.}.[.[.^.~.~.S.S.S.S.A.A.A.A.S.A.~._.~.S.~./.~.^.^.^.^.^.^.^.^.^.^.^./././.S.S.S.D.D.D.D.D.D.D.D.D.D.x.x.p.i.i.i.i.l.l.M.M.B.B.G.H.L.I.=X=X-X-X-X-X-X=XI.Y.Y.F.F.N.N.N.Y.Q.`.XXVXVXVXXX].x.s.8.4.2.} [ Y Z C i y t t t t t t t t t y y u C Y T } +.5.:.s.x.x.g.g.g.g.h.h.h.x.x.x.x.x.Z.x.x.Z.Q.v.x.x.h.w.7.<.<.%.%.%.^ / / / / / / / / ~ / ~ ~ ~ ~ d d d d d d d d d w w w a a ! ! ~ ~ ~ ~ d d d w w z ~ ^ ^ ^ ~ ! a w w 0 0 w 0 q 0 q q q q 0 0 q 0 0 0 q q s 5 5 q B 7 7 7 7 k B ",
"$ $ = - - - - - - - - % % % - - - : % : % - : - - - ; : ; : ; ; : : : : : : : : : : ; - - - - : ; ; : : ; - - - 8 8 8 8 8 1 1 , 1 1 1 g g 1 1 1 1 1 1 8 8 8 8 8 - = & + + + + + + + + + + + + + + + Q ) y , u m n F T T ] X.+.*.*.5.8.0.s.j.z.N.J.H.L.L.I.I.=X=XI.I.I.I.J.F.F.F.F.N.z.z.z.z.l.M.F.K.U.E.<X1X1XyXyXrX1XW.Q.Q.v.c.c.c.c.v.c.D.Q.v.c.v.v.v.v.D.D.v.v././././././././././././././.^._.[.[.[.{.}.|.|.|.|.|.|.|.|.|.|.|.}.}.}.}.}.}.}.|.}.|.+X+X+X+X@X@X#X#X#X#X#X#XCXCXCXCXCXCXCXCXCXCXCXCXCXCXCXCXCXCXCXCXCXCXCXCXCXCXCXCXSXSXSXSXSXSXSXSXSXSXSXSXSXSXCXCXCXCX#X#X#X@X+X}.[.[._.~.~.S.S.A.A.A.A.A.A.R.A.A.S.S.S.~././.^.^.^.^.^.^.^.^.^././././.S.S.D.D.D.D.D.D.D.D.D.D.c.p.p.i.i.i.i.i.M.M.M.B.B.G.L.I.I.=X-X-X:X:X-X-X=XI.Y.F.F.F.N.N.Z.T.R.'. XVXCXVX XQ.j.0.8.4.2.} E Y Z C y t t t t t t t t t t y u m Z Y ] X.*.5.:.:.9.g.h.h.h.h.h.h.x.x.x.x.x.Z.Z.x.N.W.W.x.x.h.w.7.<.<.<.%.%.%./ / / / ~ ~ ~ ~ ~ ~ ~ d d d d d d d d d d d w w w s s a a ! ~ ~ / ~ ~ d w w w a ! ^ ^ ^ ~ ! a a w 0 0 w w 0 0 0 q q q q 0 0 0 0 7 q q 7 5 5 7 7 7 q q 7 q B ",
"$ $ = = - = - - - - % % % % - - : : : : - : : : ; - ; : ; % % : : : ; : : : : : : : - : - - - ; : ; ; : - - - - 8 8 8 8 8 8 8 9 , 8 1 k 1 1 1 1 8 8 8 8 , $ = - > = + + + + + + @ @ + + + + + + & + u.BX) * x n F T ] { X.+.*.-.5.9.s.f.z.z.F.J.H.L.I.I.I.I.I.I.I.I.I.J.Y.F.F.F.z.z.z.z.z.M.Z.K.K.U.E.1X1XyX3X1X1XW.R.Q.D.v.c.c.c.c.c.v.v.Q.rXW.c.v./.v.D.v.v./././././././././././././.^.oXoX[.[.[.}.|.|.|.+X+X+X|.|.|.|.|.{.|.}.}.}.}.}.|.|.|..X|.+XDXCX+X@X#X#X#X#XCXCXCXCXCXCXCXCXCXCXCXCXCXCXCXCXCXCXCXCXCXCXCXCXCXCXCXCXCXCXCXCXCXSXSXSXSXSXSXSXCXSXSXSXSXSXSXSXSXSXSXSXCXCX#X#X@X+X.X[.[._.~.~.S.A.A.A.A.A.C.A.A.A.S.S.~.~././.^.^.^.^.^.^.^.^.^.~././.~.S.D.D.D.D.D.D.D.D.D.D.c.p.p.p.i.i.i.i.M.M.B.B.B.G.L.I.=X-X-X:X:X-X-X-X=XI.J.J.F.F.N.V.K.Q.`.'.aXCXVXaX].v.j.0.5.4.o.[ T Y C u y t t t t t t t t t y y u C Z T ] o.*.8.q.g.g.g.h.h.h.h.h.x.x.x.x.x.Z.x.x.N.Q.Q.x.h.x.h.w.w.<.<.%.%.%.^ / / / ~ ~ ~ ~ ~ ~ d d d d d d d d d d d d w w w s w w w ! ! ~ / / ~ d w w w a ! ~ ^ ^ ~ ! a a w w 0 0 0 0 0 q 0 0 q 0 0 0 0 5 7 7 7 7 7 7 7 7 7 B q 7 B B ",
"$ $ $ $ $ = - = : - - - : % % % - : : % : - : - ; - % : % : : : : ; : : : : : : : - - - - - - - ; ; : : - - - 5 8 8 8 8 8 8 8 8 8 1 1 1 1 1 1 8 8 8 8 = = 1 p * & + + + + + + + + + + + + + + + & & Q ) u u n F H ] ] X.+.*.5.8.9.s.j.z.z.F.J.H.L.I.I.I.I.I.I.I.J.J.Y.Y.F.F.F.z.z.z.z.z.z.Y.1X1XE.E.1X1X1X1X1X1XW.R.Q.v.c.c.c.c.c.c.c.c.v.W.yX1XD.v.D.v.D.v.].VX[.v./././././././././.^.[.[.[.[.}.|.+X+X+X+X+X+X+X|.|.|.|.{.{.{.}.}.}.}.|.|.|.+X+X.XVXKXGX#X#X#XCXCXCXCXCXCXCXCXCXCXCXCXCXCXCXCXCXCXZXCXZXZXCXCXCXCXCXCXCXCXCXCXSXSXSXSXSXSXSXSXSXSXSXSXSXSXSXSXSXSXSXSXSXSXSXSXSXSXSXCXCX#X#X+X.X[.[._.~.S.A.A.C.C.A.A.A.A.A.S.S.~.~././.~.^.^.^.^.^.^.^././././.S.S.D.D.D.D.D.D.D.D.D.D.x.p.i.i.i.i.l.M.M.B.B.B.H.L.I.=X-X-X:X:X:X-X-X=XI.I.J.J.J.V.V.K.R.'. XVXCXVXXX].x.s.8.-.+.} [ Y Z i y t t t t t t t t t t y y u C Y T } +.-.9.9.s.g.g.g.h.h.h.x.x.x.x.x.Z.Z.N.Z.x.x.h.x.x.x.h.w.;.<.%.%.%.%.^ / / ~ ~ ~ d ~ ~ d d d d d d d d d s s s w w w w w w w a ! ~ ~ / ~ d d w w w a ~ ^ ^ ~ ! ! a q q q 0 0 0 0 0 0 q q 0 0 0 0 0 q 7 7 7 7 7 7 q B B B B B B ",
"$ $ $ $ $ $ = = : - - - : % % % % % % % : % : : % : : ; : : % : : : ; : : : : : : : - - - - - - ; : : : - - 8 8 8 8 8 8 - - 8 8 8 8 1 1 8 8 8 8 8 8 8 $ 8 ) ^ > O & + + + + + + + + + + + + + + t r r & , x F H T ] X.+.*.5.8.0.s.j.z.N.F.J.H.L.I.I.I.I.I.I.L.J.J.Y.Y.F.F.F.z.z.z.l.z.M.N.U.yXuX1X1X1X1X1X1XW.W.Q.D.v.c.c.c.c.c.v.v.c.v.v.Q.W.Q.v.D./././.v.XXGX.X/./././././././.^.(.(.[.{.|.|.+X@X#X@X@X+X+X+X|.|.|.|.{.{.{.}.}.}.|..X|.+X+X+X@X+X#XDXSX#X#XCXCXCXCXCXCXCXCXCXCXCXZXDXZXZXZXZXZXZXZXZXZXZXZXZXZXZXZXZXZXZXZXSXSXSXSXSXSXSXSXSXSXZXSXSXSXSXSXSXSXSXSXSXSXSXSXSXSXSXSXSXSXSXCX#X#X#X+X}.[._.S.A.A.A.A.C.A.A.A.A.S.S.S.S.~./.~./.^.^.^.^.^.^.^./././.~.S.S.D.D.D.D.D.D.D.D.D.x.p.i.i.i.i.M.M.M.B.B.G.H.L.I.=X-X:X:X:X:X:X-X=XI.L.J.J.J.V.J.T.`.'.aXVXCXVX'.Q.x.9.8.*.o.[ E Z C u y t t t t t t t t t t y u m n Y ] o.*.8.9.s.f.g.g.g.g.h.x.x.x.x.x.Z.Z.Z.x.Z.x.x.x.x.x.h.w.w.<.<.%.%.%.^ ^ / / ~ ~ d ~ d d d d d d d d d d s w w w w w w w w w w ! ! ~ / ~ d d w w w w ~ ^ ^ ^ ~ ! a s 0 w w 0 0 q 0 0 0 0 q q q q 7 q 7 7 7 7 7 7 7 B q q B M M ",
"$ $ = = $ = $ $ $ $ $ % = $ % % : : % : : % % % % : : : : ; : ; : : : : : : : : : : - - - - - ; ; % : : - - 8 8 8 8 8 - - 8 8 8 8 1 8 8 1 8 - - - = = - - p p + O + + + + + + + + + + + + + + t & r u u m n F H ] X.+.*.8.9.s.j.j.z.N.F.J.L.L.L.I.I.I.I.I.J.J.Y.Y.F.F.b.b.z.z.z.k.z.N.F.J.U.1XyXrX1X1X1X1XW.Q.Q.v.c.c.c.c.c.c.v.v.v.v.v.v.v.v.v.v././././.v./..XoX/./././././.^.oX[.[.}.}..X+X#X#X#X@X@X+X+X|.|.|.}.{.}.{.}.}.|.}.|..X.X+X+X+X#X#X#X#X#X#X#XCXCXCXCXCXCXCXCXZXZXCXZXDXGXGXZXZXZXZXZXZXZXZXZXZXZXZXZXZXZXZXZXZXZXZXDXDXSXZXZXDXDXZXSXSXSXSXSXSXSXSXSXSXSXSXSXSXSXSXSXSXSXSXSXSXSXSXCXCX#X#X.X[._.S.S.A.C.C.C.A.A.A.A.S.S.D.S.~.~.^.^.^.^.^.^.^.^././././.~.S.D.D.D.D.D.D.D.D.x.x.l.i.i.i.M.M.M.M.B.B.G.H.L.=X=X-X:X:X:X:X-X-X=XI.L.H.G.G.J.K.R.'. XVXCXVXaX].v.f.9.5.+.o.E Y Z i i y t t t t t t t t t y y u m Y T { +.-.8.9.s.f.g.g.g.h.h.x.x.x.x.x.Z.Z.Z.x.x.x.x.x.x.h.h.w.;.<.<.%.%.^ ^ / / ~ ~ ~ ~ d d d d d d d d d w w w w w w w w w w w w z ! ~ ~ ~ ~ d w w w w ~ ^ ^ ^ ~ ! a a w s 0 0 0 0 0 0 0 0 0 0 0 7 7 q q 7 7 7 7 7 7 k 7 7 k k k ",
"$ $ $ $ $ $ $ $ $ $ $ % $ % % % % % % % % % : % % : % : : % : : : : : : : : : : : : - - ; - - ; - : : - - 8 8 8 8 8 8 - 8 8 8 8 8 8 8 1 1 8 8 > 8 3 3 3 = O O + + + @ @ + + + + + + + + + + & r r u u m n F H { X.+.-.8.0.s.s.j.z.N.F.J.H.L.L.L.I.I.I.I.J.Y.Y.F.F.b.b.z.z.z.z.z.z.N.Y.K.K.E.1XrX1X1X1XW.W.Q.Q.v.c.c.c.c.c.c.v.v.v.v.v.v.v.D.D.v.D./././././././././././././.^.[.[.}.|.+X+X#X#X#X#X#X@X+X|.|.}.{.{.}.}.}.}.}.|..X.X.X.X+X+X@X#X#X#X#XCXCXCXCXCXSXCXZXZXZXZXZXZXZXZXZXFXGXFXFXFXFXFXFXFXFXFXFXFXFXFXFXFXFXFXFXFXFXFXFXGXGXFXFXFXFXZXZXZXZXZXZXSXZXZXCXCXCXCXSXSXSXSXSXSXSXSXSXSXSXSXSXSXSXSX#X#X.X[._.S.S.A.A.A.A.A.A.A.A.S.S.S././.^.^.^.^.^.^.^.^.~././.~.S.S.S.D.D.D.D.D.D.D.D.x.l.M.l.l.M.M.M.M.B.B.H.L.I.=X-X:X:X:X:X:X-X-X=XI.L.H.H.G.G.K.W.'.aXVXZXVXXX].x.s.8.*.o.[ E Z C i i t t t t t t t t t t y y u n Y ] o.*.-.9.a.f.g.g.g.h.h.x.x.x.x.x.x.Z.Z.Z.Z.x.x.x.x.x.h.w.,.<.<.%.%.%.^ / / ~ ~ ~ ~ d d d d d d d d d w w w w w w w w w w w w w ! ~ ~ ~ ~ d d w w w ! ^ ^ ^ ^ ! a a s w 0 0 0 0 0 0 0 0 0 0 0 0 7 7 7 7 7 7 7 7 7 7 7 7 k k k ",
"$ $ $ $ $ % % % $ $ $ % % % % % % % % % : : : : : : % : : : : : : : ; : : : : : : : - - - - - - - - - - - 8 8 8 8 8 8 8 8 8 8 8 8 8 8 1 1 p p 8 - = $ = - & + + + + + @ + + + + + + + + + t r r u u n F H _ { X.*.-.8.g.j.j.z.Y.Y.b.F.H.L.L.L.L.I.L.J.J.Y.Y.F.F.b.b.z.z.z.z.z.N.N.J.U.U.E.<X1X1X1X1XW.E.Q.Q.v.c.c.c.c.c.c.v.v.v.v.v.v.v.v./././././././././././././././.^.(.[.{.|.+X+X#X#X#X#X#X#X+X+X|.|.}.{.{.}.}.}.}.|.|..X+X+X+X+X#X#X#XVXVXVXCXCXCXCXCXZXZXZXZXZXZXZXFXFXFXFXFXFXFXFXPXPXPXPXPXPXPXPXPXPXPXPXPXPXPXPXPXPXPXPXPXPXPXPXGXGXGXGXGXFXFXGXGXDXDXDXZXSXSXZXZXZXSXSXSXSXSXSXSXSXSXSXSXSXSXSX%X#X#X#X.X[._.~.S.A.A.A.C.C.A.R.S.D.D.S././.~.^.^.^.^.^.^./././.~./.S.S.D.D.D.D.D.D.D.D.Z.l.M.l.M.M.M.M.B.B.G.H.L.I.=X:X:X:X:X:X:X-X-X=XI.L.H.H.G.K.T.`. XaXAXZXaX].Q.j.9.5.+.o.[ Y Z C i y t t t t t t t t t t y y m n T ] +.*.8.9.a.g.g.l.l.l.x.x.x.x.x.Z.Z.Z.Z.Z.x.x.x.x.x.h.h.w.;.<.%.%.%.^ ^ / ~ ! ~ ~ d d d d d d d d d d w w w w w w w w w w w w ! ! ~ ~ ! d d w w w w ~ ^ ^ ^ ~ ! a a 0 0 0 0 0 0 0 0 0 0 0 0 0 5 5 5 5 7 7 7 7 7 7 7 7 7 k B ",
"$ $ $ $ $ $ $ % $ $ $ $ % % % % : % : : : % : : : : : : : : : : % : : : : : : : : : - : - - - - - - - - 8 8 8 8 8 8 8 8 8 8 1 M 1 1 8 1 1 1 8 - = $ = = O O O O + @ + + + + + + + + + + & r r u u m n F H { X.*.-.8.s.j.x.x.Y.yX3XY.J.L.L.L.L.L.L.J.Y.Y.F.F.F.b.b.z.z.z.z.z.z.N.J.J.;X<X<X1X1X1X1XW.Q.Q.v.c.c.c.c.c.c.v.v.v.v.v.v.D.D.D.v././././././././././././././.^.[.[.}.+X+X#X#X#X#X#X@X@X+X|.|.}.}.}.}.}.}.}.}.|..X+X+X+X@X#X#X#X#XCXCXCXCXCXZXZXZXZXZXZXZXFXFXFXFXFXFXPXPXPXPXPXPXPXIXIXIXIXIXIXIXIXIXIXIXIXIXIXIXIXIXIXIXIXIXIXIXIXIXIXPXPXGXGXGXGXGXGXGXGXDXDXDXSXSXSXSXCXCXSXSXSXSXSXSXSXSXSXSXDXDXSXSXCX#X+X[._.~.S.A.C.C.A.R.A.C.A.D.D.~.~.~.~.^.^.^.^.^.^.~./.~.~.S.S.D.D.D.D.D.D.D.D.Z.l.l.M.M.M.M.M.B.B.G.H.L.I.-X:X:X:X:X:X:X-X-XI.L.L.L.H.G.K.W.'.pXVXZXVXaX].x.f.8.5.+.} T Y C i i y y t t t t t t t t t y u m Y T } +.-.8.a.d.g.l.l.l.l.x.x.x.x.Z.Z.Z.Z.Z.Z.x.x.x.x.x.h.w.,.<.%.%.%.%.^ / / ! ! d d d d d d d a d d d d w w w w w w w w w w w z z ~ ~ ! ! w w w w w ~ ^ ^ ^ ~ ! ! s s s 0 s 0 0 0 0 0 0 0 5 5 7 q q 7 7 7 7 7 7 7 7 7 7 k k ",
"$ $ $ $ $ $ $ $ $ $ $ % % % % % : : : : % % % : : : : : % % % % % : : : : : : : : : : - - - - - - - - - 8 8 8 8 8 8 8 - - 8 1 V M , , 8 1 , 8 > = = & O + + + + + + + + + + + + + + + t t r u u m n F H ] X.*.8.9.s.j.x.b.b.b.1X3XI.L.I.L.L.L.J.J.Y.Y.Y.F.b.b.z.z.z.z.z.z.z.N.J.J.U.<X<X1X1X1XW.E.Q.Q.v.c.c.c.c.c.c.v.v.v.v.v.v.v.D.D.D.v././././././././././././.^._.[.{.|.+X@X#X#X#X#X@X@X+X|.|.|.}.}.}.[.}.}.}.|..X.X+X+X#X#X#X#XVXCXCXCXCXCXZXZXZXZXZXFXFXFXFXFXFXPXPXPXPXPXPXIXIXIXIXIXIXIXIXIXIXIXIXIXUXUXUXUXUXUXUXUXUXUXUXUXUXUXUXUXUXUXUXUXUXUXKXKXGXGXGXGXGXGXDXDXDXSXSXSXSXSXCXCXCXCXSXSXSXCXSXGXKXDXSXSXSX#X#X+X}._.~.S.C.C.C.C.T.R.A.D.S.S.~.~.~././.^.^.^.^./././.~.S.S.S.D.D.D.D.D.D.D.x.l.l.M.M.M.M.M.B.B.G.H.L.=X-X:X:X:X:X:X:X-X=XI.L.L.H.G.J.E.`.'.aXVXZXVXXXQ.x.0.8.*.} [ Y Z C i y y y t t t t t t t t y y u m Y ] o.*.-.9.a.f.l.l.l.l.l.x.l.x.Z.Z.Z.Z.Z.Z.x.x.x.x.h.h.w.w.<.<.%.%.%.^ ^ ~ ! ! d d d d a d d a a w d w w w w w w w w w w w w z z ~ ~ ~ z w w w w w ~ ^ ^ ^ ^ ~ ! s w 0 0 0 0 0 0 0 0 0 0 0 0 q s ! ! s q q q q q 7 7 7 7 6 ",
"O O $ $ $ $ $ $ $ $ $ $ $ $ % % % $ % % % % % % : % % : % % % % % % % % : : % : : - - - - % - - - - - - 8 8 8 8 8 8 8 8 - - 8 1 1 , 8 8 8 8 - - = = = + + + + + + + + + + + + + + + & t r u u u n F H { X.*.5.0.j.x.x.Q.Y.Y.b.Y.J.L.L.I.L.J.J.J.Y.Y.Y.F.b.b.z.z.z.z.z.z.z.F.J.I.U.U.<X<X<X1XE.Q.Q.Q.v.c.c.c.c.c.c.v.v.v.v.v.v.v.v.D.D.D./././././././././././.^.oX[.[.}..X+X#X#X#X#X@X@X+X|.|.|.}.}.}.}.[.}.}.}..X.X+X+X#X#XVXCXCXCXCXCXCXCXZXZXZXZXFXFXFXFXFXPXPXPXPXPXPXIXIXIXIXIXIXIXIXIXIXIXIXIXIXIXIXIXIXIXIXUXIXIXUXUXUXUXUXUXUXUXUXUXUXUXUXUXUXUXUXUXUXUXKXKXKXGXGXGXGXGXDXDXSXSXSXZXZXCXSXSXSXCXSXDXDXDXSXSXSXSXSX#X#X.X[._.S.A.C.C.rXtXA.C.A.S.S.S.~.~.~.~.~.~.^.~././.~.~.~.S.S.D.D.D.D.D.D.D.x.x.Z.M.M.M.M.B.B.B.G.L.=X-X:X:X:X5X:X:X:X-X=XI.L.H.H.H.K.W.`. XVXZXCXaX].v.s.9.5.+.} E Y Z C u u y t t t t t t t t t y u m n T { +.*.8.9.a.f.k.l.l.l.l.l.l.N.N.N.Z.Z.Z.Z.x.x.x.x.h.h.w.<.<.%.%.%.%.^ / ~ ! ~ d d d d d d a a w w w w w w w w w w w w w w w z ~ ~ ~ ! w w w w w z ^ ^ ^ ^ ~ ! z s s 0 0 0 0 0 0 0 0 0 0 0 5 s ! ! s q q q 7 7 7 7 7 7 6 ",
"$ $ $ $ $ $ $ $ $ $ $ $ $ $ $ % % $ % % % % % % : % : : % % % % % % % : % : : % - - - - - - - - - - - 8 8 8 8 8 8 8 8 8 - - 8 = = 8 8 8 8 8 - = = + + + + + + + + + + + + + + + + + t r r u u m n H _ X.*.5.0.j.x.x.Q.Q.Y.Y.F.F.J.I.L.L.J.J.J.Y.F.F.F.b.b.z.z.z.z.z.z.z.F.J.I.U.;X<X<X<XE.E.Q.Q.v.v.x.c.c.c.c.c.c.c.v.v.v.v.v.D.D.D.D./././././././././././.^.[.[.[.|.+X#X#X#X#X@X@X+X+X|.|.{.}.}.}.[.[.}.}..X.X.X+X@X#XVXCXCXCXCXCXCXZXZXZXFXFXFXFXFXPXPXPXPXPXIXIXIXIXIXIXIXIXIXIXIXIXIXIXIXIXIXIXPXPXPXPXPXPXPXPXPXPXPXPXIXIXIXIXUXUXUXUXUXUXUXUXUXUXUXUXUXUXUXUXUXLXKXKXKXGXGXGXGXDXDXDXSXZXSXSXSXSXCXSXCXCXSXSXSXSXSXSXSX#X@X.X[.).S.S.R.R.C.Z.C.A.A.S.S.~.~.~.~.~.^.^.~.~././.~.~.S.S.D.D.D.D.D.D.D.D.x.l.M.M.M.M.B.B.G.H.I.=X-X:X:X5X5X:X:X:X-X=XI.L.H.H.J.E.W.'.aXVXZXVXXX].x.s.8.*.o.} T Y C u u y t t t t t t t t t y y u m n ] o.+.-.9.a.f.k.k.k.l.l.l.l.N.N.N.N.N.Z.Z.Z.x.x.x.x.h.w.,.<.<.%.%.%.^ ^ ~ ! ! d d d d d a a w w w w w w w w w w w w w w w w z ~ ~ ~ ~ z w w w w z ~ ^ ^ ^ ^ ~ ! a q 0 0 0 0 0 0 0 0 0 0 0 5 q s q 7 q q q q 7 6 6 6 6 6 ",
"$ $ $ $ $ $ $ $ $ $ $ $ $ $ $ % $ % % % % % % : : : : : - : : % - - - - - - - - - - - - - - - - - - - - 8 8 8 8 8 8 8 8 8 - 8 - - - - - - - = = = + + + + + + + + + + + + + + + + t r r u u n F H _ X.*.5.0.j.x.m.Q.Q.Y.Y.F.J.J.L.L.L.J.J.J.Y.F.F.b.b.b.b.z.z.z.z.z.N.F.J.I.U.;X<X<X<XE.E.Q.Q.v.c.x.c.c.c.c.c.v.c.v.v.v.v.v.v.D.D./././././././././././.^._.[.[.}.+X+X#X#X#X@X@X+X+X|.|.{.{.{.}.}.}.}.}.}..X.X@X@X#XVXVXCXCXCXCXCXZXZXZXFXFXFXFXFXPXPXPXIXIXIXIXIXIXIXIXIXIXIXPXPXPXPXPXPXPXPXPXFXFXFXFXFXFXFXFXFXFXGXGXFXGXGXGXGXGXGXGXGXGXPXPXPXUXUXUXUXUXUXUXUXUXUXUXUXUXLXLXKXKXKXGXGXGXDXDXDXSXSXSXSXSXSXSXSXSXSXSXSXSXSXSX%X#X@X.X[.).R.S.C.C.C.C.A.A.A.S.S.~.~.~.~.^.^.~./././.~.~.S.S.S.D.D.D.D.D.D.D.x.Z.M.M.M.M.B.B.G.L.I.-X:X:X5X5X5X:X:X:X-X=XI.L.H.H.K.E.`. XaXCXZXVX].m.j.9.5.+.} [ Y Z C u y t t t t t t t t r t i i u m Y { o.*.:.9.d.k.k.k.k.l.l.l.N.N.N.N.Z.N.Z.Z.x.x.x.x.h.h.,.<.<.%.%.%.' ^ / ! ! ~ d d d a a s w w w w w w w w w w w w w w w w z z ~ ~ ~ z w w w w w ~ ^ ^ ^ ^ ~ ! s q q q 0 0 0 0 0 0 0 0 5 5 7 7 7 7 7 7 q 7 7 7 6 6 6 6 ",
"O $ $ $ $ $ $ $ $ $ $ $ $ $ $ % : % % % $ % : : % - - - - : : - - - - - - - - - - - - - - - - - - - - - 8 8 8 8 8 8 8 8 8 - 8 8 - - 8 - = = = = O + + + + + + + + + + + + + + + t t r u u m F H ] X.+.5.8.g.x.m.Q.Q.Q.Y.Y.J.J.L.J.J.J.J.Y.Y.F.F.F.b.b.b.z.j.z.z.z.z.F.J.I.U.;X<X<X<XE.E.K.Q.v.x.h.c.c.c.c.c.v.v.v.v.v.v.v.D././.D./././././././././.^.(.[.[.{.}.+X@X@X@X@X@X+X+X|.|.}.{.{.{.}.}.}.}.}..X.X+X@X@X#XVXVXCXCXCXCXZXZXAXFXFXFXFXPXPXPXPXIXIXIXIXIXIXIXPXPXPXPXPXPXFXFXFXFXFXFXFXFXFXFXZXFXFXFXFXFXFXFXFXZXZXFXZXZXZXZXZXGXGXGXGXGXGXGXGXGXGXGXGXKXKXKXLXLXUXUXUXUXLXLXLXLXKXKXKXGXGXDXDXDXDXSXSXSXSXSXSXSXSXSXSXSXSXSXSXSX#X@X}. X).S.C.C.C.C.C.A.A.S.S.~.~.~.~.~.^.^././././.~.~.S.S.D.D.D.D.D.D.D.Z.l.M.M.M.B.B.B.H.L.=X-X:X:X5X5X5X:X:X:X-X=XL.L.H.H.E.W.'.pXVXZXCXaX].x.s.8.4.o.} T Y Z u y t t t t t t t r t t u u u m Z Y } +.-.:.a.f.k.k.k.l.l.l.N.N.Z.Z.Z.Z.Z.Z.Z.x.x.x.x.h.w.,.;.<.%.%.%.^ ~ ~ ! ! a d d d s w w w w w w w w w w w w w w e w w q z ~ ~ ~ z z w w w w ~ ^ ^ ^ ^ ^ z z q q 0 0 0 0 0 0 q 5 5 5 0 7 7 7 7 7 7 7 7 7 7 6 6 6 6 ",
"$ $ $ $ $ $ $ $ $ $ $ $ $ $ $ = = % $ $ $ $ $ % % - - - - - - - - - - - - - - - - - - - - - - - - - - - 8 8 8 8 8 8 8 - - 8 - 8 - - - - - = = + + + + + + + + + + + + + + + + & t r u u m n H ] { +.-.8.q.x.m.m.Q.Q.Y.Y.F.J.J.J.J.J.Y.Y.Y.F.F.F.F.b.b.z.z.j.z.z.z.F.F.I.I.U.<X<XE.E.E.K.Q.v.x.h.h.c.c.c.c.c.v.v.v.v.v.v.D././././././././././././.^.(.[.[.}.|.+X@X#X@X@X+X+X+X|.}.}.{.[.[.[.}.}.}.}..X.X@X@X#XVXVXCXCXCXCXAXAXFXFXFXFXPXPXPXPXIXIXIXIXIXIXPXPXPXPXPXFXFXFXFXFXFXFXZXZXZXZXZXZXZXZXZXZXZXZXZXZXZXZXZXZXZXZXZXZXZXZXZXZXZXZXZXZXDXDXGXGXGXGXGXGXGXGXKXKXKXKXKXLXLXLXLXLXLXLXLXKXKXKXGXGXDXDXDXDXSXSXSXSXSXSXSXSXSXSXSXSXSXCX#X@X}._.S.A.C.C.C.C.C.A.A.S.S.~.~.~.~.^.~.~./././.~.~.S.S.S.D.D.D.D.D.D.Z.l.M.M.M.B.B.G.H.I.=X:X:X5X5X5X5X:X:X-X=XI.L.H.H.K.W.`. XaXCXZXVXXXm.j.9.5.+.} [ T Z C u y t t t t t t t t t r i i u u Z [ o.*.-.9.a.f.k.l.l.l.l.N.N.Z.Z.Z.Z.Z.Z.Z.x.x.x.x.h.h.,.,.;.%.%.' ^ ^ ~ ! ! a a a d w w w w w w w w w w w w e w e w 0 q q z ~ ~ ~ ~ z w w w w ! ^ ^ ^ ^ ^ ~ ! q q 0 0 0 0 0 0 q 7 7 5 7 7 7 7 7 7 7 7 7 7 6 q 6 6 6 ",
"$ $ $ $ $ $ $ $ $ $ $ $ $ $ $ $ $ % % % $ % = $ : - - - - - - - - - - - - - - - - - - - - - 8 - - - - 8 8 8 8 8 8 8 8 8 - 8 8 - - - = - = = = + + + + + + + + @ + + + + + + & & r u u x n H _ { +.*.8.g.x.m.m.Q.Q.Q.Y.F.F.J.J.Y.Y.Y.Y.Y.F.F.F.F.b.b.b.z.z.z.z.z.F.J.J.I.U.E.E.E.E.E.K.Q.v.c.c.c.c.c.c.c.v.v.v.v.v.v.v.v.D././././././././././.^.oX[.[.{.|.+X@X@X@X@X@X+X+X|.|.{.{.[.[.[.[.}.}.}..X.X.X@X@X#XVXCXCXCXCXZXAXFXFXFXFXPXPXPXPXIXIXIXPXPXPXPXPXPXFXFXFXFXFXFXFXZXZXZXZXZXZXZXZXVXAXAXZXZXZXZXCXCXCXCXCXVXZXZXZXZXZXZXZXZXZXZXZXZXZXZXZXZXSXDXDXDXDXGXGXGXGXGXGXGXKXKXKXKXLXLXLXLXLXLXKXKXKXKXGXDXDXDXSXSXSXSXSXSXSXSXSXSXSXSXSXCXCX#X.X[.~.S.A.C.C.C.C.A.A.S.S.~.~.~.^.^.~.~././.~.~.~.S.S.S.D.D.D.D.D.D.Z.l.Z.M.M.B.B.G.L.I.-X:X:X5X5X5X5X:X:X-X=XI.L.H.J.E.W.'.pXVXZXZXaX].x.s.8.4.o.} ] Y Z C y y t t t t t t t t y OXu.u u Z Y } +.-.8.a.f.k.k.l.l.l.l.N.Z.Z.Z.Z.Z.Z.Z.Z.x.x.x.h.h.w.,.;.;.%.%.' ^ ~ ! ! a a a w w w w w w w w w w w w w e e w w 0 0 q z z ~ ~ ~ z w w w w ! ^ ^ ^ ^ ^ ~ ~ q q q 0 0 0 0 0 q 7 7 5 q 7 7 7 7 7 7 7 7 7 6 7 7 7 7 ",
"$ $ $ $ $ $ $ $ $ $ $ $ $ $ $ = = = $ : : : = = - - - - - - - - - - - - - - - - - - - - 8 8 - 8 - - - 8 8 8 8 8 8 - - - 8 8 8 - - - - = = = + + + + + + + + + + + + + + + & & r u u m n F _ { O.*.8.g.x.Q.m.].Q.Q.Y.F.F.F.F.Y.Y.Y.Y.Y.Y.F.F.F.b.b.b.z.z.z.z.z.F.J.I.I.U.<XE.E.E.Q.Q.v.v.x.c.c.c.c.c.c.c.v.v.v.v.v.v.v.v././././././././././.^.(.[.[.{.+X+X@X#X#X@X+X+X+X|.{.{.{.[.[.[.[.}.}.|..X.X+X@X@XVXVXCXCXCXZXAXFXFXFXFXPXPXPXPXIXIXPXPXPXPXPXFXFXFXFXFXFXZXZXZXZXZXZXZXZXVXAXZXGXZXVXVXVXCXVXVXVXVXVXVXVXVXVXVXVXVXAXAXAXVXAXAXZXZXZXZXZXZXZXZXZXZXZXSXSXDXDXDXDXGXGXGXGXGXKXKXKXLXLXLXLXLXLXLXKXKXKXGXDXDXDXSXSXSXSXSXSXSXSXSXSXSXSXSXCX#X@X}._.~.A.A.C.Z.C.A.A.S.S.~.~.~.^.^.~./././.~.~.~.S.S.S.S.D.D.D.D.Z.x.Z.M.M.M.B.B.G.I.-X:X:X5X5X5X5X:X:X:X=XI.I.L.H.U.W.`.'.aXZXZXVXXXQ.j.8.5.2.o.[ T Z C u y y t t t t t t r u BX) * m m Z [ o.*.:.9.f.k.k.l.l.l.N.N.Z.Z.Z.Z.Z.N.Z.Z.x.x.x.h.h.w.,.;.;.%.%.' ^ ^ ! ! a w w w w w w w w w w w w w w w e e e e 0 0 q z z ^ ~ ~ ! z w w w ! ^ ^ ^ ^ ^ ^ ~ z q q 0 0 q 0 5 7 7 7 7 q 7 7 7 7 7 7 7 7 6 6 7 7 7 7 ",
"$ $ = $ O $ $ $ $ $ $ $ $ $ $ = = = = % - % % - - - - - - - - 8 5 8 8 8 - - - - - - - - - - - - - 8 8 8 8 8 - - 8 8 - 8 8 8 8 8 - - - = = = O O + + + + + + + + + + + & t t r r u m n F T { +.*.8.q.x.m.m.].].Q.Y.Y.F.F.F.F.Y.Y.Y.Y.Y.Y.F.F.b.b.b.z.z.z.z.b.F.F.I.U.U.U.<XE.E.Q.Q.v.c.h.h.c.c.c.c.c.v.v.v.v.v.v.v.D./././././././././././.oX[.[.[.{.|.@X#X#X#X@X+X+X|.|.{.[.[.[.[.[.[.}.}..X.X.X@X@X#XVXVXVXVXAXAXFXFXFXFXPXPXPXPXPXPXPXPXPXPXFXFXFXFXFXAXAXAXZXZXAXVXVXVXVXVXVXVXAXZXZXAXVXVXVXaXaXaXaXaXaXaXaXaXaXaXaXaXaXVXVXVXVXVXVXVXVXVXVXVXVXCXZXZXZXZXZXZXZXSXSXSXDXDXDXDXGXGXGXKXKXKXLXLXLXLXLXLXKXKXKXDXDXDXDXSXSXSXSXCXSXSXSXSXSXSXSXSX#X#X+X[._.S.A.C.C.C.A.A.S.S.S.~.~.~./././.~.~./.~.~.S.S.S.D.D.D.D.D.Z.Z.l.M.M.B.B.G.;X>X:X:X:X5X5X5X5X:X:X-X=XI.L.H.U.E.`.'.aXVXZXZXfX].x.0.5.4.o.} T Y Z u y y t t t t t t y & i y r u u m F ] +.-.9.s.f.k.l.l.M.M.N.N.Z.Z.Z.Z.N.N.N.x.x.x.x.h.w.,.,.;.#.%.' ^ ^ ~ ! ! w w w w w w w w w w w w e e e e w w w e 0 0 q z ~ ^ ~ ! z w w w z ~ ^ ^ ^ ^ ^ ~ z q q q q q 7 7 5 7 q q q q 7 7 7 7 7 7 6 6 6 6 7 7 6 ",
"$ $ = $ O 8 8 = $ $ $ $ = = = - - % = - - - - - - - - - - - - 8 5 8 8 8 - - - - 8 8 8 8 - - - - - 8 8 8 8 8 8 - 8 - - 8 8 8 8 8 - - = = O O O + + + + + + + + + + + + t t r u u u n F T ] o.*.8.q.x.m.m.].].Q.Q.Y.F.F.F.F.F.Y.Y.Y.Y.Y.F.b.b.b.b.b.z.z.z.b.F.F.I.U.U.U.E.E.E.Q.Q.v.c.h.c.c.c.c.c.c.v.v.v.v.v.v.v.D./././././././././././.^.[.[.{.|.+X@X#X#X#X+X+X+X|.|.{.[.[.[.[.[.[.}.}..X.X.X@X@X#XVXVXVXAXAXAXFXFXFXPXPXPXPXPXPXPXPXPXFXFXFXFXAXAXAXAXAXAXAXVXVXVXVXVXVXVXVXaXaXaXaXaXaXaXaXaXaXaXaXaXaXaXaXaXaXaXaXaXaXaXaXaXaXaXaXaXaXaXVXVXVXVXVXVXVXVXVXCXVXCXCXCXZXZXZXSXSXSXDXDXGXGXGXKXKXKXLXLXLXLXLXKXKXKXDXDXDXDXSXSXSXSXSXSXSXSXSXSXSXSX%X#X#X}._.~.A.A.C.C.C.A.A.S.S.S.~.~.~./.~.~./.~.~.~.S.S.S.D.D.D.D.D.Z.Z.M.M.M.M.B.U.>X:X:X:X5X5X5X5X5X:X:X-XI.L.L.J.U.W.`.pXaXZXZXVXXXQ.j.8.5.+.o.[ Y Z C u y y t t t t t t r r r y u u m T ] X.*.:.9.f.k.l.l.M.M.N.N.N.B.Z.Z.Z.Z.N.Z.x.x.h.h.h.w.,.;.;.%.%.' ^ ~ ! ! w w w w w w w w w w e e w s s 0 e w e e 0 0 q z ~ ~ ~ ! z w w w q ~ ^ ^ ^ ^ ^ ~ ! q q q s ! ! 7 7 7 q q q 7 7 7 7 7 7 6 6 6 6 7 7 7 6 ",
"$ $ = $ = V V 8 $ $ % = = - - - - - - - - - - - - - - - - - - 8 8 8 8 8 - - - - 8 8 8 8 8 8 8 8 8 8 8 8 8 8 8 8 8 8 8 8 8 8 8 - - = = = O O + + + + + + + + + + + + & & r r u u m F H { X.+.5.e.x.m.!.].].Q.Q.Y.F.F.F.F.F.F.Y.Y.Y.Y.F.F.b.b.b.b.b.b.z.F.F.F.I.U.U.U.E.E.E.Q.Q.x.x.h.h.c.c.c.c.c.v.v.v.v.v.v.v.D./././././././././././.^.[.[.}.|.+X@X#X#X#X+X+X|.|.{.{.[.[.[.[.[.[.}.}..X.X.X@X@XVXVXVXVXAXAXFXFXFXPXPXPXPXPXPXPXPXFXFXFXFXFXAXAXAXAXVXVXVXVXVXVXVXVXaXaXaXaXaXaXaXaXaXaXaXpXpXpXpXpXpXpXpXpXpXpXpXpXpXpXpXpXpXpXpXpXpXpXpXaXaXaXaXaXaXaXaXVXVXVXVXVXVXVXVXVXVXCXCXZXZXSXSXDXDXDXGXKXKXKXKXLXLXLXLXKXKXKXDXDXDXDXSXSXSXSXSXSXSXSXSXSXSXSX#X#X.X[.~.S.A.C.C.C.A.A.A.S.S.~.~.~.^.^././.~.~.~.S.S.S.S.D.D.D.D.Z.Z.M.M.M.B.G.I.=X-X:X5X5X5X5X5X:X:X-X=XI.L.L.U.E.`.'.pXVXZXCXfX].x.0.8.4.+.} T Y Z m u y y t t t t r t y y u u u y.gXm._ o.5.8.a.f.k.z.M.M.N.N.B.B.B.V.Z.Z.Z.Z.x.x.x.h.h.,.,.;.;.#.%.' ^ ~ ! ! w w w w w w w w w w e e a / / w e e e e 0 0 q z ~ ~ ~ ~ ! w w w q z ^ ^ ^ ^ ^ ~ ! q q s ! / ~ 7 7 7 7 7 7 7 7 7 7 7 6 7 7 6 6 7 7 6 6 ",
"$ $ = $ = p p = = - = - = - - - - - - - - - - - - - 8 8 - - 8 8 8 8 8 8 8 8 8 8 8 8 8 8 8 8 8 8 8 8 8 8 8 8 8 8 - 8 8 8 8 8 - - - = = = O + + + + + + + + + + + + & & r u u u m F H ] X.+.5.q.x.m.!.].].].Q.Y.Y.F.F.F.F.F.Y.Y.Y.Y.Y.F.F.b.b.b.b.b.b.F.F.J.I.U.U.U.E.E.E.Q.Q.x.x.h.h.h.c.c.c.c.v.v.v.v.v.v.v.D.D././././././././././.oX(.[.}.+X@X#X#X#X@X+X+X|.{.{.[.[.[.[.[.[.}.}.}..X.X.X@X@XVXVXVXAXAXAXFXFXFXPXPXPXPXPXPXFXFXFXFXAXAXAXAXAXAXVXVXVXVXVXVXVXaXaXaXaXaXaXaXpXpXpXpXpXpXpXpXpXpXpXpXpXpXpXpXpXpXpXpXpXpXpXpXpXpXpXpXpXpXpXpXpXpXpXpXaXaXaXaXaXaXaXaXVXVXVXVXVXVXVXVXCXCXZXZXSXDXDXDXGXGXKXKXKXKXLXLXKXKXKXHXDXDXDXDXSXSXSXSXSXSXSXSXSXSXSX#X#X+X[.^.S.A.C.C.C.A.A.A.S.S.~.~.~.~.~.~.~.~.~.~.S.S.S.D.D.D.D.Z.Z.Z.M.M.B.B.H.I.=X:X:X5X5X5X5X5X:X:X=XI.L.H.I.E.W.`.tXaXZXZXVXXXm.g.9.5.+.o.] T Y Z C u y y t t t r t r y u u ( vXIXiX_ { *.-.9.f.k.z.M.M.N.N.B.B.B.V.V.Z.Z.N.Z.x.x.x.h.,.,.,.;.#.#.%.^ ^ ~ ! w w w w w w w e e w w e s / / w e e e e 0 0 q q z ~ ~ ~ ! w w w w z ~ ^ ^ ^ ^ ^ ~ s q ! / / ~ 7 7 7 7 q q q 7 7 7 6 7 7 7 6 6 6 7 6 6 ",
"$ $ $ = = = = $ = = = = - - - = = - - - - - - - - 8 8 8 8 8 8 8 8 8 8 8 8 8 8 8 8 8 8 8 8 8 8 8 8 8 8 8 8 8 8 8 - 8 8 8 8 - - - = = = + + + + + + + + + + + & & + & t r u u m n H ] { +.4.q.x.m.!.].].].Q.Q.Y.F.F.F.F.F.F.Y.Y.Y.F.F.F.F.b.b.b.b.b.F.F.J.I.U.U.E.E.E.T.Q.x.x.x.h.h.c.c.c.c.c.c.v.v.v.v.v.v.D.D./././././././././.^.[.[.[.}.|.@X#X#X#X+X+X|.|.{.[.[.[.[.[.[.[.[.}.}..X.X.X.XVXVXVXVXAXAXFXFXFXPXPXPXPXPXPXFXFXFXFXAXAXAXAXAXVXVXVXVXVXVXaXaXaXaXaXaXpXpXpXpXpXpXpXpXpXtXtXtXtXtXtXtXtXtXtXtXtXtXtXtXtXtXtXtXtXtXtXtXtXtXtXtXtXpXpXpXpXpXpXpXpXpXpXaXaXaXaXaXaXaXaXVXVXVXVXVXVXZXZXZXSXDXDXDXKXKXKXKXKXKXKXKXKXKXHXDXDXDXSXSXSXSXSXSXSXSXSXSX%X%X#X#X}._.~.A.C.C.C.C.C.A.S.S.~.~.~.~.~.~.~.~.~.~.S.S.S.D.D.D.D.D.Z.Z.Z.M.B.G.L.=X:X:X:X5X5X5X5X5X:X-X=XI.L.L.U.E.W.tXaXAXZXZXaX].x.9.8.*.+.} ] T Y C i u y y t t t t t y y u 1.eXiXy.H ] o.-.8.a.f.l.l.M.N.B.B.V.V.V.V.Z.Z.N.N.x.x.x.h.h.,.,.;.;.#.' ^ ^ ~ ! w w w w w w e w w w w e e w w e e e e 0 e 0 0 q z ~ ~ ~ ! a a w w z ~ ^ ^ ' ^ ^ ~ z q q q ! 7 6 k 7 7 7 q 7 7 7 7 6 6 7 7 7 6 6 6 6 6 ",
"$ = $ $ $ $ $ = = = = = = = = = = = - - - - - - - 8 8 8 8 8 8 8 8 8 8 8 8 8 8 8 8 8 8 8 8 8 8 8 8 8 8 8 8 8 8 8 8 8 8 8 - - - - = = + + + + + + + + + + + t t t & & r u u m n F ] { +.5.0.h.m.!.].].].Q.Q.Y.F.F.F.F.F.F.Y.Y.Y.F.F.F.b.F.b.b.b.b.F.F.Y.I.U.U.E.E.E.Q.K.Q.x.x.h.h.h.c.c.c.c.c.c.v.v.v.v.v.D.D./././././././././.^.(.[.}.|.+X@X#X#X#X+X+X|.|.{.[.[.[.[.[.[.[.[.}.}.}..X.X.XaXVXVXVXAXFXFXFXPXPXPXPXPXFXFXFXFXAXAXAXAXVXAXVXVXVXVXVXaXaXaXaXaXpXpXpXpXpXpXpXpXpXtXtXtXtXtXtXtXtXtXtXtXtXtXrXrXrXrXrXrXtXrXrXrXrXtXtXtXtXtXtXtXtXtXtXtXtXpXpXpXpXpXpXpXpXpXpXpXpXaXaXaXaXaXaXaXVXVXVXVXCXCXSXDXDXDXDXKXKXKXKXKXKXKXKXHXDXDXDXDXSXSXSXSXSXSXSXSXSX%X%X#X#X.X[.~.S.A.C.C.C.C.A.S.S.~.~.~.~.~.~.~.~.~.~.~.S.D.D.D.D.D.Z.Z.M.M.M.B.H.L.=X:X:X:X5X5X5X5X:X:X-XI.L.L.I.E.W.`.pXaXAXZXaX].v.g.8.-.+.o.} [ Y Z C u y y t t t r r r r u Z E T Y n T { *.8.9.f.k.z.M.N.N.N.N.N.B.V.V.Z.Z.N.z.x.x.h.h.w.,.;.;.#.' ' ^ ^ ~ w w w w w w e w e e e e e e e e e e e e e 0 0 q z ~ ~ ~ ! z w w w z z U ^ ' ^ ^ ~ ! q q 5 7 7 z 7 7 q 7 7 7 7 7 7 7 6 7 7 7 7 6 6 7 6 ",
"= = = = = = = = = = = = = = = = = = - - - - - - - 8 8 8 8 8 8 8 8 8 8 8 8 8 8 8 8 8 8 8 8 8 8 8 8 8 8 8 8 8 - - 8 8 8 - - - - = = = + + + + + + + + + + & t t t & r u u x n F ] { +.-.0.h.m.!.].].].].Q.Y.Y.F.F.F.b.b.F.F.Y.Y.F.F.F.b.b.b.b.b.F.F.J.I.U.U.U.U.K.Q.Q.v.x.x.h.h.c.c.c.c.c.c.c.v.v.v.v.D./.D./././././././././.^.(.[.}.|.+X@X#X#X#X+X+X|.{.{.[.[.[.[.[.[.[.[.}.}..X.X.X.XVXVXVXAXAXFXFXFXPXPXPXPXFXFXFXFXAXAXAXVXVXVXVXAXVXVXaXaXaXaXaXpXpXpXpXpXpXtXtXtXtXtXtXtXtXrXrXrXrXrXrXyXyXyXyXyXyXyXyXyXyXrXrXyXyXyXyXyXyXyXrXyXrXrXtXtXtXtXtXtXtXtXtXtXtXtXpXpXpXpXpXpXpXpXaXaXaXaXaXaXVXVXVXCXCXCXSXDXDXDXDXHXKXKXKXKXKXKXKXHXDXDXDXSXSXSXCXSXSXSXSXSX%XSXCX#X+X[.^.S.A.C.C.C.C.A.S.S.~.~.~.~.~.~.~.~././.~.S.S.D.D.D.D.D.Z.Z.Z.B.G.H.I.-X:X:X5X5X5X5X:X:X-X=XI.L.L.U.E.`.tXpXAXZXAXXX!.x.9.-.*.o.} [ E Z C u y y t t t t t t y y y u u m n Y ] o.5.9.a.f.l.M.N.N.N.V.V.N.V.V.C.Z.N.N.x.x.x.h.h.,.;.;.#.#.%.^ ^ ~ z w w w w w e e e e e e e w e e e e e e e 0 0 q z ~ ~ ~ ! z a w w q z P ^ ' ' ^ ^ ! q q 7 5 7 7 6 8 5 7 7 7 7 7 7 7 6 6 7 7 7 7 6 6 6 ",
"= = = = = = = = = = = = = = = = = = = = - - - - 8 8 8 8 8 8 8 8 8 8 8 8 8 8 8 8 8 8 8 8 8 8 8 8 8 8 8 8 8 8 - 8 8 - - - - - = = = + + + + + + + + + + + + & t t r u u m m F H { o.*.8.j.m.!.].XX].].Q.Q.Y.F.b.b.b.Y.b.Y.Y.Y.Y.b.F.b.b.b.b.F.F.F.J.I.U.U.U.K.K.Y.Q.x.x.x.h.h.h.c.c.c.c.c.c.v.v.v.v.v././././././././././.^.^.(.{.|.|.+X#X#X#X#X+X+X|.{.{.[.[.[.[.[.[.[.[.}.}.}..X.X.XaXVXVXAXFXFXFXFXPXPXPXFXFXFXFXAXAXAXVXVXVXVXVXVXAXVXaXaXaXaXaXpXpXpXpXtXtXtXtXtXtXtXrXrXrXrXrXyXrXyXrXrXyXyX3XyXyXyXyXyXyX3XyXyXyXyXyXyXyXyXyXyXyXyXyXyXyXrXrXtXtXtXtXtXtXtXtXtXpXtXtXpXpXpXpXpXpXaXsXdXaXaXaXVXVXVXCXSXDXDXDXDXDXDXKXKXKXKXKXKXKXHXHXDXDXDXSXSXSXCXCXSXSX%XSXSX%X#X+X[._.S.A.C.C.C.C.A.S.S.~.~.~.~.~.~.~.~.~./.S.S.S.D.D.D.Z.D.Z.Z.B.B.G.L.=X:X:X5X5X5X5X5X:X:X=XI.L.L.I.E.W.rXpXFXFXZXVX].x.s.8.*.+.o.} [ Y Z i u y y t t t t t r t y y u m n Z T o.*.8.a.f.l.M.N.N.V.K.U.V.N.V.C.Z.Z.N.z.x.x.h.h.,.,.;.;.#.%.' ^ ~ z w w w w w e e e e e e e e e e e e e e e 0 0 0 z z ~ z z w w w 0 q z k U ' ' ^ ^ ~ ! q 7 q 5 1  .7.N 8 q k 5 7 7 7 6 6 7 6 7 7 6 6 6 ",
"= = = = = = = = = = = = = = = , = - - - - - - 8 8 8 8 8 8 8 8 8 8 8 8 8 8 8 8 8 8 1 8 8 8 1 8 8 8 8 8 8 8 8 - - 8 8 - - - = = = O + + + + + + + + + + + & t r r u u u m n F ] X.*.8.j.m.!.oXXX].].].Q.Y.Y.b.b.b.b.Y.Y.Y.Y.Y.Y.Y.b.b.b.b.F.F.F.Y.I.I.U.U.E.Q.Q.Y.x.x.h.h.h.c.c.c.c.c.c.c.c.v.v.v.v.D.D./././././././._.[.[.[.[.|.+X@X#X#X#X#X+X+X|.{.{.[.[.[.[.[.[.[.[.}.}.}..X.X.XaXVXVXAXFXFXFXFXFXFXFXFXFXFXAXAXAXVXVXVXVXAXVXAXAXdXaXaXaXaXpXpXpXpXtXtXtXtXtXrXyXrXyXrXrXrXyX3X3X3X3X3X3X3X3X3X3X3X3X3X3X3X3X3X3X3X3X3X3X3XyXyX3X3X3X3XyXyXrXrXrXrXyXrXtXtXtXtXtXtXtXtXtXtXtXtXtXtXpXpXpXpXaXaXaXaXaXVXGXUXKXGXSXDXDXDXDXKXKXKXKXKXKXKXHXDXDXDXSXSXSXSXSX%XSX#X%X%XSX#X#X}._.~.A.C.C.C.C.A.S.S.~.~.~.~.~.~.~././././.S.S.D.D.D.Z.Z.Z.Z.B.B.H.I.-X:X:X5X5X5X5X:X:X-X=XI.L.L.U.E.rXpXFXGXGXAXXXm.j.8.5.+.+.o.[ Y Z m u y y t t t t t t t t y u u m Z T { +.5.9.f.k.l.M.N.B.K.U.K.B.V.V.Z.Z.N.x.x.x.h.h.w.,.;.;.#.%.' ^ ^ z w w w w 0 e e 0 e e e e e e e e e e e e e 5 5 z z z ~ z z w w q q z z ^ ' ' ^ ^ ~ z k 7 0 7 | ,X>Xr.1 7 7 7 7 7 7 8 q B 6 7 7 6 6 6 ",
"= = = , , , , = , , , , = = , , 8 8 8 8 - 8 8 8 8 8 8 8 8 8 8 8 8 8 1 8 8 8 8 8 1 8 8 6 k 6 6 8 8 8 8 8 8 8 8 8 8 8 - - - = = = O O + + + + + + + + + + & t r u u u m n F ] X.*.8.j.m.!.oXXXXX].].Q.Y.b.b.b.b.b.Y.Y.Y.Y.Y.Y.Y.Y.Y.b.b.F.F.F.J.I.U.U.U.K.Q.Q.Q.x.x.h.h.h.p.c.c.c.c.c.c.c.v.v.v.v.v.D./././././././.^.[.}.}.}.|.+X+X#X#X#X#X+X+X|.{.[.[.[.[.[.[.[.[.[.}.}.}..X.X.XVXVXVXAXFXFXFXFXFXFXFXFXAXAXAXAXVXAXAXVXVXVXaXaXaXaXaXaXaXdXdXsXtXtXtXuXrXrXyXyXyXyXyXyX3X3X3X3X3X3X3X3X3X3X3X3X3X3X3X3X3X2X3X3X3X3X2X2X2X3X3X3XgXgX3X3X3X3X1X1X3XyXyXyXyXyXyXyXyXrXrXrXtXtXtXtXtXtXtXtXtXpXpXpXaXaXsXaXAXUXUXUXGXCXCXSXDXDXDXHXHXKXKXKXKXKXKXDXDXDXDXSXSXSXCXCXCX#X%XSXSXCX#X.X[.~.A.C.C.C.C.A.A.S.~.~.~.~.~.~.~.~././.~.S.D.D.D.Z.Z.Z.Z.B.B.G.L.=X-X:X:X5X5X5X5X:X-X=XI.L.L.I.U.W.tXsXFXFXAXfX].x.0.5.*.2.o.] T Z m u u y y t t t t t y y y y u m Z Y ] o.*.8.a.k.l.M.N.V.G.G.V.B.V.V.V.Z.N.N.x.x.x.h.h.,.,.;.#.$.' ^ ^ z z w w w 0 e e 0 e e e e e e e e e e e e - 5 5 7 z z ~ z z q w q q z z ^ ^ ' ' U ^ z k 7 7 8 3.,X>X6.1 5 7 7 7 7 7 6 B 7 6 7 B 7 6 7 ",
", , , , , , , , , , , , , , , , , , 8 8 8 8 8 8 8 8 8 8 8 8 1 1 8 8 8 8 8 8 8 1 1 1 k k k k 6 8 8 8 8 8 8 8 8 - 8 8 - - = = = + O O + + + + + + + + + & & r r u u m n F ] { +.5.w.m.!.oXfXfXXX].Q.Q.Y.b.b.b.b.b.Y.Y.Y.Y.Y.Y.Y.Y.Y.F.F.F.Y.J.I.I.U.U.K.K.Q.Q.x.x.x.h.h.h.c.c.c.c.c.c.v.v.v.v.v.v.D.v./././././././.oX[.}.|.|.+X+X#X#X#X#X+X+X|.{.(.[.[.[.[.[.[.[.[.}.}.}..X.X.XaXVXVXAXFXFXFXFXFXFXFXFXAXAXAXAXAXZXAXAXVXaXaXaXaXaXpXpXpXdXFXPXFXtXrXyXyXyXyXyX3X3X3X3X3X3X3X3X2X2X3X3X2X2X2X2X2X2X2X2X2X2X2X2X2X2X2X2X2X2X2X2X3XgX3X2X2X2X3X3X3X3X3X3X3XyXyXyXyXyXyXyXrXrXrXrXrXrXtXtXtXtXtXpXpXpXpXpXpXdXGXUXUXGXVXVXCXCXSXDXDXDXHXKXKXKXKXKXKXHXDXDXDXSXSXSXCX#X%X%X%XSXSX#X#X+X[.~.A.C.C.C.C.A.A.S.~.~.~.~.~.~.~.~.~.~./.S.D.D.D.D.Z.Z.B.C.K.H.I.-X:X:X5X5X5X5X:X:X-X=XI.L.L.U.E.rXtXaXVXVXVXXXQ.g.8.5.+.o.{ T Y C m u y y t y t t t y y y y u u C Z T } +.5.9.f.l.M.M.B.B.B.V.V.V.V.V.Z.N.N.z.l.x.h.h.,.,.;.;.#.%.^ ^ z z w w w 0 e e e e e e e e e e e e e e - - - 5 7 z z ~ z z q q 0 0 q z ^ U ' ' U ^ z z k k 5 B 3.3.P 7 5 7 7 7 7 7 6 B 6 8 7 B 7 6 7 ",
", , , , , , , , , , , , , , , , , , 8 8 8 8 8 8 8 8 8 8 8 8 1 1 1 8 8 8 8 8 8 8 1 1 k M k 6 8 8 8 8 8 8 8 8 8 - 8 = - - = = + + + + + + + + + + + + & t r r u u m n F ] { +.4.q.m.!.oXXXfXfX].Q.Q.Y.b.b.b.b.b.b.b.Y.Y.Y.Y.Y.Y.Y.Y.F.Y.Y.J.I.I.U.U.K.K.Y.Q.x.x.x.h.h.h.h.c.c.c.c.c.c.v.v.v.v.D.D.D.v././././././.^.[.[.}.|.+X+X#X#X#X$X+X+X|.{.[.[.[.[.[.[.[.[.[.}.}.}.}..X.X.XaXVXAXFXFXFXFXFXFXFXAXAXAXVXVXVXAXVXAXAXAXaXaXaXpXpXpXpXtXsXFXPXhXyXyXyX3X3X3X3X3X3X3X3X2X2X2X2X2X2X3XgXwX0X2X0X0X2X2X0X2X2X6X6X6X6X6X6X6X0X2X2X0X0X2X2X2X2XgXhXgX2X3X3X3X3X3XyXyXyXyXyXyXyXyXyXrXrXrXrXrXtXtXtXpXtXtXtXpXpXdXFXZXVX.XVXVXCXCXCXSXDXDXDXHXKXKXKXKXKXKXHXDXSXSXSXSX%X#X#X%X%X%X%X#X#X+X[.).S.A.C.C.Z.C.A.S.~.~.~.~.~.~.~.~.~.~.S.S.D.D.D.D.Z.Z.C.V.J.L.=X-X:X:X:X:X5X:X:X-X=XI.I.L.I.U.W.tXpXaXVXVXXX].x.q.5.*.o.{ ] Y Z C i u y y y y y y t y y y u u C Z Y ] o.*.8.s.k.z.M.B.B.B.B.B.V.V.V.Z.N.N.N.x.x.h.h.h.,.,.;.#.' ' ^ ~ z z q 0 0 0 e e e e e e e e e e e e e e - - 5 q z z z z z w q 0 0 q z B ^ ' ' U ^ z ~ k k z 7 k k 7 5 7 7 7 7 7 8 6 ~ B 6 6 7 6 6 7 ",
", , , , , , , , , , , , , , , , , , 8 1 8 1 8 8 8 8 1 1 8 1 1 1 1 1 8 8 8 6 8 8 1 1 6 6 6 6 8 8 8 8 8 8 8 8 8 8 - - - - = = O + + + + + + + + + + + & t r u u u m F T { o.4.q.m.!.oXXXfXfXXX].Q.Y.b.b.b.b.b.b.Y.Y.Y.Y.Y.Y.Y.Y.Y.Y.Y.Y.Y.I.I.U.K.K.Q.Q.Q.v.x.x.h.h.h.c.c.c.c.c.c.c.v.v.v.D.D./././././././././.oX(.[.}.|.+X@X#X#X#X$X+X|.|.{.[.[.[.[.[.[.[.[.[.[.}.}.}..X.X.XaXVXAXFXFXFXFXFXFXAXAXAXAXAXVXAXAXAXVXVXVXaXaXaXpXpXsXuXuXyXuXhXhXuX3X3X3X3X3X3X2X2X2X2X2X2X2X0X0X0X0XwXgXgX0X6X0XqX0X6X6X6X6X6X6X6X6X6X6X6X6X6X6X0X0X0X0X>X>XgXbXgX2X2X3X3X3X3X3X3XyX3X3X3X3X3XyXyXyXrXrXrXrXrXtXdXFXsXtXtXpXpXpXaX X.XaXaXVXVXVXCXSXDXDXDXHXHXKXKXHXHXKXHXDXDXSXSXSX#X#X%X%X%X%X#X#X#X+X[.^.S.C.C.Z.C.A.A.S.~.~.~.~.~.~.~.~.~.~.S.S.D.D.D.Z.Z.Z.V.G.I.I.=X:X:X:X:X:X:X:X:X-X=XI.L.L.U.W.rXtXaXVXVXVX].v.g.5.*.+.{ ] T Z C m u y y y y t t t y y y u u u C Z T } +.5.s.k.l.l.M.B.B.B.B.V.V.V.Z.Z.N.Z.l.l.x.h.h.,.,.;.#.$.' ^ ^ z z q 0 0 0 e e e e e e e e e e e e e - - - - 5 z z ~ ~ z w q 0 0 q z B ^ ' ' ^ ^ ~ ~ k 7 q ! z 7 5 5 7 7 7 7 7 6 8 B ~ 6 6 6 6 6 7 ",
", , > , , > , > > > > , > > > > > , 1 1 1 1 1 1 8 1 1 1 1 1 1 1 8 1 8 8 8 6 6 6 1 1 8 8 8 1 8 8 8 8 8 8 8 8 , = - - - = = = + + + + + + + + + + + + & r u u u m n H ] X.+.q.h.m.oXXXVXfXfX].Q.Q.b.b.b.b.b.b.Y.Y.Y.Y.Y.Y.Y.Y.Y.Y.Y.Y.Y.I.I.U.K.U.Q.Q.Q.x.x.x.h.h.h.c.c.c.c.c.c.v.v.v.v.v././././././././././.^.oX(.{.|.+X@X#X#X#X+X+X|.|.{.(.[.[.[.[.[.[.[.[.[.}.}..X.X.X.XaXaXAXFXFXFXhXdXdXAXAXAXAXAXAXVXVXVXVXaXaXaXaXpXpXpXuXuXuXyXyX3XyXyX3X3X2X2X0X2X0X0X0X0X0X0X6X6X0X0X0X0X0XqXwX6X6XqXqX8X6X6X6X6X8X8X7X7X6X6X6X6X6X6X6X6X6X6X6X6X0XwX0X2X2X2X2X2X2X2X3X3X3X3X3X3X3X3X3X3X3XrXrXrXrXuXFXUXPXpXtXpXpX XpXpXpXpX.X.X.XVXVXCXCXSXDXDXDXHXKXKXHXHXKXHXDXDXSXSX#X#X%X%X%X#X#XSX%X#X+X[.^.S.C.C.C.C.A.A.S.S.~.~.~.~.~.~.~.~.S.S.S.D.D.D.D.Z.C.K.J.L.=X-X:X:X:X:X:X:X:X-X=XI.I.L.I.E.W.tXpXVXCXVXXX!.x.8.*.*.o.{ T Y Z C m u y y y y t t y y y u u u m Z Y ] o.5.0.z.K.J.N.B.B.B.B.B.V.V.Z.Z.N.N.l.l.l.g.h.,.,.;.#.$.' ^ ^ z z q q 0 e e e e e e e e e e e e e e - - - - 5 q z z z z z q 0 0 q z B ^ ' ' ^ ^ ^ B k 7 q s 7 7 5 7 7 7 7 7 7 7 8 6 B 6 6 6 6 7 7 ",
"> > > > > > > > < < < < < > > > > > > 1 1 1 1 1 1 1 1 1 1 1 1 1 1 1 1 1 1 6 6 6 1 8 8 1 1 8 8 8 8 8 8 8 8 8 8 = - - - = = O + + + + + + + + + + + + & r u u m n H ] { +.5.w.m.oXXXVXAXfX].].Q.Y.b.b.b.b.b.Y.Y.Y.Y.Y.Y.Y.Y.Y.Y.Y.Y.Y.I.U.U.U.U.U.Q.Q.v.x.x.h.h.i.c.c.c.c.c.c.c.v.v.v.v.D././././././././././.oX(.(.|.+X@X#X#X#X+X+X+X{.{.(.[.[.[.[.[.[.[.[.[.[.}.}..X.XaXaXaXAXFXFXFXdXdXdXdXAXVXVXVXAXAXVXaXaXaXaXaXpXpXpXtXsXsXuX3X3X3X3X3X3X0X2X0X0X0X0X6X6X6X6X6X6X6X0XwXwXqX8X6X8X8X8X8X8X8X8X7X7X7X7X8X8X7X7X7X7X8X8X8X7X7X7X8X7X7X6X6X6X6X6X6X2X2X2X2X2X2X2X2X2X2X3X3X3X3X3X3X3X3X3X1XuXFXUXPXuXrXtXpXpXpXpXpXpX X.X.X.X@X#X#XCXCXDXDXDXHXHXKXHXHXKXHXDXDXSXSXCX#X#X#X%X%X%X%X%X#X+X[.~.S.A.C.C.C.A.S.S.~.~.~.~.~.~.~.~.~.~.S.S.D.D.D.D.C.C.K.I.I.=X-X:X:X:X:X:X:X-X=XI.I.I.I.U.W.rXpXaXZXZXfX].x.q.5.*.+.} ] T Y Z C u y u y t r t y y y y u u C C Y T } +.5.Y.uXgXF.M.B.B.B.B.V.V.V.Z.N.N.l.l.l.g.g.,.,.,.;.#.' ' ^ ~ z z q 0 0 e e e e e e e e e - - - e e e - - 5 q z z ~ ! z q 0 0 q z z U ' ' ' U ^ B k k q 7 7 7 7 7 7 7 7 7 7 7 7 7 6 6 7 7 7 6 6 ",
"> > > > > > > > < < < > < > > < > > > > 1 1 1 1 1 1 1 1 1 1 1 1 1 1 1 1 1 j 6 6 1 6 8 8 1 1 8 8 8 8 8 8 8 8 = = - - = = = O + + + + + + + + + + & & r u u m n F ] { +.4.w.m.!.XXVXAXfXfX].Q.Y.b.b.b.b.b.b.Y.Y.Y.Y.Y.Y.Y.Y.I.I.I.Y.J.I.U.U.U.U.Y.Q.v.v.x.h.i.h.h.c.c.c.c.c.c.v.v.v.v.v.D.D././././././././.^.(.[.}.+X+X#X#X#X+X+X|.|.{.{.(.(.[.[.[.[.[.[.[.[.}.}.}..X.XaXaXAXFXFXdXdXdXdXdXAXVXVXVXVXVXaXaXaXaXaXpXpXpXtXtXtXhXFXgX3X3X3X2X0X0X0X0X0X0X6X6X6X6X6X6X8X8XqXvXvXvXqX8X7X7X7X7X7X7X7X7X7X7X7X7X7X7X7X7X7X7X7X7X7X7X7X7X7X7X7X7X7X7X7X6X6X6X6X6X0X0X0X2X2X2X2X2X2X2X2X3X3X3X3X3X3XrXuXsXsXrXrXtXtXtXpXpXpXpX X X X.X.X.X@XVXCXCXSXDXDXDXDXHXKXHXKXHXDXDXDXSXCX#X#X#X%X%X%X%X#X#X+X[.~.S.A.C.C.C.A.S.S.~.~.~.~.~.~.~.~.~.~.S.D.D.D.D.D.C.K.J.I.=X-X:X:X:X:X:X:X:X-X=XI.I.I.U.E.1XtXpXVXZXVXXXm.h.8.-.+.o.] T Y Z C C u u u y y y y i y y y u i C Z Y ] } +.Y.hXuXF.M.B.V.B.B.B.V.V.Z.Z.N.N.l.l.g.g.g.,.,.;.#.$.' U ^ z z q 0 0 e e e e e e e e e - - - e e e - - 5 q z z ~ z z q 0 0 0 7 k U ' ' ' U U B k k 7 7 7 7 7 7 7 7 7 7 7 7 7 7 6 6 7 7 7 6 6 ",
"< > > < < < < < < < < < < < < < < < < < < < 1 1 > 1 1 1 1 1 1 1 1 1 6 k k k 1 6 6 8 1 1 1 8 8 8 8 8 8 8 8 8 - = = = = + = + + + + + + + + + + & & r u u u m F T ] o.+.r.v.!.XXVXAXAXfX].m.Y.b.b.b.b.b.b.b.Y.Y.Y.Y.Y.=X=XY.Y.Y.Y.J.I.U.U.K.U.Q.Q.x.x.h.h.h.i.h.h.c.c.c.c.v.v.v.v.D.D.D./././././././././.oX(.[.}.|.+X#X#X#X#X+X|.{.{.{.[.[.[.[._._.[.[.[.[.}.}..X}..XaXaXAXAXFXFXdXdXdXdXAXVXAXAXaXaXaXaXaXaXpXpXpXpXuXuXyXyXuXhXgX3X0X0X0X0X0X0X6X6X6X6X6X6X6X8X8X8XqXzXvXvXvXqX8X7X7X7X7X7X7X7X7X7X7X7X7X7X7X7XkX7XkXkXkXkXkX7X7X7X7X7X7X7X7X7X7X8X6X6X6X6X6X0X0X2X0X0X0X2X2X2X2X2X2X2X2X3X3X3X1XrXrXrXtXtXtXtXpXpXpXpX X X.X.X.X.X.XVXVXCXSXDXDXKXKXHXKXKXKXHXHXDXDXSX%X#X#X#X#X%X%X%X%X#X#X[.).S.C.C.B.C.A.S.S.~.~.~.~.~.~.~././.S.S.S.D.D.D.C.C.K.U.I.=X-X:X:X:X:X:X:X-X=XI.I.I.U.E.W.rXpXaXVXVXXX!.m.q.5.*.o.{ T Y Z Z C u u u C ( A y i i y y u u i C Y E [ X.0.Q.Y.l.M.B.V.B.B.B.B.V.V.N.N.l.l.l.l.g.g.w.,.,.#.#.' U ^ z z q 0 0 e e e e e e e e e e e e e e - - - 5 5 z z z z z w q 0 0 q z U ' ' ' ^ U B B k 7 7 7 7 7 7 7 7 7 7 7 7 7 7 7 6 6 6 6 6 6 ",
"< < f f < < < < < < < < < < < < < f f f < 1 1 1 1 1 j j 1 1 g 1 1 1 k k j k 1 1 6 1 1 1 1 8 8 8 8 8 8 8 8 8 - = = = = + + + + + + + + + + + & & r r u u m n H ] { +.7.t.!.oXVXAXAXfX].!.Q.b.b.b.b.b.b.Y.Y.Y.Y.Y.Y.=X2X2X=XY.I.I.I.U.U.K.U.Q.Y.x.x.x.h.h.h.c.c.c.c.c.c.v.v.v.v.v.D.D./././././././././.oX[.[.}.|.+X#X#X#X$X+X+X|.{.[.[.[.[.}..X X_.[.[.[.}.}. X.X.XaXaXdXdXdXdXdXdXdXAXVXVXaXdXdXaXaXaXpXpXsXsXpXuXuXuXyXyX3X3X3X2X0X0X0X0X6X6X6X6X6X8X8X8X8X8X8XqXqX8XlXvXvXlX8X7XkX7XkXkXkXkXkXkXkXkXkXkXkXkXkXkXkXkXkXkXkXkXkXkXkXkXkXkXkXkX7X7X7X7X8X8X8X6X6X6X6X6X0X6X6X0X2X2X2X2X2X2X2X3X3X1X1X1X1XrXtXtXtXtXpXpXpXpXpX X.X.X.X.X.X@X@XCXSXKXLXLXKXHXKXKXKXHXHXDXDXSX%X#X#X#X#X#X#X%X#X#X#X[.).S.C.C.C.C.A.S.S.~.~.~.~.~.~.~.~.S.S.S.D.D.D.A.A.K.K.I.=X-X:X:X:X:X:X:X-X=XI.I.I.I.U.E.`.tXaXVXVXfXoXm.w.8.*.+.} ] T Y Z Z m u u ( 3.( i y i y y u u i C Z Y } 2.2.5.9.k.M.B.V.B.B.B.B.V.V.N.N.N.l.l.l.g.g.,.,.,.;.#.' ' ^ z z q 0 0 e e e e e e - e e e e e e - - - - 5 5 z z z z z q q 0 5 q z ^ ' ' ' ' U U B k 7 7 7 7 7 7 7 7 7 7 7 7 7 7 6 6 6 6 6 6 6 ",
"f f f f < < f f < < < < < f f f f < f f 1 j j j j j j j j j j j 1 1 1 6 j j j 1 6 8 1 1 1 1 8 8 8 8 8 8 8 8 - - = = = + + + + + + + + + + + & & * u u x n F ] { +.4.w.!.oXfXAXAXAXfX].m.Y.b.b.b.b.b.Y.Y.Y.Y.Y.=XI.-XwX2X=XI.I.I.U.U.K.U.Q.Q.Q.x.x.x.h.h.h.c.c.c.c.c.v.v.v.v.v.D.D.D.D./.D./././././.oX(.[.}.|.+X$X#X#X$X+X+X|.{.[.[.[.[.[. XaX.X[.[.[.}.}.}. XaXaXaXdXdXdXdXdXdXdXAXVXVXaXaXaXaXaXaXsXsXsXsXuXuXuXyXyXyX3X3X2X0X0X0X0X6X6X6X8X8X8X8X8X8X8X8X8X8X8X8X8X8XkXkXkX7XkXkXkXkXkXkXkXkXkXkXkXkXkXkXkXkXkXkXkXkXkXkXkXkXkXkXkXkXkXkXkXkXkXkXkX7X7X7X8X8XqXqX8X6X6X6X6X6X0X2X2X2X2X2X2X2X3X1X1X1XrXrXrXtXtXtXpXpXpXpXpXaX.X.X.X.X.X.X@XCXKXLXLXLXHXHXHXKXKXHXHXDXSXSXCX#X#X#X#X#X#X#X#X#X+X[.).S.C.C.C.A.A.S.~.~.~.~.~.~.~.~.~.S.S.S.D.D.A.A.T.K.U.;X-X-X:X:X:X:X-X-X=XI.>XwX<XU.E.W.'.pXaXVXVXXXm.h.9.-.+.o.{ T T Y Z m m u A ( ( y y y y y y u i C Z Y [ 3.4.4.8.k.z.N.B.B.B.B.B.V.V.V.Z.N.l.l.l.g.g.,.,.;.;.#.$.' U B z z q 0 0 e e e e e e - e e e e e - - - - 5 7 z z ~ ~ z q q 0 0 0 z U ' ' ' ' U U B k k 7 7 7 7 7 7 7 7 7 7 7 7 7 7 7 6 6 6 6 6 ",
"f f f f f f f f f f f f f f f f f f f f j j j j j j j j j j j j j 1 1 1 j j j 1 1 1 1 1 1 1 1 8 8 8 8 8 8 - - = = = = + + + + + + + + + + + & * r u u n F T { o.*.w.m.oXXXVXAXAXfX].m.Y.b.b.b.b.b.Y.Y.Y.Y.Y.=X=X=X=X>X-X=XI.I.U.U.K.U.Y.Q.Q.x.x.h.h.h.h.h.c.c.c.c.c.v.v.v.D.D.D.D.D././././././././.oX(.}.|.+X@X#X#X$X+X+X|.{.[.(.(.[.[._.[. X.X[.[.}.}.}. XaXaXaXdXsXdXsXdXdXdXaXVXaXaXaXaXaXaXaXsXsXuXuXuXuXuXyXyXyX3X3X2X0X0X0X6X8X8X8X8X8X8X8X8X8X8X8X8X8X8X8X8X7X7X7X8X8X8XkXkXkXkXkXkXlXlXlXlXlXlXlXlXlXlXzXnXMXcXlXlXlXlXlXlXlXlXkXkXkXkXkXkXkXkXkXkXkXlXcXcXlX8X8X8X6X6X6X6X6X>X>X>X2X2X2X3X3X3X1XrXrXrXtXtXtXtXpXpXpXpXpXaXaXpX X.X.XVXDXLXLXKXDXDXHXHXKXKXKXHXDXSXSXCXCX#X#X#X#X#X#X#X#X+X[.~.A.C.C.C.A.A.S.~.~.~.~.~.~.~.~.~.S.S.S.D.A.A.A.T.U.U.;X-X-X:X:X:X:X-X=XI.>XgX2XI.E.W.`.pXaXVXVXXX!.v.q.-.*.o.} ] T Y Z Z C m u i y u y y y y y u u C Z Y T } o.4.8.f.l.N.V.B.B.B.B.B.B.V.Z.N.l.l.l.l.g.g.,.,.;.#.$.' U ^ z z q 0 0 e e e - - - - e - e e - - - - - 5 5 z z ~ ~ z w q 0 0 q k P ' ' ' ' ' U U k k 7 7 7 7 7 7 7 7 7 7 7 7 7 7 k 6 6 6 6 6 ",
"f f f f f f f f f f f f f f f f f f f j j j j j j j j j j j j j j j 1 1 k j j j g 1 1 1 1 1 1 1 1 8 8 8 8 = = = = = + + + + + + + + + + + & & r u u m F H ] { +.q.v.!.XXAXAXAXfXXX!.Q.b.b.b.b.b.b.Y.Y.Y.,X,X=X=X,X=X=X=XI.I.I.U.K.U.Y.Y.Q.x.x.x.h.i.h.c.c.c.c.c.c.c.v.v.v.D.D.D.D.D.D././././././.oX(.[.}.+X+X#X#X$X$X+X+X{.{.(.(.[.[.[._._._.[.[.[.}.}. X.XaXaXaXdXsXsXsXdXdXdXaXaXaXaXaXaXaXpXpXsXuXuXuXuXuXyXyXyX3X3X2X0X0X0X0X8X8X8X8X8X8X8X7X8X8X7X7X7X7X7X7X8X8X8XkXlXlXzXzXvXvXvXvXvXvXvXvXvXvXcXvXcXcXcXMXIXIXIXcXzXzXzXcXzXzXzXzXzXzXzXlXlXlXlXlXkXlXcXIXIXcXkX7X7X8X8X6X6X6X6X6X>X>X>X2X2X2X3X3X3X1XrXrXrXtXtXtXpXpXpXpXpXaXaX.X.X.X.XVXCXDXDXDXDXDXHXHXKXHXHXDXDXSXSXCX#X#X#X#X#X#X#X#X#X+X[.~.A.C.C.C.A.S.S.~.~.~.~.~.~.~.~.S.S.S.S.D.A.A.T.U.U.;X-X-X:X:X:X-X-X=XI.=X;X;XL.U.E.`.tXpXaXVXfXoXm.g.:.*.+.} ] T Y Y Z Z C C u u y y y y y y y i C Z Y T [ o.0.j.j.k.N.B.B.B.G.G.B.B.V.Z.N.M.l.k.f.f.a.q.,.-.;.$.' ' ^ z z 0 5 0 e e e - - e e - - - - - - - - - 5 5 k z ~ ~ z q 0 0 5 7 k P ' ' ' ' ' U U k k 7 7 7 7 7 7 7 7 7 7 7 7 7 7 k 6 k B 1 1 ",
"f f f f f f f f f f f f f f f f f f f j j f j j j j j j j j j j j j j 1 j j j j j 1 1 1 1 1 1 8 8 8 8 8 8 = = = = & + + + + + + + + + + & & r u u x n H ] { +.5.w.!.XXVXAXAXAXfX].Q.n.b.b.b.b.b.Y.Y.Y.,X=X=X-X-X-X,X=X=XI.U.U.U.U.Y.Q.Q.x.x.h.h.h.h.p.c.c.c.c.c.c.v.v.D.D.D.D.D.D.D.D./././././.oX(.[.}.|.+X#X#X$X$X+X+X|.{.(.(.(.[.[.[.[.}.[.[.[. X}.}. XaXaXaXaXaXsXsXsXdXaXaXaXaXaXaXaXpXpXpXsXuXuXuXuXyXyXyX3X3X3X0X0X0X0X6X8X8X8X8X7X7X7X7X7X7X7X7X8X8XqXqXgXgXvXvXbXbXbXbXbXbXbXbXbXbXbXbXbXvXvXvXvXnXvXvXNXIXIXIXMXcXcXcXcXcXcXcXcXcXcXcXcXzXzXzXzXzXzXMXIXIXMXlXkXkXkX7X8X8X8X6X6X6X>X>X>X2X2X2X2X3X3X1XrXrXrXtXtXpXpXpXpXpXpXpX.X.X X.X.X+X#X#XSXDXDXDXDXHXHXHXHXDXDXSXSXCX#X#X#X#X#X#X#X#X@X+X[.~.A.C.C.C.A.S.S.~.~.~.~.~.~.~.~.~.S.S.S.A.S.T.T.U.;X;X-X:X:X:X-X-X=XI.I.L.I.I.U.E.W.rXpXaXVXVXXX!.h.8.*.+.o.{ ] T Y Z Z Z Z C i i u y y y y y i i Z Y E [ o.n.Y.z.k.M.N.V.B.B.B.B.B.V.Z.Z.M.l.k.a.9.9.9.,.>.;.@.' ' ^ ~ z 5 5 0 e e - - - - - - - - - - - - - - 5 5 k z ~ ~ z q q 0 5 7 k P ' ' ' ' ' U U k k 7 7 7 7 7 7 7 7 7 7 7 7 7 7 k 8 B ^ 1 1 ",
"f f f f f f f f f f f f f f f f f f f j f f j j j j j j j j j j j j j j j k j j 1 1 1 1 1 1 1 8 8 8 8 8 8 = = = = = + + + + + + + + + & & r r u u n F ] { o.*.w.m.oXfXAXAXAXfX].m.m.b.b.b.b.b.Y.Y.Y.,X=X,X-X-X-X-X-X=X=XU.U.U.K.Y.Q.Q.x.x.x.h.x.v.c.h.c.c.c.c.c.v.v.v.D.D.D.D.D.D././././././.oX(.(.}.|.+X#X#X$X$X+X+X|.{.[.(.(.(._._.[..XVX.X[.[. X}. X.XaXaXaXaXaXsXsXsXaXaXaXaXaXpXpXpXpXpXsXuXuXuXyXyXyXyX3X3X0X0X0X0X0X6X6X8X8X7X7X7X7X7X7X8X8XqXwXgXvXbXbXPXPXPXPXPXPXPXPXPXNXNXNXNXNXbXbXbXbXbXbXNXMXMXMXNXIXIXIXMXMXMXMXMXMXbXnXnXnXnXnXcXcXcXcXcXzXzXnXNXIXcXlXkXkXkXkXkX8X8X8X8X6X0XwXwX0X2X2X2X2X2X3X1X1X1XrXtXtXpXtXpXpXpXpX X X.X X}.}.+X@X#XCXSXDXDXDXDXHXKXHXDXDXDXSXCX#X#X#X#X#X#X#X#X@X|.[.~.A.C.C.C.A.S.S.~.~.~.~./.~.~.~.S.S.S.S.S.T.T.E.;X;X-X-X:X:X-X-X=X=X=XI.I.I.I.U.W.rXpXaXaXVXXX!.v.9.-.*.+.{ ] T Y Y Z Z Z C u u y y y y y y u u C Z E [ o.e.x.z.f.l.N.B.B.B.G.G.B.B.V.N.M.l.k.z.Y.z.>.,.-.;.@.$.' P j k k 5 5 e - - - - - - - - - - - - - - - 5 5 k z ~ ~ ! q q 0 5 5 k k ^ ' ' ' ' U U k k 7 7 7 7 7 7 7 7 7 7 7 7 7 7 k 1 B ^ j 1 ",
"f f f f f f f f f f f f f f f f f f f j f f j j j j j j j j j j j j j j j j j 1 1 1 1 1 1 1 1 8 8 8 8 8 , = = = = & + + + + + + + + & & r r u u x F H { X.+.q.v.!.XXAXZXAXfXXX!.m.n.z.b.b.b.F.Y.Y.,X=X,X-X-X-X:X-X-X=XI.U.U.K.Y.Y.Q.x.x.x.x.x.v.Q.v.c.c.c.c.c.c.v.D.D.D.D.D.D.D./._._./././.oX(.[.{.|.+X+X#X$X$X+X+X|.{.[.(.(.[._._.^._.}.aX X X X}.}..XaXaXaXaXaXaXaXaXaXaXaXaXaXpXpXsXpXsXuXuXuXuXyXyXyX3X3X3X0X0X0XqXqXqX6X8X8X7X7X7X7X6XqXqXgXgXbXbXbXbXPXPXPXPXbXbXbXbXbXbXbXbXbXbXbXbXnXbXbXbXbXbXMXMXMXMXMXMXMXMXMXMXMXMXMXMXMXMXMXMXMXMXnXnXnXnXcXcXcXnXnXcXzXlXlXlXlXlXkXkXkX8X8X8XzXbXbXvX0X>X2X2X2X2X<X1X1X1XrXtXtXtXpXpXpXpXpX X X X X X.X+X@X#XCXSXDXDXDXDXHXHXHXDXDXSXCXCX#X#X#X#X#X#X#X#X@X|._.S.A.C.C.C.A.S.S.~.~.~.^.^./.~.~.S.S.S.S.R.R.E.U.;X;X-X-X:X-X-X=X=X=X=X=XI.I.U.E.rXtXpXaXVXXXoXm.q.:.*.+.o.{ ] T Y Z Z C C u u u y y y y y y u C Z Y [ } 2.6.0.f.l.M.N.V.B.G.G.B.B.B.B.M.l.k.E.gX<X>.,.-.-.;.$.` U U P 6 5 5 - - - - - - - - - - - - - - - - 5 5 k z ~ ~ ! z q q 5 5 5 k U ' ' ' ' U U k k 7 7 7 7 7 7 7 7 7 7 7 7 7 k k 8 B ^ M k ",
"v j j j j j j j j j j j f j j f f f f f j l j l l j j j j j j j j j j 1 1 1 j 1 j 1 1 1 1 1 1 8 8 8 8 - - - - = = = + + + + + & & & & & r u u m n H ] { X.*.w.m.oXVXAXAXVXfX].m.n.b.b.b.b.b.Y.Y.,X=X-X-X:X:X:X:X-X=XI.I.U.U.Y.Y.Q.x.x.x.h.h.h.c.v.v.c.c.c.c.c.v.D.D.D.D.D.D./././._. X_./.oXoX(.[.}.+X@X#X#X$X+X+X{.{.{.(.(.(._._._._._._._.[.[.}.}. X.XaXaXaXaXaXpXaXaXaXaXaXpXpXpXsXsXpXuXuXuXuXyXyXyX3X3X3X0X0X0X0XqX8X6X6X8X7X7X8X8XqXqXgXvXvXbXbXbXbXvXvXvXvXzXzXlXlXlXlXlXzXzXlXzXzXzXcXcXcXcXcXcXcXcXcXcXcXcXcXnXnXMXMXMXMXMXMXMXMXMXMXMXMXMXMXnXnXnXMXMXnXcXcXzXzXzXzXzXlXlXlXkX8X8XvXPXIXvX0X>X>X>X2X2X2X2X<X1X1XrXrXtXtXtXpXpXpXpX X X X X X}..X@X#XCXSXSXDXDXDXHXHXDXDXDXSXCX#X#X#X#X#X#X#X#X#X#X}._.S.C.C.C.A.A.S.~.~.~.@XVX^.~.~.~.S.S.S.S.R.E.E.<X;X-X-X:X-X-X-X=X=X=X=XI.I.U.E.1XrXtXaXVXfXXX!.h.8.-.+.o.{ ] T Y Y Z m i i u i i y y y i i i C Z Y E } 2.4.8.f.z.M.N.B.B.B.B.B.B.B.B.N.M.z.E.yXQ.=.,.-.;.;.$.` t.OX' 8 5 - - - - e - - - - - - - - - - - - 5 5 k k z ~ ! q q 7 5 5 ~ U U ' ' ' ' ' U B k 7 7 7 7 7 7 7 7 7 7 7 7 7 k 7 6 k B B B ",
"v v j j v v j v j j j j j v j j j j j f j j l l l l j j j j j j j j j j 1 1 1 1 j j 1 1 1 1 1 8 8 8 8 8 > - = = + + + + + + + + + & & * r u u n F H { X.+.w.m.!.fXAXAXAXfX].m.m.b.b.z.b.b.b.Y.Y.=X,X-X:X:X:X:X:X-X=XI.I.Y.Y.Y.Q.x.x.x.x.h.i.i.h.c.c.c.c.c.c.c.c.D.D.D.D.D././././._._._.^.oX[.[.}.|.+X#X#X$X$X+X|.+X|.(.(.(.^.^.^._._._._._.[. X}. X X.XaXaXaXaXpXpXaXaXaXpXpXpXpXpXsXsXuXuXuXyXyXyXyX3X3X0X0X0X0X8X8X8X8X7X7X7X7X8X8XqXqXwXvXvXvXvXzXlXlXlXkXkXkXkXkXkXkXkXkXkXkXkXkXkXkXkXlXlXlXlXlXlXlXlXlXlXlXlXzXxXcXcXcXcXcXcXnXMXMXMXMXMXMXMXMXMXMXMXNXNXMXcXcXcXcXcXcXcXzXzXzXlXlXkXzXbXbXvXqX6X0XgX3X2X2X2X2X2X1X1XrXrXtXtXtXpXpXpXpX X XpXpX X.X.X@X#X#XCXSXDXDXDXHXHXHXDXDXSXCX#X#X#X#X#X#X#X#X#X@X[.).S.C.C.C.A.A.S.S.~.[.}.^.~.~.~.S.S.S.S.R.R.W.<X;X;X-X-X-X-X-X=X=X=X=XI.I.U.E.1XrXtXpXaXaXXX!.v.9.-.*.o.{ ] ] T Y Z m u i i i i y y i y i i C Z Y E [ 2.2.0.s.k.z.N.B.B.B.B.B.B.B.B.V.N.z.z.z.a.>.,.>.;.;.@...!.oX%.8 0 e - - - - - - - - - - - - - - - - 5 5 k k z ~ ! q q 7 5 ! %.' U ' ' ' ' ' U U k 7 7 7 7 7 7 7 7 7 7 7 7 7 7 7 6 6 B B B ",
"v v v j j v v j j j v v j j j j j j j j j j j j l l l j j j j j j j j j 1 1 1 1 1 1 1 1 1 1 1 1 8 8 8 - - - = = = + & + + + + + + & & r u u m F F ] X.+.7.v.!.XXVXAXAXfXfX!.m.n.b.n.b.b.b.Y.Y.=X,X-X:X:X:X:X:X-X=XI.I.Y.Y.Y.Q.x.x.x.x.h.h.i.i.p.h.c.c.c.c.c.v.D.D.D.D.D.D./././././._._.oX[.[.[.|.+X@X#X$X$X+X{.@XGXCX(.(.[.^.^._._._._._.[. X X X X XaXaXaXaXpXpXpXpXaXpXpXpXpXpXsXsXuXuXuXuXyXyXyX3X0X0X0X0X6X8X8X8X7X7X7X7X7X7X8X8XqXqXqXqXlXqX8XlXkXkX7X7X7X7X7XkXkXkX7X7XkXkXkXkX7X7X7X7X7X7XkXkXkXkXkXkX7X7XkXkXlXzXlXlXlXzXzXcXcXcXnXnXnXMXMXMXMXMXMXNXNXMXnXnXnXnXnXcXcXcXcXcXzXzXzXzXzXzXlX8X8XqXvXgX2X>X>X>X2X2X3X1XrXrXrXtXtXpXpXpXpXpXpXpXpX X.X}..X#XCXCXSXDXDXDXHXHXDXDXDXSXCX#X#X#X#X#X#X#X#X#X+X[.~.A.C.C.C.A.S.S.S.~.~.~.~.~./.~./.~.S.S.R.W.<X<X;X;X-X-X-X-X=X=X=X=XI.I.U.U.W.1X`.'.aXaXXX].m.q.5.*.+.X.{ ] T Y Z m u i i u y u u i u u i C Z Z E [ 1.2.6.s.f.z.N.V.B.B.B.G.G.B.B.B.V.M.d.d.d.g.,.>.>.-.@.$.#.%.P 8 5 e - - - - - - - : - - - - - - - - 5 5 7 k z ~ ! q q 7 5 k ^ U U ' ' ' ' ' U U B k 7 7 7 7 7 7 7 7 7 7 7 7 7 7 7 6 6 k M ",
"v j j j j v v v j j v v v j j j j j j j v j j v l l l l j j l j j j j j 1 1 1 1 1 1 1 1 1 1 1 1 8 8 8 > - = = & & & & + + + + + + & r u u x n F T { +.4.w.!.oXVXAXZXAXfX].m.n.j.j.b.b.b.Y.Y.,X,X-X:X:X:X:X:X:X-X=XI.Y.Y.Y.Q.x.x.x.x.h.h.h.h.i.p.c.c.c.c.c.v.D.D.D.D.D.D.D././././././.oX_.[.[.}.|.@X#X#X$X+X+X{.@XKXZX(.(.[.^.^._._._._._.[. X X X XpXpXaXpXpXpXpXpXpXpXpXpXpXsXsXsXsXuXuXuXyXyX3X3X3X0X0X0X8X8X8X8X7X7X7X7X7X7X8X8X8X8X8X8XkXkX7X7XkXkXkX7X7X7X7X7X7XkX7X7X7X7X7XkXkX7X7X7X7X7X7X7X7X7X7X7X7X7XkXkXkX7X7X7X7XkXkXlXlXzXzXzXcXcXcXcXnXMXMXMXMXMXMXMXnXnXnXnXnXnXnXnXcXcXcXcXcXcXzXlXkXkXqXzXqX6X0X0X>X>X2X2X1X1X1XrXrXtXtXpXpXpXpXpXpXpXaXaX X}.+X#XCXCXSXDXDXDXDXDXDXDXDXCX#X#X#X#X#X#X#X#X#X#X.X_.S.A.C.C.C.A.S.S.S.~.~.^.~.~.~.~.~.S.S.R.W.W.<X;X;X;X-X-X-X=X=X=X=X=XI.I.U.E.1X`.'. XaXXXoXm.g.8.-.+.o.{ ] ] T Y Z m C u u u u i u i i i C C Y Y E } 2.4.8.s.z.M.B.B.B.B.B.G.B.B.B.N.N.k.k.g.g.i.,.>.-.&.$.` l j ~ q - - - - - : - - - - - - - - - - - 5 5 7 k ~ ~ ! q q q 7 8 g j U ' ' ' ' ' U U B k 7 7 7 7 7 7 7 7 7 7 7 7 7 7 7 6 6 k B ",
"v j v v v v v v j j v v j j j j v v j j j j j v l l j l l j l j j j j j j j j j 1 1 1 1 1 1 1 1 8 8 8 > - = = & t t t & + + + & & & r u u n F H { X.*.q.m.!.XXAXCXAXfXoX!.m.n.j.j.b.b.Y.Y.,X,X:X:X:X:X:X:X:X:X-X=XI.Y.Y.Q.Q.z.x.x.h.h.i.h.h.c.c.c.c.c.c.v.D.D.D.D.D.D.D.D.D././././.oXoX(.[.}.|.+X@X$X$X$X+X|.{.{..X[.^.^.^.^._._._._._._.[. X}.}. X XaXpXpXpXpXpXpXpXpXpXpXsXsXsXsXuXuXuXyXyX3X3XwX0X0X6X8X8X8X8X7X7X7X7X7X7X8X8X8X8X8X8XkXkXkX7X7XkXlXlX7X7X7X7X7X7X7X7X7X7X7X7X7X7X7X7X7X7X7X5X7X7X7X5X7X5X5X7X7X5X5X5X5X5X7X5X7X7X8X8XkXlXlXlXcXnXcXcXcXnXMXMXMXMXMXnXnXnXnXnXnXnXnXnXnXnXnXcXzXzXlXlXlX8X8XqXwX0X>X>X2X2X2X1X1XrXrXtXtXtXtXpXpX'.pXFXFXpX}.}.+X#X#XCXSXDXDXDXDXDXDXDXSXCXCX#X#X#X#X#X#X#X#X+X}._.S.A.C.C.A.A.S.S.~.~.~.~.~.~.~.~.~.~.).`.W.1X<X;X;X-X-X-X-X=X=X=X=X=XI.;X<X1X`.'. XpXXXXX!.h.8.-.*.+.{ ] ] T F n n m m u u u u i u u i C C Z Y E } o.4.8.s.k.M.N.B.B.B.G.G.B.B.V.N.N.l.l.g.g.i.,.-.-.;.$.' ' U z 5 5 - - : - : : : - - - - - - - - - 5 5 7 z ~ ~ ! z q 7 7 5 8 j U ' ' $.' ' U U B k 7 7 7 7 7 7 7 7 7 7 7 7 7 7 7 7 6 6 6 ",
"v j v v v v v v v v v v j v j j v v j j j j v j l b l l l l l j j j j j j j j j j 1 1 1 1 1 1 1 8 8 8 = = & & > t t t & + + + & & r r u m n H ] X.+.5.t.!.XXVXAXAXVXXX!.m.n.j.j.z.b.b.Y.,X=X,X:X:X:X:X:X:X:X-X=XI.Y.Y.Y.Q.x.x.h.h.h.i.h.p.c.c.c.c.c.c.c.D.D.D.D.D.D.D.D.D./././././.oX(.[.[.|.+X+X+X$X$X+X+X|.{.[.^.^.^.^.^.^._._._._._._.[. X X}. X XpXpXpXpXpXpXpXpXpXpXsXsXsXsXuXuXuXyXyX3X3X0X0XqX8X8X8X7X7X7X7X7X7X7X7X7X7X8X8X8X8XkXkXkX8X7X7XkXlXlX7X7X7X7X7X7X7X7X7X7X7X7X7X7X7X5X5X5X5X7X7X7X7X5X5X>X>X5X5X:X:X:X-X:X:X:X:X:X:X5X5X7X7XlXMXIXcXlXlXzXcXcXnXnXMXMXMXMXnXnXnXnXnXnXnXnXnXcXcXcXcXzXlXlXqXlXqX0X6X>X2X2X2X<X1X1XrXrXtXtXtXtXpX'.pXdXFXpX X}.}..X@X#XCXSXDXDXDXDXDXDXDXSXCXCX#X#X#X#X#X#X#X@X+X[.).S.C.C.C.A.A.S.~.~.~.~.~.~.~.~.~.~.~.).`.1X<X<X;X;X-X-X=X=X=X=X=XI.;X;X<XE.W.`.'.pX XXX!.m.q.-.*.+.X.{ ] T Y n n Z m u u u u i u u i C C Z Y E } o.4.8.s.z.z.N.V.B.B.B.G.G.B.B.B.N.l.l.l.d.g.>.-.-.;.$.$.' U 8 3 5 5 : : - : : : : : : : : - - - - 5 5 k k ~ ~ ~ z q 7 5 5 7 k U ' ' $.' ' ' U B k 7 7 7 7 7 7 7 7 7 7 7 7 7 7 7 6 6 6 6 ",
"v j v v j v v j j v v v v j v v v v v j j j j j l j l l l l l j j j j j j j j 1 j 1 1 1 1 1 1 1 8 8 8 * > & & & t t & + + + & & r r u u n F ] { +.*.w.m.oXfXAXCXVXfXoXm.m.j.j.j.b.n.Y.Y.,X,X:X:X:X:X:X:X:X:X-X=XY.Y.Y.Z.x.x.x.h.h.i.p.h.h.c.c.c.c.c.c.c.D.D.D.D.D.D.S.S./././././.^.oX[.[.}.+X+X@X$X+X+X+X|.|.{.[.(.[._.^.^.^._._._._._.[. X X X X X XpXpXpXpXpXpXpXpXpXsXsXsXsXuXuXyXyX3X3X3X0X0X8X8X8X8X7X7X7X7X7X7X7X7X7X7X7X8X8X8X8XkXlXlX8X7X8XlXkX8X7X7X5X7X7X5X5X5X5X5X5X5X5X5X5X:X:X:X:X5X5X5X5X5X>X>X>X6X6X>X>X:X-X-X-X=X=XI.=X=X-X:X:X6XnXNXzX8X8X8XlXlXzXcXcXnXMXMXnXnXnXnXMXnXnXnXnXnXcXcXcXcXcXzXzXlXqX8X6X6X>X>X2X2X<X1X1XrXrXrXtXtXtXtXpXpXpXpX X X}.}..X+X#XCXSXDXDXDXDXDXDXSXCXCX#X#X#X#X@X@X#X@X@X|.[.~.A.C.C.C.A.S.S.~.~.~.~.~.~.~.~.~.~.).`.1X1X<X;X;X-X-X=X=X=X=X=XI.I.U.;X<X1X`.'.'. XXX].m.g.8.-.*.X.{ ] T F n m n m u C ( E u u u C C C Z Y E [ o.2.5.0.f.z.M.B.B.B.B.G.G.B.B.V.N.M.l.k.d.a.>.-.-.;.;.$.' U k k ~ q - : - : : : : : : : : : - - - - 5 5 k z ~ ! z q 7 5 5 k k U ' ' $.' ' ' U B k 7 7 7 7 7 7 7 7 7 7 7 7 7 7 7 7 7 7 7 ",
"v j v v j j j v j v v v v v v v v v j j j j v v l j l l l l j j j j f f j j 1 1 j 1 1 1 1 1 1 1 8 8 * * * = = & & + + + + + & & r u u m n T { o.+.q.v.!.XXAXCXAXfXXX!.m.j.j.j.j.b.b.Y.Y.,X,X:X:X:X:X:X:X:X-X=XI.Y.Y.Z.z.x.x.x.h.i.i.i.h.c.c.c.c.c.c.c.c.D.D.D.D.D.D.S.S././././.^.oX[.[.}.|.+X@X#X+X+X+X+X|.{.(.(.(.^.^.^.^._._._._._._.'. X X X X XpXpXpXpXpXpXpXpXpXsXsXsXsXuXuXyXyX3X3XwX0X0X8X8X8X8X8X7X7X7X7X7X7X7X7X7X7X7X7X8XkXkXkXlX8X7X7X8X8X7X7X5X5X5X5X7X5X:X:X:X:X:X-X-X-X-X-X-X-X-X-X:X:X:X:X:X:X:X>X>X>X>X2X2X2X>X>X>X-X=X=XI.I.I.-X6X8X5X5X5X8X8X8X8X8XlXzXcXcXnXMXnXnXnXnXnXnXnXnXnXnXcXcXcXcXzXzXlX8X8X6X6X>X>X2X<X<X1X1X1XrXrXtXtXpXpXtXpXpX X X X}.}..X@X#XCXSXDXDXDXDXDXDXSXCXCX#X#X#X@X@X@X@X@X@X}._.S.A.C.C.C.A.S.S.~.~.~.~.~.~.~.~.~.).`.W.1X<X<X;X;X=X=X=X=XI.I.I.I.;X;X<X1X`.'.'. XXX].m.h.q.-.*.+.X.{ ] T [ Y m m Z y.9Xn.1.C u i C C Z Y E [ } 2.5.0.f.z.M.N.B.B.B.G.G.B.B.B.B.N.l.k.d.a.>.,.-.-.;.$.' U j k / q 5 : : : : : : : : : : : : : - - 5 5 k ~ ~ ! q q 7 5 5 k k P ' ' $.$.' ' U U k k 7 7 7 7 7 7 7 7 7 7 7 6 7 7 7 7 7 7 ",
"j j v v v j j j v v v v v j v v v j j j v v j j l j b l l j j j j j j f j f 1 1 j 1 1 1 1 1 1 8 8 , * & & & + + + + + + & & & r u u m n F ] X.+.4.t.!.oXVXAXAXVXfX].m.x.j.s.j.n.n.Y.Y.,X,X:X:X:X:X5X:X:X:X=XI.Y.Y.b.z.x.x.x.h.h.i.i.p.c.c.c.c.c.c.D.D.D.D.D.D.D.D.S././././././._.(.[.}.}.+X@X@X@X+X+X+X|.{.{.(.(.^.^.^.^._._._._._._._.'.'. X X X XpXpXpXpXpXpXpXpXsXsXsXsXuXuXyXyX3X3XwX0X0X8X8X8X8X8X8X8X7X7X7X7X7X8X8X7X7X8X8X8X8X8X8X8X7X7X7X5X5X5X5X5X:X:X:X>X:X-X=X=XI.I.I.L.L.L.L.L.L.H.L.L.L.I.I.I.I.=X=X=X-X-X>X>X2X0X0X0X0X0X2X>X-X=XI.I.I.=X-X:X5X7X7X7X7X7X7X8XlXcXnXnXnXnXnXMXnXnXnXnXnXnXcXcXcXcXzXzXlXlXqX8X6X>X>X2X2X<X<X1X1XrXrXtXpXpXpXpXaXpX X}.}.[.}.@X#X#XCXCXSXDXDXDXDXDXCXCXCX#X#X@X@X@X@X@X@X+X}._.S.A.C.C.A.A.S.~.~.~.~.~.~.~.~.~.).).`.1X1X<X;X;X;X;X;X;X=X=XI.=XI.;X<X<XW.`.'.'.XXoXm.v.q.-.*.+.+.{ ] r.eXr.m u Y eXzX9X1.m u u i C Z Y E [ } 2.4.9.f.z.M.N.B.B.B.B.G.B.B.B.N.M.l.k.d.g.i.,.-.-.&.$.' U j k 5 8 - : : : : : : : % % % % % % - 8 8 5 k ~ ^ z 7 q q 5 5 5 k P ' ' $.$.' ' U U k k 7 7 5 7 7 7 7 7 7 7 8 6 6 6 7 7 7 7 ",
"j j v v v v v v v v v v j j v v v j j v v v j v l l l l l j j j j j f f f f 1 1 j 1 1 1 1 1 1 8 8 = = & & & + + + + + + t t r r u u m F ] { X.*.q.m.oXXXAXAXAXfXXX!.m.j.e.s.j.n.n.Y.,X,X,X:X:X5X5X5X:X:X,X=XY.Y.Y.b.x.x.x.h.h.h.i.i.c.c.c.c.c.c.c.D.D.D.D.D.D.D.S./././././././.[.[.[.}.|.+X@X#X+X+X+X|.|.{.(.(.(.^.^.^._.)._._._._._._.'. X X X X XpXpXpXpXpXpXpXsXsXsXsXuXyXyXyX3X3X0X0XqXqX8X8X8X7X8X8X8X8X8X8X7X7X8X8X8X8X8X8X8X8X7X7X7X7X5X5X5X:X:X:X:X-X-X=X-X=XI.L.L.L.H.H.H.H.H.J.J.J.J.F.F.F.J.J.J.J.J.J.J.J.J.L.I.=X-X>X>X2X0X3X3X3X2X;X;XL.H.L.I.=X:X5X7X7X7X7X7X7X8XlXzXcXnXMXMXMXnXnXnXnXnXnXnXmXcXcXcXzXzXlXlXqX0X0X>X2X2X<X<X<X1X1XrXtXtXtXpXpXaXpX X X[.}..X@X@X#XCXCXSXDXDXDXDXSXCXCXVX#X#X@X@X@X@X@X+X.X[.).A.C.C.C.A.S.S.~.~.~.~.~.~.~.~.~.).`.rX1X<X<X;X;X;X;X;X=XI.I.I.I.;X;X<XW.`.`.'.'.]./.m.w.:.-.*.+.X.{ n.kXeXn u Z y.n.y.3.A u C i C Z Y E [ } 2.4.8.s.k.M.N.B.B.B.B.G.B.B.B.B.N.M.k.k.g.g.,.-.-.&.$.' ' P k 8 % - - : : : : : % : % % % % % - - 8 5 k ~ B k 7 5 5 5 7 7 k P ' ' $.$.' ' U U B k 7 7 7 7 7 5 7 7 7 6 k ~ ~ k 6 7 7 k ",
"v v H v v v v j v v v j j v j v v j v v v v j j l l l b l l j j j j j j f j 1 1 j 1 1 1 1 1 1 8 8 = = = & & + + + + + & t t r u u m n H { X.+.7.t.!.XXVXAXAXVXXXoXm.j.e.e.j.j.n.b.Y.,X,X:X:X5X5X5X5X:X:X,XY.Y.Y.b.z.x.x.x.h.i.i.i.h.c.c.c.c.c.c.c.D.D.D.D.D.D.D.S././././.^./.oX(.[.}.|.+X@X+X+X+X+X+X|.{.{.(.(.^.^.^._.).)._._._._._.'.'. X X X X XpXpXpXpXpXpXsXsXsXsXuXyXyX3X3XwXwXqXqXqX8X8X7X7X8X8X8XqX8X8X8X8X8X8X8X8X8X8X8X8X7X5X5X5X5X5X:X:X:X-X=X=X=XI.L.L.L.H.H.H.G.G.J.J.J.F.F.F.F.N.N.z.z.z.z.z.z.z.z.z.z.z.F.F.F.F.Y.I.=X-X>X2X3X3X3X2X;XI.L.H.L.I.=X:X5X5X7X7X7X7X7X8XlXcXnXMXMXMXMXMXnXnXnXnXnXnXcXcXcXzXzXzXlXqX0X6X2X2X<X<X<X1X1X1XrXtXtX'.pXpXpX X X X}.}..X@X@X#XCXCXDXDXDXDXDXSXCXCXCX#X#X#X#X@X@X@X+X.X[.S.A.C.C.A.A.S.S.~.~.~.~.~.~.^.^.).`.rXrX1X<X;X;X;X;XI.;XI.I.I.;X;X;X<XW.W.rX'.'.].].m.g.8.-.*.+.X.} y.9Xy.n m u m n r.9Xy.C C C C Z Y E E } 2.4.8.s.k.z.N.B.G.G.B.G.G.B.B.N.N.M.l.l.g.g.,.-.-.&.@.$.' U k 8 5 - : : : : % % % % % % % % % % 8 8 5 z k j D ' l 8 5 5 5 k P ' ' $.$.' ' U U k k 7 7 7 7 7 7 7 7 7 8 B ^ ^ B 6 7 k k ",
"H v v H v H H v v H j j j j j j v j v v v v j j j j l l l l j j l j j f f j 1 1 j j 1 1 < < 1 8 * * * & & & + + + + & & t r r u u m F ] { o.4.w.!.oXVXAXAXVXfXXX!.m.e.e.e.j.n.n.Y.,X,X,X:X:X5X5X5X5X:X-X=XY.Y.b.b.x.x.x.h.h.i.i.h.h.c.c.c.c.c.c.D.D.D.D.D.D.D.S.S./.~./.^.^.^.oX(.}.|.+X+X+X+X+X+X+X|.{.{.(.(.(.^.^.^.~.).).)._._._._. X X X X X XpXpXpXpXpXpXsXsXsXsXuXyXyX3X3XwX0XqXqXqX8X8X8X7X7X8X8X8X8X8X8X8X8X8X8XkX8X8X8X8X7X7X5X5X:X:X:X-X-X=XI.L.L.L.L.H.G.G.G.J.J.J.F.F.F.N.N.N.z.z.z.z.z.z.z.z.z.z.j.j.j.j.j.j.z.z.z.z.z.F.F.F.J.I.;X2X3X3X3X2X;XL.H.J.I.-X:X5X7X7X7X7X7X7X8XzXcXMXMXMXMXMXnXnXnXnXnXnXcXcXcXcXzXzXlXqX0X0X2X2X<X<X<X<X1X1XrXtX'.'.pXpXpX X X X[.}..X#XVX#XCXCXDXDXDXDXDXCXCXCXVX#X@X@X@X@X@X@X+X}._.S.C.C.C.A.A.S.~.~.~.~.~.^.^.^._.'.tXrX1X1X<X;X;XU.I.I.I.I.I.;X;X;X<X<XW.`.`.'.].].m.h.w.-.-.+.X.{ o.2.[ n m C m u r.wXy.u i C C Z Y Y E [ o.2.5.0.f.z.N.V.B.B.B.G.G.B.B.B.N.M.l.k.g.g.q.,.-.&.$.$.' U j 8 5 - % % : % : % % % % % % % % % 8 8 7 z j { n.b.5.b 5 5 8 k P ' ' $.$.$.' ' P B k 7 7 7 7 5 7 7 7 q 8 6 ~ ~ B 6 7 7 7 ",
"H v v H H H H v j j v j v v j j v v j v j j j j v j v v j j j l l f f f f j j j j j 1 1 1 1 8 8 * * * & & & & + + + & & r r u u m n T ] o.+.r.m.!.XXAXAXAXfXXX!.m.n.e.e.j.j.n.b.Y.,X,X,X:X5X5X5X5X:X:X-XY.Y.b.b.x.x.x.x.h.i.i.i.h.h.c.c.c.c.c.c.D.D.D.D.D.D.S.S.S.S././.^._._.[.[.}.|.+X@X@X+X+X+X|.|.{.(.(.(.^.^.^.).).).)._._._._.'. X X X X X X XpXpXtXpXsXsXsXsXuXyXyX3X3XwX0XqXqXqX8X8X7X7X7X7X7X8X8X8X8X8X8X8X8X8X8X8X7X7X5X7X5X:X:X-X-X=X=XI.L.H.H.H.G.G.J.J.J.J.N.N.N.N.N.N.z.N.z.z.z.z.z.z.z.z.j.j.s.s.s.s.s.s.0.0.s.e.s.s.s.j.z.z.z.F.Y.;X>X0X3X3X2X;XJ.H.L.I.-X:X5X7X8X7X7X7X7XqXvXMXNXNXMXMXMXMXnXnXnXnXnXcXcXcXcXzXzXqX0X0X>X>X2X<X<X<X1X1XrXrX'.pXpXpX X X X[.[..XVXVX#X#XCXSXDXDXDXDXSXZXCXCXVX#X#X@X@X@X@X+X.X[.~.A.C.C.C.A.S.S.~.~.~.~.^.^.^.~.'.tXrXrX1X<X<X;XU.U.I.I.I.I.;X;X;X;X<X1X1X`.'.].].v.v.q.:.-.+.X.{ ] F Y n m C C u Z 3.A u C C Z Z Y Y E [ } 2.5.8.s.z.M.N.B.B.B.G.G.B.B.B.N.M.l.k.f.g.g.,.-.&.$.$.' P j g 5 8 % % % % % % % % % % % % % % - 8 7 z P 6.=X:Xn.L 8 5 8 j P ' ' $.$.$.' ' U N k 7 7 5 5 5 7 7 7 7 8 8 6 8 8 8 6 7 6 ",
"v H H H H H v v v v v j v v j j v j v v j j j j v j j j j j j f l f f f f j j j f f < 1 1 1 , , * * & & & & & + + + & & r r u u m F T { +.4.w.!.oXVXAXAXVXXXoXm.x.e.e.e.j.n.n.Y.,X,X,X:X:X5X5X5X5X:X-X,XY.Y.b.z.x.x.x.x.h.i.i.i.h.c.c.c.c.c.c.c.D.D.D.D.D.D.D.S.S.S.~./._._.[.[.}.|.+X@X@X@X+X+X+X|.{.{.(.(.^.^.^.^.).).).)._._._.'.'. X X X X X X XpXpXpXsXsXsXsXuXuXyX3X3X0XqXqXqX8X8X8X7X7X7X7X7X7X7X7X7X8X8X8X8X8X7X7X7X7X7X5X:X:X-X-X=XI.I.L.L.H.G.G.J.J.F.F.N.F.N.N.N.z.z.z.z.z.z.z.z.z.z.j.j.j.s.s.0.0.0.0.0.0.0.0.0.6.5.5.6.0.0.0.s.s.j.z.b.F.I.;X2X3X3X2X;XL.H.L.I.-X5X7X8X8X6X5X6X0XvXMXNXMXMXMXMXMXnXnXnXMXnXnXcXcXcXzXzXqX0X0X2X>X2X<X<X<X1X1XrXrXtXpXpXpX X X X[.}.VXVX#X#XVXCXSXDXDXDXDXSXZXCXVXVX#X@X@X@X+X+X+X|.[.~.A.C.C.A.A.S.~.~.~.~.^.^.^.^._.tXrXrX1X1X<X<XU.U.I.I.I.I.;X;X;X;X<X<X1X`.`.].].v.v.w.:.-.*.+.o.{ ] T n m m m u m Z u C C C C Z Y Y E [ } 2.4.8.s.k.z.N.B.B.B.B.G.B.B.B.N.M.l.l.k.d.a.,.-.&.@.$.' P j g 5 8 % % % % % % % % % % % % % % - 8 5 k j | n.Y.q.l 8 7 6 j P ' ' $.$.$.' ' U P k k 7 7 5 7 7 7 7 7 6 7 7 8 6 6 7 6 6 ",
"H H v v v v v v v v v H v v v j v v v v v v v j j j j j j j j j j f f f f f j j 1 1 < < 1 < , * * = & & & + + + + & & r r u u m n H ] X.*.r.m.oXfXAXAXAXfXXX!.m.e.e.e.e.j.n.b.Y.,X,X,X:X5X5X5X5X5X:X,XY.b.4X3X4Xz.g.h.h.i.i.i.h.h.c.c.c.c.c.c.D.D.D.D.D.D.D./.S.~.~.~./._.[.[.}.|.+X@X@X@X+X+X+X|.{.(.(.(.(.^.^._.).).).).)._._._.'.'. X X X X X X'.pXpXsXsXsXuXuXyXyXyX3XwXqXqXqXqX8X8X8X7X7X7X7X8X7X7X7X8X8X8X8X8X8X7X7X7X6X6X:X-X=X=XI.I.L.H.H.H.G.G.V.N.N.N.N.N.F.N.N.z.z.z.z.z.z.z.z.z.j.j.f.s.s.s.0.0.0.0.8.5.5.5.4.4.4.2.4.4.4.5.5.6.6.0.e.s.s.z.b.Y.I.>X3X3X2XU.J.J.L.=X:X7X7X8X6X6X6X6XqXvXcXMXMXMXMXMXnXnXMXMXMXbXcXcXcXcXzXlXqX0X2X>X<X<X<X<X<X1XrXtXtXpXpX X X X X}..X@X@X#X#XCXCXSXDXDXDXDXZXZXCXVX#X#X@X@X+X+X+X+X}._.S.A.C.C.A.S.S.~.~.^.^._.}..X}.'.rXrXyX1X1X<XU.U.U.I.I.I.I.;X;X;X<X<X1XW.`.'.].Q.v.g.9.-.*.+.o.{ ] T Y Z m C m m m m C C C C Z Z Y E [ } +.4.5.0.f.l.M.B.B.B.G.G.B.B.V.N.N.M.l.k.d.a.>.-.-.@.$.' U j g 8 8 3 % % % % % % % % % % % % % - 8 5 7 k P  .%.U k 8 7 7 j P ' ' $.$.$.' ' U P k k 7 7 7 7 7 7 7 6 6 k k 7 k k 7 6 7 ",
"H H v v v H v v v v H v H v v j j v v v v j v v j j j j j f f f f f f f f f f f f < < < < , , * = = & & & + + & & & & r r u u n F T { +.4.t.!.XXVXAXAXVXXX!.m.h.e.e.e.e.n.n.b.Y.,X,X:X5X5X5X5X5X:X:X,Xb.Y.gXIXvXY.h.i.i.i.i.i.h.h.c.c.c.c.c.D.D.D.D.D.S.D./.).).~.~.~._._.[.[.|.|.+X@X#X@X+X+X+X|.{.(.(.(.^.^.^.).).).).).)._._._.'.'. X X X X X XpXpXsXsXsXuXuXyXyX3X3XwXwXvXzXlXqX8X7X8X7X7X7X8X8X8X8X8X8X8X8X8X8X6X6X5X5X>X:X-X=XI.L.L.H.H.G.G.J.J.V.N.N.N.N.N.N.N.N.z.z.z.z.z.z.z.z.z.z.z.z.z.z.z.j.j.j.s.0.0.0.5.4.2.2.o.o.+.2.2.2.4.4.4.4.6.0.0.e.s.j.z.F.I.<X3X3X<XI.H.H.I.:X5X6X8X8X6X6X6X8XzXcXnXMXMXMXMXnXMXMXMXMXMXnXcXcXcXzXlXqX0X>X>X<X<X<X<X1X1XrXtXpXpXpX X X X X}.}..X+X@X#XCXCXDXDXDXDXDXZXCXVXVX#X+X@X@X@X@X+X|.[.~.A.C.C.A.A.S.S.~.^.^.[.VXVX.X'.tXuXyX1X1X<XE.U.U.U.U.U.;X;XU.;X<X<X1XW.`.'.].Q.v.x.q.:.-.+.X.{ ] T T Y m m C C m C C C C C Z Z Y E [ } o.4.5.0.f.k.M.B.B.G.G.G.B.B.V.B.N.M.l.k.d.a.,.-.-.&.$.' U P g 8 8 8 % % % % % % % % % % % % % 8 8 8 7 k k B z k 7 7 7 6 j P ' ' $.$.$.$.' ' P j k 7 7 7 7 7 7 7 7 7 7 7 7 k 7 7 7 7 ",
"H v v v v v v v v v v v j j v j j v j j j j v v j j j j j j j j j f f f f f f f f f < < < , , * & & & & + + + & + & r r u u m n Y ] o.+.w.m.oXfXAXAXVXXXoX!.m.e.e.e.e.j.n.n.Y.,X,X,X:X5X5X5X5X:X,X=XY.b.Y.hXIXbXY.h.h.i.i.h.h.h.c.c.c.c.c.D.D.D.D.D.D.S.S.S._.)././.^._._.[.}.|.+X+X+X#X+X+X+X|.|.{.(.(.(.^._._.).).).).).)._._.'.'.'.'.'.'.'.'.tXpXpXpXsXuXuXyXyX3X3X3XwXvXnXcXqX8X8X8X8X8X7X7X8X8X8X8X8X8X8X8X8X8X6X5X5X>X-X=XI.I.L.H.H.G.G.J.J.V.N.N.N.N.N.N.N.N.N.N.z.z.z.z.z.N.N.N.F.F.F.F.J.J.J.F.F.F.F.b.j.j.e.6.4.2.o.} } } o.} o.o.+.2.2.4.4.6.0.0.s.j.z.F.U.<X3X3X;XJ.J.I.-X5X7X8X8X6X7X6XqXzXcXnXMXMXMXnXMXMXMXMXMXMXnXcXcXcXzXlX0X0X2X>X;X<X<X<X<X1XrXtXpXpXpX X'.'. X}.}..X@X@XVXCXSXDXDXDXDXZXZXCXVXVX@X@X#X+X+X+X+X}._.~.A.C.C.A.A.S.~.~.^._.[.[._.'.tXuXuXrX1X<XE.U.U.U.U.U.U.;X;X;X<X<X<XW.W.).].Q.v.x.q.-.*.+.X.{ ] T Y Y n m m m m C C C C C Z Z Y E E } o.4.5.8.s.k.l.B.B.B.B.B.B.B.B.B.N.M.l.k.f.a.9.-.-.&.$.` U P k 8 8 3 % % % % % % % % % % % % % 8 8 8 6 k k k B B 7 7 7 6 k P ' $.$.@.$.$.' U P k k 7 7 7 7 7 7 7 7 7 7 7 7 7 7 7 7 7 ",
"H H v v v H v v v v H v v v j v v v j j v j v v j j j j j j j j f f f f f f f f f f < < , , * * & & & & + + & & & & r r u m n F T } o.4.t.!.XXVXAXVXfXXX!.m.y.e.0.e.e.n.n.n.,X6X5X:X5X5X7X7X5X:X,XY.Y.b.z.Q.uX4Xj.h.h.i.i.p.p.h.h.c.c.c.c.D.D.D.D.D.S.S.S.S.~.)././.^._.[.[.|.+X+X+X$X+X+X+X|.|.{.[.(.(.^.^.).~.~.~.~.).)._._._.'.'.'.'.'.'.'.tXpXpXpXpXuXuXyXyXyX3XwXwXqXlXzXlX8X8X8X8X8X8X8X8X8X8X8X8X8X8X8X8X6X6X5X>X:X-X=XI.L.H.H.G.G.G.J.V.N.N.N.N.N.N.N.N.N.N.N.N.N.F.J.J.L.I.I.U.;X<X<X<X<X;X;X;XI.I.Y.F.b.j.e.6.2.o.} [ ] ] ] ] ] } } } } o.o.2.4.5.0.0.0.s.z.F.U.<X2X;XI.J.L.-X:X5X6X8X8X7X6XqXqXvXvXnXnXMXMXMXMXMXMXNXMXnXcXcXzXzXqX0X0X>X2X<X<X<X<X1X1XrXtXpXpXpX X'.'. X}..X+X@X#XCXCXSXDXDXDXDXZXZXVXVXVX@X@X+X+X+X+X+X[.^.S.C.C.A.A.S.S.~.~.^.^.^.^._.tXtXuXrX1X1XE.U.U.U.U.U.U.U.;X;X;X<X<XW.W.).`.Q.m.c.w.:.*.+.X.{ ] ] T Y n m m m u m C C C C Z Z Y E E } 2.2.5.8.s.f.l.N.B.B.G.G.G.B.B.B.N.M.l.k.d.d.a.-.-.&.@.` ' P j 8 8 3 3 % % % % % % % % % % % % 8 8 8 6 k z ~ ~ ! z 7 7 6 k P ' $.$.$.$.$.' ' U k k 7 7 7 7 7 7 7 7 7 7 7 7 7 7 7 7 7 ",
"H H H H H H v v v v v H H v j j v v v v j j v v j j j j j j f f f f f f f f f f f f < < , , * * & & & & + & & & & r r u u m F T ] o.+.q.m.oXXXAXAXVXXXoX!.m.e.e.0.e.e.n.n.n.,X5X5X:X5X5X8X8X5X,X,XY.b.b.j.j.x.g.h.h.h.h.i.i.p.h.c.c.c.c.c.D.D.D.D.D.S.S.S.S.~.~.~.^._.[.[.}.|.+X+X+X$X+X+X+X|.{.{.(.[.(.^.~.~.)._.'._.).)._._.'.'.'.'.'.'.'.tXpXpXpXtXtXuXyXyXyX3XwXgXwXqXqXqX8X8X8X8X8X8X8X8X8X8X8X8X8X8X8X6X6X6X5X>X:X-X=XI.L.H.G.G.G.J.J.N.N.V.N.N.N.N.N.N.N.N.J.J.H.L.I.U.<X<X3X3X3XyX3X3X<X;X;XY.Y.b.b.n.e.e.0.4.2.} [ ] T Y T Y T T T ] ] ] } } o.o.+.4.5.5.0.0.s.z.F.U.<X<XU.J.J.=X:X5X7X8X7X8X6X8XqXzXvXcXnXMXMXMXMXMXNXNXMXnXcXcXzXzXqX0X0X2X2X<X<X<X<X1XrXtXtXpXpX X'.'.'. X}..X+X@X#XCXCXSXDXDXDXDXZXZXVXVX@X@X@X+X+X@X+X|.[.~.A.C.C.A.A.S.~.~.^.^.^.^._.'.tXuXuXrX1XE.E.U.U.U.U.U.;X;X;X;X<X<XW.W.W.`.Q.D.v.g.8.-.*.+.X.] ] T Y n C C C m C m C C C Z Z Y T E } 2.2.5.8.0.f.l.N.B.B.H.I.H.B.B.B.N.M.M.l.f.d.a.,.-.&.@.` ' P j g 8 8 3 % % % % % % % % % % % % 8 8 8 g k k ~ ~ ! ! z 7 k k P ' ' $.$.@.$.' ' U B k k 7 7 7 7 7 7 7 7 7 7 7 7 7 7 7 7 ",
"H H H H H H v v v v H H H j j j v v v v v v v j j j j j j j j f f f f f f f f f f f < , , , * * & & & & & & & & & r u u m n Y ] { o.4.t.!.oXVXAXVXfXoX!.m.y.e.e.e.e.n.n.n.eX,X,X:X:X5X5X7X7X:X,XY.Y.b.b.z.x.h.g.h.i.i.h.i.h.h.c.c.c.c.c.D.D.D.D.D.S.S.~.~.~.~.~.^.^._.[.}.|.+X+X+X$X+X+X+X|.|.{.(.(.(.^._. XpX XAXFXpX).)._._.'.'.'.'.'.'.tXtXpXpXtXtXyXyXyX3X3X3XwXwXwXqXqX8X8X8X8X8X8X8X8X8X8X8X8X8X8X8X6X6X6X>X:X-X=XI.I.L.H.G.G.G.J.J.N.N.N.V.N.N.N.N.N.V.J.H.I.;X<X3X3XyXyXyX3X3X<X;XY.Y.b.e.e.6.4.2.o.o.} [ ] T T Y F F F n n Z F F F Y T T T ] [ } } o.+.4.4.6.0.0.s.b.F.U.;XU.J.J.I.:X5X7X7X7X7X8X8XqXqXzXcXnXMXMXMXMXMXNXNXMXnXcXcXzXlXqX0X0X2X2X;X<X<X<X1XrXtXtXpXpX'.'.'.'.}.}..X@X#X#XCXCXDXDXDXDXZXZXVXVXVX@X@X@X+X@X@X+X}._.S.A.C.C.A.S.S.~.^.^.^.^._.'.tXuXuXrXrXW.E.E.U.U.U.U.;X;X;X;X<X<XE.W.W.R.Q.D.v.h.q.-.*.+.X.{ ] T Y Z n m C C i C C C C Z Z Y E E } 2.2.4.8.0.s.k.M.B.B.H.I.H.B.B.B.B.N.M.l.k.d.a.,.-.&.@.$.' P j g 8 8 3 % % % % % % % % % % 8 3 8 8 8 k k ~ ~ ~ ! ! z 7 7 k P ' ' $.$.@.$.' ' U B k k 7 7 7 7 7 7 7 7 7 7 7 7 7 7 7 7 ",
"H H H H H v H v v v v v H H j v v v v v v v v j v j j j j j f f f f f f f f f f f < < , , , * & & & & & & & & & r r u u m F T { } +.q.m.!.XXAXAXVXXXoX!.t.r.6.e.e.e.n.n.n.,X,X:X:X5X7X7X5X:X,X,XY.b.b.z.x.x.x.x.h.h.i.i.h.x.v.v.c.c.c.D.D.D.D.D.S.S.S.S.~.~.~.~.^._.[.[.{.|.+X+X+X#X+X+X+X|.{.{.(.(.(.^.[.FXFXAXAXFXpX_.).)._.'.'.'.'.'.'.tXpXpXtXtXrXyXyXyX3X3XwXwXwXqXqXqX8X8X8X8X8X8XlXzXqX8X8X8X8X8X8X6X6X>X:X-X=XI.L.L.H.H.G.J.J.J.J.V.V.F.N.V.J.J.J.J.L.U.<X3XyXgXgXgXyX3X;XY.b.n.e.6.2.o.[ ] T F F F F n n n m x m x m m m m m n n n n F F T T T ] ] } o.o.+.4.6.6.0.s.j.F.J.;X;XL.H.L.-X:X7X7X7X8X6X6X6X8XlXcXnXMXMXnXMXNXIXNXMXnXcXxXzXlXqX0X0X2X>X;X;X<X<X1XrXtXpXpX X'.'.'.[.[.}.+X+X#XCXCXSXDXGXDXZXZXCXVXVX@X@X@X+X@X@X+X.X[.~.A.C.C.C.A.S.~.~.^.^.^._.'.tXuXuXrXrXW.E.E.U.U.U.U.;X;X;X;X<X<X<XW.W.R.Q.Q.v.x.q.:.*.+.X.{ ] T Y Z Z C m m i C C C C Z Z Y Y E [ o.2.4.5.9.f.k.M.M.B.B.H.G.B.B.B.B.N.M.l.k.d.a.q.-.&.@.$.' U P g 8 8 8 3 % % % % % % % % % 8 % % 8 8 k k ~ ~ ~ ! z 7 7 6 k P ' ' $.@.@.$.' ' U U k k 7 7 7 7 7 7 7 7 7 7 7 7 7 7 7 7 ",
"H H H v H H H H v v v H H H H j v v v v v v v j v j j j j j f f f f f f f f f f f < < , , * * & & & & + + & & & r r u u m F ] { o.4.t.!.oXVXAXAXfXoX!.OXt.6.6.e.r.y.n.n.eX,X,X:X5X5X6X7X5X:X,XY.Y.b.b.z.x.h.h.h.h.h.i.i.h.v.Q.Q.c.c.c.D.D.D.D.D.S.S.S.~.~.~.~.^.^._.[.}.|.+X+X+X$X+X+X+X|.|.{.(.(.(.(.^.}.AXFXaX X'.'.).).)._.'.'.'.'.'.tXtXpXtXtXrXrXyXyX3X3XwXwXwXqXqXqX8X8X8X8X8X8XlXcXMXcXlX8X8X8X6X6X6X>X:X-XI.L.L.H.H.G.G.J.J.J.V.J.V.V.V.J.G.H.L.I.;X2X3XgXgXgX3X<XU.Y.n.e.6.2.} ] T F n n m m m m u u u u u u u u u u u u u u x x x x n n n F F Y T ] ] } o.o.+.4.6.0.0.s.z.F.L.I.L.H.L.=X>X7X7X8X8X6X5X5X8XlXcXnXMXMXMXMXNXIXIXMXmXcXzXzXlXqX0X6X>X>X;X;X<X1X1XrXtXpXpX'.'.'._.[.}..X.X+X#XCXCXSXDXGXDXZXZXVXVXVX@X@X+X+X+X@X+X}._.S.C.C.C.A.S.S.~.~.^.^._._.'.uXuXuXrXW.W.T.T.U.U.U.;X;X;X;X<X<X<XE.W.R.Q.Q.v.x.q.:.-.*.X.{ ] T F Z n Z C C C C C C C Z Z Y Y E [ o.2.4.5.0.s.k.l.M.B.B.B.B.B.B.B.B.N.M.l.l.d.a.>.-.-.&.$.' U P j 8 8 8 3 % % % % % % % % - 3 % - 8 8 k k B ~ ! ! ! k k k k P ' ' $.@.@.$.' ' U P k k 7 7 7 5 7 7 7 7 7 7 7 7 7 7 7 7 ",
"H H H H H v v H v v H H H H H j v v v v v v v v v v v j j j j j f f f f f f f f f < < , , * * & & & & & & & & r r r u m n Y ] X.+.q.t.!.XXVXAXVXXXoX!.t.r.6.6.e.e.n.n.Y.,X,X:X5X5X7X6X5X5X,X=XY.Y.b.z.x.x.x.h.h.h.h.h.i.h.v.D.D.c.c.c.D.D.D.D.S.S.S.S.~.~.~.~.^._.[.[.}.+X+X+X+X+X+X+X+X|.{.{.(.(.[.[.^._.}. X_.).).).).)._.'.'.'.'.'.'.tXpXtXtXrXrXyXyX3X3X3XwXqXqXqXqX8X8X8X8X8X8X8XlXnXNXMXzX8X8X6X6X6X>X:X=XI.I.L.H.H.G.G.G.J.J.V.V.V.V.J.G.H.I.;X<X3X3XgXgX3X2XU.F.j.e.4.2.} E Y n n m m x u u u u u , * * * * * , , , , u u u u u u u u x x m m n n F Y T ] ] } } o.2.4.6.0.s.z.F.J.L.L.J.L.=X:X5X7X7X6X6X5X7X6XqXcXMXMXMXnXMXIXIXIXnXmXcXzXlXlXqX0X6X>X;X;X<X<X1XrXtXtXpXtX'.'._.[.[.}..X+X@X#XCXSXDXDXDXZXZXCXVXVX@X@X+X+X+X@X+X|.[.~.A.C.C.C.A.S.~.~.^.^.^._.'.tXuXuXtX`.W.T.T.U.U.U.U.;X;X<X<X<X<XE.W.R.R.Q.v.x.q.:.-.*.O.{ ] ] Y Z Z Z C C C C C C C Z Z Y E E } o.2.4.5.9.s.l.N.N.N.B.B.B.B.B.B.B.N.M.l.l.k.d.a.-.-.&.$.` L l j 8 8 8 3 3 % % % % % % % % % 3 3 8 8 k k ~ ~ ! ! ! k k k k P ' $.$.@.@.$.' ' U U k k 7 7 7 7 7 7 7 7 7 7 7 7 7 7 7 7 ",
"H H H H H H v v v v H H H H H H v j v v v v v j v v j j j j j j j f f f f f f f f < < , , * * & & & & & & & & r r u u m n T { +.4.w.!.oXfXAXVXXXoX!.OXt.6.4.6.r.n.n.n.eX,X:X:X5X5X7X7X5X:X,XY.Y.b.z.z.x.h.h.h.h.h.h.i.i.h.c.c.c.c.D.D.D.D.D.D.S.S.S.~.~.~.~.^._.[.[.{.|.+X+X+X$X$X+X+X+X{.{.[.(.[.[._.~.~._._.).).).).).)._.'.'.'.'.'.tXpXtXtXrXrXrXyX3X3X3XwXqXqXqX8X8X8X8X8X8X8X8X8X8XzXcXcXlX8X8X6X>X:X-X=XI.L.L.H.H.H.G.G.G.J.J.J.B.G.G.H.I.;X<X3X3XgXgX3X;XY.b.s.4.2.} T Y n m m u u u , , * * & & & & & * * * * * * * * * * * , , u u u u u u x x n n n F T T ] [ } o.2.4.5.0.s.j.z.F.J.J.J.L.=X:X5X7X7X6X6X7X6X6XlXcXnXnXnXMXNXIXIXNXnXcXxXzXlXqXqX6X>X>X;X;X<X<X1XrXtXtXtXtX'.'._.[.[.}..X+X#XCXCXSXDXDXDXZXZXVXVXVX@X@X+X+X+X+X+X}._.S.A.C.C.A.S.S.~.~.^.^._.'.tXuXuXtXrXW.T.T.T.U.U.U.U.;X;X<X<X<X<XE.E.R.D.v.x.h.9.-.*.O.X.{ ] T Y Z Z Z m m C C C C Z Y Y E E } o.2.2.5.8.a.N.U.J.N.B.B.B.B.B.B.B.V.V.M.l.k.d.a.>.-.&.@.` ` l j g 8 8 3 3 % % % % % % % % 8 3 3 8 8 k k ~ ~ ~ ! ! k k k k P ' $.@.@.@.$.' ' U P k k 7 7 7 7 7 7 7 7 7 7 7 7 7 7 7 7 ",
"H H H H H H H H H H H H H v v H j j H v v v v v v v v v j j j j f f f f f f f f f < < , , * * & & & & & & & t r r u m n F ] o.*.7.t.!.XXVXVXVXXXoX!.t.e.6.6.e.e.n.n.Y.,X,X:X5X5X5X7X5X5X:X,XY.Y.b.z.x.h.h.h.i.i.i.i.i.h.h.h.c.c.c.D.D.D.D.D.S.S.S.S.~.~.~.^.^._.[.[.{.|.+X+X$X#X+X+X+X|.{.[.(.(.[._.^.~.).).).).).).).).)._.'.'.'.'.'.tXtXtXrXrXrXrX3X3X3XwXqXqXqX8X8X8X8X8X8X8X8X8X8X8X8XqXqX8X6X6X>X:X-X=XI.L.L.H.H.H.G.G.G.G.G.G.G.G.G.J.U.<X3XgXgX3X2X;XF.j.0.4.o.] Y Z m u u u u u * * & & & & & & & & & & & & & & & & & & & * * * * , , , , u u u x m n n F F T T ] } o.2.4.5.0.s.s.z.b.F.J.J.L.=X:X7X7X7X6X7X6X6XqXqXzXvXMXMXMXIXIXIXMXcXcXxXzXlXqX0X6X>X>X;X;X<X1XrXrXtXtXtX'.'._.[.[.}.}..X+X#XCXCXDXGXGXZXZXAXVXVX@X@X@X+X+X+X+X+X[.).A.C.C.C.A.S.S.~.~.^._.'.tXuXuXuXrXW.W.T.T.U.U.U.;X;X;X;X<X<X<XE.E.Q.Q.v.x.h.9.:.*.+.X.{ ] T F Z Z Y Z C C m m Z Z Z Y E E [ 2.2.2.5.8.9.z.;XI.N.B.B.B.B.B.B.B.J.J.M.l.k.d.a.>.:.&.@.` ` L l g 8 8 8 3 3 % % % % % % 8 8 8 8 8 8 k k ~ ~ ~ ! ! k k k j P ' $.@.;.@.@.$.' U P j k 7 7 7 7 7 7 7 7 7 7 7 7 7 7 6 6 ",
"H H H H H H H H H H H H H v v v j H H v j j j v v j v j j j j j f f f f f f f f f < < , , * * & & & & & & & r r u u m n T { +.4.w.m.oXXXVXVXXXoX!.m.t.6.4.6.e.y.n.n.eX,X,X5X5X5X7X5X5X:X,XY.Y.F.b.z.x.h.h.h.i.i.i.i.p.h.h.c.c.c.c.D.D.D.D.S.S.S.S.~.).).~.^.^.[.[.{.|.+X+X+X#X+X+X+X|.|.[.[.(.^.^._._.).).).).).).).).).).`.'.'.'.'.tXtXtXrXrXrXrX3X3X3X3X0XqXqX8X8X8X8X8X8X8X8X8X8X8X8X8X6X6X0X6X>X:X-X=XI.L.H.H.H.G.G.G.G.G.G.G.G.G.J.U.<X3X3X3X3X<XU.b.j.0.4.2.[ T n u u r * * * * & & = + + + + + + + + + + + + + + + + + = + & & & & * * * * , , u u u x x m n F H ] ] } o.+.4.5.0.0.s.j.z.F.J.J.L.-X:X5X7X7X7X6X6X6X6XqXvXbXMXnXMXIXIXIXcXcXcXzXzXlXqX6X6X>X;X;X<X<X1XrXtXtXtX'.'.'._.[.[.}..X+X@X#XCXSXDXGXDXZXAXVXVXVX@X.X+X+X+X+X+X}._.S.A.C.C.A.S.S.~.~.~._.'.tXuXuXuXrXW.W.T.T.E.U.U.;X;X;X;X<X<X<XE.E.Q.Q.v.x.h.q.:.-.*.X.{ ] T Y n n u.BX( m m Z Z Z Z Y E E } o.2.4.6.0.9.f.Y.F.N.B.B.B.B.B.B.B.N.M.l.l.k.d.a.>.=.-.@.$.` L l g 8 8 8 8 8 % % % % % % - 8 8 8 8 g k k ~ ~ ~ ~ ! k k k j P ' $.@.;.@.@.$.' U P N k 7 6 7 7 6 7 7 7 7 7 7 7 7 7 8 6 ",
"H H H H H H H H H H H H H H H v j H v v H v j v v j j j j j j j j f f j f f f f f < , , * * & & & & & & & & r u u u n F T X.+.5.t.!.XXfXVXVXXXoX!.t.e.6.4.6.r.y.n.n.eX9X6X5X5X5X7X5X5X:X,XY.F.b.z.z.x.h.g.i.i.i.i.i.h.h.c.c.c.c.D.D.D.D.D.S.S.S.~.~.).).^.^.[.[.[.{.+X+X+X$X$X+X+X+X|.{.[.(.(.^.^.^._.~.~.).).).).).).).).'.'.'.'.'.tXtXrXrXrX1X1X3X3X3X0XqXqX8X8X8X8X8X8X8X8X8X8X8X8X8X6X6X0X0X>X:X-X=XI.L.H.H.H.H.G.G.G.G.G.G.G.H.I.;X2X3X3X3X<XI.b.j.0.6.3.1.E n u u r * & & & & + + + + + + + + + + + + + + + + + + + + + + + + + + + = & & & * * * , , u u x m n F H T ] { } o.2.4.0.0.s.j.z.F.F.J.I.-X5X5X5X7X8X8X6X6X6XqXvXMXMXMXNXIXIXMXcXcXxXzXlXlXqX6X>X>X>X;X<X1X1XrXtXtXtX'.'.'.[.[.[.}..X+X#XCXZXDXGXGXZXZXAXVXVXVX.X.X+X+X+X+X.X[.).A.C.C.A.A.S.~.~._. XpXtXtXsXuXtX`.W.T.T.E.E.U.U.;X;X;X<X<X<XE.E.Q.Q.v.x.h.q.:.-.*.O.X.] T T n x u.BXQ u Z Z Z Z Z Y Y E } o.o.+.4.5.9.s.z.M.M.N.B.B.B.B.B.B.N.N.M.k.k.d.d.>.:.-.@.$.` L l g 8 8 8 8 3 % % % - - % % 8 8 8 8 g k k ~ ~ ~ ~ ! k k k j P ' $.@.;.;.@.$.' ' U N k 7 7 7 7 7 7 7 7 7 7 7 7 7 7 6 6 ",
"H H H H H H H H H H H H H H H H H v f v v H H v v j j j j j j j j j f f f f f f < < , , * * & & & & & & & r r u u x n T ] O.*.w.m.!.XXVXVXXXoX!.m.t.6.4.4.6.y.n.n.n.,XvXvX6X5X5X7X5X:X,X,XY.b.z.z.x.h.h.g.i.,.i.i.i.h.h.c.c.c.D.D.D.D.D.S.S.S.~.~.~.)._._.^.[.[.{.|.+X+X$X$X#X+X+X+X|.{.[.[.^.^.^.^.~.~.).).).~.).).).).).'.'.'.'.tXtXrXrXrX1X1X3X3X3X0X0XqX8X8X8X8X8X8X8X8X8X8X8X8X8X8X6XqXwX2X>X=X=XI.L.L.H.H.H.G.G.G.G.G.G.H.I.U.<X2X3X3X2X;XF.j.0.s.e.r.1.Y u * & & & & + + + + + + + + + @ @ @ @ @ @ @ @ @ @ @ @ @ + + + + + + + + + + + = & = = & * * , u u x x m n F H ] ] } o.4.5.0.0.s.j.z.F.J.J.I.:X5X7X7X7X7X8X7X5X6XqXvXnXMXMXIXIXIXnXcXcXxXzXlXqXqX6X>X>X>X;X<X1XrXrXtXtXtX'.'.'.[.[.}.|..X@XVXCXZXDXGXZXZXAXVXVXVXaX.X.X@X+X+X+X}._.S.C.C.C.A.S.S.~._. XaX'.tXuXuXuXrXW.T.T.T.U.U.U.;X;X<X<X<X<XE.E.T.K.Q.x.h.g.>.-.*.+.X.{ ] T Y n u , u C Z Z Z Z Z Y Y E } 2.2.2.4.5.0.s.k.l.M.N.B.B.B.B.B.M.V.J.F.l.k.k.d.>.:.&.@.$.' L l j 8 8 8 8 8 9 % - 8 8 8 8 8 8 8 8 8 k B ~ ~ ~ ~ ! B k k j U ' $.@.&.;.@.$.' ' U P k 7 7 7 7 7 7 7 7 7 7 7 7 5 5 5 6 ",
"H H H H H H H H H H H H H H H v v j f v v j v v j v j j j j j j j j f f f f f f < < , , * * * & & & & & t r u u u m F T { +.5.w.!.oXfXVXfXXXoX!.OXr.4.4.r.r.y.n.n.eX,XvXvX7X5X7X7X5X:X,XY.F.b.z.x.x.g.g.i.i.i.i.i.h.h.h.c.c.D.D.D.D.D.S.S.S.S.~.~.)._._.^.(.[.{.|.|.+X+X#X#X@X+X+X+X{.[.[.[.^.^.^.^. XpX_.).).).).).).).).`.`.'.'.tXrXrXrX1X1X1X3X3X2X0X0XqX8X8X8X8X8X8X8X8X8X8X8X8X8X6XqXbXbX2X;XI.I.L.H.H.H.G.G.G.G.G.G.G.H.U.;X2X0X0X2X;XY.z.j.s.j.e.r.1.C u & & + + + + + + + @ @ @ @ o o o o o o o o o @ @ @ @ @ @ @ @ @ @ @ @ @ + + + + + + + + = = & * * u u u u x n F T ] ] } o.2.4.8.0.s.j.z.F.F.J.I.:X6X5X5X5X7X7X6X5X6XqXvXnXnXNXIXIXNXnXcXcXzXzXlXqX0X>X>X>X;X<X<X1XrXrXtXtXtX'.'._.[.[.}..X+X#XCXZXDXGXZXZXZXAXVXVXVX.X.X@X+X+X+X.X[.~.A.C.C.A.A.S.~.~._._.'.tXuXuXuXrXW.T.T.T.K.U.U.;X<X<X<X<X<X<XE.T.T.Q.x.h.g.>.-.*.+.X.{ ] T Y Y Z m C Z C Z Z Z Z A Y [ } 2.6.n.n.5.8.a.k.l.M.N.N.B.B.B.B.M.B.J.N.k.k.k.a.>.:.&.@.$.` L l l 1 8 9 9 3 - % 8 - 8 8 8 9 9 1 8 8 k B ^ ^ ~ ~ ! B k k j U ' $.@.&.;.@.@.' ' U B k k 6 7 7 7 7 7 7 7 5 5 5 7 5 5 8 ",
"H H H H H H H H H H H H H H H f  .7.H v H v j v v v j j v j j j j j f f f f f f < < , , * * * & & & t t t r u u m n H ] X.*.8.v.!.XXVXVXXXoX!.m.t.r.4.4.6.r.y.n.n.eX,X7X8X5X5X7X7X:X,X,XY.b.z.z.x.l.g.i.i.i.i.i.i.h.h.h.c.D.D.D.D.D.D.S.S.S.S.~.)._._._.^.(.(.{.|.+X+X$X#X#X+X+X+X|.{.[.(.^.^._.~._.FXFXpX~.).'.'.).).).`.`.'.'.'.`.`.rX1X1X1X3X3X3XwX0XqX8X8X8X8X8X8X8X8X8X8X8X8X8X8X6X6XzXwX>X;XI.L.H.H.H.G.G.G.G.G.G.H.J.U.;X0X3X0X>XI.F.s.e.j.n.y.3.Z u * & & & + + + @ @ @ @ o o o o o o o X X o X X o o o o o o o o o o o o o o @ @ @ @ + + + + + + + = & * , u u u x n F T T ] } o.+.4.8.0.0.j.z.N.F.J.I.>X6X5X5X5X6X6X5X5X6XzXnXMXNXIXIXIXnXcXcXcXzXzXlXqX0X>X>X>X<X<X<X1XrXrXtXtX'.'.'._.[.[.}..X+X#XCXZXGXZXZXZXAXAXVXVX.X.X@X+X+X+X+X}._.S.A.C.C.A.S.~.~.~.^._.pXsXuXuXrXW.R.T.T.K.U.U.;X<X<X2X2X<X<XE.T.T.A.x.x.g.9.:.-.+.X.{ ] T Y Z Z Z m m m C m C C Z Y [ } o.6.n.n.5.8.s.f.l.M.M.N.N.B.B.B.B.N.M.l.k.k.k.d.>.:.&.&.$.' L l l 1 8 8 9 9 - - - % % % % % % 8 8 8 j B ^ ^ ~ ~ ~ k k k j U ' $.@.&.&.@.@.$.' U U k k 7 7 7 7 7 7 7 5 5 8 5 5 5 8 8 ",
"H H H H H H H H H H H H H H v f u.OX| j H H v v v v j j v j j j j j f f f f f f < , , * * * & & & & t r r r u u m n T { +.5.q.m.!.XXfXfXXXoX!.t.r.4.3.r.6.y.y.n.n.,X,X5X5X5X5X7X5X:X,XY.F.b.z.x.x.g.g.i.i.i.i.i.h.h.h.c.c.D.D.D.D.D.S.S.S.S.S.).)._._._.(.(.[.|.+X+X+X$X@X+X+X+X+X|.{.[.(.^._._.~.).pXsX'.).S.).'.'.`.).`.`.'.`.`.`.`.1X1X1X1X3X3XwXgXzXqX8X8X8X8X8X8X8X8X8X8X8X8X8X6X6X>X:X;X;XI.L.L.H.H.G.G.G.G.G.G.H.I.;X2X0X0X2X;XI.z.s.j.b.n.y.1.m * & + + + + + + @ o o o o o o X X X X X X X X X X X X X X X X X X X X X X X o o o @ @ @ @ @ O + + + + + & * * , u u x n F F T ] { o.+.4.5.0.0.j.z.N.F.J.=X>X6X5X5X7X8X7X5X5XqXnXNXNXIXIXIXNXnXmXcXxXzXlXqX0X6X>X>X;X;X<X1X1XrXrXrXtX'.'.'._.[.}..X.X@XVXZXDXZXZXFXAXAXVXaXaX.X.X.X+X+X+X|.[.~.A.C.C.A.S.S.~.~._. XpXsXhXuXrX`.R.T.T.K.U.U.;X<X<X2X2X<X<XE.T.T.A.D.x.g.a.:.-.*.O.{ { T Y F Z Z m m Z m Z A Z Z Y E [ } 2.e.6.5.9.a.f.k.l.M.N.N.B.B.B.B.N.M.l.l.l.k.d.a.:.-.&.$.' L l l 1 1 8 8 9 8 9 9 9 $ x 4.3.b 8 8 g j U ^ ^ / ~ ~ B k j P U ' $.;.;.&.;.@.$.' U P j k 6 6 7 7 7 6 7 7 6 8 8 5 5 8 6 ",
"H H H H H H H H H H H H H H v v H T v j H H j v v v j j j j j j j f f f f f f < < , , * * * & & & & r r r u u m n F ] o.*.5.w.!.oXXXfXXXoX!.m.t.r.4.3.r.r.y.n.n.eX,X:X5X5X5X7X7X:X,X,XY.b.z.x.x.g.g.i.i.i.i.i.i.h.h.c.c.c.D.D.D.D.S.S.S.S.S.~.)._._._.[.(.[.{.|.+X+X+X+X@X@X+X+X|.{.[.[.^.^._.).).~.~.S.S.R.S.R.'.'.`.`.`.`.`.`.`.`.`.1X1X1X3X3X0XwXwXzXqX8X8X8X8X8X8X8X8X8X8X8X8X6X6X6X:X-XI.I.I.H.H.H.H.G.G.G.H.H.H.I.;X2X0X0X>XI.F.z.j.b.U.Y.y.( u * & & + + + @ @ @ o o o X X X X X X X X X X X X X X X X X X X X X X X X X X X X X X o o @ @ @ @ @ + + + + + & & * , u u x n F F T ] { o.+.4.5.0.s.j.z.F.F.J.-X6X5X5X5X7X7X7X5X6XvXMXMXNXIXIXIXMXnXmXcXxXzXlXqX0X0X2X>X;X<X<X1X1XrXrXrX'.'.'.'.[.[.}.|.+X#XCXZXZXZXFXFXAXAXVXaX.X.X.X.X+X+X+X[._.S.A.C.A.A.S.~.~._. XpXsXhXuXuX`.W.T.T.K.U.U.;X;X<X2X2X<X<XE.U.T.A.Z.x.h.a.:.-.*.O.X.{ T T Y Y Z Z Z m Z 3.3.( Y Y T [ } o.+.*.5.9.a.f.k.l.M.N.N.N.B.B.B.N.N.M.M.l.k.d.i.:.-.&.$.` ` l l g 1 8 8 8 8 8 9 % $ 6.7X,X} 1 8 j j U ^ ^ ^ ~ ~ B k j P U ' $.;.,.;.;.@.$.' U P k k 6 7 7 7 7 6 7 6 5 8 8 7 7 6 8 ",
"H H H H H H H H H H H H H H H H j v H v v v j j j j v v j f j f f f f f f f f < < , , * * & & & & & r r r u u m n T { o.*.q.m.!.oXXXXXXXoX!.OXt.4.3.3.6.r.y.n.n.eX,X:X5X5X6X6X5X:X,XY.Y.b.z.x.l.g.g.i.i.i.i.i.i.h.h.c.c.D.D.D.D.D.D.S.S.S.S.).)._._._.[.[.[.|.+X+X+X+X#X@X@X+X+X|.{.[.[.^.^.^.~.~.~.~.S.S.R.).).).).).`.`.`.`.`.`.W.1X1X1X1X3X3X0XwXqXqX8X8X8X8X8X8X8X8X8X8X8X8X6X6X>X:X-X;XI.L.L.H.H.G.G.G.G.G.H.L.I.;X2X0X2X;XI.F.z.z.Y.U.n.r.Z u & & & + + @ @ @ o o X X X X X X X X X X X X X X X X X X X X X X X X X X X X X X X X X X o o o @ @ @ @ @ + + + + = & * * , u x n F F T ] } o.+.4.5.0.0.j.z.F.F.I.:X6X5X5X5X7X6X5X5X0XzXvXMXIXIXIXMXnXmXmXcXzXlXqXqXwXwX2X;X;X<X1X1X1XrXrX'.'.`.`._.[.}.}..X@XCXZXZXZXFXFXAXAXAXVXaX.X.X.X+X+X+X}._.R.S.C.C.A.A.S.~._._.'.pXsXuXuXrXW.T.T.T.U.U.;X<X2X2X2X2X<XE.E.T.Z.Z.x.h.g.9.-.*.O.X.{ ] T Y F n n Z n Z ( 1.E Y T E [ o.o.2.4.8.9.a.f.k.l.M.M.N.N.B.B.B.N.M.M.M.l.k.d.9.:.-.&.$.` ` L l g 1 1 8 8 8 8 % % $ 6.5XY._ 9 g j P U ^ ^ ^ ~ ~ B k j P ' ' $.;.-.,.;.@.$.' U P N k 7 7 7 7 7 7 7 5 8 8 8 5 8 8 6 ",
"H H H H H H H H H H H H H H H H H H H v v j j j v j v v f f f f f f f f f f f < < , , * * & & & & t r r r u m n F T { +.5.w.m.!.XXXXXXoX!.OXt.r.3.3.r.r.r.y.n.eX,X,X5X5X5X8X7X5X,X,XY.F.b.z.x.l.g.i.i.i.i.i.i.h.h.c.c.c.D.D.D.D.D.S.S.S.S.~.)._._._._.(.(.{.|.+X+X+X+X#X@X@X+X|.|.{.[.[.^.^.~.~.~.~.~.R.R.R.R.).).).).`.`.`.`.`.W.W.1X1X1X3X3X3X0XqXqX8X8X8X8X8X8X8X8X8X8X8X8X6X6X6X:X-X=XI.L.L.H.H.H.G.H.G.G.H.L.U.;X0X0X>X;XL.F.z.z.K.U.n.3.m * & & + + + @ @ o o o X X X X X X X X X X X X X X X X X X X X X X X X X X X X X X X X X X X X o o o o o o @ @ @ + + + = = * * , u m n F F T ] { o.+.4.5.0.e.j.z.b.F.=X>X6X5X5X5X7X7X5X5X6XzXbXIXIXIXIXnXnXmXcXxXzXlXqXqXwX0X>X;X<X<X1X1X1XrXrX`.tX'._._.[.}..X@XVXCXZXZXZXFXAXAXAXVXaX.X.X@X+X+X+X.X[.).S.A.C.A.A.S.~.)._.'.tXsXuXuXrXW.T.T.T.U.U.;X<X2X2X2X2X<XE.E.K.Z.Z.x.h.g.9.:.*.O.X.{ ] T T F n n C Z Z Z Z Y Y T E [ } o.2.4.8.9.a.f.k.l.l.M.M.N.B.B.B.N.M.l.l.l.k.d.a.:.-.&.$.` ` L l j 1 1 8 8 8 % % % $ _ w.;.f 8 k j P U ^ ^ ^ ^ ^ B B j U ' $.$.;.-.-.;.@.$.' U P B k 7 7 7 7 7 6 7 7 5 8 8 6 6 8 6 ",
"H H H H H H H H H H H H H H H H H H v v v v j j j v j j j f f f f f f f f f < < < , , * * & & & & & r r u u m F T { X.*.5.h.m.oXXXXXXXoX!.t.t.3.2.3.r.r.y.y.n.eX,X,X5X5X7X7X5X:X,X,XY.b.z.x.l.g.g.i.i.i.i.i.h.h.h.c.c.c.D.D.D.D.D.S.S.S.S.).)._._._.[.(.[.{.+X+X+X+X+X@X@X+X+X|.}.[.[.[._.^.~.~.~.).).).).).R.).).).`.`.`.`.`.`.W.W.1X1X1X3X2X0X0XqX8X8X8X8X8X8X8X8X8X8X8X8X6X6X6X>X:X;XI.L.L.H.H.H.G.G.H.H.H.L.I.>X0X0X>X=XJ.F.z.F.U.E.n.2.n * * & + + + @ @ o o X X X X X X X X X X X . . . . . . . . X X . . . . . . . . X X X X X X X X X X X X o o o o @ @ @ O + + = = & * u u x n F T T ] } o.2.4.6.0.s.z.z.F.J.-X>X5X5X5X5X5X5X5X7XqXcXNXIXIXIXMXnXnXnXmXxXzXlXqX0X2X>X;X<X<X<X1X1XrXrXrXsXsX X_.[.}.}..X@XCXZXZXZXFXAXAXAXVXVXaX.X@X+X+X+X.X}._.S.A.C.A.A.S.S.~.).'.tXsXhXuXrXW.T.T.T.K.U.;X;X<X2X2X2X<X<XE.K.K.Z.x.x.g.9.:.-.O.X.{ ] T T Y Z Z n n Z Z Z Y Y T E [ } o.+.4.5.9.9.s.f.k.l.M.N.N.B.B.B.N.M.l.l.l.k.d.a.>.-.&.$.` ` L l l g 1 8 8 8 % % 8 9 > l U 8 8 k j P U ^ ^ ^ ^ ^ U B P U ' $.$.&.-.,.;.@.$.' U P B k 7 7 7 7 6 6 7 5 7 8 8 8 8 8 8 ",
"H H H H H H H H H H H H H H H H H H v v v v j j j j j j j j f f j f f < < < < < , , , * * & & & & r r u u u n F ] { X.*.q.m.!.oXXXXXoX!.OXt.r.3.2.3.r.r.y.n.n.eX,X:X5X5X7X7X5X:X,XY.F.b.z.l.g.g.g.i.i.i.i.i.h.h.h.c.c.D.D.D.D.D.S.S.S.S.).)._._._._.[.(.{.|.+X+X+X$X+X@X@X+X+X|.{.[.[._._.~.~.~.~.).).R.R.R.R.).).).`.`.`.`.`.`.W.1X1X1X1X3X0X0XqXqX8X8X8X8X8X8X8X8X8X8X8X6X6X6X>X:X-XI.I.L.H.H.H.H.G.G.H.H.L.I.>X0X0X>X=XJ.z.z.F.E.4Xy.1.m * * & + + + @ @ o X X X X X X X X X X X . . . . . . . . . . . . . . . . . . . . . . . . X X X X X X X X X X X o o @ @ @ + + + + = & , u u m n F H T ] } o.+.4.0.0.s.z.z.F.I.:X6X5X5X5X5X5X7X7X6XlXvXIXIXIXNXnXnXnXmXmXzXlXqXqX6X>X;X;X;X2X<X1X1XrXrXsXsXpX_.[.[.}..X+XVXCXZXZXFXFXAXAXAXaXaXVX@X+X+X+X+X.X[.~.S.A.C.A.S.S.S.).'.tXsXhXuXrXW.R.T.T.K.U.U.;X2X2X2X2X<X<XU.K.K.Z.x.x.g.a.:.-.&.O.X.] ] T Y Y Z n n Z Z Z Y Y E [ [ } o.+.4.5.9.9.s.f.k.l.M.M.N.N.B.B.N.M.M.l.l.k.d.a.>.:.&.@.` ' L l l g 1 8 8 9 8 8 8 8 3 9 1 8 g k j U U ^ ^ ^ ^ ^ U P P U ' $.@.;.-.,.;.@.$.' U P j k k 7 7 7 6 7 6 7 7 8 6 8 8 8 8 ",
"H H H H H H H H H H H H H H H H H H H v v j v j v v v j j j j v f f f f < < < < , , , * * & & & & * r u u u n T ] X.+.5.w.m.!.oXXXXXoX!.OXt.6.2.2.3.r.r.y.n.eXeX,X5X5X5X7X7X5X,X,XY.F.F.Q.x.d.g.i.i.i.i.i.i.h.h.h.c.c.D.D.D.D.S.S.S.S.S.).)._._._.[.(.(.{.|.+X+X$X$X+X+X+X+X|.}.}.[.[._._.).).~.~.).).R.R.).).).).).`.`.`.`.W.W.W.1X1X1X3X3X0X0X0XqX8X8X8X8X8X8X8X8X8X8X8X6X6X6X:X-X=XI.L.L.H.H.H.G.G.H.H.I.U.;X0X0X>X=XJ.z.z.Y.U.U.y.[ u * * & + + + @ o o X X X X X X X X X . . . . . . . . . . . . . . . . . . . . . . . . . . . . . . X X X X X X X X X o o o @ @ @ O + + + * * u u x n F H T ] } o.2.5.0.e.j.z.N.J.=X>X5X5X5X5X5X5X5X7X8XvXNXIXIXIXMXnXnXmXmXxXzXlX8X6X>X>X>X>X>X<X1X1X1X`.tXtX'._._.[.[.}..X@XVXZXZXFXFXFXAXAXaXaXaX.X@X+X+X+X.X[._.S.A.C.A.A.S.S.).).tXuXhXuXrXW.R.T.T.K.U.U.;X<X2X2X2X<X<XU.K.K.Z.Z.x.g.a.:.-.*.O.X.{ ] T Y Y Z Z n Z Z Z Y Y E E [ } o.+.4.5.8.9.a.f.k.l.M.M.N.M.N.B.N.M.M.M.l.k.d.a.>.-.&.@.` ` L l j g 1 1 8 9 8 8 % 9 3 8 1 1 k k j U ^ ^ ^ ^ ^ ^ U U P U ' $.@.;.-.-.&.@.$.' U P k k 7 7 7 7 6 7 7 7 7 8 8 8 5 8 6 ",
"H H H H H H H H H H H H H H H H H H H v v j j j v j j j j j j j f f f < < < < < , , * * * & & & t * r u u m F T { o.*.8.h.m.!.oXXXoX!.!.t.r.3.2.2.3.6.y.y.n.eX,X,X5X5X7X7X7X:X,XY.F.F.Z.W.Q.g.i.i.i.i.i.i.p.p.h.c.c.c.D.D.D.D.S.S.S.S.).)._._._.[.[.(.{.{.+X+X+X$X$X+X+X+X+X|.}.{.[._._._.).~.~.~.S.R.R.R.).).).).`.`.`.`.W.W.W.W.1X1X3X3X3X0X0X0X6X8X8X8X8X8X8X8X8X8X8X8X6X6X>X:X=XI.L.L.H.H.H.H.G.G.H.J.U.;X0XqX6X-XL.F.z.Y.<XY.e.1.m r * & + + + @ o X X X X X X . . . . . . . . . . . . . . . . . . . . . . . . . . . . . . . . . . . . X X . X X X X X X o o o @ @ @ O + + = & * , u x n F T T ] } o.4.5.0.s.j.z.F.J.-X5X5X:X5X5X5X5X5X6XqXvXPXIXIXNXnXnXnXmXmXzXlXqXqX0X0X>X>X>X2X<X1X1XW.`.`.)._._.[.[.}..X@XVXZXZXFXFXFXAXAXdXaXaXaX.X+X+X+X.X}._.~.S.A.C.A.S.S.~.).tXuXuXuXyX`.R.T.T.K.U.U.;X<X2X2X2X2X<XU.K.K.Z.Z.x.g.a.>.-.*.O.X.{ ] T T Y Z Z Z Z Z Z Y Y E [ [ } o.2.4.5.8.9.a.f.k.l.M.M.M.M.N.N.N.M.M.M.l.k.d.a.>.:.&.O.` ` L l l j 1 1 8 9 9 9 9 3 3 8 1 < g k k U ^ ^ ^ ^ ^ ^ U U P ' ' $.;.-.-.-.&.@.$.' U P N k 7 7 7 7 6 7 7 6 6 8 8 8 8 8 8 ",
"H H H H H H H H H H H H H H H H H H H H v j v j v v j j j j j j v f f < < < , , , , * * * & & & t r u u u m F ] { +.4.0.h.m.oXoXoXoX!.t.u.6.2.2.2.r.r.y.y.n.eX,X,X5X5X7X7X5X,X,XY.F.z.z.Q.x.g.i.i.i.i.i.i.h.h.h.c.c.c.D.D.D.D.S.S.S.S.).)._._._.[.[.[.{.|.+X+X$X$X$X+X@X+X+X|.}.[.[._._.~.~.~.S.S.S.R.R.R.R.).).R.W.W.W.`.W.W.W.W.1X1X3X3X0X0XqX0X6X8X8X8X8X8X8X8X8X8X8X8X6X>X:X-XI.L.L.H.H.H.G.G.G.H.J.U.;X0X0X5X-XJ.F.z.Y.<X4Xr.[ m u * & + + + @ o o X X X X X X . . . . . . . .     . . . .   . . . .     . . .   . . .   . . . . . . . . . . X X X X X X X X o o o @ @ O + + = & * u u x n F T ] { o.+.4.0.0.s.j.z.F.I.>X>X>X:X5X5X5X5X7XqXvXbXIXIXNXnXnXnXnXmXxXzXlXqXqX0X>X>X>X>X<X<X1X1XrX`.`.'._.[.[.[..X.X@XVXZXFXFXFXFXAXAXdXaXaX.X+X+X+X+X.X[.).S.A.A.A.S.S.S.).'.uXhXuXuX`.R.T.T.K.U.U.<X2X2X2X2X2X<XU.K.K.Z.Z.x.g.g.>.-.*.O.X.{ ] T T Y Y Y Z Z Z Z Y Y E [ [ } o.2.4.5.8.9.a.f.k.l.l.M.M.M.N.N.N.M.M.M.l.k.d.a.>.:.&.@.` ` L l l g g 1 8 8 9 9 8 8 1 1 8 8 g j j U ^ ^ ^ ^ ^ ^ U P U ' ' $.&.-.-.-.&.&.$.' U P N k 6 6 7 6 6 7 6 6 6 8 8 5 8 8 8 ",
"H H H H H H H H H ] ] H H H H H H H H H v j j j j v v j j j f f f f > > < , , , , , * * * & & t r r u u m n T { X.+.5.q.m.!.!.oXoX!.OXt.u.3.2.1.2.r.r.y.n.n.eX,X:X5X5X7X7X5X,X,XY.F.z.z.l.l.g.i.i.i.i.i.i.i.h.h.h.c.D.D.D.D.S.D.S.S.R.)._.'._._.[.[.(.{.|.+X+X$X$X$X+X+X+X+X|.}.[.[._.^.~.~.~.S.S.R.R.R.R.R.R.R.R.W.W.W.W.W.W.W.1X1X3X3X3X0X0XqX6X8X8X8X8X8X8X8X8X8X8X6X6X6X>X-X;XI.L.L.H.H.H.G.H.G.H.I.;X0X6X6X:XI.F.z.Y.<X4Xr.[ m u r & + + @ @ o o X X X X X X . . . . . . .           . . .     . .         . .           . . . .   . . . . . X X X X X X X X X X o o @ @ O + + = & * u u x n F T ] { o.+.4.0.0.j.z.F.J.-X>X>X:X:X5X5X5X5X6XwXbXPXIXIXMXnXnXnXmXmXxXlXlXqX0X>X>X>X>X<X<X1X1X1XrX`.'._._.[.[.}..X@XVXZXFXFXFXFXFXAXdXaXaX.X.X+X+X+X|.[._.S.S.A.A.S.S.S.).'.uXhXuXuXrXW.T.T.K.U.U.<X<X2X2X2X2X<XU.K.K.Z.Z.x.l.g.>.:.*.+.X.{ ] ] T Y Y Y Y Z Z Y Y Y E [ [ } o.2.4.5.8.9.a.f.f.k.l.M.M.M.M.M.M.M.M.M.l.k.d.a.>.:.&.@.$.` L l l g 1 1 8 1 9 1 9 8 1 1 8 8 g j j U ^ ^ ^ ^ ^ ^ U P U ' ' @.;.-.-.-.-.&.$.' ' P N M k 6 6 6 6 7 7 7 6 8 8 8 8 8 8 ",
"H H H H H H H H _ { | _ H H H H H H v v v j j j j j j j x f f x f f ] 2.[ < < , , , * * * & & r r r u u m F ] { +.*.8.j.m.!.oXoXoX!.OXt.7.2.1.1.3.r.y.y.n.eXeX,X5X5X5X7X5X:X,XY.Y.F.z.z.x.l.g.i.i.i.i.i.i.i.v.Q.x.c.D.D.D.D.S.S.S.S.).).'.'._.[.[.[.{.{.|.+X+X$X$X+X+X@X+X|.}.[.[.^._.^.~.~.~.S.R.S.R.R.R.R.R.R.R.`.`.W.W.W.W.1X1X1X3X3X3X0X0X0X6X8X8X8X8X8X8X8X8X8X6X6X6X:X-X;XI.L.L.L.H.H.G.G.G.G.I.;X>X6X5X:XI.F.z.Y.<XU.y.[ x u r & + + + @ o X X X X X X X . . . . . .                     .                         . . . . . .   . . . . . . . . . . X X X X X X o o @ @ + + + + & * , u x n F T ] } o.2.5.0.s.j.z.F.I.:X>X:X:X5X5X5X5X5X8XvXbXIXIXMXnXnXnXmXmXxXzXlX8X6X>X:X>X>X2X<X1X1X1XW.`.`._._.[.[.}.}..X@XVXZXFXFXFXFXAXAXAXaXaX.X.X.X+X+X}._.).S.S.A.A.S.S.R.`.tXhXgXuXrXW.T.T.K.K.U.<X<X2X2X2X2X<XE.U.K.Z.Z.x.g.g.9.:.-.+.X.{ ] T T Y Y Y Y Z Z Y Y Y E [ } } o.+.4.5.8.9.a.f.f.k.l.l.M.M.M.M.M.M.M.M.l.k.d.a.>.:.&.O.$.` ` l j j 1 1 8 9 9 9 % 9 8 1 8 1 j j N U ^ ^ ^ ^ ^ ^ U U U ' $.@.;.-.-.-.-.@.$.' ' U P N k k 7 6 6 6 6 6 6 6 8 8 8 8 8 ",
"H H H H H H H H _ ] ] H H H H H H v v j v j j j v j j j f f f f f H n.5XY.T , , , , * * & & r r r u u m n F ] o.+.-.8.h.m.!.oXoX!.!.t.u.2.1.1.1.r.r.y.y.n.eX,X,X5X5X5X7X5X,X=XY.F.b.z.z.x.l.g.i.i.i.i.h.i.h.Q.).c.h.D.D.D.D.S.S.S.).'.'.'._.[.[.[.[.{.|.+X+X$X$X$X$X@X+X+X|.}.[.[.^.^.^.~.~.R.R.R.R.S.R.R.R.R.R.R.`.W.W.W.W.W.1X1X3X3X3X3X0X0X6X6X8X8X8X8X8X8X8X8X8X8X6X>X:X=XI.L.L.I.I.H.G.G.G.H.J.U.>X6X5X:X=XF.b.Y.<X;Xn.[ x u r & + + + @ o X X X X X . . . . .                                                           .   .       . . .   . . . . . X X X X X X X o o o @ + + + + = * , u x n F T ] } o.4.5.0.s.j.z.J.-X>X>X:X:X5X5X5X5X8XwXbXPXIXNXnXnXnXnXmXxXzXlXkX8X6X:X>X>X2X<X<X1X1XW.`.`.)._._.[.[.}..X@XVXAXFXFXFXFXFXAXAXVXaX.X.X.X+X.X|.[.).R.S.S.S.S.S.R.`.tXhXgXuXrXW.T.T.K.K.U.;X<X2X2X2X2X<X;XU.K.Z.Z.x.x.g.a.:.-.*.X.{ ] ] T T Y Y Y Y Y Y Y Y E [ } 1.2.2.2.4.8.9.a.s.f.k.k.l.l.M.M.M.M.M.M.M.l.k.d.a.>.:.&.O...` ` l f j 1 8 9 > j f $ 9 8 1 8 1 j j P ^ ^ ^ ^ ^ ^ ^ U U ' ' $.;.;.-.-.-.-.&.$.` ` U P j k k 6 6 6 8 8 8 8 8 8 8 8 8 8 ",
"H H H H H H H H H _ H H H H H H v v v j v j f j j v j j f f f f > _ b.6XeX[ , , , * * * * r r r r u u m n T { +.*.5.0.x.m.!.oXoX!.OXt.7.1.[ 1.1.r.r.y.y.n.eX,X:X5X5X5X7X>X,XY.F.F.b.z.x.l.g.g.i.i.i.i.i.i.p.D.S.c.c.D.D.D.D.S.S.S.).'.'.'.'.[.[.[.[.{.|.+X+X$X$X$X$X@X+X+X|.}.[.[.^.^.~.~.~.R.S.R.R.R.R.R.R.R.R.W.W.W.W.W.W.1X1X1X3X3X3X0X0X6X6X6X8X8X8X8X8X8X8X8X8X8X6X:X-XI.;X<X;XI.J.H.G.H.H.H.U.;X>X>X:X-XJ.F.F.<X<Xn.1.m u r & + + + @ @ o X X X X . . . . . . .                                                                                 . . . . . . X X X X X o o o @ O + + + = * , u x n F T ] { +.4.8.0.s.z.F.I.;X>X:X:X5X5X5X5X7XqXvXPXIXNXMXnXnXnXmXmXzXzXkX8X6X>X>X>X2X2X<X1X1X1XW.`.`._._.[.[.[.}..XVXAXFXFXFXFXFXAXAXVXaX.X.X.X+X+X.X[._.R.S.S.S.S.S.R.`.rXuXgXuXrXW.T.T.K.K.U.<X<X2X2X2X2X<X;XU.K.Z.Z.l.l.g.a.>.-.*.O.X.{ ] T T T Y Y Y Y Y Y E E [ 1.2.2.2.4.5.8.9.a.s.f.k.k.l.l.l.M.M.M.M.M.M.l.k.d.a.9.:.&.O...` ` l l f 1 8 9 X.s.0.H , 8 8 1 g k j U ^ ^ ^ %.%.^ ^ U U ' ` $.;.,.-.-.-.-.&.$.` ` U l j k 6 1 8 8 8 8 8 8 8 8 8 8 8 8 ",
"H H H H H H H H H H H H H H H v v v v v v j x x j v x v f f f f > f H } [ x , , , * * * & * r r u u u m F ] { +.5.8.q.x.m.!.oX!.!.t.u.3.1.[ 1.2.r.r.y.y.eXeX,X:X5X5X5X5X:X=XY.F.F.z.x.x.l.g.i.i.i.i.i.i.i.i.p.p.c.D.D.D.D.S.S.S.S.).'.'.'.'.[.[.[.(.{.|.+X+X$X$X$X+X+X+X+X}.[.[._.^.^.~.~.).R.S.R.R.R.R.R.R.R.R.W.W.W.W.W.`.rX1X1X3X3X2X0X0X6X6X8X8X8X8X8X8X8XqXqXqX6X5X:X;XI.;XgX3XU.H.H.G.G.H.I.;X2X>X:X-XI.F.F.U.<Xn.1.n x u * & + + @ @ o X X X X X . . . . .                                                                                       . . . . . . X X X X X X o o @ O + + + & * u u x n H ] ] o.+.5.0.e.j.z.J.;X>X-X:X:X5X5X5X5X6XgXbXPXNXMXnXnXnXmXmXxXzXlX8X7X>X>X>X2X3X3X1X1X1XW.`.`.)._._.[.[.}..X@XVXAXFXFXFXFXAXAXdXaXaX.X.X+X+X.X}._.).R.R.S.S.S.R.`.rXuXgXuXrXW.T.T.K.K.U.;X<X2X2X2X2X<X;XU.K.C.Z.l.l.d.a.>.:.*.+.X.{ ] T T T T Y Y Y Y Y E E 1.1.2.2.2.4.4.8.8.9.a.f.f.k.k.l.l.l.l.M.M.M.l.l.k.d.a.>.:.&.&.$.` ` l l f 1 9 l s.L.J.:.f 8 8 1 g j P U ^ ^ %.%.%.' ' ' ' ' $.@.;.,.-.-.-.-.&.@.` ' U P N M k 6 6 8 8 8 8 6 8 8 8 8 8 8 ",
"H H H H H H H H H H H H H H H v H v v j j j v x v j f f f f f f < < < < < < , , * * * * & t r r u u u n F ] X.*.5.8.j.m.m.!.!.!.OXu.7.2.1.1.1.2.r.y.y.y.eX,X,X5X5X5X5X:X,X,XY.F.z.z.z.l.f.a.i.i.i.i.i.i.h.h.p.x.D.D.D.D.D.S.S.S.S.).'.'.'.'.[.[.[.[.{.+X+X$X$X$X$X+X+X+X+X}.[.[._._.).).).~.S.S.S.S.S.R.R.R.R.R.R.W.W.W.W.rX1X1X1X3X2X2X2X6X6X6X8X8X8X8X8X8X8XqXqX8X7X>X-X;XI.I.<X<XJ.G.G.G.G.J.U.<X>X>X-XI.F.F.U.<Xn.2.n u u * & + + @ @ o X X X X X . . . . .                                                                                           . . . . . . X X X X X X o o @ + + + = & * u u x F H ] { o.4.5.0.s.z.F.;X;X;X-X:X5X5X5X5X6XwXbXPXNXMXnXnXnXnXmXxXzXlXkX8X5X5X>X2X3X3X3X3XyXrX`.`.)._._.[.[.}..X.XVXAXFXFXFXdXdXdXdXaXaX.X.X.X+X.X}.[.).).R.R.S.S.R.).rXuXgXuXrXW.T.T.K.K.U.<X<X2X2X0X2X<X;XU.K.C.Z.l.l.k.a.>.:.*.O.X.{ ] ] T T T Y Y Y Y Y T E 1.1.1.o.2.4.4.8.9.s.s.f.f.k.k.l.l.l.l.l.l.l.l.l.k.d.a.>.:.&.&...` ` l l f 1 9 l s.L.L.a.l 8 8 6 k j P U ^ %.%.%.%.%.' ' ' ` $.@.&.-.-.-.-.-.&.@.$.' U P U B P M 6 6 8 8 8 6 6 8 8 8 8 8 ",
"H H H H H H H H H H H H H H H v H v v j v j v j v v f f f f f f f f v x < x , * * * * * & * r u u u x n T { +.*.5.0.j.m.m.!.!.!.t.u.3.1.[ 1.1.3.r.y.y.n.eX,X,X5X5X5X5X:X,XY.Y.F.N.z.z.g.a.i.i.i.i.i.i.i.h.h.x.c.c.D.D.D.S.S.S.S.R.).'.'.'.[.[.[.[.{.{.+X+X$X$X$X$X$X+X+X|.}.[.[._._.~._.).~.S.S.S.S.R.R.R.R.R.R.R.W.W.W.W.1X1X1X1X2X2X0X0X6X6X6X8X8X8X8XqX8X8X8X8X6X5X:X-X;XI.L.H.H.H.G.G.G.J.U.<X>X>X:X=XJ.F.Y.<XY.r.Y u u r & + + + @ o X X X X . . . . . . .                                                                                             . . . . . X X X X X X X o o @ + + + = * , u u n F T ] } +.4.5.0.j.b.J.;X;X-X:X:X5X5X5X7XqXvXbXNXMXMXnXnXnXmXmXzXzXlX8X7X5X6X3X3X3X3XyXgXuX`.`.`._._.[.[.}.}..XVXAXAXFXdXdXdXdXdXdXaX.X.X.X+X.X}.[._.).R.R.R.R.R.).rXuXuXuXyXW.R.T.K.K.U.<X<X2X2X0X2X<X;XU.K.C.Z.Z.l.k.d.>.:.-.O.X.{ { ] T T T Y Y Y Y Y T [ 1.1.2.2.2.4.5.8.9.s.s.f.f.k.k.l.l.l.l.l.l.l.l.l.k.k.a.>.:.&.&...` ` l j j j 9 f O.z.z.O.> 8 8 k k j P U ^ %.%.%.%.' ' ' ' ' $.@.&.-.-.-.-.-.&.@.$.' U U U B V B 6 6 8 8 8 8 8 8 6 8 8 8 ",
"H H H H H H H H H H H H H H H v H v v v j v f j j j j f f x f < < < < < < < , * * * * * & * r u u x n H } o.*.5.8.0.h.m.!.!.!.OXu.7.1.[ [ 1.1.3.r.y.y.n.eX,X,X5X5X5X5X:X=XY.F.F.F.Z.z.f.>.>.i.i.i.i.i.i.h.h.x.D.c.Z.D.D.D.S.S.S.).`.'.'.'.[.[.[.[.{.{.+X+X$X$X$X$X+X@X+X|.}.[.[._.^.~.).).).S.S.S.S.R.R.R.R.R.R.R.W.W.W.W.1X1X1X1X2X2X0X6X6X6X8X8X8X8XqXqXqX8X6X6X5X>X-X;XI.L.L.H.H.H.G.G.J.U.;X>X>X>X:XI.F.F.;XU.e.T m u r & + + + @ o X X X X . . . . . .                                                                                                   . . . . . . X X X X X X o o @ + + + = * , u m n F T ] o.2.4.0.s.z.F.;X;X-X:X:X5X5X5X5X6XgXbXbXMXMXnXnXnXnXmXxXzXlXkX7X5X6X0X3X3X2X3XuXuXW.`.`.)._._.[.[.}..XaXAXAXFXFXdXdXdXdXdXaXaX.X.X.X.X.X[._.).).R.R.R.R.R.rXuXgXuXyX`.R.T.C.K.U.;X<X2X2X0X2X<X;XU.K.C.Z.Z.l.k.d.>.:.-.*.O.X.{ ] ] T T T Y Y Y Y T [ } 1.2.2.2.4.4.5.8.0.s.s.f.f.k.k.l.l.l.l.l.l.l.l.k.k.a.9.:.&.&.O.` ` H j l j < > j H _ j 8 1 j j j P P U ' %.%.%.%.%.' ' ' ' $.@.-.-.-.-.-.-.&.@.$.' U U P N N k 6 6 8 8 8 8 8 8 6 8 8 8 ",
"H H H H H H H H H H H H H H v v H v v v j j j f j j f f f x f f < < < < < < , * * * * * & * r u u m F ] o.4.5.8.8.g.x.m.!.!.!.t.u.3.1.[ [ 1.1.3.r.y.y.n.eX,X:X5X5X5X:X-XI.Y.F.F.Y.Y.z.a.>.>.i.i.i.i.i.i.h.x.c.D.c.D.D.D.D.A.S.R.).'.tX'.'.[.[.[.(.{.|.+X$X$X$X$X$X+X@X+X|.}.[._._.).).`.`.R.S.S.S.R.R.R.R.R.R.R.W.`.W.W.W.1X1X1X<X2X2X0X6X6X6X6X8X8X8XqXqX8X8X8X6X5X:X-XI.I.L.L.H.H.H.H.H.U.U.<X>X>X:X=XJ.F.U.4Xn.} n u u * & + + @ o o X X X . . . . . .                                                                                                       . . . . . X X X X X X X o @ @ + + = & * u u n F T ] } +.4.5.0.j.F.;X;X;X-X:X:X5X5X5X6XgXbXbXbXMXnXnXnXnXmXxXzXlXkX7X5X6X0X3X3X3X3X3X1XW.W.`.`._._.[.[.}..X.XaXdXFXdXdXdXdXdXdXaXaX.X.X.X.X.X}.[._.).R.R.R.R.R.rXuXgXuXyX`.R.T.C.K.U.;X<X2X2X0X2X<X;XU.K.C.Z.Z.l.k.d.i.:.-.*.+.X.{ { ] T T T Y Y Y T T [ } 1.2.2.2.2.4.5.8.0.s.s.f.f.k.k.k.l.k.l.l.l.l.l.k.d.a.9.:.-.&.O...` H l j f > j > > f 1 1 1 j j l l U U %.%.%.%.%.%.' ' ' $.@.@.-.-.-.-.-.-.&.@.$.' U P P N M k 8 8 6 6 6 6 8 8 8 8 - 8 ",
"H H H H H H H H H H H H H H v v v v v v v v v v x x f f f f f < f f f f < , , * * * & & & r r u u m F ] 2.5.8.8.0.j.x.m.!.!.OXu.u.3.1.E E 1.2.r.y.y.y.eXeX,X:X5X5X5X:X=XY.F.F.b.Z.Z.x.a.>.i.i.i.i.i.i.i.p.x.D.D.D.D.D.D.S.S.S.R.).'.tX'.'._.[.[.[.{.+X+X$X$X$X$X$X+X+X+X.X}.[._._.).uXgXuXrXR.S.S.R.R.R.R.R.`.`.W.W.W.W.1X1X1X<X2X2X2X6X6X6X8X8X8X8X8X8X8X8X8X6X6X>X:X;XI.L.L.H.H.H.H.H.J.U.<X>X>X>X:XI.F.F.U.n.3.n m u r & + + @ @ o X X X X . . . . .                                                                                                           . . . . X X X X X X X o o @ + + + = * , u x n F T { o.2.5.0.s.b.I.;X;X-X-X:X:X5X5X5XwXbXbXbXnXnXnXnXnXmXmXzXzXlX7X5X6X0X3X3X3X3X2X1X1X1X`.`.)._._.[.[.|..XaXdXAXFXFXhXdXdXdXdXaXaX.X.X.X.X}.[._.).R.R.R.R.R.`.yXgXgXyX1XE.T.C.K.U.<X<X2X0X0X2X2X;XU.K.C.Z.N.l.k.d.a.:.-.*.+.X.{ { ] T T T T Y Y T E [ 1.1.2.2.2.4.4.5.8.0.s.s.s.f.f.k.k.k.k.k.k.l.l.l.k.d.a.9.:.-.&.O..._ L l j g g j 1 1 g j g g g j l D U ' %.%.%.%.%.%.' ' ' $.@.&.-.-.,.-.-.-.&.@.$.' U P N k k 8 8 8 8 8 8 1 1 6 8 8 1 j ",
"H H H H H H H H H H H H H H v v v v v j v v v v x x f f f f f f < < f f < , , * * * & & & r r u u n F ] 2.6.8.9.s.j.x.m.!.!.t.t.7.1.( E E 1.2.r.y.y.y.eXeX,X:X5X5X:X:X=XY.F.F.z.z.z.f.a.>.>.i.i.i.i.i.i.p.x.D.D.D.D.D.D.S.S.S.).`.'.tX'.'.[.[.[.{.|.+X+X$X$X$X$X$X+X+X+X.X}.[._.).'.hXbXvXgXR.S.S.S.R.R.R.).`.rX`.W.W.W.1X1X<X<X2X2X2X6X6X6X8X8X8X8X8X8X8X8X8X6X6X>X-X;XI.L.L.H.H.H.G.J.U.<X<X>X>X:X=XJ.F.I.Y.r.E m u u & + + @ @ o o X X X . . . . .                                                                                                               . . . . . X X X X X X o @ @ O + + & * , u x n Y ] } +.4.6.0.j.J.<X;X-X-X-X:X5X5X5XqXhXbXbXnXnXnXnXnXmXmXxXzXlX7X7X7X0XwXgX3X3X3X3X1X1X`.`.`._._.[.[.}..X.XaXAXFXFXhXdXdXdXdXaXaX.X.X.X.X}.[._._.).R.R.R.R.`.yXuXuXyX1XE.T.C.K.U.<X<X2X0X0X2X2X;XU.K.C.Z.Z.Z.l.d.>.:.-.5.+.X.o.} ] ] T T T Y T T [ [ 1.2.2.2.2.4.4.5.8.9.0.s.s.s.f.k.k.k.k.k.k.l.l.l.k.d.a.9.:.-.&.O...` L l l l g g 1 1 g g g g j j l D U ' %.%.%.%.%.%.' ' ' $.@.&.-.-.,.,.-.-.&.@.$.' U P l k 6 8 8 8 8 8 8 1 6 6 8 > X.w.",
"H H H H H H H H H H H H H H v v v v v v j x x f x x f f f f f < < < < < < , , * * * * * & r u u x F T { +.5.8.9.s.x.x.m.m.OXt.u.3.1.E E E 1.3.r.y.y.n.eX,X,X:X5X5X:X-XI.Y.F.z.z.z.k.a.>.>.>.>.i.i.i.i.p.h.x.D.Z.D.D.D.S.S.S.R.).'.tXtX'.'.[.[.[.{.|.+X+X$X$X$X$X$X+X@X.X}.[.[._.).tXhXMXnXgXR.S.T.T.R.R.R.R.rXtXrXW.W.W.1X1X<X2X2X2X>X6X6X6X6X8X8X8X8X8X8X8X8X6X>X:X-X;XI.L.H.H.H.H.K.U.E.<X<X>X:X:XI.F.F.U.n.1.m u u * + + + @ @ o X X X X . . . .                                                                                                                   . . . . . X X X X X o o @ @ + + + & * u x n F T ] o.2.4.6.s.F.;X<X;X=X-X:X:X5X5X0XgXbXbXvXcXnXnXnXmXmXxXzXlXkX7X7X0XwXgX3X2X2X3X1X1X1X`.`._._.[.[.}..X.XaXdXFXdXhXdXhXsXdXaXaX.X.X.X.X}.[.[._.).R.R.R.R.W.yXuXuXyX1XE.T.C.K.U.<X<X2X2X0X2X2X;XU.K.C.Z.Z.M.l.k.i.s.j.e.*.X.o.} ] ] T T T T T T [ [ } 2.2.2.2.4.4.5.8.8.9.s.s.s.f.f.k.k.k.k.k.l.l.l.k.d.a.a.:.-.&.O...` _ D l l g g g g g g g g j l l P U ' %.%.%.%.%.%.%.' $.@.@.-.-.-.,.>.-.-.&.@.$.' L l l k 6 6 8 6 6 8 8 1 1 1 9 f 0.F.",
"H H H H H H H H H H H H H H v v v v j v v f f f x f f f f f f < < < < < < , * * * * * * r r u u m Y ] X.+.5.9.0.s.x.m.m.m.t.t.7.1.1.E E ( 1.3.r.y.y.n.eX,X:X:X5X:X:X,XI.Y.F.z.z.z.f.a.>.>.>.>.i.i.i.i.p.h.c.D.Z.D.D.S.S.S.S.R.`.'.tXtX'.[.[.[.[.{.|.+X+X$X$X$X$X$X+X+X|.}.[.[._.).'.uXgXgXrXR.S.T.T.T.T.R.R.`.rX`.W.W.W.1X1X<X2X2X2X6X6X6X6X8X8X8X8X8X8X8X8X6X6X>X:X-XI.L.L.H.J.H.G.K.W.1X<X>X>X:X=XJ.F.I.Y.r.Y u u u & + + @ @ o o X X X . . .   .                                                                                                                     . . . . X X X X X X o o @ @ + + = * , u x n F ] } 2.4.6.e.F.;X<X;X=X-X:X:X5X5X6XgXbXvXvXvXnXnXnXmXmXxXzXlXkX7X7X6XwXgX3X3X2X3X1X1X1XW.`.)._._.[.}.}..XaXdXdXdXhXdXdXdXdXaXaX.X.X.X.X}.[.[._.).).R.R.R.W.yXuXuXyX1XE.T.C.K.U.<X<X2X0X0X0X2X;XU.K.C.Z.Z.M.l.k.a.j.Q.n.4.+.o.} } [ ] T T T T E [ } 1.2.2.2.2.4.4.5.8.8.9.9.a.s.f.f.f.k.k.k.k.l.l.l.k.f.d.9.:.-.&.O...` _ H l l j j g g g g j g g l l U ' %.%.%.%.%.%.%. .' $.@.&.-.-.,.,.,.-.-.&.@.$.' L P l k 6 6 6 6 8 8 8 6 6 6 8 j 8.N.",
"H H H H H H H H H H H H H H v v v j j j j f f f f f f f f f f f < < < < , , * * & & & * * r u u n Y ] o.*.8.9.s.g.x.m.m.m.t.t.7.1.E Y Y ( 1.3.r.y.y.n.eX,X:X:X:X:X-X=XJ.F.N.N.z.k.d.i.>.>.>.>.i.i.i.p.h.x.c.D.Z.D.D.S.S.S.S.R.`.tXtXtX'._.[.[.[.{.|.+X$X$X$X$X$X$X+X+X|.}.[.[._.).).`.`.`.R.S.S.T.R.R.R.R.R.W.W.W.W.W.W.1X1X1X2X2X>X6X6X6X6X8X8X8X8X8X8X8X8X6X5X:X-X;XI.L.J.H.H.H.K.E.1X<X;X>X>X:XI.F.Y.I.n.1.m u u * & + + @ o o X X X . . . .                                                                                                                               . . . . X X X X o o @ @ + + = * u x n F T { o.2.4.0.b.U.<X<X=X-X:X:X:X5X6XgXbXbXvXcXnXnXnXnXmXxXzXlXkX7X7X6XgXgXgX3X3X3X1X1X1XW.`.)._._.[.[.}.}.aXaXdXdXdXhXdXdXdXdXaX.X.X.X.X}.}.[._._.).R.R.R.W.rXuXuXyX1XE.T.C.K.U.;X<X2X0X0X0X2X;XU.K.C.Z.M.M.l.k.i.a.s.0.*.+.+.} { ] ] ] T T T [ [ } 2.2.2.2.4.4.4.5.5.8.8.9.a.s.s.f.f.f.k.k.k.l.l.l.k.d.a.>.:.-.&.O...` ` L l l j j g g 1 1 j j j l l L ' %.%.%.%.%.%.%.' $.$.@.&.-.-.,.9.9.-.-.&.@.$.` U l l k 6 6 8 6 6 8 8 8 6 6 1 f { 5.",
"H H H H H H H H H H H H H H v v j j j j j f f f f f f f f f f f < < < < , * * * & & & * * r u u n T { +.5.9.s.s.j.x.m.m.t.t.u.3.1.Y Y Y ( 1.3.r.y.y.n.eX,X,X:X:X:X-XI.Y.F.N.M.l.k.i.i.>.>.>.>.i.i.i.p.h.x.c.D.D.D.D.S.S.S.S.R.`.tXtXtX'.[.[.[.[.{.|.+X$X$X$X$X$X$X+X+X.X}.[.[._.).).S.S.S.S.S.T.S.T.R.R.T.R.R.W.W.W.W.1X1X1X1X2X2X>X6X7X6X6X8X8X8X8X8X8X8X8X6X6X>X-X;XL.L.J.J.H.G.T.1XrX<X;X>X:X=XJ.F.Y.b.6.Y u u r & + + + @ o o X X X . . . .                                                                                                                                 . . . X X X X o o @ @ + + + & , u x n F ] } +.4.6.s.I.<X<X;X=X-X:X:X5X7XgXbXbXvXvXcXnXnXnXmXmXzXlXlXkX7X8XwXgXgX3X3X3X1X1X1XW.`.`._._.[.[.}.}..XaXdXdXdXhXhXdXdXdXaX.X.X.X.X}.}.[.[._.).R.R.R.W.rXuXuXyX1XE.T.C.K.U.U.<X2X0X0X0X2X;XU.K.V.Z.M.M.l.k.d.a.:.-.*.+.+.o.{ { ] ] T T T [ [ } 2.2.2.4.4.4.4.5.5.8.8.9.9.s.s.f.f.f.f.f.k.l.l.l.k.d.a.>.:.-.&.O...` ` L l l l j j j 1 1 j j l l D U ' %.%.<.%.%.%.%.' $.$.@.&.-.-.q.q.9.-.-.&.@.$.` L P l k k 6 6 6 6 8 8 8 6 6 8 1 f f ",
"H H H H H H H H H H v v H H v v j j j j f f f f f f f f f < < < < < < < , * * & & & & * r u u m F T o.+.5.9.a.s.j.x.m.m.t.t.7.1.( Y A ( ( 1.r.y.y.y.n.eX,X,X:X:X:X=XI.F.F.N.M.k.d.i.>.>.>.>.i.i.i.i.h.h.x.D.Z.D.D.D.S.S.S.S.).`.tXtXtX'.[.[.[.{.|.+X+X$X$X$X$X$X$X@X+X.X.X[._._.).R.S.S.S.S.T.T.S.T.T.R.R.R.R.W.W.W.W.1X1X1X1X2X2X>X6X6X6X8X8X8X8X8X8X8X8X8X6X>X:X;XI.L.H.H.J.G.K.W.rX1X<X;X>X:XI.F.F.Y.e.} m u u & & + + @ o o X X X . . . . .                                                                                                                               . . . . . X X X X o o @ @ + + = * u x n F T { o.2.4.e.F.<X1X;XI.-X:X:X5X7XwXbXbXgXvXcXnXnXnXmXmXxXzXlXkX7X8XwXgXgXyX3X3X3X1X1X1XW.`._._._.[.[.}..XaXdXdXhXhXhXdXdXdXaXaX.X.X}.}.}.[.[._.).R.R.R.W.rXyXuXyX1XE.T.C.K.K.E.<X2X0X0X0X2X;XU.K.V.Z.N.M.l.k.d.a.9.-.*.*.+.X.{ { ] ] ] ] ] [ [ } 2.2.3.4.4.4.4.5.5.5.8.9.9.a.s.s.f.f.f.d.k.k.l.l.k.f.a.>.:.-.&.O...` ` L l l l j j g j j j j l l D ' ' %.<.<.<.<.%.%. .$.@.@.&.-.,.q.9.9.-.-.&.@.$.' L D l k k 6 8 6 6 6 8 6 8 8 8 1 1 8 ",
"H H H H H H H H H H v v v v v j j j j f f f f f f f f f f < < < < < < , , * * & & & * * r u u x v H o.4.8.9.s.f.x.x.m.m.t.u.3.1.Y A A ( 1.1.r.y.y.y.n.eX,X,X:X:X-XI.J.F.N.M.z.k.d.i.>.>.>.>.i.i.i.i.h.h.x.D.D.D.D.D.S.S.S.R.`.tXtXtXtX'.[.[.[.{.|.+X+X$X$X$X$X$X$X+X+X+X.X[.'.'.`.).R.S.S.S.T.T.S.T.T.R.T.R.R.W.W.W.E.E.1X1X1X2X2X>X6X6X6X8X8X8X8X8X8X8X8X6X5X>X-X;X;X<XU.L.H.K.T.tXrX1X;X>X:X-XI.F.F.n.r.Y u u * & + + + @ o X X X X . . . . .                                                                                                                                 . . . . . X X X X o o @ O + = * , u x n T ] o.2.4.0.b.;X3X;XI.=X:X:X:X7XwXbXbXgXzXcXnXnXnXmXmXxXzXlXkX7X8XwXgXgXgX3X3X3X1X1X1XW.`.)._._.[.[.}..XaXdXdXhXhXhXdXdXdXaXaX.X|.}.}.}.[.[._._.).R.R.W.rXyXgXyX1XE.T.C.K.U.U.<X2X0X0X0X2X;XU.K.V.Z.N.M.l.k.d.a.a.8.-.*.+.X.X.{ { ] ] ] ] [ } } 2.2.4.4.4.4.5.5.5.5.8.8.9.9.a.a.s.f.f.f.k.k.l.l.k.f.a.>.:.&.&.O...` _ H l l l j j j j j j j l l L '  .%.<.<.<.<.%.%.#.#.@.;.-.-.,.q.q.9.-.-.&.@.` ' L D l j 1 6 6 8 8 8 8 8 8 8 8 8 8 8 ",
"H H H H H H H H H H H j j j v v j j v f f f f f f f f f f < < < < < < , , * * & & & * r u u u E [ ] o.4.8.a.s.f.x.m.v.t.u.7.1.( A A A ( 1.1.r.y.y.n.n.eX,X,X:X-X=XI.F.F.N.M.z.k.d.i.>.>.>.>.i.i.i.p.h.x.c.D.Z.D.D.D.).S.S.R.`.tXtXtXtX'.[.[.[.{.|.+X+X$X$X$X$X$X$X+X+X+X}.[. XpXtX`.R.S.S.S.S.T.T.T.T.T.T.R.W.W.W.W.W.1X1X1X3X2X2X>X6X6X6X8X8X8X8X8X8X8X8X6X5X>X-X2XhXhX1XI.G.K.`.pXrX<X;X:X:X=XJ.F.b.r.1.n u u & + + + @ o X X X X X . . . .                                                                                                                                   . . . . . X X X X o o @ O + + & * u x n F T } +.4.6.z.U.3X<XI.I.-X:X:X5XqXbXbXgXwXcXnXnXnXmXmXxXzXlXkX7X8XwXgXhXgX3X3X3X1X1X1XW.`.)._._.[.[.[.}.aXdXdXdXhXhXhXdXdXdXaX.X}.@X.X[.[.[.[._.).R.R.W.rXgXuXyX1XE.K.C.K.K.U.<X2X0X0X0X2X;XU.K.C.Z.N.M.l.k.d.a.9.:.-.*.+.o.o.{ { ] ] ] ] [ } 2.2.3.4.4.4.6.5.5.5.5.8.8.9.9.a.a.s.s.f.f.k.k.l.l.k.d.a.9.:.-.&.O...` H H l l l j j j j j j j l b L '  .%.<.<.<.<.%.%.$.$.@.&.-.-.,.q.g.q.-.-.&.@.$.' L D j g 6 6 1 1 8 6 8 8 8 8 8 8 1 8 ",
"H H H H H H H H H H H l j j v j j j f f f f f f f f f f f < < < < < < , * * * & & & * * u u m u.m.3.o.*.8.s.f.j.x.h.v.t.u.7.1.E A A A ( 1.1.r.y.y.n.n.eX,X,X-X-X=XI.J.N.N.M.l.d.i.>.>.>.>.>.i.i.i.p.h.c.c.c.D.A.D.S.'.`.S.).'.tXtXtX'.'.[.[.[.{.|.+X+X$X$X$X$X$X$X@X+X.X}.[.'.'.tX).S.S.S.S.S.T.T.T.T.T.T.R.W.W.E.W.W.1X<X<X2X2X>X>X6X6X6X8X8X8X8X8X8X8X8X6X5X>X-X2XFXPXyXH.G.T.'.pX1X;X:X:X-XI.F.b.n.r.Y m u * & + + @ o o X X X X X . . .                                                                                                                                       . . . . X X X X X o o @ + + = * , u x n T } o.2.6.j.U.3X<XJ.I.=X-X:X5XqXvXbXvXqXvXnXnXnXnXmXxXzXlXkX7X8XwXhXhXgX3X3X3X1X1X1XW.`.)._._.[.[.[.}..XaXdXdXhXhXhXdXdXdXaX.X}.ZXZX.X[.[.[._.).R.R.W.rXyXgXyX1XE.T.C.K.K.U.<X2X0X0X0X2X;XU.J.V.Z.N.M.l.k.d.a.>.:.-.*.*.+.o.{ { ] ] ] ] [ } 2.2.3.4.4.4.6.5.5.5.5.8.8.8.9.9.a.s.s.d.f.k.k.l.l.k.d.d.9.:.-.&.O...` _ H l l l j j j j j j j l D L ' #.%.<.<.<.<.%.%.#.$.@.&.-.-.q.q.a.q.:.-.&.@.$.' D l l N N k 1 1 1 8 1 1 8 8 1 1 1 8 ",
"H H H H H H H H H H H v j j j j j j f f f f f f f f f f < < < < < < , , * * * & & & & * u u x 3.y.3.X.-.9.s.f.j.x.m.t.t.t.3.1.Y C C ( 1.1.3.r.y.y.n.n.eX,X,X-X=X;XU.I.N.M.z.l.d.i.>.>.>.>.i.i.i.i.p.h.c.D.Z.D.D.D.S.pX'.R.).tXtXtXtX'.'.[.[.[.{.|.+X+X$X$X$X$X$X$X@X+X.X}.[._._.).).S.S.S.S.S.T.T.T.T.T.T.T.W.W.E.W.W.<X<X<X2X2X>X>X6X6X8X8X8X8X8X8X8X8X8X6X>X:X;XU.yXsX<XH.K.`.pXtX<X;X:X:X=XJ.F.n.e.1.m u u * + + + @ o X X X X X . . .                                                                                                                                         . . . . . X X X X X o @ @ + + & , u x n T ] o.2.4.j.I.3X3XI.I.I.-X:X5XqXvXbXvXqXzXcXnXnXnXmXxXzXlXkXkX8XqXgXhXgX3X3X3X3X1X1XW.`.)._._.[.[.[.}..XaXdXdXhXhXhXdXdXdXaX.X}.VXZX.X[.[.[._.).).R.W.rXyXgXyX1XE.K.C.K.K.U.<X2X0X0X0X2X;XU.J.V.Z.B.M.l.k.d.a.a.:.-.*.*.+.X.{ { ] ] ] ] } } 2.2.4.4.4.4.6.5.5.5.5.5.8.8.9.9.a.s.a.a.d.k.k.l.l.k.f.a.9.:.-.*.O...` H H D l l l j j j j j l l D L ' #.<.<.<.<.<.%.%.#.@.@.&.-.-.q.g.a.9.-.-.&.@.$.' L l N N B M j 1 1 8 8 1 1 1 8 1 1 1 ",
"H H H H H H H H H H v v j j j j j f f f f f f f f f < < < < < < < , , , * * & & & & * r u u x F ] { +.5.9.s.f.j.x.m.t.t.7.3.( A C i A 1.1.3.r.y.y.n.n.eX,X,X,X;X;XI.J.N.M.z.k.d.>.>.>.>.>.i.i.i.p.p.x.D.c.Z.Z.D.D.S.).).R.`.tXuXtXtX'.'.[.[.[.|.|.+X+X$X$X$X$X$X#X@X+X.X}.[._.).).~.S.S.S.S.S.T.T.T.T.T.T.T.E.W.E.E.E.<X<X<X2X2X>X>X6X6X6X8X8X8X8X8X8X8X8X6X>X>X2X;XU.E.J.G.K.'.pXrX;X;X:X-XI.J.b.n.r.T x u * & + + @ o o X X X X . . . .                                                                                                                                         . . . . . X X X X X o o @ + + = * u u n F ] } o.4.s.F.2X3XU.L.I.=X:X5XqXvXbXvXqXlXcXnXnXnXmXmXxXlXkXkX7XqXgXhXgX3X3X3X3X1X1XW.`.`._._._.[.[.}..XaXdXdXhXhXhXdXdXdXaXaX}.}..X[.[.[.[._.).).R.W.rXyXgXyX1XE.K.C.K.K.U.<X2X0X0X0X2X;XU.J.V.C.B.N.l.k.d.d.a.>.:.*.*.+.X.X.{ { ] ] } } o.2.2.4.4.6.6.6.6.5.5.5.5.8.8.8.9.9.a.a.a.d.k.k.l.l.k.f.a.9.:.-.&.O...` H H D l l l j j j j j l l L ` ' %.<.<.t.<.<.%.#.#.@.&.-.-.-.q.a.a.9.9.-.&.@.$.' L D j j k k 1 1 8 8 8 8 1 8 1 1 1 1 ",
"H H H H H H H H H H H v v v v v j f f f f f f f f f < < < < < < < < , * * * & & & & * * u u x F _ X.*.5.0.s.j.j.x.m.t.t.7.1.E C Y 3.( Y 1.3.r.y.n.n.n.eX,X,X=X=XI.J.F.N.z.z.k.a.>.>.>.>.>.i.i.i.p.h.x.c.c.D.D.D.A.S.S.S.).`.tXuXtXtX'.'.[.[.[.{.+X+X$X$X$X$X$X$X#X@X+X|.}.[._.).).~.S.S.S.S.T.T.S.T.T.T.T.T.T.E.E.E.E.<X<X<X2X2X>X6X6X6X6X8X8X8X8X8X8X8X6X6X>X2X3X<XI.J.H.G.T.pXpX1X;X>X:X-XI.F.b.e.2.Y u u * + + + @ o o X X X X . . .                                                                                                                                           . . . . . X X X X X X o @ @ + + * , u x F T } o.2.e.F.<X3X;XL.I.=X:X5XwXvXbXvXqXqXcXnXMXnXmXmXzXlXkXkXkXlXvXhXgX3X3X3X1X1X1XW.`.)._._._.[.[.}..XaXdXhXhXhXhXdXdXdXaXaX}.}.}.[.[.[.[._._.).W.W.rXyXgXyX1XE.K.C.K.K.U.<X2X0X0X0X2X;XU.K.V.C.B.M.l.k.d.d.a.9.:.-.*.+.o.X.} { { ] { } o.2.4.4.6.6.6.6.6.5.5.5.5.5.8.8.9.9.9.a.a.d.f.k.l.l.k.d.a.9.:.-.&.O..._ H L D l l l l j j j l l D L ' @.<.t.t.t.<.<.%.%.#.@.&.-.-.-.9.a.9.9.-.-.&.@.` ` U l l j g 1 1 1 8 6 8 8 8 8 1 1 8 6 ",
"H H H H H H H H H H v v v v v v j f f f f f f f f < < < < < < < < < , * * * & & & & * * u u v H { +.*.8.0.s.j.j.x.h.w.7.3.1.Y m u.bXjXY 1.r.r.y.n.n.n.eX,X,X=XI.J.F.F.N.z.k.d.a.>.=.>.>.>.i.i.i.p.h.x.c.D.D.D.S.).S.S.R.).tXtXuXtXtX'.'.[.[.{.|.+X+X$X$X$X$X$X$X#X@X@X+X}.[._.).).).S.S.S.S.T.T.T.T.T.T.T.T.T.E.E.E.E.<X<X<X2X2X>X6X6X6X6X8X8X8X8X8X8X8X6X6X:X>X2XU.I.J.H.K.`.aXtX<X;X>X:X=XJ.F.n.6.[ m u * & + + + @ o X X X X X . . .                                                                                                                                             . . . . X X X X X X o o @ + + & * u x F T { o.2.0.F.;X3X;XJ.L.=X-X5XwXvXbXvXqXqXcXnXMXnXnXmXxXzXkXkXkXlXvXbXgX3X0X3X3X1X1XW.`.`.)._._.[.[.[.}.aXsXhXhXhXhXhXdXdXaXaX.X}.}.}.}.[.[.[._.).R.W.rXyXgXyX1XE.K.C.K.K.U.<X2X0X0X0X>X;XI.K.V.C.B.M.M.k.k.d.a.9.:.-.*.+.o.X.} { { ] { } o.2.4.6.6.6.6.6.6.5.5.5.5.5.8.8.9.9.9.a.a.a.f.k.l.l.k.d.a.9.:.-.&.O..._ _ H D l l l l l l l l l L ` ` #.<.t.t.t.<.<.%.#.@.@.&.-.-.,.q.a.9.9.-.-.&.@.` ` U l l j g j 8 8 8 6 8 8 8 1 8 1 8 6 ",
"l l H H H H H H l H v j j j j j f f f f f f f f < < < < < < < < , , , * * * & & & & * r u x n H { +.-.8.s.s.j.j.x.h.w.7.3.1.Y u 3.jXBXY 1.3.y.y.y.n.n.eX,X=X=XI.J.F.N.N.z.k.d.i.>.=.>.>.>.i.i.i.p.h.x.c.D.D.D.).).R.S.).`.tXtXuXtXtX'.'.[.[.{.|.+X+X$X$X$X%X$X$X#X@X@X+X}.[._.).).).S.S.S.S.T.T.T.T.T.T.T.T.T.E.E.E.E.<X<X3X3X2X>X6X6X6X6X8X8X8X8X8X8X6X6X>X:X=XI.L.L.H.G.K. XaXrX;X>X>X:X=XY.b.j.4.T u u * & + + @ o o X X X X X . . .                                                                                                                                             . . . . X X X X X X X o @ O + = * u x n T ] } 2.0.b.;X3X;XJ.L.I.-X:XqXvXbXvXqXqXcXnXMXnXnXmXxXzXkXkXkXlXvXbXgX3X0X3X3X1X1X1X`.`.)._._.[.[.[.}.aXdXdXhXhXhXhXdXdXdXaX.X}.}.}.}.}.[.[._.).W.W.rXyXuXyX1XE.K.C.K.K.U.<X2X0X0X0X>X;XU.K.V.C.M.M.M.l.k.d.a.9.:.-.*.+.o.o.X.{ { { } o.2.2.4.6.6.6.6.6.6.5.5.5.5.5.8.8.8.9.9.a.a.a.d.k.l.l.k.f.a.>.:.-.&.O..._ H H l l l l j j j l j D L ` ' #.<.t.t.t.<.<.%.#.@.@.&.-.-.q.q.a.g.>.-.-.&.$.` ` U j l k j g 8 8 6 6 6 8 8 1 1 1 1 6 ",
"H H l l H H H H l v j j j j j j f f f f f f f f < < < < < < < < < , , * * * & & & & r u u x n H { +.5.8.s.j.j.j.h.w.w.7.1.E A C i A A ( 1.3.y.y.n.n.n.eX,X;XI.I.J.F.N.M.z.k.d.>.>.=.=.>.>.i.i.i.p.x.x.c.D.D.D.~.R.S.S.).`.tXuXuXtXtX'.'.[.[.[.|.+X+X$X$X$X$X$X$X#X@X@X+X}.[._.).).R.R.S.S.S.T.T.S.T.T.T.T.T.T.E.E.E.E.1X1XyX3X2X>X6X6X6X6X8X8X8X8X8X8X6X5X>X:X=XI.L.I.H.G.R.aXaX1X-X:X>X:X=XF.b.e.2.Z u u * + + + @ o X X X X X . . . . .                                                                                                                                           . . . . . X X X X X X o o @ + + * u u n T ] { o.6.b.;XyX<XJ.L.I.-X:XqXvXbXvXqXqXzXnXMXnXnXmXxXzXkXkXkXzXbXbXgX3X0X2X2X2X1X1XW.`.)._._._.[.[.}.aXsXsXhXhXhXhXdXdXdXaX.X}.}.}.}.[.[.[._.).W.`.rXyXgXyX1XE.K.C.K.U.;X<X2X0X0X0X>X;XI.K.V.B.M.M.M.l.k.d.a.9.:.-.*.+.+.o.X.} { { { o.2.4.6.6.6.6.6.6.6.5.5.5.5.5.5.8.8.8.9.9.a.a.d.k.l.l.k.d.a.9.:.-.&.O..._ H L L l j l f f j l j H L ' @.#.<.t.t.t.<.<.%.#.@.@.&.-.-.q.q.a.9.q.-.-.&.$.` ` P j l k j g 8 6 8 6 6 8 1 1 1 1 1 8 ",
"H H H H H H j j v j j j j j j j f f f f f f f f < < < < < < < < < , , * * & & & & & r u u x n H { +.5.9.s.f.j.j.j.w.w.7.1.E A C C A ( 1.1.r.y.y.y.n.Y.Y.,XI.I.J.J.F.N.M.l.k.d.>.=.=.=.>.>.i.i.i.p.x.x.D.D.D.D.S.S.S.S.).`.tXuXuXtXtX'.'.[.[.{.|.+X+X$X$X%X%X$X#X#X@X+X.X}.[._.).).R.R.S.S.T.T.T.T.T.T.T.T.T.T.E.E.E.E.1X1XyX3X2X>X6X6X6X8X8X8X8X8X8X8X6X5X:X-X=XI.I.L.H.J.`.VXpX<X-X:X:X:XI.F.j.6.[ n u * & + + @ o o X X X X X . . . .                                                                                                                                                 . . X X X X X X X o o @ + + & , u x F T } o.6.z.;X3X<XL.H.I.-X5XqXvXbXvXqX8XzXnXMXMXnXmXxXlXkXkXkXzXbXbXgXwX0X2X3X1X1X1XW.`.)._._.[.[.[.}..XsXsXhXhXhXhXhXdXdXaXaX}.}.}.}.}.[.[._.).`.`.rXgXgXyX1XT.K.C.K.U.;X<X2X0X0X0X>X;XI.K.V.B.M.M.M.l.k.d.a.i.:.-.*.+.O.X.X.{ { { o.o.2.4.6.6.6.6.6.6.4.4.5.5.5.5.5.8.8.8.8.9.a.a.d.k.k.l.k.d.a.9.:.-.&.O.` _ _ H j j j j U v f l D L L ' #.<.<.t.t.t.<.<.<.#.@.@.&.-.w.q.g.a.a.q.-.-.&.$.` ` L l j j g g 6 6 8 8 1 1 1 1 1 1 1 1 ",
"H H H l H H j j j j v j j j j j f f f f f f f < < < < < < < < < , , , * * & & & & & * u u x F H { +.5.9.s.f.j.j.j.w.q.3.1.Y C i A ( ( 1.3.r.y.y.n.n.Y.Y.Y.I.J.J.J.N.M.z.k.d.i.>.=.=.=.>.i.i.i.p.h.x.c.D.D.S.S.S.S.S.S.).`.tXuXuXtXtX'.'.[.[.{.|.+X+X$X$X%X%X$X#X#X@X+X.X}.[._.).).R.S.S.S.S.T.T.S.T.T.T.T.T.T.E.E.E.E.<X<X1X3X2X>X6X6X8X8X8X8X8X8X8X8X6X5X:X-X=XI.I.L.H.K.'.VXrXU.-X:X:X-XI.b.e.3.T m u * = + + @ o o X X X X . . . .                                                                                                                                                   . . X X X X X X X o o @ + + = * u x F T ] o.5.z.U.3X2XJ.J.I.-X5XqXvXvXvX8X8XlXnXMXMXnXmXxXlXkXkXkXvXbXbXgXwX0X2X3X1X1X1XW.`.).)._._.[.[.}. XaXsXhXhXhXhXdXdXdXaXaX}.}.}.}.}.}.[._.).).`.rXgXgXyX1XT.K.C.K.U.;X<X2X0X0X0X>X;XI.K.V.B.M.M.M.l.k.d.d.i.:.-.*.+.+.X.X.X.{ { o.o.2.4.6.6.6.6.6.6.5.5.4.4.5.5.5.5.5.8.8.9.9.a.d.k.l.l.k.d.a.9.:.-.&.O.` _ H j j H f D u. .f j L L ` ' #.<.<.t.t.t.<.<.#.#.@.&.-.-.-.q.g.a.a.q.-.&.&.$.` ` D j j j j 1 6 1 8 6 1 1 1 1 1 1 1 1 ",
"H H H l H H H H v j j j j j j j f f f f f f f f < < < < < < < < , , , * * & & & & & * u u x F ] { +.5.9.f.f.j.j.j.w.q.3.[ A C C C ( ( 1.3.r.y.y.n.n.Y.Y.Y.I.J.J.J.N.M.l.k.d.i.>.=.=.>.>.i.i.i.h.h.c.c.D.D.D.D.S.S.S.S.`.`.tXuXuXtXtX'.'.[.[.{.|.+X+X$X$X$X$X$X$X#X@X+X.X[.[._.).).R.S.S.S.S.T.T.A.T.T.T.T.T.T.E.E.E.E.<X<X<X2X2X>X6X6X6X8X8X8X8X8X8X8X6X>X:X-XI.I.I.L.H.T.pXaX1XI.-X:X:X-XY.b.e.2.Y m u & + + O @ o X X X X X . . . .                                                                                                                                                   . . . X X X X X X o @ @ + + & * u x F T ] o.4.j.I.3X3XJ.J.I.-X5XqXvXvXvX8X7XlXnXMXMXnXmXxXlXkXkXkXvXbXbXgXwX0X2X3X1X1X1XW.`.).)._._.[.[.}. XaXsXhXhXhXhXhXdXdXaXaX.X}.}.}.}.}.[._._.`.`.rXuXuXyX1XT.K.C.K.K.;X<X2X0X0X0X>X;XI.K.V.B.M.M.M.l.k.d.d.i.:.-.-.*.+.+.X.X.{ { o.+.4.6.6.6.6.6.6.6.4.4.4.5.5.5.5.5.5.5.8.8.9.a.d.k.l.l.k.d.a.9.:.-.&.O.` ` H l t.OXj j  .D j H D L ` ' #.<.t.t.t.t.<.<.#.#.@.&.-.-.-.q.g.a.a.q.-.&.@.$.` L D l j j k 6 6 6 6 6 1 1 1 1 1 1 1 1 ",
"H H H H H H H H v j j j j j j j f f f f f f f f < < < < < < < < , , * * * & & & & & * u u m F ] X.*.8.9.f.f.j.j.j.w.7.3.E Z C C A ( ( 1.3.r.y.y.n.m.m.Y.Y.I.J.J.J.N.M.l.k.i.i.>.=.=.>.>.i.i.i.h.h.x.D.D.)._.S.S.S.S.).`.rXuXuXuXtXtX'.'.[.[.{.|.+X+X$X$X%X$X$X$X#X@X+X.X}.[._.).).R.S.S.S.S.A.T.T.T.T.T.T.T.T.T.E.E.E.<X<X1X3X2X>X6X6X6X8X8X8X8X8X8X8X6X>X:X;XI.I.L.H.H.W.aXpXE.I.-X>X:X-XY.j.6.} F u r & + + @ @ o X X X X X . . .                                                                                                                                                     . . . . X X X X X o o @ + + & * u x n T ] } 4.j.I.3X3XJ.J.I.-X5XqXvXvXzX8X7XlXmXMXMXnXmXxXzXkXkXkXvXbXbXgXwX0X2X2X3X1X1XW.`.).)._._.[.[.[. XaXsXhXhXhXhXhXdXdXaXaX}.}.}.}.}.}.[.[.'.`.`.rXuXuXyX1XT.K.C.K.U.;X<X2X0X0X0X>X;XI.K.V.B.M.M.M.l.k.k.d.i.:.-.-.*.+.+.X.X.{ o.o.+.4.6.6.0.6.6.6.6.4.4.4.4.4.4.5.5.5.5.8.8.9.a.d.k.l.l.k.d.a.9.:.-.&.O...` H H jXfXL f j j v H H H ` $.#.<.t.t.t.t.<.<.#.#.@.-.-.-.q.q.a.a.a.9.-.&.@.$.' L D l j j k 6 6 6 6 6 1 1 1 1 1 1 1 1 ",
"H H l l l j H H H H j j j j f f f f f f f f f < f < < < < < < < , , * * * & & & & & * u u m F ] X.*.8.0.f.j.j.j.j.w.6.1.E A C C A ( ( 1.3.r.y.y.m.m.Y.Y.Y.I.I.J.F.N.M.l.k.i.i.=.=.=.>.>.i.i.h.x.x.c.D./.AXAX).S.S.S.).`.tXuXuXuXtXtX'.'.[.[.{.|.+X+X$X$X%X%X$X$X#X@X@X.X[.[._.).).S.S.S.S.S.S.T.A.T.T.T.T.T.T.T.E.E.E.<X1X1X3X2X>X6X6X6X8X8X8X8X8X8X8X6X6X2X>X;XL.H.H.J.`.aXpXU.=X-X>X:X=Xb.j.4.[ n u * & + + @ o o X X X X . . .                                                                                                                                                         . . . . X X X X X o @ O + = * u x n T ] } 4.j.I.3X3XJ.J.I.-X5XqXvXvXzX8X5XkXcXnXMXnXmXxXzXkXkXkXcXbXbXgXwX0X0X2X2X1X1XW.`.).)._._._.[.[. XaXsXsXhXhXhXhXhXdXaX.X}.}.}.}.}.}.[.[.'.'.`.rXuXuXyX1XT.K.C.K.U.;X<X2X0X0X0X>X;XI.K.V.B.B.M.M.l.k.k.d.a.>.:.-.*.+.+.X.X.X.X.o.2.4.6.6.0.0.6.6.6.4.4.4.4.4.4.5.5.-.-.-.8.9.a.d.k.l.l.k.d.a.9.:.-.&.....` H H 7.u.H f l j H H H _ ` @.#.<.t.t.t.<.<.<.#.@.;.&.-.-.q.g.a.s.9.8.-.&.@.$.' L D l j j k 6 k g 8 6 1 8 1 1 1 1 1 1 ",
"H H l H H j H H H H j j j j f f f f f f f f f < < < < < < < < < , , * * * & & + & & r u u n F ] X.*.8.s.f.f.j.j.e.w.3.} E A C C A ( ( 1.3.r.y.y.m.m.m.Y.Y.I.Y.J.F.N.M.k.d.i.>.=.=.>.>.i.i.i.h.x.x.c.D./.aXaX).A.S.S.).`.tXuXuXtXtXtX'._.[.[.{.|.+X+X$X$X%X%X$X$X#X#X@X.X[._._.).).S.S.S.S.T.A.C.C.A.T.T.T.T.T.E.E.E.E.<X<X1X2X2X>X6X6X6X8X8X8X8X8X8X8X6X0X3X2X;XL.H.H.K.'.VXrXI.=X;X>X-XI.b.j.2.T m u * = + + @ o o X X X . . . .                                                                                                                                                           . . . X X X X X o @ @ + = * , x n T ] } 4.j.I.3X1XJ.J.L.-X5XwXvXvXqX7X7X8XcXnXMXnXmXxXzXkXkXlXcXNXbXgXqX0X0X2X2X1X1XW.`.).).)._._.[.[.}.aXsXsXhXhXhXhXhXdXdXaX}.}.}.}.}.[.[.[._.`.`.rXuXgXyX1XT.K.C.K.U.;X<X2X0X0X0X>X;XI.K.B.B.B.M.M.l.k.k.d.a.9.:.*.*.+.+.o.X.X.X.o.2.4.6.0.0.0.6.6.6.4.4.4.4.4.4.4.4.*.-.5.8.9.a.d.k.k.k.k.d.a.9.:.-.O...` _ H H l f j j D l l H H ` ` @.<.t.t.t.t.<.<.#.#.@.;.-.-.:.q.a.s.a.9.-.-.&.@.$.' L D l j j k 6 j g 8 8 8 8 8 1 1 1 1 1 ",
"H H H H H v v j H v j j j j f f f f f f f f f < < < < < < < < < , , * * & & & & & * u u u n H { o.-.8.s.f.j.j.s.q.q.3.[ Y C C C A ( ( 3.3.r.u.y.m.m.m.Y.Y.I.J.J.N.N.M.k.d.i.>.=.=.>.i.g.g.h.i.h.p.D.c.D.S.S.S.S.S.R.).`.tXuXuXtXtXtX'._.[.[.{.|.+X+X$X$X%X%X$X$X#X#X@X|.[._._.).).S.S.S.S.S.A.T.T.C.C.T.T.T.T.T.E.E.E.E.<X1X3X2X>X6X6X6X8X8X8X8X8X8X8X0X0X2X>X;XL.L.H.K.pXVX1XL.=X>X>X-XI.b.e.2.Y x u * + + + @ o X X X X . . . .                                                                                                                                                           . . . X X X X X o @ @ + = * , u n Y ] } 2.j.U.3X1XF.F.I.-X6XwXvXvXqX7X7X8XcXnXMXnXmXxXzXkXkXlXnXNXbXwXqX0X0X2X2X1X1XW.`.).)._._._.[.[.}.pXsXsXsXhXhXhXdXdXdXaX}.}.}.}.}.}.[.[._.'.`.rXuXgXyX1XT.C.C.K.U.;X<X2X0X0X0X>X;XI.K.B.B.M.M.M.M.l.k.d.a.9.:.-.*.+.+.+.o.X.o.+.4.5.6.0.0.0.6.6.4.4.4.4.4.4.*.4.*.*.-.5.8.9.a.d.k.k.k.k.d.a.9.:.-.O...` _ H H H H H j l l D H ` ` $.#.<.t.t.t.t.<.<.#.#.;.&.-.-.q.g.a.a.a.9.-.-.&.@.` ' L D l j j j j 1 1 8 8 8 1 1 1 1 1 1 1 ",
"l H l l H j j j H v v j j j j f f f f f f f < < < < < < < < < < , , * * * * r r r r u u m n T { +.-.8.s.f.j.j.s.q.r.3.[ A C C C A ( 1.3.3.u.u.y.m.m.m.Y.U.I.J.J.N.N.z.k.d.i.>.=.=.>.i.g.x.h.i.p.h.x.c.D.D.D.S.S.S.R.).rXtXuXuXuXtX'.'._.[.[.{.|.+X+X$X$X$X%X$X$X$X#X@X.X[.[._.).).S.S.S.S.A.C.rXsXT.C.T.T.T.T.T.E.E.E.E.1X1X3X2X>X6X6X6X8X8X8X8X8X8X8X6X>X;X;XI.L.L.H.E.aXaXW.L.;X>X>X-XY.z.0.} F u u & + + @ @ o X X X X . . . .                                                                                                                                                           . . . . X X X X o @ @ + = * , u n Y ] } 2.j.U.yX1XF.F.L.-X6XgXvXvXqX7X7X8XcXnXnXnXmXxXzXkXkXzXnXNXvXwXwXqX0X2X2X1X1XW.R.).)._._._.[.[.}.pXsXsXsXhXhXhXdXdXdXaX}.}.}.}.}.}.[.[._.'.`.rXgXgXyXE.K.C.C.K.U.;X>X2X0X0X0X>X;XJ.K.B.B.B.M.M.M.l.k.k.a.9.:.-.*.+.+.+.X.X.o.+.4.5.0.0.e.0.6.6.4.4.4.4.4.4.+.*.*.*.*.*.-.:.a.d.k.k.k.k.d.a.9.:.*.O...` _ H H H l H l j l D H ` ` @.#.<.t.t.t.t.<.<.#.#.@.&.-.-.9.a.a.a.a.9.-.-.&.@.` ' L D l j j j j 1 1 1 1 1 8 1 1 1 k j 1 ",
"l l H H H l j j v j j j j j j j f f f f f f < < < < < < < < , , , , * * * * r r r r u u m F ] o.+.5.9.s.f.j.j.s.q.7.2.E A C C C A ( 1.3.3.u.u.m.m.m.Q.U.U.Y.J.J.N.M.z.k.d.i.:.=.=.=.>.g.x.x.h.h.x.c.D.D.D.S.S.S.S.).`.tXtXuXuXuXtX'.'.[.[.[.{.|.+X+X$X$X$X%X$X$X#X#X@X.X}.[._.).).S.S.S.S.A.C.rXuXT.C.T.T.T.T.T.E.E.E.E.1X1X3X2X>X6X6X8X8X8X8X8X8X8X8X6X>X-X=XL.L.H.J.W.aXpXE.L.;X>X>X=XF.j.6.[ Z u * & + + @ o o X X X X . . . .                                                                                                                                                         . . . . X X X X X o @ @ + = * , u n Y [ o.2.j.U.yX1XF.F.I.-X0XgXvXvX8X7X7X8XcXnXMXnXmXxXzXkXkXzXMXNXvXqXwXwX0X2X2XgXuXrX).).)._._._._.[.}.pXsXsXsXhXhXhXhXdXdXaX}.}.}.}.}.}.}.[._.'.`.tXuXuXyXE.K.C.C.K.U.;X2X2X0X0X>X;XI.H.B.B.B.B.M.M.N.l.k.i.a.>.-.-.*.*.+.+.X.X.o.+.4.6.0.e.e.0.6.6.4.4.4.4.4.2.+.+.+.5.0.0.-.&.a.d.k.k.k.k.d.a.9.-.*.O...` _ H H H l j b b H H H ` ` @.;.7.t.t.t.t.<.<.#.;.;.&.-.-.9.9.a.a.a.9.:.-.&.O.` ' L l l j j j j 1 1 1 1 1 1 8 6 1 k j j ",
"j j H H H l j j j j j j j j j f f f f f f f f < < < < < < < , , , , * * & & * r & * * u x F ] X.+.5.9.s.f.j.j.s.q.6.2.E Z C C A A ( 1.3.3.u.u.m.m.m.Q.U.U.Y.J.J.N.M.z.k.d.>.=.=.=.=.>.i.g.h.h.h.h.c.D.D.D.S.S.S.S.).`.tXuXuXuXuXtX'.'.[.[.[.{.|.+X$X$X$X$X$X$X$X#X#X+X|.}.[._.).).S.S.S.S.A.C.C.A.C.A.W.rXE.T.T.E.E.E.E.1X1X3X2X>X6X6X8X8X8X8X8X8X8X8X6X>X-X=XI.L.H.J.`.VXtXU.L.;X>X:X=Xb.s.4.[ n u * + + + @ o o X X X X . . . .                                                                                                                                                         . . . . X X X X X o @ @ + = * , u n Y ] } 4.j.U.yX<XF.F.I.:X0XgXvXwX8X7X7X8XcXnXMXnXmXxXzXkXkXxXMXbXvXqXwXwX0X2X2XgXuXrX`.).)._._._._.[. XpXsXsXsXhXhXhXhXdXdXaX}.}.[.}.}.}.}.[.[.'.'.tXuXgX1XE.K.C.C.K.U.;X2X2X0X0X>X;XI.H.B.B.B.B.M.B.N.l.i.d.a.:.:.-.*.*.+.+.X.X.+.+.5.6.0.e.e.0.6.6.4.4.4.4.4.2.2.+.o.0.4X3Xj.&.a.d.k.k.k.k.d.a.:.-.*.O...` _ H H l H j l v H H H ' $.@.;.7.t.t.t.t.<.;.#.@.;.-.-.-.q.q.a.a.a.9.:.-.&.@.` ' L l l j j 1 k 1 1 1 1 1 1 1 6 1 > j j ",
"j j H H H H j j v j j j j j f f f f f f f f < < < < < < < < , , , , , r r & & + & & * u u n H { +.-.9.s.f.j.j.e.0.4.1.E Z C C A A ( 1.3.3.u.u.m.m.m.Q.U.K.Y.J.N.N.M.l.k.i.>.=.=.=.>.>.i.i.i.i.h.h.c.D.D.D.S.S.S.~.).`.tXuXuXuXuXtX'.'._.[.[.{.+X+X$X$X$X$X$X%X$X#X#X@X|.}.[._.).).S.S.S.A.A.T.C.C.T.T.W.rXW.T.T.E.E.E.E.1X1X3X2X>X6X6X6X8X8X8X8X8X8X8X6X>X-X=XI.L.L.U.'.aXtXK.L.;X>X:XI.b.e.4.[ n u * + + @ @ o o X X X . . . . .                                                                                                                                                         . . . . . X X X X o @ O + = * , x n Y ] } 4.j.U.yX<XF.J.I.:X0XgXvXqX8X7X7X8XcXMXMXnXmXxXzXkXlXmXMXbXvXqXwXwX0X2X2X3X1XW.R.).).)._._._.[. XpXpXsXsXsXhXhXhXdXdXaX.X}.[.}.}.}.}.[.[.'.'.tXuXyX1XE.K.C.C.K.U.;X2X0X0X0X>X;XI.G.B.B.B.B.M.M.M.l.l.N.z.9.:.-.*.*.+.O.O.+.+.*.5.0.0.e.e.0.6.6.4.4.4.4.4.2.+.+.o.e.gXIX4X:.>.a.k.k.k.f.a.9.:.-.&.O...` _ H H D D l b H H H H ` @.#.<.t.t.t.t.t.<.;.#.;.&.&.-.w.9.a.a.a.a.9.:.-.&.@.` ` L l l j 1 1 8 1 1 1 1 1 1 1 1 , , j j ",
"j j H H H H j j j j j j j j f f f f f f f f < < < < < < < < , , , * * * * & = & & * * u x v H { O.-.9.s.f.j.j.e.0.2.} Y Z C C A ( ( 1.3.u.u.u.m.m.m.Q.U.K.Y.J.N.N.M.l.d.i.>.=.=.=.>.>.i.i.i.i.h.h.c.D.D.D.S.S.S.~.).`.tXuXuXuXuXtX'.'._.[.[.{.+X+X$X$X$X$X%X%X%X#X#X@X.X}.[._.).).S.S.S.A.A.A.A.C.T.C.T.T.T.T.E.E.E.E.W.1X1X3X2X>X6X6X6X8X8X8X8X8X8X8X6X:X-X=XL.L.L.U.tXaXrXI.L.;X>X:XY.b.e.2.T m u * + + @ o o o X X X . . .   .                                                                                                                                                         . . . . X X X X X o @ @ + = * u x n Y ] } 4.z.;XyXE.F.J.=X:XwXgXvXqX7X7X5X8XcXnXMXnXmXxXzXkXlXmXMXnXvXqXwXwXwX0X2X2X<XW.W.).).)._._._.[. XpXpXsXsXsXhXhXhXdXdXaX.X}.}.}.}.}.}.[.[.'.'.tXuXyX1XE.K.C.K.K.U.;X2X0X0X0X>X;XI.G.B.B.B.B.B.M.M.l.k.k.z.9.-.-.-.*.+.+.+.+.+.*.5.0.e.e.e.0.6.6.4.4.4.4.4.2.2.+.o.4.4XgXn.-.9.a.k.k.k.d.a.9.:.-.&.O.` _ _ H H H l l b D H H ` ` @.;.7.t.t.t.t.7.<.;.;.@.&.&.-.w.9.a.s.a.a.9.:.-.O.@.` ` L l l j j 1 1 6 1 1 1 1 1 1 1 , c j > ",
"j j j l H H l l j j j j j f f f f f f f f f f < < < < < < , , , , * * = & & & & t r u u x n H { +.-.8.s.j.j.s.0.6.2.[ Y Z C C A ( ( 1.3.u.u.u.m.m.m.Q.U.K.Y.J.V.N.M.l.d.i.=.=.=.=.>.>.i.i.i.i.h.h.c.D.D.D.S.S.S.~.).`.tXuXuXuXuXtX'.'._.[.[.{.+X+X$X$X$X%X%X%X%X#X#X@X.X}.[._.).).R.S.S.S.A.A.C.C.C.T.T.K.T.T.E.E.E.E.1X1XrX3X2X>X6X6X6X8X8X8X8X8X8X8X5X:X-X=XI.L.H.U.tXpXW.H.L.;X>X-XY.b.e.2.T m u * + + @ o o X X X X . . .                                                                                                                                                               . . . . X X X X o @ O + & * u x n T ] } 5.b.;X3XU.F.J.=X>XwXvXvXqX7X7X7X8XcXnXMXnXmXxXzXlXzXnXMXnXzXqXqXwXwX0X2X2X1XW.W.`.).)._._._.[. XpXsXsXsXsXhXhXhXdXdXaX}.}.[.}.}.}.}.}.[.'.'.uXuXyX1XT.C.C.K.K.U.;X2X0X0X0X>X;XI.G.B.B.B.B.M.M.M.l.i.i.i.9.:.:.5.*.*.+.+.+.+.4.5.0.e.e.e.e.6.6.4.4.4.4.2.2.+.o.o.{ 4.0.-.-.:.a.k.k.k.d.a.9.:.*.O.X.` _ H H H H l j D H H L ` ` @.;.<.t.t.t.t.t.<.;.;.&.&.-.-.q.a.a.f.s.a.9.:.&.O.$.` ` D l j j j 1 1 j j j 1 1 1 1 1 > B N > ",
"j j H l H H l j j j j j f f f f f f f f f f < < < < < < < < , , , , * * & & & & & r u u x n H { +.-.8.s.f.j.s.0.6.2.[ Y C C C A ( ( 3.3.u.u.u.m.m.m.Q.U.K.J.J.N.N.M.l.d.>.=.=.=.=.=.>.>.i.i.p.h.h.c.c.D.D.S.S.S.).).`.tXuXuXuXuXtX'.'._.[.[.{.&X+X$X$X$X$X%X%X%X#X#X@X+X}.[._.).).R.R.S.S.A.A.A.A.A.T.T.T.T.T.T.E.E.E.1XrXyX3X2X>X6X6X6X8X8X8X8X8X8X8X6X:X-XI.L.L.H.U.tXpXW.H.L.;X>X-XY.n.e.2.Y m u & + + @ o o X X X X . . . .                                                                                                                                                             . . . . X X X X o @ + + & * u x F T [ o.6.b.<X3XU.F.L.-X>XwXvXwX8X7X7X7X8XcXnXMXnXmXxXzXzXxXMXMXvXlXqXwXwXwX3X2X2X1XW.W.).).)._._._.[.}.pXsXsXsXsXhXhXhXdXdXaX}.}.[.[.}.}.}.}.[.'.'.uXuXyX1XT.C.C.K.U.U.;X2X0X0X0X>X;XI.G.B.B.B.B.M.M.M.l.k.d.a.9.:.-.*.*.*.+.+.+.*.4.5.0.e.e.e.e.6.6.4.4.2.2.2.2.+.o.o.o.o.o.+.-.>.a.k.k.k.f.a.>.:.-.O...X.7.@._ H H l l H D H H ' $.@.;.t.t.t.t.<.7.<.;.;.&.&.-.-.9.a.a.f.s.a.9.:.&.O.$.' L D l j j j j 1 g j 1 1 1 1 1 1 > B P > ",
"H l H H H l l l j j j j j f f f f f f f f f < < < < < < < < , , , , * * & & + + & * r u x n H { +.5.9.s.f.j.s.0.5.2.E Y C C C A ( ( 3.3.u.u.u.m.m.m.Q.U.K.J.J.V.N.M.l.i.>.=.=.=.=.=.>.i.i.i.p.h.x.D.c.D.D.S.S.S.).).'.tXuXuXuXuXtX'.'._.[.[.{.+X+X$X$X$X%X%X#X#X#X#X@X+X}.[._.).).R.S.S.A.A.A.A.A.T.T.T.T.T.T.T.E.E.E.1XrXyXyX2X>X6X6X6X8X8X8X8X8X8X8X5X:X-XI.L.L.L.E.tXpXE.H.L.;X2X;XY.j.e.o.Y m r & + + @ @ o X X X X X . . .                                                                                                                                                             . . . . . X X X o @ O + & * u m F T [ o.6.F.2X3XI.J.I.-X6XgXvXqX8X7X7X7X8XcXnXMXnXmXzXzXzXcXMXMXcXlXqXwXgXwX3X2X2X<XW.W.`.)._._._._.[. XpXsXsXsXsXhXhXhXdXdXaX}.}.[.}.}.}.}.}.}. X'.uXuXyX1XT.C.C.K.U.;X;X2X0X0X0X>X;XI.G.B.V.B.B.M.M.M.k.k.k.a.>.:.-.&.*.*.+.+.+.*.5.0.0.e.e.e.0.6.6.4.4.2.2.2.2.o.} o.o.} o.O.*.>.d.k.k.k.k.a.:.&.&.O.` 7.m.7._ H H H D D D D H ` $.;.<.t.t.t.t.<.<.;.;.-.&.-.-.w.9.a.a.f.s.a.9.:.&.O.$.' L D l j j j j 1 j g j 1 1 1 1 1 > b N j ",
"l H H H l l l j j j j j f f f f f f f f f f < < < < < < < , , , , , * * & & + + & & r u x n H { +.5.9.s.f.j.s.0.4.o.E Z C C C A ( ( 3.3.u.u.u.m.m.m.Q.Y.K.J.J.V.N.M.l.d.>.=.&.=.=.=.>.i.i.i.p.h.x.D.c.D.D.S.S.S.).).'.uXuXuXuXuXtX'.'._.[.[.{.+X+X&X$X$X$X%X#X#X#X#X@X+X}.[._.).).R.S.S.A.A.A.A.A.T.T.T.T.T.T.T.E.E.E.1XrXyXyX3X>X6X6X8X8X8X8X8X8X8X8X5X:X=XI.L.L.L.E.tXtXE.H.L.;X2X;XY.j.e.} Y u * & + + @ o o X X X X X . . .                                                                                                                                                             . . . . X X X o o @ O + & * u m F T [ 2.0.Y.3X<XF.J.I.:X0XgXvXqX7X7X7X5X8XcXnXnXnXmXzXzXzXcXMXbXcXlXqXwXgXgX3X2X2X<XW.W.`.).)._._._.[. XpXsXsXsXsXhXhXhXdXdXaX}.}.[.}.}.}.}.}.}. XtXtXuXyXW.K.C.C.K.U.;X>X2X0X0X6X>X;XL.G.B.B.B.B.M.M.M.k.k.d.a.>.:.:.-.*.*.*.+.+.*.5.0.e.e.e.e.0.6.4.4.2.2.2.2.2.o.} } } } o.O.*.>.d.d.f.f.d.a.a.9.-.O.` @.q.o.H H H H D H D H _ ` @.;.<.t.t.t.<.<.<.;.;.&.&.-.-.8.9.s.f.f.s.9.8.-.&.O.` ' L D l j j j j 1 1 j j 1 1 1 1 1 > > l k ",
"j j j l j j j j j j j j f f f f f f f f f f < < < < < < < < , , , , * * & & & & & * r u x n T { +.5.9.s.s.s.s.0.4.} E Z C C C A ( ( 3.3.u.u.m.m.m.m.Q.Y.K.J.J.V.N.M.k.a.>.=.&.&.=.=.>.i.i.i.h.h.x.D.c.D.D.D.S.S.~.).'.uXuXuXuXuXtX'.'._.[.[.{.+X+X$X%X#X$X%X%X%X#X#X@X+X}.[._.).).R.S.S.S.A.A.C.C.K.T.T.T.T.T.T.E.E.E.1X1XrXyX3X>X6X6X6X8X8X8X8X8X8X8X5X:X=XI.I.L.L.E.rXrXU.H.L.;X<X;XY.j.e.} Y m r + + + @ o o X X X X X . .                                                                                                                                                               . . . . . X X o o @ + + & * u m F ] } 2.e.I.3X<XF.J.=X>XwXgXwX8X7X7X5X5XkXcXnXnXnXmXzXzXxXnXMXnXzXlXqXwXgXgX3X0X2X<X1X`.`.).)._._._._. XpXsXsXsXsXsXhXhXdXdXaX.X[.[.[.}.}.}.}.[. X'.tXuXrXW.K.C.C.K.U.;X>X2X0X0X>X>XI.H.G.B.B.B.B.M.M.M.l.k.d.a.>.:.-.-.*.*.*.*.+.4.8.0.e.e.e.e.6.6.4.3.2.2.2.2.o.o.} } } } } +.*.9.a.d.f.f.f.s.s.s.8.*.` ` _ _ H H H H H D H H _ $.@.;.7.t.t.t.t.<.;.;.;.@.&.-.-.:.j.Y.b.f.a.9.8.-.&...` ` L D j j j 1 1 1 1 1 1 1 g g 1 j 1 > g j ",
"j j j j j j j j j j j f f f f f f f f f f f f < < < < < < < , , , , * * & & & & & * r u x n T { +.5.0.s.s.s.0.0.2.} E Z C C C A ( 1.3.3.u.u.m.m.m.m.Q.Y.Y.J.J.V.N.M.k.a.:.&.&.&.=.=.>.i.i.i.i.h.h.c.c.D.D.D.S.S.).).'.uXuXuXuXuXtXtX'._.[.[.[.+X&X#XLXKX%X%X%X%X#X#X#X+X|.[._._.).R.S.S.S.A.A.A.C.K.T.T.T.T.T.T.T.E.E.W.1XrXyX3X>X6X6X8X8X8X8X8X8X8X8X6X:X=XI.L.L.L.E.rXrXU.H.L.;X<X;XY.j.6.} Y C y + + + @ o o X X X X X . . .                                                                                                                                                             . . . . . X X o o @ + + & u u n F ] } 2.s.U.3XU.F.L.=X>XwXgXqX8X5X7X5X7XlXcXnXnXnXmXzXzXcXnXMXcXzXqXqXgXgXgX3X0X2X1X1X`.`.).)._._._._. XpXsXsXsXsXsXhXdXdXdXaX.X[.[.}.}.}.}.}.[.}. XuXuXrXE.T.C.C.K.U.;X>X2X0X0X>X-XI.H.B.B.B.B.B.M.M.M.l.k.d.i.>.:.8.5.-.*.O.+.4.5.0.0.e.e.e.e.0.4.4.3.2.2.2.2.} } } } } } } o.*.9.a.d.f.f.s.9.0.0.*.O.` _ _ H H H H v H D D H _ $.@.;.7.t.t.t.7.<.;.;.;.&.&.-.:.8.x.U.F.f.a.9.:.-.&.X.` ` L D l j j j 1 1 1 1 j 1 g 1 1 1 1 > j 1 ",
"j j j j j j j j j j j j f f f f f f f f f f < < < < < < < , , , , , * * & & & & & * * u x n H { +.5.9.s.s.s.0.6.2.[ Y Z C C C Y ( 1.3.3.u.u.OXm.m.m.Q.Y.K.J.V.V.N.M.k.i.:.&.&.&.=.=.>.>.i.i.i.h.h.c.c.D.D.D.S.~.).).tXuXuXuXuXuXtX'.'._.[.[.{.+X&X%XLXKX%X%X%X%X%X#X#X@X|.[.[._.).).S.S.S.A.A.C.C.C.T.T.T.T.T.T.T.E.E.W.1XrXyX3X6X6X6X8X8X8X8X8X8X8X8X6X:X;XI.L.L.I.E.rX1XK.H.L.;X2X;XY.j.6.} Y C i + + @ @ @ o X X X X X . . .                                                                                                                                                           . . . . . . X X o o @ + + & u u n T ] } 4.j.<X3XU.F.I.-X6XgXvXqX7X5X7X5X7XlXcXnXnXnXmXxXxXmXnXMXcXlXqXqXgXgXgX3X0X2X1X1X`.`.).)._._._._. XpXsXsXsXsXhXhXdXdXdXaX}.[.[.}.}.}.}.}.[.}.pXuXuX1XT.K.C.K.K.U.;X>X0X0X0X>X-XI.H.G.B.G.B.B.M.M.M.l.k.i.i.>.=.&.&.&.5.*.+.5.5.0.e.e.s.e.e.6.4.4.3.2.2.1.1.} } } } } } } o.-.9.d.d.f.d.a.9.-.-.O.X.` _ _ H H H H v H L H H ` @.;.;.7.t.t.t.<.<.;.;.;.&.&.-.8.8.s.z.f.d.a.9.:.&.O...` ` D b l j j j j 1 j j j 1 1 1 1 1 1 > j 1 ",
"j j j j j j j j j j j j f j f f f f f f f f < < < < < < < < , , , , * * & & & & & * u u x n H { +.5.0.s.s.s.0.5.2.[ Y Z C C A Y ( 1.3.u.u.u.OXm.m.m.Q.Y.K.J.V.V.N.M.k.i.=.&.&.&.=.=.>.,.i.i.i.h.h.c.c.D.D.D.S.~.).`.tXuXuXuXuXuXtX'.'._._.[.{.+X&X$XDX%X$X%X%X%X%X#X#X@X|.[.[._.).).S.S.S.A.C.C.C.C.T.T.T.T.T.T.T.E.E.W.1XrXyX3X2X6X6X8X8X8X8X8X8X8X8X6X:X=XI.L.H.J.E.1XW.J.H.L.;X2X;XY.j.6.} Z i t + + @ @ o o X X X X X . . .                                                                                                                                                           . . . . . X X X o o @ + + & u u n T [ o.6.b.<X1XI.F.=X:X0XgXvXqX5X5X5X7X7XlXcXnXnXnXmXxXxXmXMXMXcXlXqXqXgXgXgXwX0X2X1X1XW.`.).)._._._._. XpXsXsXsXsXsXhXdXdXdXaX}.[.[.}.}.}.}.}.}.}.pXuXuX1XT.C.C.K.U.U.;X>X0X0X0X>X;XI.J.G.J.J.G.B.B.M.M.l.k.i.d.>.&.0.e.O.5.0.*.5.5.0.e.s.e.e.e.6.4.3.3.2.2.1.1.} } } [ [ [ } o.-.9.d.d.d.a.a.:.-.&.O.X.{ _ H H H H H H H H ' _ ` @.;.7.7.t.t.t.<.<.;.;.&.&.*.-.8.8.9.a.f.f.a.9.:.&.O...` L D b l j j j j 1 j j j j 1 1 1 1 1 > 1 1 ",
"j l j j j j j j j j j j v j j f f f f f f f < < < < < < < < , , , * * * & & & & & * u u x n H { +.5.9.s.s.s.0.5.2.[ Y C i C A Y ( 1.3.u.u.u.OXm.m.Q.Q.K.K.J.V.N.N.M.k.i.=.&.&.&.&.=.,.,.i.i.i.h.h.x.c.D.D.D.S.~.).`.tXuXuXuXuXuXrX`.).'. X[.[.|.+X&X&X$X%X%X%X%X%X#X#X@X.X[.[._.).).S.S.S.A.C.C.C.C.T.T.T.K.K.T.T.E.E.E.1XrXyX3X2X6X6X6X8X8X8X8X8X8X8X6X:X=XI.U.<XU.U.1X<XJ.H.L.;X2X,Xb.e.4.} Y u & + + @ @ o X X X X X X . . .                                                                                                                                                           . . . . . X X X o o @ + + * u x F T [ 2.0.F.3X<XJ.J.-X>XwXgXwX8X5X5X5X5X7XlXcXnXnXnXmXxXcXnXMXnXzXkX8XwXgXgXgXwX0X2X1XW.W.`.).)._._._._. XpXsXsXsXsXhXhXdXdXdXaX}.[.[.}.}.}.}.}.}.}.pXuXrXW.K.C.C.K.U.U.;X2X0X0X6X>X;XL.J.G.K.J.G.B.M.M.M.l.k.d.a.=.j.gXvXeX6.*.4.5.0.e.e.s.e.e.e.6.4.3.3.2.2.1.} } } [ [ [ [ } +.-.9.d.f.d.a.9.8.-.*.O.{ _ H H H H H H H H H ' ` ` @.;.7.t.t.t.7.<.;.;.;.&.&.*.-.8.9.s.f.z.f.a.9.:.&.O...' L D b l j j j j j j g 1 1 1 1 1 1 1 1 1 1 ",
"l l l j j j j j j j j v v v v f f f f f f f < < < < < < < < < , , , * & & & & & & * u u x F H { +.5.0.s.s.s.0.5.o.E Z C C C A Y ( 1.3.u.u.u.OXm.m.Q.Q.K.K.J.V.N.M.l.k.>.=.&.&.&.=.,.i.i.,.i.i.h.x.c.c.D.D.D.S.~.).`.tXuXuXuXuXuXrX`.tXFXFXdX}.|.&X$X$X%X%X%X%X%X%X#X#X@X.X}.[._.).~.S.S.S.A.A.C.C.C.A.T.T.K.K.K.K.E.E.E.1XrXyX3X2X6X6X6X8X8X8X8X8X8X8X8X:X-X;X3XuX<XU.<XE.J.H.J.I.;XY.b.e.4.} Y u & + + @ o o X X X X X X . . .                                                                                                                                                           . . . . . X X X o o @ + = * u m Y [ } 2.e.U.3XU.J.L.:X0XwXwXqX7X5X5X5X7X7XzXnXMXnXmXcXxXcXMXMXcXzX8X8XwXgXgXgXwX0X2X1XW.W.`.).)._._._._. XpXsXsXsXsXsXhXdXdXdXaX}.[.[.}.}.}.}.}.}.}.pXuXrXE.K.C.C.K.U.U.<X2X0X6X6X>XI.L.K.V.B.B.B.B.M.M.M.l.k.d.a.&.m.IXIXvXy.0.e.5.0.e.s.s.e.e.e.6.4.3.2.2.1.1.[ [ [ [ [ [ ] } +.-.9.d.f.d.a.9.8.-.*.X.{ _ H H H H H H H H H _ _ ` ;.;.;.t.7.7.7.<.;.;.&.&.&.-.:.9.9.s.f.f.s.9.:.-.&.O...' L D b l j j j j j j j j 1 1 1 1 1 1 > 1 1 ",
"v v j j j j j v j j j j v v v f f f f f f f < < < < < < < < , , , , * * & & & & & * u u x F H { +.5.0.s.s.s.0.5.o.T Z C C C A ( ( 1.3.u.u.u.OXm.m.m.Q.K.J.J.N.N.N.l.d.>.=.&.&.&.=.,.h.i.,.i.i.h.x.c.c.D.D.S.S.~.).'.tXuXuXuXuXuXrX`.hXIXUXPXaX|.&X$X$X%X%X%X%X%X%X#X#X@X+X}.[._.).).S.S.S.A.A.C.C.C.A.T.T.T.K.K.K.E.E.E.1XrXyX3X0X6X6X8X6X8X8X8X8X8X8X8X>X2X2X3XyX<XU.E.E.H.H.J.I.;XY.Y.e.4.} Y u & + + @ @ o X X X X X X . . . .                                                                                                                                                       . . . . . . X X X o o @ + = * u m T [ o.4.j.;X<XI.J.L.:XqXwXqX8X5X5X5X5X7X7XzXnXMXnXmXcXcXnXMXMXcXlX8XqXgXgXgXgXwX0X2X1XW.W.`.).)._._._._. XpXsXsXsXsXsXhXdXdXaXaX}.[.[.}.}.}.}.}.}.}.pXuXrXE.K.C.C.K.U.;X;X>X6X6X>X;XI.L.G.B.B.B.B.B.M.M.M.l.k.d.d.&.m.IXIXgXe.e.e.5.0.0.s.j.e.e.e.6.4.3.2.2.1.1.[ [ [ [ [ [ [ { +.-.a.f.f.d.a.9.8.*.O.X.{ _ H H H H H H H H _ ` _ #.iX!.7.7.7.7.7.<.;.;.&.&.&.-.:.9.a.s.f.f.s.9.:.-.&.X.` ` L D l l j j 1 j j j g 1 1 1 1 1 1 1 1 1 1 ",
"j j j j j j j j j j j j j j f f f f f f f f < < < < < < < < , , , , * * & & & & * * u u x F _ { +.5.0.s.s.s.0.5.o.T Z C C C A Y ( 3.u.u.u.OXOXm.m.m.Q.K.J.V.N.N.N.l.d.>.=.&.&.&.:.,.w.,.,.i.i.h.x.c.c.D.D.D.S.~.).'.tXuXuXuXuXuXrX`.dXUXUXPXaX}.+X+X$X%X%X%X%X%X%X%X#X#X+X}.[._.).).S.S.S.A.C.C.C.C.A.T.T.T.K.K.K.E.E.E.1XrXyXyX0X6X6X8X8X8X8X8X8X8X8X8X6X0X>X;XI.L.I.E.U.H.G.J.J.;X,XY.e.4.} Y u * + + @ @ o o X X X X X . . . .                                                                                                                                                       . . . . . . X X X o @ @ + = * u n T } o.6.b.<X<XF.J.=X>XqXwXwX6X5X5X5X5X7X8XzXnXMXnXmXmXmXnXMXnXzXkX8XqXgXgXgXgXwX0X2X1XW.W.`.).)._._._._. XpXsXsXsXsXsXhXdXdXaX.X}.[.[.}.}.}.}.}.}. XpXuXrXT.K.C.C.K.U.;X>X2X6X6X>X;XI.H.G.B.B.B.B.B.M.M.M.k.k.d.d.9.5.4XiXy.*.8.0.6.0.s.s.s.e.e.6.r.3.2.2.1.1.1.[ [ [ [ [ [ [ } +.5.a.f.d.d.a.8.-.*.+.X.{ _ H H H H H H H H _ _ _ 7.FXdX7.<.7.7.7.;.;.;.&.&.&.-.8.9.a.s.f.s.a.9.:.-.O...` ` L D l j j j 1 j 1 j g g 1 1 1 1 1 1 1 1 1 ",
"j j j j j j v v j j j j j j f f f f f f f f < < < < < < < < < , , , * & & & & & & * u u n F ] { +.5.0.s.s.0.0.5.} Y Z C C C A Y ( 3.3.u.u.OXOXm.m.m.Q.K.K.Z.N.N.M.l.d.:.&.&.&.&.=.-.-.,.,.i.i.h.h.c.c.D.D.D.S.~.).'.tXuXuXuXuXyXrX`.'.FXPXAX}.}.|.+X$X%X%X%X%X%X%X%X#X#X@X|.[._.).).S.S.S.A.A.C.C.C.A.T.T.T.T.K.K.K.E.E.1XrXyXgX0X6X6X6X8X8X8X8X8X8X8X8X6X:X=XI.I.L.I.U.U.I.H.H.J.;X,XY.j.4.} Y u * + + @ @ o X X X X X X . . .                                                                                                                                                       . . . . . . X X X o o @ + + & u u n T } +.0.Y.3XU.F.L.-X0XwXwX0X5X:X5X5X7X7XlXcXnXnXnXmXmXnXMXMXcXzXkX8XqXgXgXgXgXwX0X3X1XW.W.`.).)._._._._. XpXsXsXsXsXsXhXdXdXaX.X}.[.[.}.}.}.}.}.}. XpXtX1XT.C.C.K.K.U.;X>X>X6X6X>X;XI.H.B.B.B.B.B.B.M.M.l.k.k.d.a.9.&.O...O.*.0.0.0.e.s.j.j.e.e.6.4.3.2.1.1.1.1.1.[ [ [ [ [ [ } *.8.a.f.f.s.9.8.-.*.+.X.{ _ H H H H H H H H H ` $.@.!.!.7.7.7.7.7.;.;.@.&.&.*.-.8.9.a.s.s.a.a.9.:.-.O..._ H D D l j j j 1 1 1 1 g 1 g g 1 1 1 1 1 1 1 ",
"j l j j j v v j j j j j j j j j f f f f v f f f < < < < < < , , , , * * & & & & * * u u n F ] X.+.5.0.s.s.0.0.4.} T Z C C C A Y ( 3.3.u.u.OXOXm.m.m.Q.K.V.Z.N.N.M.l.d.:.&.&.&.&.&.=.>.>.,.i.i.h.c.c.D.D.D.D.S./.).'.tXuXuXuXuXyXrX`.)._.'._.[.}.|.+X$X%X%X%X%X%X%X%X#X#X@X|.[._.).).R.S.S.A.A.C.C.C.T.T.T.T.T.K.K.K.T.E.W.rXyXgX3X6X6X6X8X8X8X8X8X8X8XqX8X>X-X=X=XI.I.U.U.I.H.J.J.U.,XY.j.6.o.Y u * + + @ @ o o X X X X X X . . .                                                                                                                                                   . . . . . . . X X X o o @ + + * u m Y [ } 2.s.U.1XI.F.I.>XqXwXwX6X:X:X5X5X7X7XlXcXnXnXnXmXnXnXMXnXcXlXkX8XqXgXgXgXgXwX0X2X1XW.W.`.).)._._._._. XpXsXsXsXsXsXhXdXdXaX.X}.[.[.}.}.}.}.}.}. XpXtXW.T.C.C.K.U.U.;X>X>X6X6X>X;XL.H.B.B.B.B.B.M.M.M.l.k.k.d.i.>.:.-.-.-.5.0.0.0.e.j.j.j.e.6.r.r.2.2.1.1.1.1.[ E E E E [ [ } *.9.a.f.f.s.9.8.-.*.O.X.` _ H H H H H H H H _ $.@.@.;.;.<.7.7.7.;.;.-.@.&.*.-.-.8.9.s.s.a.a.a.8.:.*.O.` _ H D l l j j j j 1 1 j j j g j 1 1 1 1 1 1 1 ",
"H j j j j j j j j j j j j j j j f f f v G G v f < < < < < < < , , , * * & & & & * * u u n F ] X.+.5.0.s.s.0.0.4.} T Z C C C A ( 1.3.3.u.u.OXOXm.m.m.Q.Z.Z.N.N.M.M.l.d.:.&.&.&.&.&.&.>.>.,.i.i.h.c.c.D.D.D.D.S.~.).`.tXuXuXuXuXyXrX`.`.)._. X}.}.|.+X$X%X%X%X%X%X%X%X%X#X#X|.[.[._.).S.S.S.S.A.C.A.A.A.A.T.T.K.K.K.K.E.E.W.rXuXgX3X6X6X6X8X8X8X8X8X8X8XqXqX6X-X=X=XI.L.U.U.L.G.G.F.Y.,XY.j.6.o.T x * + + @ @ o o X X X X X . . . .                                                                                                                                                     . . . . . X X X X o @ + + & * u n Y ] } 4.b.<X<XF.J.;X6XqXqX0X>X:X5X5X5X5X7XlXcXnXnXnXmXnXMXMXnXzXkX7X8XwXgXgXhXgXwX0X2X1XW.W.`.)._._._._._. XpXsXsXsXsXhXhXdXdXaX.X}.[.[.}.}.}.}.|.}. XpXrXW.K.C.C.K.U.;X;X>X0X0X6X>X;XL.G.B.B.B.B.B.M.M.M.l.k.k.d.i.>.:.:.-.-.8.0.0.0.s.j.j.j.e.6.r.3.2.2.1.1.1.1.E E E E E E [ o.*.9.d.f.s.a.9.8.-.*.O.X.` _ H H H H H H H _ ` @.;.;.7.7.7.7.7.;.;.;.&.O.*.*.-.-.9.s.s.s.s.a.9.8.-.&.O.` _ H D l l j j j j 1 1 g 1 1 1 j 1 1 1 1 1 j j ",
"H l l j j j j j j j j j j j j j j j f f b I b f < < < < < < , , , , * * & & & & * * u x n F ] X.+.5.9.s.s.s.0.4.} Y Z m C C A ( 1.3.3.u.u.OXOXm.m.].`.K.Z.Z.N.M.M.k.d.:.&.&.&.&.&.=.-.,.,.i.i.h.h.c.D.D.D.D.S.~.).'.tXuXuXuXuXyXrX`.`.'.'. X}.}.|.+X$X%X%X%X%X%X%X%X%X#X#X+X}.[._.).S.S.S.A.A.C.A.A.A.A.A.T.K.K.K.K.E.E.E.rXuXuX3X0X6X6X6X8X8X8X8X8X8XqX6X>X-X=X=XI.L.U.U.L.G.G.F.Y.4XY.n.6.o.T x * & + @ @ o X X X X X X X . . .                                                                                                                                                     . . . . . X X X X o @ + + & * u n T } o.6.Y.<XI.F.I.>XqXqXqX6X:X:X5X5X5X5X7XlXcXnXnXnXnXnXMXMXcXzXkX7XqXgXgXhXhXgXwX0X2X1XW.W.`.)._._._._. X XpXsXsXsXsXhXhXdXdXaX.X}.[.[.}.}.}.}.|.}.aXpX`.E.K.C.C.K.U.;X>X>X0X0X>X;XI.H.G.B.B.B.B.B.M.M.M.l.k.k.d.a.>.:.-.-.-.8.0.0.s.s.j.j.j.e.6.r.3.2.1.1.1.1.1.E E E E E E ] o.-.9.d.f.s.9.8.5.*.+.O.{ ` _ H H H H H H H _ ` @.;.7.7.t.t.7.7.;.;.;.@.O.O.*.-.8.9.s.s.a.a.a.9.:.-.&.O.` _ H D l l j j j j j j 1 1 g 1 g g g g 1 1 1 g ",
"H l j j j j j j j j j j j j j j j f f f f v v f < < < < < < , , , , * * & & & & * , u x n H ] X.*.5.0.s.s.0.0.4.} Y Z m C C A ( 1.3.u.u.u.OX!.m.m.sXuXK.Z.N.N.N.l.k.a.:.&.&.&.&.&.=.>.,.>.,.i.h.h.c.c.D.D.D.S.~.).'.tXuXuXuXuXyXrX`.`.'.'.}.}..X|.+X$X$X%X%X%X%X%X%X%X#X#X+X}.[._.).S.S.S.A.A.A.A.A.A.A.A.T.K.K.K.K.T.E.E.1XuXuX3X0X6X6X8X8X8X8X8X8X8X8X6X5X:X-X;XI.L.U.U.L.G.J.F.Y.Y.Y.n.e.2.T m u & + + @ o o X X X X X X . . . .                                                                                                                                                     . . X X X X X o o @ + + & u x F ] } 2.s.U.;XF.F.>XvXvXwX0X:X:X:X5X5X5X5X7XzXcXnXnXnXnXMXMXMXcXlXkX8XqXgXgXhXhXgXwX0X2X1XW.`.`.)._._._._. XpXpXsXsXsXsXhXhXdXdXaX}.[.[.[.}.}.}.}.|.}.aXtX`.T.K.C.K.K.U.;X>X>X0X0X>X;XL.H.G.B.B.B.B.B.M.M.M.l.k.d.i.i.9.:.-.-.8.8.8.0.s.j.j.j.j.r.6.r.2.2.2.1.1.1.1.1.E E E T T ] o.-.a.f.f.a.9.8.-.*.+.X.{ _ _ H H H H H H H _ ` @.;.7.7.7.t.7.7.;.;.@.O.O.&.*.-.8.9.j.j.9.9.9.9.:.-.&...` _ H l j j j j j j j 1 j g j j 1 g 1 1 1 1 1 1 ",
"H l j v j j j j j j j j j j j j j j f f f f f f < < < < < , , , , , * * & & & & * , u x n H ] X.+.5.9.s.s.0.0.4.} Y Z m C C Z E 1.3.u.u.u.OX!.m.m.iXrXY.Z.Z.Z.M.l.k.a.:.&.&.&.&.&.&.>.,.,.,.i.h.h.c.c.D.D.D.S.~.).'.tXuXuXuXuXyXrX`.`._.'. X.X.X.X+X+X$X%X%X%X%X%X%X%X#X#X+X}.[._.).~.S.S.A.A.A.A.C.C.A.A.T.K.K.K.K.T.E.E.1XrXuXgX0X6X7X8X8X8X8X8X8X8X8X8X5X:X-X-X;XI.U.U.L.H.J.F.F.Y.Y.n.e.2.T m u & + + @ @ o o X X X X X X . . .                                                                                                                                                 . . . . X X X X X o o + + & * u n T [ } 4.b.E.I.F.I.wXNXNXvX>X-X:X:X5X5X5X5X8XzXcXnXnXnXnXMXMXnXzXkXkX8XqXgXgXhXhXgXwX0X2X1XW.`.`.)._._._._. XpXpXsXsXsXsXhXhXdXdXaX}.[.[.[.}.}.}.}.|..XpXtXW.T.K.V.K.U.U.;X>X>X0X6X>X;XL.G.G.B.B.B.B.B.M.M.M.l.k.i.i.i.>.:.8.5.8.8.0.s.s.j.j.j.e.e.r.r.3.3.3.3.3.1.1.( E E Y T T ] +.8.a.f.f.a.9.8.-.*.+.X.{ _ _ H H H H H H H ` ..&.;.7.7.7.7.7.<.;.#.@.O.O.&.-.:.:.0.Y.Q.j.9.9.8.-.&.O...` _ H l l j j j j j j j g j j j j j 1 1 1 1 1 1 ",
"H H H v j j j j j j j v j j j j j j f f f f f f < < < < < , , , , , , * = & & & * u u x n H ] { +.5.9.s.s.0.0.4.} Y n m C C A E 1.3.u.u.u.OX!.!.m.m.Q.Z.Z.Z.Z.M.l.k.a.:.&.&.&.&.&.=.>.,.,.,.i.h.h.c.c.D.D.D.S.~.).'.tXuXuXuXuXyXrX`.`._.'. X}..X.X|.+X$X%X%X%X%X%X%X%X%X#X+X}.[._.).~.S.S.A.A.C.C.C.C.C.A.A.T.K.K.K.K.E.E.1XrXuXgXwX6X7X8X8X8X8X8X8X8X8X8X5X:X:X-X=XI.U.U.I.H.H.F.F.Y.Y.n.e.2.T n u * + + + @ o o X X X X X X . . . .                                                                                                                                                 . . . X X X X o o @ + + & , x n T } } e.U.U.F.F.-XvXNXNXgX>X-X:X:X5X5X5X5X8XcXnXnXnXnXMXMXMXmXzXkX7X8XqXgXhXhXgXgXwX0X2X1XW.`.`.)._._._._. XpXpXsXsXsXsXhXsXsXaX.X}.[.[.[.}.}.}.}..X.XaX'.W.T.K.V.K.U.;X;X>X>X0X6X>XI.H.G.B.B.B.B.B.B.M.M.M.l.k.i.i.i.>.9.-.-.8.0.0.s.j.j.n.j.e.r.r.r.r.3.3.3.1.1.( ( E Y Y T T } +.8.a.f.a.9.8.5.-.*.O.X.` _ H H H H H H H _ ` @.;.;.7.7.7.7.7.<.;.@.O.O.&.&.-.:.:.0.Y.Q.j.9.9.:.-.&.O..._ H H l l j j j j j j j j j j j g g g g 1 1 1 1 ",
"H H H v j j v j v j v v j j j j j j f f f f f f f < < < < < , , , , , * & & & & * u u x n T _ o.e.s.s.s.s.0.0.4.} Y n m m C A E 1.3.u.u.u.OX!.!.m.m.Q.Q.Z.Z.N.M.l.k.i.:.&.&.&.&.&.&.>.,.,.,.i.h.h.c.c.D.D.D.S./.).'.tXuXuXuXuXyXrX`.`._.'. X}..X.X|.+X$X%X%X%X%X%X%X%X%X#X@X|.[._.).~.S.S.A.A.C.A.rXR.C.A.A.C.K.K.K.K.T.E.W.rXuXuXwX6X7X8X8X8X8X8X8X8XqX8X7X:X:X-X=XI.I.U.U.L.H.F.F.Y.Y.b.e.2.T n u * & + + @ o o X X X X X X . . . .                                                                                                                                             .   . . . X X X X o @ @ + & * u m F ] } 2.j.I.J.F.J.>XwXvXgX2X-X-X:X:X5X5X5X5XqXcXnXnXnXMXMXMXnXxXlX7X7X8XgXgXhXhXgXgXgXgX3X1XW.`.).)._._._._. XpXsXsXsXsXsXhXsXsXaX.X}.[.[.[.}.}.}.}..X.X X'.W.K.K.V.K.U.;X>X>X6X0X>X;XI.H.B.B.B.B.B.B.B.M.M.M.l.k.i.i.i.=.-.-.:.8.0.s.s.j.j.n.n.e.r.r.r.3.3.3.1.1.( ( ( Y Y Y T T } *.9.a.f.a.9.8.-.*.+.O.X.{ _ H H H H H H H _ ` @.;.;.w.7.7.7.<.;.;.@.O.O.&.*.-.:.:.0.j.j.a.9.8.:.-.&.X.` _ H H l l j j j j j j j j j j j j j g 1 g g 1 g ",
"H H H H j j j j j j v v j j j j j j f f f f f f f f < < < < , , , , * * & & & & * , u x F H ] 2.n.x.j.f.s.0.0.2.{ Y Z m C Z A E 1.3.u.u.u.OX!.!.m.Q.Q.K.Z.Z.N.M.l.k.a.:.&.&.&.&.&.&.-.,.,.i.i.h.h.c.c.D.D.D.D./.).'.tXuXuXuXuXyXrX`.`.'.'. X X.X.X.X+X$X%X%X%X%X*X*X%X%X#X@X|.[.[._.).S.S.S.A.C.R.PXdXC.A.A.A.C.K.K.K.T.E.E.1XuXuX3X0X6X7X8X8X8X8X8X8XlX8X8X5X:X-X=XI.I.U.U.L.G.J.F.F.Y.Y.j.4.[ F u , & + + @ o o o X X X X X X . . . .                                                                                                                                           . . . . X X X X o o @ + + & r u m F ] } 6.F.J.F.F.;X0XwXwX>X-X-X-X:X:X5X5X5X5XlXcXnXnXMXMXNXMXmXzXkX7X7XqXgXhXhXhXgXvXvXgXgX1X`.`.).)._._._.[. XpXpXsXsXsXhXhXsXsXaX.X}.[.[.[.}.}.}..X.X.X X`.T.K.V.K.K.U.;X>X>X0X0X>X-XL.H.B.B.B.B.B.B.B.M.M.M.l.k.d.i.>.9.-.-.8.9.0.s.j.z.b.n.j.r.6.r.r.3.1.1.1.( ( ( ( Y Y Y Y [ o.*.9.a.a.a.9.8.5.*.+.X.{ _ H H H H H H H H _ ..@.;.7.7.7.7.<.;.;.@.@.O.O.&.-.:.8.9.a.a.a.a.9.8.-.*.O...` _ H H j l j j j j 1 j 1 j j j j j g 1 j 1 1 1 1 ",
"H H H H j v j j j j v v j j j j j j j f f f f f f f < < < < , , , , * * & & & & * , u x F H ] +.e.s.s.s.s.0.0.2.{ Y n C C Z Y E 1.3.u.u.u.OX!.!.!.Q.Q.x.N.N.N.M.l.k.a.:.&.&.&.&.&.&.:.-.,.i.i.h.h.c.c.D.D.D././.).'.tXuXuXuXuXyXrX`.`.).'. X}..X.X.X+X$X%X%X%X%X*X*X*X%X#X#X+X}.[._.).S.S.S.A.C.).PXFXA.C.A.C.K.K.K.K.T.U.E.1XyXuXgX0X6X7X8X8X8X8X8XkXlXqX8X7X:X-X=XI.I.U.U.L.G.J.F.b.Y.Y.n.4.} Y m u & + + + @ @ o o X X X X X . . . .                                                                                                                                           . . . . X X X X o @ @ + & * u x n Y ] 2.j.F.J.F.I.0XqXwX0X>X=X=X-X:X:X5X5X5X5XzXcXnXnXMXNXNXMXcXlX7X7X8XqXgXhXhXhXgXgXgXgX3X1X`.`.)._._._._.[. XpXsXsXsXsXhXhXsXsXaX.X}.[.[.[.}.}.}..X@XaX XR.T.C.V.K.U.U.;X>X6X6X6X>X;XH.G.B.B.B.B.B.B.B.M.M.M.l.k.d.>.s.;Xb.8.9.s.s.j.z.z.b.n.j.r.6.r.3.3.1.1.1.( ( ( Y Y Y Y Y [ o.5.9.s.a.a.9.8.-.*.O.X.{ _ H H H H H H H _ ` ..;.;.7.7.7.7.<.;.;.@.O.O.O.&.-.:.9.a.s.f.s.a.9.8.-.&.O...` H H l j f j j j j j j 1 j j j j j j j j 1 j j 1 ",
"v v H H j v j j j j j j v j j j j j j f f f f f f f < < < < < , , , * * & & & * * , u x F H _ X.4.8.9.s.s.0.8.2.{ T Z Z Z Z Y E 1.3.u.u.t.OX!.!.!.m.Q.x.N.N.N.M.l.d.a.:.&.&.&.&.&.&.-.-.,.i.h.h.h.c.c.D.D.D././.).'.tXuXuXuXuXyXrX`.`.)._. X}..X.X.X|.+X$X%X%X%X*X*X*X%X#X#X+X|.[._.).R.S.S.A.A.S.tX`.A.A.A.C.C.K.K.K.K.U.E.1XyXuXgXwX6X7X8X8X8X8X8X8XqXlX8X7X:X:X-XI.I.I.U.H.G.J.F.b.b.Y.n.6.2.T m u * & + + @ @ o o X X X X X . . . .                                                                                                                                         . . . . . X X X o o @ + + * u u m n T } 6.b.F.F.J.;X0XwX0X>X-X=X-X-X:X:X5X5X5X8XzXnXnXMXMXNXMXnXzXkX7X7X8XgXgXhXhXgXgXwXwX3X3X1X`.`.)._._._._. X XpXsXsXsXsXhXsXsXsXaX.X}.[.[.[.}.}.}..X@X.X'.R.K.V.K.K.U.;X;X>X6X6X>X;XI.H.B.B.B.B.B.B.B.B.M.M.M.l.k.d.i.f.Y.b.s.9.0.s.j.z.b.b.n.e.r.r.r.3.3.1.1.1.( ( ( Y Y Y Y E [ +.8.a.a.a.9.8.8.-.+.X.X.` _ H H H H H H H _ ` @.;.;.7.7.7.<.7.;.;.O.O.O.O.&.-.:.9.a.s.f.s.a.9.:.-.&.O.` _ H H l j f f j j j j j 1 j j j j 1 1 j j 1 j 1 1 ",
"j j H H v v j j j j j v v v j j j j j f f f f f f f < < < < < , , , , * & & & * * , u x v H { +.4.8.9.s.s.0.5.+.{ T Z Z Z Z Y E 1.3.u.u.t.OX!.!.!.m.Q.x.N.N.M.N.l.f.a.:.&.&.&.&.&.&.-.-.,.i.i.p.h.c.c.D.D.D./.~.).'.tXuXuXuXuXyXrX`.`.`.'.'.}..X.X.X.X+X$X%X%X%X*X*X*X%X%X#X@X|.[._.).R.S.S.A.A.A.A.C.C.C.C.C.C.C.K.K.K.E.E.E.rXuXuXwX6X7X8X8X8X8X8X8X8XlX8X8X5X:X-X=XI.I.L.H.H.G.F.F.b.Y.n.e.2.T n u r & + + + @ o o o X X X X X . . . .                                                                                                                                       . . . . X X X X o @ + + & r u u m F [ 3.j.b.F.F.;X0XwX0X>X=XI.=X-X:X:X:X:X5X5XqXcXnXnXMXNXNXMXcXlXkX7X7XqXgXhXhXhXgXwXqXwX3X1XrX`.`.)._._._._. X XpXsXsXsXsXsXsXsXsXaX}.}.[.[.}.}.}.}..X.X X`.T.K.V.K.K.U.;X>X>X0X6X>X;XL.G.B.B.B.B.B.B.B.M.M.M.M.l.k.d.i.9.s.9.8.9.s.j.z.z.b.b.n.e.r.r.r.3.3.1.1.1.( ( ( Y Y Y Y E } *.8.a.a.s.9.8.5.*.+.X.{ ` _ H H H H H H H _ ..@.;.;.w.w.w.7.7.7.&.X.O.O.&.-.:.>.a.a.s.f.s.a.8.:.&.O.X.` _ H H j l j j j j f j 1 j j j 1 1 1 1 j j j j 1 j ",
"v v v v v v v v H j j v v v j j j j j f f f f f f f < < < < , , , , , * * & & * * , u x F H { +.*.8.0.s.s.0.5.+.{ T n n Z Z Y E 1.3.u.u.t.OX!.!.!.m.Q.Q.N.N.N.M.l.k.a.:.&.&.&.&.&.&.-.-.,.,.i.h.h.c.c.c.D.D.D./._.'.tXuXuXuXuXyXrXrX`.)._._. XaXaX.X.X+X$X%X%X%X*X*XHX*X%X#X@X+X[._.).).S.S.A.A.A.C.C.C.C.C.C.C.K.K.K.K.U.E.E.1XuXuXgX0X6X8X8X8X8X8X8X8XqXqX8X7X:X-X=XI.I.L.L.H.G.F.F.b.b.n.e.3.[ n u u & + + + @ @ o o X X X X X . . . . . .                                                                                                                                   . . . . X X X o o + + & * u u m n T 1.6.b.F.N.J.>XwX0X6X0X0X-X=X-X:X:X:X:X5X6XlXcXnXMXMXNXMXnXzXlXkX7X7XqXgXhXFXhXgXwXqXwX3X1XW.`.).)._._._.[. XpXpXsXsXsXsXsXsXsXaXaX}.[.[.}.}.}.}.}..X.X X`.T.C.V.K.U.U.;X>X2X6X>X:XI.H.G.B.B.B.B.B.B.B.M.M.M.l.k.d.i.a.>.:.:.9.s.f.z.z.z.b.b.n.r.r.r.r.3.3.1.1.1.( ( Y Y Y Y Y T } 4.8.a.s.a.9.8.-.*.+.X.` _ _ H H H H H H _ ` ..@.,.w.w.w.7.7.7.;.@.X.O.O.&.-.:.>.a.a.f.s.a.9.:.-.&.O...` _ H l j j f j j j f j j j j 1 j 1 1 1 1 j 1 1 j j ",
"H H H H H H H v H H v H v v j j j j j f f f f f f < < < < < , , , , , * * & * * * , u v F _ { +.*.8.0.s.s.0.5.+.{ T n n Z Y Y [ 1.3.u.t.t.OX!.!.!.!.Q.Q.N.N.N.M.l.k.a.:.&.&.&.&.&.&.-.-.-.,.i.i.h.c.c.c.D.D.D./._.'.tXuXuXuXuXyXrXrX`.`._.'. X XaX.X.X+X$X%X%X*X*X*X*X*X%X#X#X+X}.[._.).S.S.S.A.A.C.C.C.C.C.C.C.C.K.K.K.U.E.E.1XyXuXgX0X6X7X8X8X8X8X8XqXqXlXqX8X5X:X=XI.I.L.L.H.G.J.F.b.b.n.j.4.} Y m u r & + + + @ o o o X X X X X . . . . . .                                                                                                                                 . . X X X X X o @ + + & * u u n Y E 2.e.z.F.J.;XwXwX0X>X0XgX>X=X-X:X:X:X:X5X8XzXcXMXMXNXNXMXcXzXkX7X7X8XwXhXFXFXhXgXwXqX0X3X1X`.`.)._._._._.[. XpXpXsXsXsXsXsXsXsXaXaX}.[.[.[.}.}.}..X@X.X XR.T.C.V.K.U.U.;X>X0X6X>X-XI.K.K.K.B.B.B.B.B.B.M.M.M.l.k.d.d.d.a.>.>.9.s.j.z.z.b.b.n.n.r.r.r.r.3.3.1.1.( ( ( Y Y Y Y Y ] o.*.9.a.a.a.9.8.-.*.+.X.` ` _ H H H H H H _ ` O.&.,.w.7.-.-.;.;.;.@.X.O.O.&.-.:.9.a.d.f.f.a.9.:.-.&.O...` _ H l j j f j j j j j j 1 1 1 j 1 1 1 j j j j j j ",
"H H H H H H H v H v H H v v j j j j j f f f f f f < < < < < , , , , * * * * * * * , u x F _ X.+.*.8.0.s.s.0.5.+.{ T n n Z Y E [ 1.3.u.t.OX!.!.!.!.!.Q.Q.N.N.N.M.l.k.a.:.&.O.&.&.&.&.-.-.-.,.i.i.h.h.c.c.D.D.D./._._.tXuXuXuXuXyXrXrX`.`.)._. X XaXaX.X+X$X%X%X%X*X*X*X*X%X%X#X+X}.[._.).S.S.S.A.C.C.C.C.C.C.C.C.C.C.K.K.K.E.E.E.rXuXgXwX6X7X8X8X8X8X8XkXlXlXqX8X7X:X-X=XI.L.L.H.H.J.F.N.b.b.n.6.1.Y m u r t & + + + @ o o X X X X X X . . . . . . .                                                                                                                           . . . X X X X o @ @ + & * u u m n T } 4.e.z.F.;XwXwX0X>X=X;X>X=XI.-X:X:X:X:X5XqXcXnXMXNXNXNXnXxXlXkX7X7XqXgXhXFXFXhXgXzXqX0X3X1X`.`.).)._._._. X XpXsXsXsXsXsXsXsXaXaXaX.X[.[.[.}.}.}..X@X.X'.R.K.C.K.K.U.;X;X>X0X6X>X;XI.K.K.K.B.B.B.B.B.B.M.M.M.l.k.k.d.a.>.>.9.9.s.z.z.z.b.b.n.y.r.r.r.3.3.3.1.1.( ( ( Y Y A Y T ] o.5.9.a.a.9.9.-.*.*.O.{ ` ` H H H H H H H _ ..O.-.7.,.w.x.m.w.@.@.@.X.O.&.&.-.:.9.a.f.f.f.a.9.:.-.&.O.` _ H H l j j f f j f j j j j 1 1 j j 1 1 j j j 1 j j ",
"H H H H H H H v H H H H v v j j j j j f f f f f f < < < < < < , , , , * * * & * * , u v F _ X.+.*.8.9.s.s.0.5.+.{ T F Z Z Y T [ 1.7.u.u.OX!.!.!.!.!.Q.Q.N.N.N.M.l.k.a.:.&.O.&.&.&.&.-.-.-.,.i.i.h.h.c.c.c.D.D./.^._.tXuXuXuXuXyXyXrX`.`.)._. X XaXaX.X+X$X$X%X%X*X*X*XHX*X%X#X@X|.[._.).S.S.S.A.A.C.C.C.C.C.C.C.C.C.K.K.K.E.E.E.1XuXuXgX0X8X7X8X8X8X8XkXlXlXlX8X8X5X:X=XI.L.H.H.H.G.F.N.b.b.n.e.2.E Z u u r t & + + + @ o X X X X X X . . . . . . .                                                                                                                           . . X X X X o @ @ + + & * u u n Y [ 2.0.s.z.I.3XwX0X>X=XI.I.I.I.=X-X:X:X:X:X7XlXcXMXMXNXNXMXcXzXkX7X7X7XqXgXhXFXFXhXgXzXqX0X3X1X`.`.)._._._._. X XpXsXsXsXsXsXsXdXaXaXVX.X}.[.}.}.}.}..X.X}.'.R.K.C.K.K.U.;X>X6X6X>X;XI.H.B.V.V.B.B.B.M.M.B.B.M.M.l.k.d.d.a.>.>.9.s.f.z.z.F.b.b.n.y.r.r.r.3.3.3.1.( ( ( ( Y Y Y Y T } +.8.9.a.a.9.8.5.*.+.O.X._ X.{ H H H H H H ` ..&.,.7.-.m.gXgXm.O.O.@.O.O.&.-.:.>.9.a.f.f.s.9.9.:.&.O...` _ H l l j f f f f f j j j j 1 j j j j j j j j j j g ",
"H H H H H l j j l j H H v v j j j j j f f f f f f f < > < < < , , , , * * * & * * , u x F _ { +.-.8.0.s.s.0.8.+.{ T F Z Z Y T [ 3.7.u.t.OX!.!.!.!.!.Q.D.x.N.N.M.l.k.a.:.&.&.&.&.&.&.&.-.-.,.,.i.p.h.c.c.c.D.D./._._.'.uXuXuXuXyXyXrX`.`.)._. X XaXaXaX.X+X$X%X%X*X*X*X*X*X%X#X#X+X[._.).S.S.S.A.A.C.C.C.C.C.C.C.C.C.K.K.K.U.E.E.1XyXuXgXwX8X8X8X8X8X8XkXqXlXlXqX8X5X:X-XI.L.L.H.H.G.J.F.b.b.n.e.4.[ Y m u u r r * r * + @ o X X X X X X . . . . . .                                                                                                                         . . X X X X o o @ + + & * u u m Z T 1.4.e.z.J.2XwX0X>X=XI.I.I.=X=X-X:X:X:X:X5X8XzXnXMXNXNXNXnXcXlXkX7X7X8XwXhXFXFXFXgXvXzXqX0X3XrX`.`._._._._._. XpXpXsXsXsXsXsXsXsXaXaXaX.X}.}.}.}.}..X.X.X}.).T.C.C.K.U.;X;X>X6X6X>X;XI.G.B.V.V.B.C.C.C.M.B.M.M.M.l.k.d.i.i.i.>.9.s.z.z.F.F.F.b.n.y.r.r.r.r.3.3.1.( ( ( Y Y Y Y Y T } *.8.9.a.9.8.:.-.*.+.X.{ _ u.u.H H H H H H ` O.-.-.7.7.m.gXvXm.&.X.O.O.O.&.-.:.9.a.a.d.d.a.9.8.-.&.O...` _ H l j f f j j f f j j j j j j j g j j j j j j j j ",
"H H H H H H H j j j H v v j j j j j f f f f f f f f < < < < , , , , , * * * * * * , u v H _ { +.-.8.0.s.s.0.8.+.{ T F Y Y Y E [ 3.7.u.t.OX!.!.oX!.!.].Q.x.N.N.M.l.d.a.:.*.O.&.&.&.&.&.-.-.,.,.i.i.h.c.c.c.D.D./._._.'.uXuXuXuXyXyXrX`.`.`._.'. XaXaXaX.X+X$X%X%X*X*X*X*XHX*X%X#X+X}.[.).).S.S.A.A.C.C.C.C.C.C.C.C.C.K.K.K.U.E.E.E.rXuXgXwXqX8X8X8X8X8XkXqXqXlXlX8X7X:X-X=XI.L.H.H.G.J.F.b.b.n.e.4.} T n m u u u u u u & + @ o X X X X X X X . . . . . .                                                                                                                   . . . X X X X o @ + + + & * u u n Y [ 2.6.j.J.;X0X0X0X:XI.I.I.=X-X-X:X:X:X:X:X5XqXcXMXNXNXNXMXcXzXlX8X7X7XqXgXhXFXFXhXgXvXzXqX3X3XrX`.`._._._._._. XpXpXsXsXsXsXsXsXsXaXaX.X}.[.[.}.}..X.X.X.X[.).T.C.K.K.U.;X;X>X0X6X>XI.H.G.B.V.V.B.C.rXhXT.M.M.M.M.l.k.k.d.i.i.a.a.f.z.N.F.F.F.b.n.r.r.r.r.3.3.3.1.( ( ( Y Y Y Y Y [ o.5.9.a.a.9.8.5.-.*.+.o.{ _ m.m.H H H H H _ X.O.-.,.7.;.w.Q.Q.w.O.O.O.O.O.&.-.:.9.a.d.d.d.a.9.:.-.&.O...` H H l j f j j j j g f f j j j j j j g j j j j j j j ",
"H H H H H H H H l j j j v v j j j j f f f f f f f < < < < < , , , , , = * * * * * , u v H _ { +.-.8.9.s.s.0.8.*.X.] F F Y T E [ 3.7.t.t.OX!.!.oXoX!.].Q.x.N.M.M.l.f.a.:.-.O.&.&.&.&.-.-.-.,.,.i.p.h.c.c.c.c.D./.^._.'.tXuXuXuXyXyXrX`.`.`._.'. XaXaXaX.X+X$X#X%X*X*X*XHXHX*X%X#X+X|.[._.).R.S.A.A.C.C.C.C.C.C.C.C.C.K.K.K.K.U.E.E.rXuXgXgXqX8X8X8X8X8X8XlXlXlXlXkX8X5X:X-XI.L.H.H.H.G.F.F.z.j.e.6.2.[ Y m u u u m Z n u & + @ o X X X X X X . . . . . . . .                                                                                                         . . . . . X X X X o @ @ + + = * u u m Y [ 2.6.j.F.;X2X0X>X>X>X=XI.=X-X:X:X:X:X:X:X:X6XlXnXNXNXNXNXMXcXzXkX8X7X8XqXgXFXGXFXhXgXvXzXwX3X1X`.`.)._._._._. X XpXpXsXsXsXsXsXsXaXaX.X}.[.[.}.}.}..X@X@X}._.R.T.K.K.U.U.;X>X6X0X>X;XI.G.B.B.B.B.B.C.rXhXE.M.M.M.M.l.k.d.i.i.i.a.a.j.z.F.F.F.b.b.n.r.r.r.r.3.3.1.( ( ( ( Y Y Y Y T } +.8.9.a.a.9.8.-.*.+.X.o.{ _ 2.3.H H H H H ` O.&.-.7.7.,.-.7.7.&.O.O.O.O.&.*.:.>.a.a.d.d.a.a.9.:.-.O...` _ H H j j f j j f f f f j j j j 1 1 1 j 1 > g 1 j j j ",
"H H H H l H | ] H j j j j j j j j j f f f f f f f < < < < < , , , , , = * * * * * , x v H _ X.+.*.8.9.s.s.0.8.*.X.] F Y Y T [ } 3.u.t.t.OX!.!.oXoXoX].Q.x.N.M.M.l.k.a.:.-.O.&.&.&.&.-.-.-.,.,.h.h.h.h.h.c.c.D./.^._.'.tXuXuXuXuXyXrX`.`.`._.'. XaXaXaXaX+X+X#X%X*X*XHXHXHXHX%X#X@X|.[._.).R.S.S.A.C.C.C.C.C.C.C.C.C.C.K.K.K.K.E.E.1XuXuXgXqX8X8X8X8X8X8XqXlXlXlXlX8X7X:X-XI.L.L.H.H.G.J.N.z.j.j.6.2.} Y m u u u n E E Z u & + o o o X X X X X X X . . . . .                                                                                                         . . . . . X X X o o @ + + + & u u m n T } 4.s.J.;X2X0X>X-X-X=XI.I.=X-X:X5X:X:X:X:X5XqXvXMXNXNXNXMXcXzXlX8X8X7X8XgXhXFXGXFXgXvXvXzXwX3X1X`.`.)._._._._.'. XpXpXsXsXsXsXsXsXaXaX}.}.[.}.}.}..X.X@X.X}._.R.K.K.K.U.;X;X>X6X6X>X;XH.G.B.B.B.B.B.B.V.K.B.M.M.M.l.l.k.d.i.a.i.a.f.z.z.F.F.F.b.n.y.y.r.r.r.3.3.1.( ( ( ( Y Y Y T ] o.4.8.a.a.9.8.5.-.*.+.X.X.` _ H H H H H H _ ` O.*.,.7.7.7.;.@.O.O.O.O.O.O.&.-.:.9.a.a.d.a.a.9.8.:.&.O...` _ H l j j f f j f j f < > f j k k g 1 1 f l j > 1 j j ",
"H H H H H H ] _ H H v v j j j j j f f f f f f f < < < < < , , , , , , , * * * * , , x v H _ { +.*.8.0.s.s.s.8.*.X.] T Y Y T [ 1.3.7.t.t.OX!.!.oXoXoX].Q.x.N.N.M.l.k.a.:.*.O.&.&.&.&.-.-.-.-.,.i.h.h.h.v.v.c.D./.^._.'.tXuXuXuXuXyXrXrX`.`.`.'. XpXdXdXaX.X+X#X%X%X*X*XJXJXHX*X#X#X+X}.[.).R.S.S.A.C.C.C.C.C.C.C.C.C.C.K.K.K.K.E.E.1XrXuXgXwXqX8X8X8XkXkXlXlXlXlXlXqX8X5X-X=XI.L.H.H.G.G.N.z.z.j.e.4.} T n m u u Z E 1.E n u + + @ @ o X X X X X X X . . . . .                                                                                                     . . . . X X X X o o @ + + + & * u m n T } 2.0.F.;X3X3X>X-XI.I.I.I.=X=X-X:X>X:X:X:X:X6XlXcXMXNXNXNXnXcXzXlX8X8X8XqXgXhXGXGXFXgXvXvXzXwX3XrX`.`.)._._._.[. X XpXpXsXsXsXsXsXaXaX.X}.}.[.}.}.}..X@X@X.X}.).T.K.K.K.U.;X>X>X6X>X;XI.H.B.B.B.B.B.B.B.B.B.M.M.M.M.l.l.k.d.i.a.a.a.f.z.F.F.F.F.b.n.y.y.r.r.3.3.3.1.( ( ( Y Y Y Y T [ o.-.9.a.a.9.8.5.*.*.+.X.` _ _ H H H H H H _ ..&.-.,.,.;.;.;.&.O.O.X.X.O.O.&.-.>.9.a.d.f.a.a.9.:.-.&.O...` _ H l j j f f f l b > 9 l j g 1 g j g < 3.4X6.b 1 g j ",
"H H H H H H H H l l v v j j j j j j f f f f f f < < < < < , , , , , , , * * * * , , u v F _ { O.*.8.9.s.s.s.8.*.o.] T Y T T [ } 3.7.t.t.OX!.!.oXoXoX].Q.Q.N.N.M.l.k.a.:.*.O.&.&.&.&.&.-.-.-.,.i.i.h.v.Q.Q.c.D./.^._.'.pXuXuXuXuXyXrX1XW.`.)._.'. XaXdXaX.X+X$X%X%X*X*XJXJXHX*X%X#X+X|.[._.~.S.S.A.C.C.C.C.C.C.C.C.C.C.C.K.K.K.E.W.W.1XuXgXgXqX8X8X8XkXkXkXlXlXlXlXlX8X7X:X=XI.L.H.H.G.G.J.N.z.j.e.6.2.[ Y m m u m [ 2.3.1.m * + + O o o X X X X X X . . . . . .                                                                                       .     . . . . . . . X X X o o @ + + + & * u u m Y [ 2.e.b.;X2X3X>X=XI.L.I.I.I.=X-X-X:X:X-X:X:X5XqXvXMXNXNXNXMXcXzXlXkX8X7X8XwXgXFXGXFXhXgXvXvXwXwXyXrX`.).)._._._.[. XpXpXpXsXsXsXsXsXaXaX.X}.[.[.}.}..X.X@X@X}.[.).T.K.K.U.U.;X>X0X6X>X;XL.G.B.B.B.B.B.B.B.B.B.B.M.M.M.l.k.k.d.d.a.a.f.z.z.F.F.F.F.b.n.y.y.r.r.3.3.1.1.( ( ( Y Y Y T [ } +.5.9.a.a.9.8.5.*.+.o.{ _ _ _ H H H H H H ` O.&.-.,.,.;.;.;.@.O.X.X.X.O.&.&.:.>.a.d.d.d.a.9.9.:.&.O...` _ H l j j j f f f j j 9 3.4Xr.j 1 1 k j < n.mXeXD 8 g j ",
"H H H H H H H j v H H v j j j j j j f f f f f f < < < < < > > , , , , , , , * * * , u v H _ { +.*.5.9.s.s.s.8.5.o.] H T T ] [ } 3.7.t.t.OX!.oXoXoXoX].Q.Q.Z.N.M.l.k.a.:.&.O.O.&.*.&.*.&.:.-.,.i.h.h.m.`.Q.v.D./.^._.'.tXuXuXuXuXyXyX1XW.`.)._.'. XaXdXdXaX.X$X#X%X*XHXJXJXJXHX%X#X+X|.[._.).S.S.A.A.C.C.A.C.C.C.C.C.C.K.K.K.K.E.W.E.<XyXuXgXwX8X8X8XkXkXkXlXlXlXlXlXlX8X5X-X=XL.L.H.G.G.J.N.z.j.e.e.2.} T n n m m E 3.e.6.[ u * + + @ o o o X X X X X . . . . .                                                                                     . . . . . . . . . X X X X X o @ + + + + & , u m n ] 2.6.b.;X3X3X2X;XL.L.L.L.I.=X-X:X>X:X-X:X:X:X6XlXnXNXIXNXMXnXcXzXlX8X8X7X6XgXhXGXGXFXhXvXvXvXgX3XyXrX`._._._._._.[. XpXpXsXsXsXsXsXsXaX.X}.}.[.}.}.}..X.X@X@X}._.R.T.K.K.U.;X;X2X0X>X-XI.H.G.B.B.B.B.B.B.B.B.M.M.M.M.M.l.k.k.d.d.a.d.f.z.N.F.F.F.F.n.n.y.y.r.r.3.3.3.1.( ( ( Y Y Y E [ o.*.8.9.a.9.8.5.5.*.+.X.{ ` _ H H H H H H _ ..O.*.-.,.,.;.;.@.@.X.....X.O.&.-.:.>.a.d.f.a.a.9.:.:.&.O...` _ H l j j j f f j f 1 9 u.vXn.f 1 1 l g 9 3.eX6.f 1 j g ",
"H H H H H H v j H H H j j j j j j j f f f f f f f < < < < , , , , , , , , , * * , , u v H H { +.*.8.9.s.s.s.9.-.+.{ T T ] ] } o.3.7.t.t.OX!.oXoXoXoX].Q.Q.N.N.M.l.k.a.:.*.O.O.*.7.q.8.-.-.-.,.i.h.h.c.D.v.c.v./.^._._.tXuXuXuXuXyXyX1XW.`.`._.'. XaXdXAXaX.X+X#X%X*XHXJXJXJXJX*X%X#X+X}.[.).~.S.S.A.C.C.A.C.C.C.C.C.C.T.T.K.K.K.E.E.<XyXuXuXgXqX8X8X8X8XkXkXlXlXlXlXlX8X6X>X-XI.L.H.H.G.G.V.z.j.s.e.4.2.[ T Z m m Y 2.e.j.6.[ u * + + @ @ o o X X X X X . . . . . . . .                                                                         . . . . . . . . . X X X X X X o o @ + + + & * u m n T } 6.b.;X3X3X2XI.H.H.H.L.L.I.=X-X:X:X-X-X:X:X5XqXvXMXNXIXNXMXcXzXlXkX8X7X7X0XgXFXGXGXhXgXvXvXvXwX3XrX`.'._._._._.[. X XpXpXsXsXsXsXsXaXaX.X}.[.[.}.}.}..X@X@X.X}._.R.T.K.U.U.;X>X0X6X>X;XI.G.B.B.B.B.B.B.B.B.B.M.M.M.M.M.l.k.k.d.d.d.f.z.z.F.F.F.F.F.n.y.y.y.r.r.3.3.3.1.( ( ( Y Y T [ } 2.5.9.a.a.9.8.5.*.*.+.X.{ _ _ H H H H H _ ` ..&.*.-.,.;.;.@.@.O.......X.O.&.-.>.9.a.a.d.a.a.9.:.-.&.O...` _ H l j j j f f j > j > | y.o.f j f l g 1 g l l g f j j ",
"H H H H H H H H v j l j j j j j j j f f f f f f f < < < < > , , , , , , , , = * * , < x H H { +.*.8.9.s.s.s.9.5.+.{ ] T ] ] } o.3.7.t.t.OX!.!.oXoXXX].Q.K.N.N.M.l.k.a.:.*.O.O.*.w.h.w.:.-.-.,.w.,.h.h.h.h.c.D././.^._. XtXuXuXuXyXyX1XW.`.`.).'. XaXdXAXaX.X+X#X%X*XHXJXJXJXJXHX%X$X+X}.[._.~.S.S.A.C.C.C.C.C.C.C.C.C.T.K.C.K.K.E.E.E.1XyXuXgXwX8X8X8X8X8XkXkXlXlXzXlXlX8X6X:X=XI.L.H.H.G.J.N.z.s.e.6.2.} [ Y n n Y } e.j.j.6.E u & + + @ @ o X X X X X X X . . . . . .                                                                         . . . . . . . X X X X X X X o o @ + + + & r u u n T } 0.b.;X3X3X;XI.J.J.J.L.L.I.=X=X-X:X-X-X-X:X:X6XlXnXNXNXNXNXnXcXlXkX8X7X5X7XwXhXGXGXFXhXvXvXvXvXwX3XrX`._._._._._.[. X XpXpXpXsXsXsXpXaXaX}.[.[.[.}.}..X@X@X@X.X X).R.T.K.U.;X;X>X0X6X:XI.H.G.B.B.B.B.B.B.B.B.B.M.M.M.M.M.l.k.d.i.d.d.k.z.N.F.J.J.Y.b.n.y.y.y.r.r.3.3.1.1.1.( E Y Y T [ o.4.8.9.a.9.9.8.5.*.+.O.{ { _ _ H H H H H _ ` X.&.-.-.;.;.#.@.@.X.....X.O.&.&.:.9.a.a.d.a.a.9.>.:.-.&.O.` _ H H j j j j j f l f > N f f j j f j l j 1 8 1 f j j g g ",
"H H H H H H H v j j l j j j j j j f f f f f f f < < < < < < , , , , , , , , = * * , < v H H { X.*.5.9.s.s.s.9.8.*.{ ] T ] ] } o.3.7.t.t.OX!.oXoXoXXXoXQ.Q.N.N.z.l.k.a.:.*.O.O.O.q.j.q.:.-.-.,.w.h.x.x.h.h.c.D.D./.^._. XtXuXuXuXuXyX1XW.`.`.)._._. XdXAXdX.X+X#X%X*X*XJXJXJXJXHX*X%X+X|.[._.~.S.S.A.C.C.C.C.C.C.C.C.C.C.C.C.K.K.K.E.E.<XyXuXgXgXqX8X8X8X8XkXkXlXlXlXlXlX8X7X:X-X=XL.H.H.G.G.N.z.j.e.e.4.2.[ T Y Y Y [ 4.j.b.j.4.Y u & + + @ @ o o o X X X X X X X . . . . . .                           .                                     . . . . . . X X X X X X X X X o @ + + + & r u m n Y } 0.F.;X2X2X;XL.J.J.J.J.L.L.I.=X=X-X:X-X-X-X:X5XqXcXMXNXNXNXMXcXzXlX8X7X5X5X6XgXFXGXGXFXhXvXnXvXvXgXyXrX'._._._._.[.[. XpXpXpXpXsXsXsXaXaX.X}.[.[.[.}.}..X@X@X@X}._.).T.T.K.U.;X>X6X6X>X;XL.G.B.B.B.B.B.B.B.B.B.M.M.M.M.M.l.l.k.d.d.d.k.z.N.F.F.J.Y.Y.b.n.y.y.y.r.3.3.3.1.1.( ( E Y E ] } +.5.9.s.s.9.8.5.-.+.+.X.{ { _ _ H H H H H _ ..O.*.-.,.;.;.@.@.X.X.......O.&.&.:.9.a.a.d.a.a.9.:.-.&.O...` _ H l j j l f f j j f f j f > > j l l g j j j k j g g g g ",
"v H H j H H H H j j j j j j j j j j f f f f f f < < < < < > , , , , = = , , , , * , < v H H { X.*.5.9.s.s.s.s.8.*.X.] ] ] { } 2.3.7.t.t.OX!.oXoXXXXXoX].Q.x.z.z.l.f.a.:.*.O.O.O.*.5.5.-.-.-.-.,.h.v.m.v.h.c.D.D./.^.[. XtXuXuXuXuXyXrX1XW.`.'.pXaXpXdXAXAXaX.X@X#X%X*XJXJXJXJXJX*X%X$X+X[._.).~.S.S.A.C.C.C.C.C.C.C.C.C.C.C.C.K.K.K.E.<X1XyXgXgXqX8X8X8X8X8XkXkXlXlXlXlXlX6X:X-X=XI.L.H.H.G.N.z.z.s.e.6.2.} [ T Y Y ] 2.e.b.b.j.3.Z r & & + + @ @ o o X X X X X X X X . . . . . . . . . . .             .   .                               . . . . . . X X X X X X X X X o @ + + + & r u u m Y } 4.b.;X<X;X;XJ.F.F.J.J.J.L.L.I.=X-X-X-X-X-X-X:X6XzXbXNXIXNXMXnXcXlX8X8X7X7X7X0XgXGXKXGXhXvXbXMXvXgXgXrX`.'._._.[.aXVXaXpXpXpXpXpXsXsXsXaXaX}.}.}.}.[.[.}..X@X@X.X}._.R.T.K.U.;X;X>X6X6X>XI.H.B.B.B.B.B.B.B.B.B.B.M.M.M.M.M.l.k.k.d.d.d.k.z.N.F.J.J.Y.Y.n.n.y.y.y.r.3.3.3.1.1.( E E E E [ o.4.8.9.s.0.9.8.5.*.+.+.X.{ ` _ H H H H H _ ` ..O.-.-.,.;.;.@.@.X.........O.&.:.>.a.a.d.d.a.a.9.:.-.&.O...` H H j j f l f f j j l j > f j j j j j g j j g k g g g j g ",
"H H j j H H H l j j j j j j j j j j f f f f f f < < < < > < , , , , , = , , , = * , < v H H ` X.*.-.8.0.s.f.s.9.*.o.{ ] ] { o.2.3.7.t.t.OX!.oXoXXXXXoX].Q.x.z.z.k.k.a.:.*.O.O.O.O.O.*.-.-.:.-.,.h.v.m.c.h.c.c.D./.^._. XpXtXuXuXuXyXrX1XW.).pXFXFXdXdXdXAXaX.X@X#X%X*XHXJXJXJXJXHX%X$X+X}.[._.~.S.S.A.C.C.C.C.C.C.C.C.C.C.C.K.K.K.K.U.E.1XyXuXgXwXqX8X8X8X8XkXkXlXlXlXzXlX8X7X:X-XI.L.L.H.G.F.N.z.j.e.0.4.2.} E T T ] o.6.j.F.F.j.2.m u * & + + @ @ @ o X X X X X X X X X X . . . . . . . . . .         . . .                             . . . . . . . . X X X X X X X o @ + + + & * u u m Y y.4X4XU.;X;XL.J.F.F.F.J.J.J.L.L.I.-X-X-X-X-X-X-X5XqXcXNXNXNXNXMXcXzXlX8X7X7X7X6XgXFXGXKXFXhXvXMXbXvXgXyXrX`._._._. XaXAXaXaXpXpXpXpXsXsXaXaX.X}..XaXdXaX.X}.@X@X@X.X[.).T.T.K.U.;X>X>X6X>X-XL.G.B.B.B.B.B.B.B.B.B.B.M.M.M.M.M.l.k.k.d.k.k.z.N.F.J.J.J.Y.b.n.y.y.y.y.r.3.3.3.1.1.( E E E [ } +.4.8.0.s.9.8.8.5.5.+.O.X.{ _ _ H H H H H _ ` X.O.-.,.;.;.@.@.X.X.X.....O.&.&.:.>.a.d.f.d.a.9.9.:.&.&.O.` _ H H j j f f f j j j j g > > g 1 1 j j g k j 1 1 g g g g 1 ",
"H H l v j j H l v j j v v j j j f f f f f f f f < < < < < < > , , , , , , , * = , , < v F H { X.+.-.8.9.s.s.s.9.-.+.{ ] { { o.2.7.7.t.t.OX!.oXoXXXXXXX].Q.x.z.z.k.f.a.:.*.O.O.O.O.+.*.-.*.-.-.w.h.x.x.x.h.h.c.D./.^._. XpXtXuXuXuXyXrX1XW.R.'.sXdXaXaXdXAXVX.X+X$X%X*XHXJXJXJXJXJX*X#X+X|.[._.).S.S.S.A.A.C.C.C.C.C.C.C.C.C.K.K.K.K.K.E.<X1XyXgXgXqXqX8X8XkXkXkXkXlXlXzXzXlX8X5X:X=XI.L.H.G.J.N.z.z.s.e.6.4.2.[ T T E } 2.e.b.Y.F.j.} n u * * & + + @ @ o o X X X X X X X X X . . . . . . . . . . . . . . . . . . . . .       . . .   . . . . . . . . X X X X X X X o o @ + + + & * u u m F 3.gXIXhXU.L.L.F.N.N.F.F.J.J.J.L.I.=X-X-X-X-X-X-X:X6XvXMXNXNXNXMXnXcXlXqX8X8X7X6X0XgXGXKXGXFXhXbXMXbXvXgXyXrX`._._._.[.}..X XpXpXpXpXpXsXsXaXaX X}.aXFXPXFXaX.X@X@X@X}._.R.T.T.U.U.;X>X6X6X>X;XL.G.B.B.B.B.B.B.B.B.B.B.M.M.M.M.M.l.k.d.d.k.z.M.N.F.J.J.Y.Y.b.n.y.r.r.r.r.3.3.3.1.1.( E E E [ o.4.8.0.0.0.9.8.0.s.0.*.X.X.` _ H H H H H _ ` ..O.&.-.-.;.-.@.@.X...` X.X.O.&.-.>.a.a.d.f.a.a.9.:.-.&.O...` _ H H j f j j j j j g j g j < 1 1 1 1 g j k 1 1 1 j j j 1 1 ",
"H H l v j v H v j j j j j j j j f f v v f < f f < < < < < < < , < < $ $ , , = * = , < x F H { X.+.-.8.9.s.s.s.9.5.+.{ { { { o.2.7.7.t.t.OX!.oXoXXXXXXX].Q.x.z.z.l.k.a.:.*.O.O.O.O.+.*.-.*.-.:.,.w.h.h.h.h.x.c.v./.^._.[. XpXuXuXuXyXrX1XW.W.).)._. XaXdXFXAXaX+X$X#X%XHXJXJXJXJXJXHX%X$X+X{.[._.).S.S.S.A.C.C.C.C.C.C.C.C.C.C.K.K.K.K.E.E.1XyXuXgXgXqX8X8X8XkXkXkXlXlXlXzXzXlX6X:X-X=XL.H.H.G.J.N.z.s.e.0.4.2.} [ T [ } 2.0.j.F.J.F.e.} n u u * & + + @ o o o o X X X X X X X X X X . . . . . . . . . . . . . . . . . . . . . . . . . . . . . . . . X X X X X X X o o @ + + + & r u u m ] 4.j.3XhX3XJ.J.F.N.N.F.F.J.J.H.L.L.I.-X-X-X-X-X-X:X6XzXbXNXIXNXMXnXcXzXlX8X6X7X7X6X3XFXKXKXGXhXbXMXNXbXgXyXrX`.'._._._._.[.[. XpXpXpXpXpXsXpXaXaX}.}.aXFXPXPXAX.X@X@X.X X).R.T.T.U.;X>X6X6X>X;XL.G.G.B.B.B.B.B.B.B.B.B.B.M.M.M.M.M.l.k.k.d.k.z.N.F.J.J.J.Y.Y.b.y.y.eXy.r.r.3.3.3.1.1.( E E [ } +.5.8.0.0.9.8.9.j.n.e.*.X.{ _ _ H H H H H _ ` X.O.*.-.-.-.@.@.X.X.......X.O.&.:.>.a.d.f.f.a.a.9.:.-.&.....` H H l j j j j j j j j j g g j j j 1 1 j g g 1 1 1 1 j g 1 1 ",
"l H H l j j v v v j j j j j j j f f D G v < < < f f f < < < > < , , , , , , , * , , u v H H { X.+.-.8.9.s.f.s.9.8.+.X.{ { { o.2.7.7.t.t.m.!.oXoXoXXXXX].Q.Q.N.l.l.f.a.8.*.O.X.O.O.O.+.*.-.-.:.w.q.h.h.h.h.h.c.v.D./._.[. XpXuXuXuXyXrX1XW.W.).)._.[.aXdXFXAXaX.X+X%X%X*XJXJXJXJXJXJX*X#X+X{.[._.).R.S.S.A.A.C.C.C.C.C.C.C.C.C.C.K.K.K.E.E.<X1XuXgXgXwXqX8X8XkXkXkXkXlXlXlXzXzXqX7X:X-XI.L.H.G.J.N.z.j.s.e.6.4.2.} [ [ [ 2.0.s.z.Y.I.F.e.o.Y m u & & + + @ o o o o o X X X X X X X X X X X . . . . . . . . . . . X X X X . . . . . . . . . . . X X X X X X X X o o o @ + + + & & r u n 2.j.Y.Y.J.J.F.N.N.N.N.F.F.F.J.H.L.L.I.=X-X-X-X-X-X-X>XqXnXNXIXNXMXnXcXcXlX8X8X7X7X7X0XuXZXKXKXFXhXbXNXMXvXgXyXrX`.'._._._.[.[.[. XpXpXpXpXpXsXpXaX.X}.[. XdXFXFXaX@X@X@X}._.).T.E.E.<X;X>X6X6X>X;XH.B.B.B.B.B.B.B.B.B.B.B.B.M.M.M.M.M.l.k.k.k.l.M.F.J.J.J.J.Y.b.n.r.BXIXbXy.3.3.3.1.1.1.( E E [ o.4.8.0.0.0.9.8.8.e.e.5.+.{ ` _ _ H H H H _ ` X.O.&.*.-.-.-.@.@.X.........O.&.-.:.9.a.d.d.d.a.a.9.-.&.O...` _ H H j l j j j j j j f g j j 1 j j j g g g g g g g g j g g g ",
"H H H H v v j v v j j j j j j f f f v b f < < f f f < < < < > < < $ $ = = , , = , , u x v H { X.+.-.8.9.s.f.s.9.8.*.o.{ { X.o.2.6.7.t.t.m.!.!.oXoXXXXX].Q.A.Z.z.l.f.a.8.*.O.X.X.O.+.O.*.-.-.:.8.q.h.x.x.g.h.x.v.D./._.[. XpXtXuXuXyXyX1XW.W.`._._. XpXdXFXFXdX.X+X$X%X*XHXJXJXJXJXJXHX%X$X|.{.[.).~.S.S.A.A.C.C.C.C.C.C.C.K.C.C.K.K.K.T.E.E.1XyXuXgXgXqX8X8X8XkX8XkXlXlXlXzXzXlX8X5X:X=XL.L.H.G.J.N.z.j.e.0.6.4.2.} [ [ o.6.s.j.F.I.I.F.e.2.Y m u * & + + @ @ @ o o o o o X X X X X X X X X X X X X X X X X X X X X X X X X X X X X X X X X X X X X X X X X o o @ @ + + + & & r u T 4.j.F.Y.F.N.z.z.z.z.z.N.F.F.J.J.H.L.I.=X=X-X-X-X-X-X>XqXvXNXIXNXNXMXcXcXzXqX8X7X7X7X6X3XdXGXKXGXhXbXNXNXbXvXgXrX`.'._._._._.[.[. X XpXpXpXpXpXpXaXaX.X[.[.[.}.aX.X.X@X#X.X}._.R.T.E.E.<X>X6X6X>X;XI.G.B.B.B.B.B.B.B.B.B.B.B.B.M.M.M.M.l.l.k.k.l.z.N.F.J.H.J.J.Y.b.n.y.y.bXiXy.3.3.3.1.1.1.( E [ } 2.5.8.0.0.9.8.8.5.5.*.+.X.{ _ _ H H H H _ _ ` X.O.*.-.-.-.@.@.@.....` ....O.&.-.>.a.a.d.d.a.a.9.:.-.&.O..._ H H l j l j j f j j j f j j j j j g 1 1 1 g g g g 1 g 1 1 1 1 ",
"H l H l H H H v H v j j j j f f f f f f f < < f f f < < < < < , , 3.3., $ , , = = , < x H H { X.+.-.8.9.s.f.s.9.8.*.O.X.X.o.+.4.6.7.t.t.OX!.oXoXXXXXXX].].Q.N.z.k.f.a.8.*.O.X.X.O.O.O.*.-.:.:.8.q.x.m.v.h.h.x.v.D./._._. XpXpXuXuXyXyX1X1XW.).)._._. XsXFXFXAXaX.X+X#X%XHXJXJXJXJXJXJX%X$X+X|.[._.~.S.S.A.A.C.C.C.C.C.C.C.C.C.C.C.K.K.T.E.E.<X1XyXgXgXqXqX8X8X8XkXkXlXlXlXlXzXzXqX6X:X-X=X;XI.H.J.N.z.j.s.e.0.4.2.2.} } o.4.0.s.z.J.I.I.F.e.2.[ n u * & + + + + @ @ @ o o o X X X X X X X X X X X X X X X X X X X X X X X X X X X X X X X X X X X X o o o o o @ @ + + + & r u Y } 6.s.z.z.z.z.j.j.j.z.z.z.N.F.J.J.H.L.L.I.=X-X-X-X-X-X>XqXvXMXNXNXNXMXnXcXzXlX8X6X7X7X5X0XuXGXKXKXFXhXbXNXNXbXgXyXrX`.'._._._._.[. X XpXpXpXpXpXpXaXaX.X}.[.[.[.[.[.}..X@X@X.X[.).R.E.E.E.;X2X0X6X>XI.H.G.B.B.B.B.B.B.B.B.B.B.M.M.M.M.M.M.l.l.k.k.l.M.N.J.J.J.J.J.Y.b.n.y.y.3.3.r.r.3.3.3.1.( ( [ [ o.4.8.0.0.0.9.8.8.-.*.*.O.X.{ _ _ H H H H _ ` ..O.&.*.-.-.-.@.@.@.X.......X.&.-.:.9.a.d.f.d.a.9.>.:.-.&...` _ H H j l l j j j j j j j j j g g j g 1 1 1 g g 8 1 1 1 j j g g ",
"l j H l H v v j j j j j j j f f f f f f f < < < < < > > < > < 9 f jXPX%.$ , , , , < < v F H { X.+.*.8.9.s.f.f.a.9.-.+.X.X.+.+.4.q.w.t.t.m.!.oXoXXXXXXX].].Q.Z.z.l.k.a.9.-.+.O.X.+.O.*.7.w.w.&.:.:.g.x.x.h.h.x.v.D./._._. XpXtXuXuXyXyX1X1XW.`.)._._. XaXdXFXAXaX.X+X#X%X*XJXJXJXJXJXJX*X%X$X+X{._.).).S.S.A.C.C.C.C.C.C.C.C.A.A.C.C.K.T.E.E.E.1XyXyXgXwXqXqX8X8X8XkXlXlXlXlXzXzXlX8X7X:X-X>X;XL.G.F.N.z.j.s.0.6.4.2.2.o.o.+.0.s.j.N.L.=X=XF.s.2.[ Y u u & & + + + @ @ @ o o o o o X X X X X X X X X X X X X X X X X X X X X X X X X X X X X X X o o o o @ @ + + + + + & u m T o.4.0.e.0.0.0.0.s.s.j.z.z.z.N.J.G.H.H.L.I.=X-X-X-X-X-X:XqXvXbXNXNXNXMXnXcXcXlXqX8X7X7X5X6X3XdXKXKXGXhXbXNXNXMXvXgXyX`.'._._._.[.[.[. X XpXpXpXpXpXpXaXaX.X}.[.[.[.}.}..X@X@X.X}._.R.R.E.E.<X>X2X0X>X;XL.B.B.B.B.B.B.B.B.B.B.B.B.M.M.M.M.M.M.l.l.k.l.z.N.J.J.J.L.J.J.Y.Y.n.y.y.y.y.r.3.3.3.1.1.1.1.[ } 2.5.0.0.0.0.8.8.5.-.*.+.X.{ ] _ H H H H _ _ ` X.O.&.*.-.-.@.@.@.O.X.......O.&.-.:.9.a.d.d.a.a.>.:.-.&.O...` l H H j j j j j j j j j j j g j j j 1 1 1 8 g g 8 1 1 8 j 1 g 1 ",
"j j H l H H j j v j j j j j f f f f < f f f < < f < > < < > < 9 f jXFX3.O 8 = $ , < f v F H _ X.+.*.8.9.s.f.f.s.9.-.*.O.O.+.+.4.q.w.t.t.m.!.!.oXXXXXXXXX].Q.z.z.l.f.a.8.-.+.X.X.X.O.*.q.w.w.&.:.q.:.9.h.g.h.h.v.v./._._. XpXpXuXuXuXyXrX1XW.W.).)._. XpXdXFXFXAX.X+X#X#X*XHXJXJXJXJXJXHX%X$X+X{.[._.).S.S.S.A.C.C.C.C.C.C.C.T.tXrXT.K.K.K.E.U.E.1XyXgXgXwXqXqX8X8XkXkXlXlXlXzXzXzXlX8X5X:X-X;XL.H.J.N.z.z.j.e.0.6.4.2.2.o.o.4.0.j.z.F.I.=X=XY.j.4.} T m u * & + + + @ @ @ @ o o o o o o o o X X X X X X X X X X X X X X X X X X X X X X X X X o o o o @ @ + + + + & & u u Z [ 2.4.4.4.5.5.0.0.s.j.j.z.z.F.J.J.H.H.L.I.=X-X-X-X-X:X>XqXvXbXNXNXNXMXnXcXcXzXlX8X8X7X5X6X2XuXGXKXGXFXbXNXNXNXbXgXyXrX'._._._.[.[.[. X XpXpXpXpXpXpXpXaX.X}.}.[.}.}.}..X.X@X@X.X X).R.T.E.<X<X2X0X6X>XI.K.B.B.V.B.B.B.B.B.B.B.B.B.M.M.M.M.M.M.l.k.l.l.M.N.J.J.L.L.J.J.Y.b.n.y.y.y.y.r.3.3.3.1.1.1.[ } 2.4.0.0.0.s.0.8.8.-.*.*.O.X.{ _ _ H H H H _ ` ..O.O.*.-.-.-.&.@.@.X.X.......O.*.:.>.9.d.d.a.a.a.9.:.&.&.O.` ` H H j f j j j l j f j j j 1 j j j j g j 1 1 1 g 8 g 8 g j 1 g g ",
"j j H H H H j j j v j j j j f f f f f < < f < < < < < < > > > > , P 3.< $ u $ 3.u.< , v H H ] { +.*.8.9.s.f.f.s.9.:.*.+.O.+.*.4.r.w.t.m.m.!.!.oXXXXXXXXX].Q.x.z.l.k.a.9.-.+.X.X.X.X.+.7.r.5.-.x.W.g.:.g.g.g.h.c.v././._.[. XpXuXuXuXyXyX1XW.W.).)._.'.pXsXdXFXAXaX.X+X#X%XHXJXJXJXJXJXJXHX#X+X|.[._.~.~.S.S.A.A.C.C.C.C.C.C.T.hXhXT.C.K.K.K.U.E.1X1XyXgXgXwXqX8X8XkXkXkXlXlXlXzXzXzXlX8X5X-X=XL.L.G.J.N.z.z.s.0.0.6.4.2.+.o.+.0.j.z.N.J.I.-X-XY.j.6.2.[ Z u u & + + + + @ @ @ @ @ @ o o o o o o o X X X o o o X X X X o o o X X o X X X o o o o @ ) ) o @ + + + & * u m n Y ] } o.+.+.4.5.0.e.s.j.z.z.N.F.J.G.H.L.I.=X-X-X-X:X:X>XqXvXbXNXNXNXMXMXcXcXzXlXqX8X7X7X6X6XyXFXKXKXGXhXbXNXNXNXvXgXyX'.'._._._.[.[.[. X XpXpXpXpXpXpXaXaX.X}.}.}.}.}.}..X@X@X@X}._.R.R.E.E.<X2X2X0X>X;XJ.B.B.B.B.B.B.B.B.B.B.B.B.M.M.M.M.M.M.M.l.l.l.M.N.F.J.H.L.L.J.Y.Y.b.n.y.y.y.y.r.r.3.3.1.1.[ 1.2.2.5.0.s.s.0.9.8.5.-.*.+.O.X._ _ _ H H H H _ ` X.O.&.*.-.-.-.@.@.O.X.......O.&.-.:.9.a.f.f.a.a.9.>.:.&.O...` H t.m.f > j f j j > f f > 1 j 1 j j g 1 g 1 1 1 g j j 8 1 j 1 1 g ",
"l v v j H j j j v j j j v j f f f f f < < < < < < < < < > , , < 1 , , c , 8 $ bXIXR , F v H ] { O.*.:.9.s.f.f.f.9.8.*.+.+.*.*.5.7.w.t.v.m.!.oXoXXXXXXXXX].Q.x.z.k.f.a.9.-.+.X.X.o.o.+.+.*.*.*.e.m.j.w.g.g.g.g.x.v.D.)._.[. XpXuXuXuXyXyX1X1XW.`.).).'. XaXdXFXFXdX.X+X#X%X*XJXJXJXJXJXJXHX%X$X+X{.[._.~.~.S.S.A.C.C.C.C.C.C.C.`.rXT.C.K.K.K.E.E.E.1XyXgXgXwXqXqX8XkXkXkXlXlXlXlXzXzXzXqX6X:X-XI.L.H.G.J.N.z.j.s.0.0.6.4.2.+.+.4.e.z.z.N.J.=X:X-XJ.z.0.4.2.[ Z u & + + + + + + + @ @ @ @ @ @ @ @ o o o o o o o o o o o o o o o o o o o o o @ + @ + PXjX@ + & + * u u u n F T ] { } o.2.5.0.0.s.j.z.z.N.N.J.G.G.H.I.=X-X-X:X:X:X6XqXvXbXNXNXNXMXMXcXcXcXzXqX8X6X7X7X6X0XsXGXKXGXFXbXNXNXNXMXvXgXrX'._._._._.[.[. X X XpXpXpXpXpXaXaX.X}.}.[.[.}.}..X.X@X@X.X[.).R.T.E.<X<X2X0X6X-XL.G.B.B.V.V.B.B.B.B.B.B.B.B.M.M.M.M.M.M.l.l.l.z.M.N.J.H.H.L.L.J.Y.Y.n.n.y.y.y.y.r.r.3.1.1.1.} 2.2.5.0.s.s.s.0.9.8.5.*.*.+.X.{ _ _ H H H H _ ` ..O.O.*.*.*.-.-.O.O.O.X.......O.&.-.:.9.a.f.d.a.a.9.:.-.&.O...` h m.jXj f l f j f j H j f j j 1 1 1 g g g g 1 g g j j g 1 1 1 1 1 ",
"v v l j v v j j v j j j j j f f f f f < < < < > < < > > > > > > < , < c , 1 $ OXjXc > v v H _ { X.*.-.9.a.f.f.f.s.8.-.*.*.*.*.5.7.w.t.v.m.!.oXoXXXXXXXXX].Q.x.z.k.f.a.9.-.+.o.X.o.o.+.+.+.*.*.5.w.8.9.q.s.s.f.x.v.Q./._.[.}.pXtXuXuXyXyX3X1XW.W.).).'. XpXdXdXFXdXaX.X#X#X%XHXJXJXJXJXJXJX*X#X+X|.[._.^.~.S.S.A.A.C.C.C.C.C.C.C.C.C.C.K.K.K.E.E.E.1X1XyXgXgXwXqXqX8XkXkXkXlXlXlXzXzXzXlXqX6X:X-XI.L.H.G.N.N.z.j.s.0.0.6.4.4.+.+.6.j.z.N.J.L.-X:X:XI.b.e.6.3.1.Y u r & + + + + + + + @ @ + @ @ @ @ o o o @ @ @ o o @ @ @ o o o o @ @ @ @ @ @ + + + jXjX+ + & * u u m n F Y T ] o.o.+.*.5.0.s.j.z.z.N.N.N.G.H.L.I.=X-X-X:X:X5X6XwXvXbXMXNXNXMXnXcXcXcXzXlXqX8X6X7X6X0XgXZXKXKXFXhXbXIXIXNXvXgXuX'._._._._._.[.[. X XpXpXpXpXpXpXaXaX X}.[.[.[.}.}..X@X@X.X}._.).R.E.E.<X2X0X0X>X;XH.G.B.V.1XrXC.B.B.B.B.B.B.B.M.M.M.M.M.M.l.l.l.M.N.J.H.H.L.L.L.I.Y.n.n.n.y.y.y.y.r.r.2.1.1.1.2.2.4.0.0.s.s.s.0.8.8.5.*.*.O.X.{ _ _ H H H H _ ` X.O.&.*.*.-.-.&.O.O.O.X.....O.&.*.:.9.a.d.f.d.a.9.>.:.&.O...` ` l ' 3.f b j j j j j H 3.r.F > j 1 1 g g g g g j g j g 1 1 1 g g 1 ",
"H H H v v v v v j j j j f f f f f f f < < < < < < < > , > > , , , > 1 , , < , $ $ $ f v F H _ { O.*.-.8.9.f.f.f.s.9.:.-.*.*.-.5.7.w.t.v.m.!.oXoXXXXXXXXX].].Q.z.k.f.a.9.:.*.+.o.o.o.o.+.*.4.*.5.-.5.8.9.0.s.s.g.x.D./._.[. XpXtXuXuXyXyX3X1XW.W.).).).'.pXsXdXFXFXVX.X+X#X%XHXJXJXJXJXJXJXHX%X$X+X{.[._.).S.S.S.A.A.C.C.C.C.C.C.C.C.K.K.K.K.K.U.E.E.1XyXgXgXgXwXqX8XkXkXkXkXlXlXlXzXzXzXlXqX6X:X-XI.L.H.J.N.N.z.j.s.0.0.0.5.4.2.4.0.z.z.N.J.L.-X:X:X=XF.j.e.e.4.1.Z u * & + + + + + + + + + + @ @ @ @ @ @ @ @ @ @ + + + @ @ @ @ @ + + + + + + + & Q Q + * r u m m n F T T ] } o.+.4.5.0.s.j.z.z.z.F.F.J.H.L.I.-X:X:X:X:X6X0XwXvXvXbXNXMXMXMXcXcXcXvXvXqX8X8X6X7X6X3XdXKXKXGXFXbXNXIXNXbXvXuXtX'._._._._._.[.[. X XpXpXpXpXpXpXaX.X}.}.[.[.}.}..X.X@X@X.X[.).R.T.E.<X2X2X0X>X-XI.G.B.B.V.W.W.C.B.B.B.B.B.B.B.M.M.M.M.M.M.l.l.M.N.F.J.H.L.L.L.I.Y.Y.n.n.y.y.y.y.y.r.r.2.1.1.2.2.4.6.0.s.s.s.0.9.8.5.-.*.+.X.{ _ H H H H H _ ` ..O.&.&.*.-.-.-.O.O.O.X.....X.O.&.-.:.a.a.a.f.a.a.9.:.-.&.O...` _ _ j f H b f D j 1 f } iXbX3.> j 1 1 1 1 1 1 1 1 g 1 1 1 j k g j j ",
"H H H H H v v v v j j j f f f f f f < < < < > > > > > , , , , , , , , , , , , 8 > f < x v | ] { X.&.-.8.9.f.f.f.f.a.8.-.-.-.-.8.q.w.w.v.m.!.!.oXXXXXXXXXXX].Q.x.k.k.f.9.8.*.+.o.o.o.o.+.+.*.*.4.5.5.0.8.0.s.f.g.x.v./._.[. X XpXuXuXyXyX3X1X1XW.).).).'. XaXdXFXFXAXaX+X$X%X*XHXJXJXJXJXJXJX*X%X+X|.{.[._.~.S.S.S.A.C.C.C.C.C.C.C.C.C.K.K.K.K.U.U.E.E.1XyXgXgXwXwXqXkXkXkXkXlXlXlXlXzXzXzXlX8X5X:X=XI.L.H.J.N.N.z.j.s.0.0.0.5.4.4.5.s.z.N.V.G.I.:X:X:X=XF.b.j.j.e.3.1.Z u r t t t + + + + + + + + + + + + + @ + + # # + + @ + + + + + + + + + & & & r * u u m n n F T ] ] } o.2.5.8.0.s.j.z.z.N.F.J.H.H.I.=X-X:X:X:X6X6XwXwXvXvXbXMXMXMXMXnXcXvXcXvXzXqX8X6X6X6X0XhXGXKXKXFXhXNXIXIXNXbXgXyX'.'._._._._.[.[. X XpXpXpXpXpXpXpXaX.X}.}.[.[.}..X.X+X@X.X}._.R.T.E.E.<X2X0X6X>XI.G.V.B.B.B.B.C.B.B.B.B.B.B.B.B.M.M.M.M.M.M.l.M.M.N.J.H.L.L.L.I.I.Y.Y.n.n.y.y.y.y.y.r.r.2.2.2.2.2.6.0.s.s.s.s.0.9.8.5.*.*.O.X.{ _ H H H H H _ ` X.O.&.*.*.*.*.*.O.O.X.X.X...O.O.*.:.9.a.a.d.d.a.9.:.:.&.O.X.` ` _ l H v j l l l g 1 f } gXIXr.> j 1 1 g 1 1 1 g 1 8 1 1 1 1 1 1 g g ",
"j H v v v v v v j j j j f f f f f < < < < < < < < > , > > , , , < , = , , , , 1 < x < x G | ] ` X.O.-.8.9.s.f.f.f.a.9.-.-.-.5.8.q.w.w.v.m.!.!.oXXXXXXXXXXX].Q.x.z.f.s.9.:.*.+.o.o.o.o.+.+.+.*.*.4.5.8.8.0.s.f.j.x.v.D.)._. X XpXtXuXyXyX3X1X1XW.W.).).'. XpXdXFXFXdXaX.X@X#X%X*XJXJXJXJXJXJXHX%X$X+X|.[._.~.~.S.S.A.C.C.C.C.C.C.C.C.C.C.K.K.K.K.U.U.E.1X1XyXgXgXqXqX8XkXkXkXkXlXlXlXzXzXzXzXlX8X7X:X=XI.H.H.G.N.N.z.j.s.e.0.0.5.5.4.5.s.z.N.V.H.I.-X:X:X-XJ.F.b.b.n.r.3.E C u u r r r t & & + + + + + + + + + + + + + + + + + + + + + + & & & & t r u u u m n n F T ] } } o.4.5.0.0.s.j.z.z.N.F.J.H.I.=X-X:X:X:X6X6X0XwXwXvXvXnXMXMXMXMXnXnXvXvXvXzXqXqX8X6X6X6XgXFXKXKXGXhXbXIXIXNXbXgXuXtX'._._._._._.[. X X XpXpXpXpXpXpXaX.X}.}.[.[.}..X.X.X@X@X}._.).R.E.E.<X2X0X6X>X;XJ.G.B.C.C.B.B.B.B.B.B.B.B.B.M.M.M.M.M.M.M.M.z.M.N.F.J.H.L.L.I.I.=X,XeXn.n.y.y.y.y.r.r.3.2.2.2.2.4.0.e.s.s.s.s.s.0.8.-.*.+.O.{ ` _ H H H H _ ` ..O.&.*.*.*.-.-.&.O.O.X.X.X.X.O.&.-.:.9.a.a.s.a.a.9.:.-.&.O...` ` _ H l j j j j f f f f H u.m.T > f 1 1 g 1 1 6 1 1 1 g g 1 8 6 8 k k ",
"H l v v v v v v j j f f f f f f f < < < < < < > > > > , , , , , , , 1 , , 1 , , , < f b G R _ ` X.O.-.:.9.s.f.k.f.s.9.8.-.-.8.8.0.w.h.v.m.!.!.oXXXXXXXXXXX].Q.x.z.f.f.9.:.*.+.o.o.o.o.o.+.+.+.*.4.5.8.8.0.s.s.j.x.x.Q./._.[. XpXtXuXuXyXyX3X1XW.W.R.)._.'.pXsXdXFXdXdXaX+X#X%X*XHXJXJXJXJXJXJX*X#X$X+X{.[._.~.S.S.A.C.C.C.C.C.C.C.C.C.C.K.K.K.K.U.U.E.E.1XyXyXgXwXqXqX8XkXkXkXlXlXlXlXzXzXzXzXlX8X5X:X-XI.H.H.G.N.N.z.j.s.s.0.0.0.6.5.0.j.M.N.G.H.I.-X:X:X-XI.J.F.F.n.n.y.r.1.Z u u u r r r t & & & & & + + + + + + + + + + + & & & & & & * r r r u u m m n F Y T ] } o.+.4.5.0.s.j.z.z.z.F.F.J.L.I.=X:X:X5X6X6X0X0XwXwXgXvXvXMXMXMXMXMXbXbXvXvXvXqXqX8X6X6X6X3XdXGXKXGXFXbXNXIXIXMXvXgXuX'._._._._._.[.[. X XpXpXpXpXpXpXaXaX.X}.}.}.}.}..X+X@X@X.X X_.R.W.E.<X<X2X0X>X;XL.G.B.B.C.C.B.B.B.B.B.B.B.B.B.B.B.M.M.M.M.M.M.M.N.N.J.J.L.L.L.I.=X,X,XeXn.n.y.y.y.y.r.r.2.2.2.2.4.6.0.j.j.s.s.s.s.8.8.*.*.O.X.{ _ H H H H H _ ` X.O.&.*.*.*.*.*.&.O.O.X.X.X.O.O.*.:.9.a.d.d.a.a.9.9.:.-.&.O...` _ H H l j f f f f j f f f > < < j < 1 g j j j 8 1 1 8 1 1 j 1 8 g g g ",
"j j j j j j v j j j f f f f f f < < < > < < < < > > , , , , , , , 1 1 , , 8 8 8 < < f j b F H ` X.O.-.:.9.a.f.f.f.f.a.9.:.:.8.8.q.w.h.v.m.!.!.oXXXXXXXXXXX].Q.x.x.f.f.9.8.-.+.o.o.o.o.o.o.+.+.*.4.5.8.8.0.s.s.j.x.x.D./._.[.}.pXpXuXuXyXyX3X1X1XW.W.).).'. XsXdXFXFXdXaX.X@X#X%X*XJXJXJXJXJXJXHX%X$X+X|.[._._.~.S.S.A.C.C.C.C.C.C.C.C.C.C.K.K.K.K.K.U.E.E.1XyXyXwXwXqX8X8XkXkXkXkXlXlXlXzXzXzXzXlX8X5X:X-XI.H.H.G.V.N.z.z.j.s.0.0.0.0.8.s.z.M.N.J.H.L.-X:X:X:X=XL.J.F.F.Y.Q.m.y.2.Y C u u u u r r r t & & & & & & & & & & & & * r r r r u u u u u u m n n Y T ] } o.o.2.4.0.0.s.j.z.z.N.F.J.L.I.=X-X:X:X5X6X6X0X0X0XqXwXvXvXMXMXMXMXMXMXbXbXvXvXwXqX6X6X6X6X0XhXGXKXKXFXhXNXIXIXNXbXgXyXtX'._._._._.[.[. X X XpXpXpXpXpXpXaX.X.X}.}.}.}..X+X@X@X@X}._.).R.E.<X<X2X0X>X;XI.H.G.B.C.C.C.B.B.B.B.B.B.B.B.B.M.M.M.M.M.M.M.M.M.N.J.J.H.L.L.I.I.=X,X,XeXeXn.y.y.y.y.r.r.2.2.2.3.6.0.e.j.s.s.s.0.0.0.5.*.+.X.{ ` _ H H H H _ ` ..O.&.*.*.*.*.*.+.O.O.O.O.X.O.O.&.-.:.9.a.d.d.a.a.9.:.-.*.O...` ` H H H H f f f f f j j l j j 1 > j 1 1 j j j j g j 1 8 g 1 j j g g g g ",
"j j j j j j j j j f f f f f f f < < < < < < < < < < > , > 1 8 8 , < 1 1 1 1 1 1 1 < f f b H H _ X.O.*.-.9.a.f.f.f.f.a.9.9.8.8.9.q.w.h.v.m.m.!.oXoXXXXXXXXX].Q.v.x.f.f.9.8.-.+.o.o.o.o.o.o.+.+.+.4.5.5.8.0.0.s.j.x.x.m.Q._.[.}. XpXtXuXyXyX3X1X1XW.W.R.)._. XaXdXFXFXdXdXaX+X#X%X*XHXJXJXJXJXJXJX*X#X$X+X{.[._.~.~.S.A.C.C.C.C.C.C.C.C.C.C.K.K.K.K.K.U.U.E.<X1XyX3XwXqXqX8XkXkXkXkXkXlXlXlXzXzXzXzXlX8X5X:X=XI.L.H.G.V.N.z.z.j.s.s.s.0.0.0.s.z.N.V.J.H.L.-X:X5X:X:XI.H.J.J.Y.E.E.Q.m.r.1.Y m u u u u u u u r r r r r r r r r u u u u u u u u u m m n n Y T T ] } o.2.4.6.0.s.j.z.z.N.F.J.L.I.=X-X:X>X5X6X6X6X6X6X6X0XwXzXvXnXMXMXMXMXMXMXbXvXvXwXqXqX6X6X6X0XuXFXKXKXZXhXbXIXIXIXNXgXgXrX`.'._._._.[.[.[. X XpXpXpXpXpXpXpX.X.X}.}.}.}.}..X@X@X.X}.[._.R.W.E.<X2X2X>X>X;XJ.G.B.V.C.C.B.B.B.B.B.B.B.B.B.B.M.M.M.M.M.M.M.M.N.N.J.H.L.L.I.=X=X,X,XeXeXeXn.y.y.y.r.r.r.2.2.3.4.0.e.j.j.j.j.s.9.n.Q.0.O.+.X.{ _ _ H H H H _ ` ..O.*.*.*.*.*.*.+.O.O.O.O.O.O.O.&.:.>.a.d.f.a.a.9.9.:.-.*.O...` _ H H l j j j j j j j j l j l j 1 g j 1 1 j j j j 1 1 1 g g j j 6 g g g ",
"j j j j j j v v f f f f f f f f < < < < < < < < > > < < < , , , , , < 1 1 1 1 1 1 < j f j H H _ X.O.*.-.8.a.f.f.f.f.d.a.9.9.9.9.q.q.h.v.m.m.!.oXXXXXXXXXXX].].Q.x.k.f.9.8.-.+.o.o.o.o.o.o.o.+.2.4.5.5.8.8.0.s.f.j.x.v.D./._.}. XpXtXuXuXyX3X3X1X1XW.W.).).'.pXdXdXFXFXAXaX.X@X#X%XHXJXJXJXJXJXJXHX%X#X+X|.[.[.^.~.S.S.A.C.C.C.C.C.C.C.C.C.C.K.K.K.K.U.U.E.E.<X1X3X3XwXqX8X8XkXkXkXkXlXlXlXzXzXzXzXzXlX8X7X:X=XI.L.H.G.J.N.z.z.j.j.f.s.s.s.s.f.z.N.V.G.H.L.=X:X5X5X:X-XI.H.J.Y.U.E.1X1XQ.n.r.2.E Y Z n m u u y u u u u u u u u u m m m m m n n Z Y Y T T [ } o.2.4.6.0.e.s.z.z.N.F.J.L.=X-X:X:X:X>X5X6X6X6X6X6X6X6XqXzXcXnXMXMXNXNXNXNXbXvXvXwXqX8X6X7X6X0XgXFXKXKXGXhXbXNXIXIXNXbXgXrX`.`._._._._.[.[.[. X XpXpXpXpXpXpX X X}.}.}.}.}.}..X@X.X.X}._.).R.E.<X2X2X0X>X;XI.K.V.V.V.C.C.B.B.B.B.B.B.B.B.B.M.M.M.M.M.M.M.M.N.N.J.J.H.L.I.=X=X,X,X,XeXeXeXn.y.y.y.r.r.r.3.3.4.6.e.j.j.j.j.j.s.0.j.n.5.O.o.{ ] _ _ H H H H _ X.O.&.*.*.*.*.*.*.+.O.O.O.O.O.O.&.-.>.a.d.f.d.a.a.9.:.-.*.O...` _ _ H H j j f j 1 j j j j j g g 1 g g 1 1 1 g j j j g 1 1 g 1 6 8 8 8 8 g ",
"j j j j j v v v f f f f f f f j < < < < < < > > < 1 < < < < , , , 1 1 1 1 1 1 1 1 < c j b D L ' X.O.*.-.:.a.d.f.f.k.f.a.a.9.9.9.0.q.h.v.m.m.!.oXXXXXXXXXXXXX].Q.x.k.f.9.8.-.+.o.o.} } } o.o.+.+.4.4.5.8.8.0.s.f.j.x.x.Q./._.}. XpXpXuXuXyX3X3X1X1XW.W.R.).'. XaXdXFXFXFXdX.X+X#X%X*XHXJXJXJXJXJXJXHX%X$X+X}.[._.^.~.S.A.C.C.C.C.C.C.C.C.C.C.K.K.K.K.U.U.U.U.E.<X1X3X3XqXqX8X8XkXkXkXlXlXlXlXzXzXzXzXzXlX8X7X:X-XI.L.H.G.J.N.N.z.z.z.j.f.s.s.f.j.z.N.V.G.H.L.I.-X:X5X5X:X=XL.H.J.H.I.E.1XrX1XE.m.y.6.2.1.E Y Y Z Z Z C m m m m n Z Z Z Z Y Y Y Y [ [ } } 2.2.6.6.e.s.j.z.F.F.J.L.I.=X-X:X:X:X5X5X5X5X5X5X5X5X>X6XqXzXcXMXMXNXNXNXNXNXbXvXvXzXqXqX6X6X6X6X3XhXGXKXGXhXbXNXIXIXNXbXgXyXrXsXhXsX_._._.[.[. X X XpXpXpXpXpX X X}.}.}.[.}.}.}..X.X.X}. X_.).W.E.<X2X0X>X;XI.J.V.B.V.V.C.C.B.B.B.B.B.B.B.B.B.M.M.M.M.M.M.M.N.N.F.J.H.L.I.I.=X-X,X,X,XeXeXeXn.y.y.y.r.r.4.3.4.6.e.j.x.x.j.s.j.f.0.8.5.+.X.X.{ _ _ H H _ _ _ ` X.O.&.*.*.*.*.*.+.O.O.O.O.O.O.&.&.>.d.l.M.l.d.a.9.9.:.-.&.O...` _ H H H j j f j j j j j j j 1 g g g 1 1 1 1 j j j g g 1 1 1 g 8 8 8 8 g g ",
"j j j j v v v v f f f f f f j j < < 1 1 1 1 1 1 < < 1 1 1 1 8 , 1 1 1 1 1 1 1 1 1 < c l b D L _ { O.*.-.:.a.a.f.k.f.f.d.a.a.9.9.0.g.j.v.m.m.!.!.XXXXXXXXXXXX].Q.z.k.f.a.9.-.*.o.o.} } } o.o.+.+.4.4.5.5.8.0.0.s.f.x.z.Q./._.[.}.pXpXuXuXyXyX3X1X1X1XW.W.).).'.pXsXdXFXFXdXaX.X@X#X%XHXHXJXJXJXJXJXHX%X#X+X|.{.[._.~.S.S.A.C.C.C.C.C.C.C.C.C.C.K.K.K.U.U.U.U.E.<X1X1X3X3XqXzXlX8X8XkXkXlXlXlXlXzXzXzXzXzXlX8X7X:X-X=XL.H.H.G.N.N.z.z.z.f.f.f.j.j.z.z.N.V.G.G.H.L.=X:X5X5X5X:X=XL.H.J.J.Y.U.1X1XyXrX1XQ.n.n.r.6.3.2.1.1.[ E E T T E [ [ [ [ } 1.2.3.4.6.e.e.s.j.z.b.F.J.J.L.I.I.=X-X:X:X:X:X:X5X5X5X5X:X>X>X:X6XqXvXvXMXNXNXIXIXIXNXbXvXvXzXqXqXqX6X6X6XwXhXGXKXGXFXhXNXIXIXNXbXgXuX`.tXPXIXPX X_._.[.[. X X XpXpXpXpXpX X}.}.}.}.}.}.}.}..X@X.X}._.).W.E.<X2X2X2X>X;XJ.K.C.C.C.C.C.B.B.B.B.B.B.B.B.B.B.B.M.M.M.M.M.N.N.J.J.J.L.L.I.=X-X:X,X,X,XeXeXn.n.n.y.r.6.6.r.6.6.e.e.j.x.x.j.s.s.s.0.8.*.O.X.{ _ _ H H H H ` o.X...&.*.*.*.*.*.*.O.O.O.O.O.O.O.&.:.d.M.B.B.N.l.a.9.:.:.-.O...` _ _ H H j j f f f j j 1 j j j j g g g g g g 1 1 g g 1 1 1 8 g g 8 g g 8 g g ",
"j j j j j v v v f f f f < < 1 1 1 1 1 1 1 1 1 1 1 1 1 1 1 1 1 1 1 1 1 1 1 1 1 1 1 1 c c b D H _ ` O.*.-.:.9.a.f.f.k.f.f.a.a.a.a.0.g.j.v.m.m.!.!.XXXXXXXXXXXX].Q.x.z.f.s.9.5.*.+.o.} } } o.o.+.+.2.4.5.5.8.0.0.s.j.z.z.Q.Q.).[.}. XpXtXuXyXyX3X3X1X<XW.W.).).'. XsXdXFXFXdXdX.X+X#X%X%XHXJXJXJXJXJXJXHX%X#X+X}.[.[.~.S.S.S.A.C.C.C.C.C.C.C.C.C.K.K.K.K.U.U.U.U.E.<X1X1X3XgXvXvXqX8X8XkXkXkXlXlXlXzXzXzXzXzXzXqX6X5X:X=XI.L.G.J.V.N.z.z.z.z.j.j.f.k.z.z.M.V.V.G.H.L.I.:X5X5X5X5X:X-XI.H.J.F.F.Y.E.1X1XrXrXrX1X1XQ.m.m.n.n.e.r.e.e.6.6.6.e.r.e.e.j.n.b.b.b.F.F.F.J.J.L.I.I.I.I.=X-X:X:X:X:X:X:X:X5X:X:X:X:X>X6XwXvXbXIXIXIXIXIXIXNXbXvXvXlXqXqXqX6X6X6X0XuXZXKXGXFXhXbXIXIXIXbXvXuXtX`.'.FXIXFX X_._.[. X X XpXpXpXpXpX X}.}.}.[.}.}.}.}.}..X.X}.[.).W.W.<X2X2X2X>X;XI.K.V.V.C.C.V.B.B.B.B.B.B.B.B.B.B.B.B.B.M.M.M.N.N.V.J.J.H.L.I.=X-X:X:X,X,X,XeXeXn.n.n.y.r.6.6.6.e.e.e.j.x.x.x.j.s.s.s.8.5.*.+.X.] _ H H H H _ r.y.+...*.-.*.*.*.*.O.O.O.O.O.O.O.O.&.>.k.M.B.B.B.M.a.:.:.-.&.O...` _ H H l j j f f f j j 1 j j j j j g g 1 g 1 1 1 g j 1 8 8 8 g 1 g g g g g g ",
"j j j j f f f f f f f f < < < 1 1 1 1 1 < < > < > > 1 1 8 1 1 1 1 1 1 1 1 1 1 1 1 1 j j b H H _ ..O.*.-.:.9.a.f.f.k.k.f.s.a.a.a.s.g.x.x.v.D.!.].XXXXXXXXXXXX].Q.v.x.f.a.9.5.*.o.o.} } } o.o.o.+.+.4.4.5.5.0.0.s.f.z.x.x.D./._.}. XpXpXuXuXyXyX3X1X<XE.W.W.)._. XpXdXhXFXFXdXaX.X@X#X%XHXHXJXJXJXJXJXHX%X#X+X|.}.(.^.[.~.A.A.A.C.C.C.C.C.C.C.C.C.C.K.K.K.K.U.U.U.E.<X<X2X3XvXgXqX8X8X8XkXkXlXlXlXzXzXzXcXzXcXzXlX8X6X>X-XI.H.G.G.V.N.M.z.z.z.z.z.z.z.z.z.M.N.V.G.G.H.I.-X:X5X5X5X5X:X-XI.H.J.F.F.J.K.K.E.1X1XrXrXrXrX1X1X1X4X4XE.E.Y.Y.Y.Y.Y.Y.Y.I.J.J.J.J.H.H.H.L.L.L.I.I.I.=X-X-X:X:X:X:X:X:X:X:X:X:X:X0XgXbXIXIXIXIXIXIXIXNXnXcXzXlXqXqXqX6X6X6X0XgXFXGXGXFXhXbXNXIXIXNXvXgXuX'.'._. XsX X_.[.[.[. X XpXpXpXpXpX X X}.}.[.[.[.}.}.}..X.X.X}._.).W.1X<X2X0X>X;XI.K.V.V.V.C.C.B.B.B.B.B.B.B.B.B.B.B.B.B.B.N.N.N.N.V.J.G.H.L.I.=X-X-X:X,X,X,X,XeXn.n.n.n.y.6.6.6.6.e.e.j.x.x.x.j.j.s.s.0.8.*.+.X.{ ] _ H H H _ { 6.q.+.O.*.*.*.*.*.*.*.O.O.O.O.O.O.&.-.a.l.B.B.B.B.M.d.:.-.&.&.X.` _ _ H H j j j f f f f j g j j 1 g g 1 g 1 g 1 1 1 1 1 1 1 1 1 g 1 1 g g g 1 g ",
"j j f j f f f f f f f f < < 1 1 1 1 1 1 < > > > < < 1 1 1 1 1 1 1 1 1 1 1 1 1 1 1 1 j j b D H _ ` X.&.-.:.9.a.f.f.k.k.f.f.d.a.a.s.g.x.x.v.D.!.!.oXXXXXXXXXXXXX].Q.x.s.s.9.5.*.2.4.3.} } } o.o.o.+.4.4.5.5.8.0.s.s.j.z.x.Q.Q._. X.XpXpXuXuXyXyX3X3X<XE.W.W.R.).'.pXsXdXFXFXFXdXaX+X@X#X%XHXJXJXJXJXJXJXHX%X#X+X|.(.VXUXAXS.A.S.C.C.C.C.C.C.C.C.C.C.K.K.K.K.U.U.U.U.E.<X<X2X3X0X0X8X8X8X8XkXkXlXlXlXlXzXzXzXcXcXzXlXqX6X>X-XI.L.H.G.V.N.N.N.z.z.z.z.z.z.z.z.M.M.N.V.G.H.L.I.-X:X5X5X5X5X:X-X=XL.H.J.J.J.J.J.J.Y.U.U.U.E.E.<X<X<X<X<XE.U.U.I.I.L.H.H.H.H.H.H.H.H.H.L.L.I.I.=X=X-X:X:X:X:X:X:X:X:X:X:X:X>XgXbXPXIXIXUXIXIXIXIXbXcXcXzXlXqXqXqXqX6X6X0XgXdXGXGXFXhXbXNXIXIXNXbXgXyXtX'._._._._._._.[.[. X XpXpXpXpX XpX X X}.}.[.[.}.}.}..X.X.X}.[.`.`.W.1X2X0X2X;XU.K.V.V.V.C.C.C.B.B.B.B.B.B.B.B.B.B.B.B.B.N.N.N.N.N.V.G.H.H.L.I.=X-X:X:X,X,X,X,XeXn.n.n.n.e.e.0.e.e.e.j.x.m.m.x.j.s.s.0.8.5.*.O.{ _ _ _ H H H _ ` X.O.O.O.*.*.*.*.*.5.5.*.O.O.X.O.O.&.-.a.M.B.B.B.M.l.a.:.-.&.O...` _ H H l j j f f j f j j j g 1 1 1 1 1 1 g 1 1 1 1 g 1 g 1 8 1 1 g g g g g g g ",
"j f f f f f f f f f f f < < 1 < < 1 1 1 1 > 8 1 1 1 1 1 1 1 , 1 1 1 1 1 1 1 1 1 1 1 j j l b L ' ` @.O.*.:.9.a.f.f.k.k.f.f.f.s.f.f.g.g.x.v.D.!.].oXXXXXXX@XXXXX].Q.x.f.s.9.5.*.4.r.4.} } } o.o.o.+.2.4.5.5.8.0.s.s.f.z.z.x.Q.).[..XaXpXsXuXyXyX3X3X<X<XE.W.R.).'. XaXdXhXhXFXAXaX.X+X#X%X%XHXJXJXJXJXJXHX%X#X+X|.{.CXUXZX~.S.S.A.C.C.C.C.C.C.C.C.C.C.K.K.K.K.K.U.U.E.<X<X<X2X2X0X0XqX8X8XkXkXkXlXlXlXzXzXzXzXcXcXzXzXlXqX6X-X=XI.L.H.J.V.N.N.M.z.z.z.z.z.z.N.M.M.N.V.B.G.H.L.I.-X:X5X5X7X5X5X:X-X=XL.L.H.J.J.J.J.J.J.J.J.F.J.J.J.J.J.J.J.H.J.J.J.J.H.H.H.H.L.L.I.=X=X=X-X-X-X:X:X:X:X:X-X-X-X-X-X>X3XhXPXIXIXUXUXIXIXIXMXcXcXzXzXlXqXqXqXqX6X6X0XgXhXGXGXFXgXbXbXNXNXNXbXgXyXrX'._._.[.[._.[.[.[.[. X XpXpXpXpX X X X}.}.}.}.}.}.}..X.X.X}. X'.`.W.1X3X2X0X>XU.J.V.V.C.V.C.C.B.B.B.B.B.B.B.B.B.B.B.B.B.M.M.N.N.N.V.J.H.H.L.I.=X-X:X:X,X,X,X,X,XeXn.n.n.j.e.e.e.e.e.j.x.m.m.m.x.j.s.0.8.8.*.+.X.{ _ _ H H H _ ` { X.O.O.*.*.*.*.*.*.0.j.6.+.O.O.O.O.&.:.a.l.M.B.N.l.d.>.-.&.O.X.` _ H H l l j j j j j j j 1 g j g 1 j 1 1 g g 1 g g g g g 1 1 1 1 1 g 1 g g 1 1 g ",
"j j f f f f f f f f f f < < 1 1 1 1 1 1 1 1 1 8 1 1 1 1 1 1 1 1 8 8 8 8 1 1 1 1 1 1 j j l b D ' ' @.@.*.-.9.a.f.f.k.k.k.k.f.f.f.f.g.l.x.v.Q.].].oXXXXXXX@X@XXX].Q.x.f.s.9.5.*.4.4.2.} } } } o.o.+.2.4.5.5.8.0.0.s.f.k.z.x.A.)._.}.aXpXsXuXuXyX3X3X1X<XE.W.W.).).'.pXsXdXhXFXFXdX.X.X@X#X%X*XHXJXJXJXJXJXHX%X#X+X|.+XCX[.~.~.S.S.A.C.C.C.C.C.C.C.C.C.K.K.K.K.K.K.K.U.E.<X<X<X2X2X0X0X8X8X8X8XkXlXlXlXlXlXzXzXzXcXcXcXcXzXqX6X:X-X=XL.H.G.J.V.N.N.N.M.z.z.N.N.N.N.N.N.V.V.G.G.H.L.=X:X:X5X5X5X5X5X5X:X:X=XI.L.H.H.H.H.G.J.J.J.J.V.J.H.H.H.H.H.L.L.L.L.I.I.=X=X=X=X-X-X-X-X:X:X:X:X-X-X-X=X;X;X<XyXhXPXIXUXUXUXIXIXIXNXnXcXzXzXlXlXlXqXqX0X0X6X0XwXhXFXGXFXgXvXbXNXNXNXbXgXuXrX'._._._.[.[.[.[.[.[. X X XpXpXpX X X X}.}.[.[.}.}.}.}..X.X}.}.'.'.`.1X3X3X0X2XU.K.V.V.C.C.V.C.C.B.B.B.B.B.B.B.B.B.V.B.B.B.M.M.N.N.N.J.G.H.L.I.=X-X:X:X:X,X,X,X,X,XY.b.n.n.s.s.s.s.e.s.x.m.m.m.x.j.s.0.8.8.5.*.X.{ ] _ H H H _ _ { X.O.O.O.*.*.*.*.+.*.0.s.0.*.X.O.O.&.-.:.a.k.l.l.k.d.>.:.-.&.O...` _ H H l j j f j j j j j 1 1 g j 1 j 1 1 g 1 1 1 1 g g g 1 1 1 g 1 g 1 g 1 1 1 1 ",
"j f f f f f f f f < f 1 1 1 < 1 1 1 1 1 1 1 1 1 1 1 1 8 8 8 1 < 8 8 8 8 1 1 1 1 1 1 j j j b D L ` $.O.*.-.9.9.s.f.k.k.k.k.f.f.f.f.g.j.x.v.Q.].].].XXXXXXVXVXXX].Q.x.j.s.0.8.4.+.o.} } } } } o.o.o.2.4.4.5.8.8.0.s.f.f.z.z.x.Q.).}..XaXsXuXuXyXyX3X3X<X<XE.W.W.).'. XaXdXhXFXFXAXaX.X+X#X#X%XHXJXJXJXJXJXHX*X%X$X+X+X|.(.^.~.~.S.S.A.A.C.C.C.C.C.C.C.C.K.K.K.K.E.E.U.U.E.<X<X<X2X2X0X0X8X8X8X8XkXlXlXlXlXlXzXzXzXcXcXcXcXzXqX6X5X:X-XI.L.H.H.J.J.N.N.N.N.N.N.F.F.J.V.N.N.N.V.B.G.H.I.=X-X:X5X5X7X7X7X5X5X:X:X-X=X=XI.I.L.L.L.L.L.L.I.I.I.I.I.=X:X5X:X:X:X:X:X:X:X:X:X:X-X-X-X-X-X-X;X<X1XyXsXFXPXIXUXUXUXIXIXIXNXMXnXcXzXzXzXlXlXqXqXqX0X6X0XwXgXFXFXFXgXgXbXMXNXMXvXgXgXyXtX'._._._.[.[.[.[.[. X X XpXpX X X X X}.}.}.[.[.}.}.}.}..X.X}.'.'.`.1X3X2X0X2X;XK.V.C.C.C.C.C.C.C.B.B.B.B.B.B.B.B.B.C.B.B.B.M.M.B.V.V.G.H.L.I.=X-X:X:X:X:X:X,X,X,XY.Y.b.b.j.j.j.j.s.s.x.m.m.m.m.j.s.j.j.8.5.*.O.X.{ _ _ H H _ _ ` X.O.O.+.*.*.*.*.*.O.O.-.0.5.+.O.O.*.&.:.9.a.d.f.f.a.9.:.-.&.O...` _ H H l j j j f j j j 1 1 1 1 j 1 g j 1 1 1 1 1 1 1 1 1 g 1 1 1 1 1 1 g g g g g 1 ",
"f f f f f f f f < < < 1 1 1 1 1 1 1 1 1 1 1 1 1 1 8 8 8 8 8 8 8 8 8 1 8 1 1 1 1 1 1 j j j b D L ' ` @.*.-.:.9.s.f.k.k.k.k.k.k.k.f.x.x.x.x.Q.Q.].].XXXXXX@XVXfXXX].v.x.s.0.8.5.2.o.} [ } } } } o.o.2.2.4.5.8.8.9.s.f.f.k.z.N.Q.).[..XaXsXsXuXyXyX3X3X1X<XE.E.W.).'.'.pXsXdXFXFXFXAX.X+X@X#X%X%XHXJXJXJXJXJXHX%X#X$X+X|.[.[._.).).S.S.T.A.C.C.C.C.C.C.C.C.C.C.T.rXyXE.U.U.E.<X<X<X2X2X0X0X8X8X8X8X8XkXkXlXlXlXzXzXcXcXcXcXcXzXlXqX6X>X-X=XI.L.H.G.J.V.N.N.N.N.N.F.J.J.V.N.N.N.V.V.V.G.H.L.I.=X-X:X5X5X7X7X7X7X7X5X5X>X:X:X:X:X-X-X:X:X:X:X:X:X:X7X8X7X:X:X:X:X:X:X:X:X:X-X;X<X<X3XyXuXsXdXFXGXPXIXIXIXIXIXIXNXMXnXcXcXcXzXzXlXqXqXqXqX6X0X0XwXgXFXFXhXgXgXvXbXMXMXvXgXgXyXtX'._.[.[.[.[.[.[.[. X X XpXpX X X X X}.}.}.}.}.}.}.}.}.}.}.}. X'.`.1X3X3X0X2X;XU.K.C.C.C.C.C.C.C.B.C.E.K.B.B.B.B.B.B.B.B.B.B.B.B.V.V.G.H.L.I.=X-X:X:X:X:X:X,X,X,X,XY.F.b.z.z.j.j.j.j.x.x.m.Q.m.x.s.j.Y.Y.s.*.O.X.X.` _ _ H H _ _ { X.O.O.+.*.&.+.*.+.O.O.+.*.*.O.O.+.*.-.:.9.a.a.f.a.9.>.-.-.O.X.` _ _ H l l j j f j j j j 1 1 1 1 j j 1 j 1 1 1 1 1 1 1 1 1 1 1 1 1 1 1 1 1 1 g g g g ",
"f f f f f f f f < < < 1 1 1 1 1 1 1 1 1 1 8 1 8 8 8 8 8 8 8 8 1 8 8 8 1 1 1 1 1 1 1 j j j b D L ' ` @.&.-.:.9.a.f.k.k.k.k.k.k.k.k.l.x.x.x.v.Q./.].XXXXXXXXVXfXXX].m.x.s.s.8.5.2.o.} [ } } } } o.o.+.2.4.5.5.8.9.s.f.f.k.z.z.A.)._.}.aXpXsXuXuXyXyX3X3X<X<XE.W.W.).'. XpXsXhXFXFXAXaX@X+X#X#X%XHXHXJXJXJXJXHX*X%X#X$X+X{.[.[._.).).R.R.S.C.C.C.C.C.C.C.C.C.C.T.rXrXE.U.E.E.E.<X<X<X2X2X0X6X8X8X8X8XkXkXkXlXlXlXzXxXcXcXcXcXcXcXzXlXqX6X>X-X=XI.L.H.G.J.J.V.N.N.N.F.J.J.N.N.N.N.N.N.V.V.G.G.H.L.I.=X-X:X5X5X7X8X8X8X8X8X8X8X6X0X0X6X6X6X7X7X5X5X6XqXqX6X6X6X0X0X0X0X3X3XgXuXhXhXhXFXFXFXFXPXPXIXIXIXIXNXNXMXnXnXcXcXcXzXzXlXqXqX8X8X6X0X0XgXgXhXFXhXgXgXvXvXbXbXvXgXgXyXtX'.'._.[.[.[.[.[.[. X X X XpXpX X X X}.}.}.[.[.[.}.}.}.}.}.}.}.'.'.rX3X3X3X2X<XU.K.C.C.C.C.C.C.C.C.B.K.uXrXV.B.B.B.B.B.B.B.B.B.B.B.B.G.H.L.L.I.-X:X:X:X:X:X:X,X,X,XY.Y.F.F.z.z.z.z.j.x.x.Q.m.Q.m.x.s.b.E.<Xj.*.O.X.{ _ _ H H _ _ ` X.O.O.O.*.+.+.+.+.O.O.O.O.O.O.O.O.*.*.:.9.a.a.a.a.9.9.:.-.&.O...` _ H H l j j j f f f g j 1 1 1 j g 1 1 1 1 1 1 1 1 1 1 1 1 1 1 1 1 g 1 1 1 1 1 g g g ",
"f f f f f f f < < 1 1 1 1 1 1 1 1 1 1 1 1 1 8 8 8 8 8 8 8 8 8 1 1 1 1 1 1 1 1 1 1 6 j j j b D L ' ` @.@.-.:.9.a.s.f.k.k.k.k.k.k.k.k.z.x.x.Q.D.Q.].].XXXXXXVXVXXX].Q.x.f.s.0.5.2.o.} } } } } } 2.2.+.2.4.4.5.8.9.0.s.f.k.z.z.x.R._.}..XaXsXsXuXyXyX3X3X1X<XE.W.W.).).'.pXsXdXFXFXFXAXaX+X@X#X#X%XHXJXJXJXJXJXHX%X%X#X+X|.{.[.[._.).).R.S.A.A.C.C.C.C.C.C.C.C.K.T.T.K.U.E.E.U.E.E.<X<X2X2X6X6X6X8X8X8X8XkXkXlXlXzXzXzXzXcXcXcXcXcXcXzXqXqX6X>X-X=XI.L.H.H.G.J.V.N.N.J.J.N.N.N.N.N.N.N.V.V.V.B.G.G.H.L.L.I.=X-X:X5X6X6X6XqXqXwXgXgXgXwXwXwXwXwXwXgXvXgXgXgXgXgXgXgXgXgXhXhXhXhXhXhXhXhXbXbXNXNXIXNXNXMXMXMXnXnXcXcXcXzXzXlXlXqX8X8X6X0X0XgXgXhXhXgXgXgXvXvXnXnXvXgXgXyXtX'.'._.[.[.[.[.[.[. X X X X X X X X X}.}.}.[.[.}.}.}.}.}..X}.}. X'.rXyX3X3X2X<XU.K.C.C.C.C.C.C.C.C.C.B.C.W.T.B.B.B.B.B.B.B.M.M.M.B.B.B.G.L.L.I.=X:X:X:X:X:X:X:X,X=XI.Y.F.F.N.z.z.z.z.z.x.Q.m.m.Q.x.j.s.j.n.n.0.+.O.{ { _ _ H H _ ` X.X.O.O.&.*.+.O.+.O.O.X.O.+.O.O.O.O.*.-.:.9.a.a.a.a.9.:.:.-.O.X.` _ _ H H j j f f f j f g j 1 1 j g g 1 1 1 1 1 1 1 1 1 1 1 1 1 g 1 1 g 1 1 1 1 g 1 g g ",
"f f f f f f f f f < < 1 1 1 1 1 1 1 1 1 1 1 8 8 8 8 8 8 8 1 1 1 1 1 1 1 1 1 1 1 1 1 k j l b D L ' ` @.@.-.-.9.a.a.f.k.k.k.k.k.k.k.z.z.x.x.Q.D.Q.].].XXXXXXVXVXXXXX].x.f.s.9.5.4.o.o.} [ [ } } 2.2.2.2.4.4.5.8.9.9.s.f.k.k.z.N.Q.).[..XaXsXsXuXyXyXyX3X3X<X<XW.W.R.).'. XaXdXhXFXFXFXaX@X+X+X#X%X%XHXJXJXJXJXHXHX%X%X#X+X|.{.[.[._.).).S.S.A.C.C.C.C.C.C.C.C.K.K.K.K.E.E.E.E.U.E.E.<X<X2X2X6X6X6X8X8X8X8XkXkXlXlXlXzXzXzXxXcXcXcXcXcXvXzXqXqX6X>X>X-X=XL.H.H.G.G.J.L.L.J.N.N.N.N.N.N.N.N.N.V.V.V.G.G.H.H.H.L.I.=X=X-X-X>X>X2XwXgXwXwXwXwXgXgXgXgXgXgXgXgXgXgXhXuXuXuXgXgXuXuXuXgXgXvXbXbXMXMXMXMXMXMXnXnXnXcXcXcXzXzXlXlX8X8X8X6X0XwXgXgXhXhXgXgXgXgXvXvXvXvXgXgXyXtX'.'._.[.[.[.[.[.[. X X XpX X X X X X}.}.}.}.[.[.}.}.}.}.}.}..X X'.rXyX3X3X2X<XE.K.C.C.C.C.C.C.C.C.C.C.B.B.B.B.B.B.B.B.B.B.C.B.B.B.B.B.G.H.L.I.=X-X:X:X:X:X:X:X-X=XI.I.J.F.F.N.M.z.z.z.z.m.Q.].m.m.x.j.s.0.0.8.*.O.X.{ _ _ _ H _ _ X.X.O.O.O.O.O.O.O.O.O.X.X.O.O.O.O.+.*.-.:.9.a.s.s.a.9.8.:.-.&.O...` _ H H l j j f j f f > > f g j j 1 g 1 1 1 1 1 1 1 1 1 1 1 1 1 1 1 1 1 1 1 1 1 1 g g j ",
"f f f f f f f f > < 1 1 1 1 1 1 1 1 1 1 8 1 1 8 8 8 8 8 8 8 1 1 1 1 6 6 6 6 6 1 6 6 k k l b D L ' ` @.@.-.-.q.a.a.f.k.k.k.k.k.k.k.z.z.z.z.Q.D.Q.].].XXXXXXVXVXfXXX].v.j.s.9.0.4.2.o.} [ [ } } o.2.3.4.4.4.5.8.9.9.s.f.f.z.z.N.K.).[..XaXaXsXuXuXuXyXyX3X<X<XE.W.W.).).'.pXsXdXFXFXFXAXaX.X+X#X#X%XHXHXJXJXJXJXHXHX%X#X$X+X|.{.[.[._.).~.S.S.A.C.C.C.C.C.C.C.K.K.K.K.E.E.E.E.E.E.E.<X<X<X2X>X>X6X6X8X8X8XkXkXkXlXlXlXzXzXxXxXxXcXcXcXcXcXcXzXqXqX0X>X>X-XI.L.L.L.U.2X3XU.J.N.N.N.N.N.N.N.N.N.N.V.V.G.G.G.G.G.H.H.H.H.I.=X=X=X-X>X>X>X-X:X>X>X>X2X2X3X3X2X2X2X2X2X2X2X2X2X3XwXgXvXvXbXbXMXMXMXMXMXMXnXnXnXcXcXxXzXlXlXlX8X8X8X6X0X0XwXgXgXgXgXgXgXgXvXvXvXvXgXgXyXtX'.'._.[.[._.[.[.[.[. X XpXpX X X X X X}.}.[.[.[.}.}.}.}.}.}..X X'.tXyXgX3X2X<XU.K.C.C.C.C.C.C.C.C.C.C.C.C.B.B.B.B.B.B.B.B.C.C.C.B.B.B.G.H.L.I.=X-X:X:X:X:X:X:X:X-X=XI.J.J.F.N.N.M.M.N.Z.Q.Q.].].m.x.x.s.s.0.8.*.O.X.{ ] _ _ _ _ _ ` X.O.O.O.&.O.O.O.O.O.+.X.X.O.O.O.*.*.-.:.9.a.s.s.a.9.9.:.-.&.O...` _ _ H H j j f f j f f j > f f j j 1 g 1 1 1 1 1 1 1 1 1 1 1 1 1 1 1 1 1 1 1 1 1 1 1 j 1 ",
"f f j j < f < < < 1 1 1 1 1 1 1 1 1 8 8 1 1 1 1 6 8 8 8 8 8 8 6 6 6 6 6 6 6 6 6 6 6 k k j l D L ' ` @.@.-.-.w.9.a.f.k.k.k.z.k.k.z.z.z.z.z.x.Q.Q.].]. XXXXXVXVXVXXX].Q.x.s.9.8.4.2.} } [ [ } } } 2.3.4.4.4.5.8.9.9.s.s.f.z.z.z.Z.R._.}.aXaXsXsXuXuXgXyX3X3X<XE.E.W.R.)._. XaXdXFXFXFXFXAX.X+X@X#X%X%XHXHXJXJXJXHXHX%X%X#X$X+X|.[.[.[._.~.~.S.S.A.C.C.C.C.C.A.T.K.K.K.K.U.E.E.E.E.E.E.<X<X<X2X>X>X6X6X8X8X8XkXkXkXlXlXlXzXzXzXxXcXcXcXcXcXcXcXcXzXqXqX6X6X:X-X;XI.;X3X3X;XJ.J.J.V.J.V.N.N.V.N.N.V.V.J.J.G.G.G.H.H.H.G.H.L.I.I.I.=X=X=XI.I.=X=X=X=X;X-X-X-X-X-X-X;X>X>X0XwXwXvXvXnXbXMXMXMXMXMXMXMXnXnXcXcXcXzXzXlXlX8X8X8X8X6X0X0XwXgXgXgXgXgXgXgXvXvXvXgXgXgXyXrX'.'._._.[._.[.[.[.[. X X XpXpX X X X}.}.}.[.[.[.[.}.}.}.}.}.}. X XtXuXgXgX3X<XU.K.C.C.C.C.C.C.C.C.C.C.C.C.C.C.B.B.B.B.B.B.B.B.B.B.B.B.G.H.L.I.=X-X:X:X5X:X:X:X:X:X-X=XL.J.J.F.N.N.M.M.N.Q.Q.].].].Q.x.j.s.0.8.5.+.X.{ ] _ _ H _ _ _ ` X.O.+.*.+.O.O.O.O.O.+.X.+.O.O.O.*.-.:.>.a.a.s.a.a.9.8.-.-.&.O...` _ H H l j f f f f f  .u.H f j j j g g 1 1 1 1 1 1 1 1 1 1 1 1 1 1 1 1 1 1 1 1 1 1 1 1 1 ",
"f < j j 1 1 < 1 1 1 1 1 1 1 1 1 < 1 8 8 8 1 8 6 6 8 8 8 8 8 6 6 6 6 6 6 6 6 6 6 1 k k k k j P U L ' $.@.&.-.-.9.a.f.k.k.l.z.l.l.z.z.z.z.x.x.D.Q.].]. XXXXXfXVXVXXXXXm.x.s.0.8.4.2.} } [ [ } } } 2.2.4.4.4.4.5.8.9.0.s.f.f.z.z.N.Q.).}..XaXdXsXsXuXuXgX3X3X<X<XE.W.R.R.).'.pXsXdXFXFXFXdXaX.X+X#X#X%XDXHXHXJXJXHXHX*X%X%X#X+X+X|.[.[.[.^.~.S.S.A.A.C.C.C.C.C.A.T.C.K.K.K.E.E.E.E.E.E.E.<X<X<X2X2X2X6X6X8X8X8X8XkXkXlXlXlXzXzXzXxXcXcXcXcXcXcXcXcXcXzXlXqXqX0X>X:X:X>X;XI.L.L.H.H.H.G.J.J.V.V.V.J.J.J.G.G.G.G.H.H.H.G.G.L.I.I.L.L.I.I.I.I.I.I.I.I.;X-X-X-X-X>X>X0X0XwXwXvXvXnXMXMXMXMXMXMXMXnXnXnXnXmXcXzXzXzXlXkX8X8X8X8X6X0X0XwXgXgXgXgXwXwXwXvXvXvXgXgXgXyXrX'.'._._.[.[.[.[.[.[. X X X XpX X X X X}.}.[.[.[.[.}.}.}.}.}.}.}. XtXtXgXNXNXgXU.K.K.C.C.C.C.C.C.C.C.C.C.C.C.C.C.B.B.B.B.B.B.B.B.B.B.B.G.H.L.L.I.-X:X:X:X5X:X:X:X:X-X=XI.L.H.J.F.N.N.M.N.K.Q.].].].m.m.x.j.s.9.5.+.X.{ { _ _ _ _ _ _ { X.O.O.*.*.+.O.+.+.O.O...+.4Xx...*.-.-.:.9.a.a.a.a.9.9.:.-.*.O.X.` _ H H H j j f f j f > %.u.G v b j j 1 1 1 1 1 1 1 1 1 1 1 1 1 1 1 1 1 1 1 1 1 1 1 1 1 1 1 ",
"< 1 1 1 1 < 1 1 1 1 1 1 1 1 1 1 < , 1 1 8 8 8 6 6 1 1 1 8 8 6 6 6 6 6 6 6 6 6 6 6 j j k k j P P U ' ` @.&.-.-.q.a.f.f.k.l.z.z.l.l.z.z.z.x.Z.Q.Q.Q.). XXXXXVXVXVXVXXX].x.j.0.0.4.2.o.} } [ [ [ } } 2.2.2.2.4.5.8.0.0.s.f.f.z.z.z.Z.R.[..XVXVXsXsXuXuXgXgX3X2X<XE.E.R.R.`.'. XpXdXFXFXFXdXdX.X+X@X#X#X%XHXHXHXJXHXHXHX*X%X#X$X+X|.{.[.[._._.~.S.S.S.A.A.A.A.C.C.T.T.K.K.K.K.E.E.E.E.E.E.<X<X<X<X<X2X2X6X6X8X8X8X8XkXkXlXlXlXzXzXzXzXcXcXcXcXcXcXcXcXcXcXvXzXlXqXqX6X>X-X=X=X=XI.I.L.L.L.H.H.G.G.H.H.H.G.H.H.H.H.H.L.L.L.I.;X=XL.L.I.I.I.I.I.I.I.=X-X>X>X>X6X0XwXwXvXvXvXbXbXMXMXMXMXMXMXnXnXnXnXmXcXcXxXzXlXlXkX8X8X8X8X6X0X0XwXwXwXgXgXgXwXwXgXgXgXwXwXyXyXrX'.'._._._.[.[.[.[.[. X X X X X X X X X[.[.[.[.[.[.[.}.}.}.}.}.}. XpXtXuXgXNXNXgXK.C.C.C.C.C.C.C.C.C.C.C.C.C.B.B.B.B.B.B.B.B.B.B.B.B.B.B.G.H.L.I.=X:X:X5X5X:X:X:X:X-X=X=XI.L.J.J.N.N.N.F.Q.W.].].].].m.m.j.s.0.8.*.+.{ _ _ _ _ H _ _ { +.4.4.&.&.&.&.+.O.O.*.O.` @.bXiX*.*.-.8.a.a.a.d.a.a.9.8.:.-.O.O...` _ H H l j j f f f j f b F f f f j j 1 1 1 1 1 1 1 1 1 1 1 1 1 1 1 1 1 1 1 1 1 1 1 1 1 1 1 ",
"> 1 1 1 1 1 1 1 1 1 1 1 1 1 1 1 8 , 6 6 8 8 1 6 6 1 1 1 6 6 6 6 6 6 6 6 6 6 6 6 6 j k k k N N P U ' ` @.@.-.-.q.a.d.f.k.l.z.l.l.z.z.z.z.z.Z.Q.Q.Q.).'.XXXXXXVXVXVXXXoXm.j.0.0.5.2.2.} [ [ [ [ } } 2.2.+.2.4.5.8.8.9.0.s.f.z.z.z.N.R._.}.@XVXaXsXsXuXgXgX3X3X<X<XE.1XrX`._.'. XsXdXFXFXFXdXaX.X.X@X#X%X%XDXHXHXHXHXHX*X%X%X#X$X+X|.{.[.[._._.~.S.S.S.S.A.A.A.T.T.T.T.K.K.T.T.E.E.E.E.E.E.E.<X<X<X<X2X>X6X6X6X8X8X8XkXkXlXlXlXlXzXzXzXxXcXcXcXcXcXcXcXcXcXcXcXvXzXlXqX0X6X>X>X-X=X=X=XI.I.I.L.L.L.L.L.L.L.L.L.L.I.I.=X=X-X;X-X=XI.=X=X=X=X-X-X:X>X>X0XqXqXwXvXvXvXnXbXMXMXMXMXMXnXMXnXnXnXmXmXcXcXxXzXzXlXlXkX8X8X8X8X6X0X0X0XwXwX3X3X3X3XgXgXwXwXwX3X3XyXrX'.'._._.[.[.[._.[.[. X'. X X X X X X X}.[.[.[.[.[.[.}.}.}.}.}.}. XpXtXuXyXyXgXgX1XK.C.C.C.C.C.C.C.C.C.C.C.B.B.B.B.C.B.B.B.B.B.B.B.B.B.B.G.H.L.I.=X-X:X5X5X5X:X:X:X-X-X=XI.L.H.J.J.N.N.N.K.W.].].XXoX].m.x.j.s.0.*.4.r.r.2._ _ _ _ ] { { 4.e.0.*.&.&.&.O.O.O.*.X...` m.y.&.-.:.s.z.f.d.f.a.a.9.:.-.&.O...` _ _ H l j j f f f > j b > > f > > j j > 1 1 1 1 1 1 1 1 1 1 1 1 1 1 1 1 1 1 1 1 1 1 1 1 1 1 ",
"1 1 1 1 1 1 1 1 1 1 1 1 1 1 8 8 8 8 6 B 8 8 6 6 6 6 1 1 6 6 6 6 6 6 6 6 6 6 6 6 6 6 k k k N N P U ' ` @.@.-.-.q.9.a.f.k.k.z.z.z.l.z.z.z.N.Z.x.Q.Q.).'. XXXXXVXVXVXXXXXQ.x.0.0.5.2.o.} [ [ [ [ } } 2.o.o.+.4.4.5.8.8.9.s.s.f.z.z.N.K.`. X@XVXVXsXsXuXuXgXyX3X3X<XE.yXhX`.).'. XpXdXhXFXFXFXdXaX.X+X+X#X%X%XHXHXHXHXHXHX*X%X%X#X+X+X|.{.[.[.^._.).~.S.S.S.S.R.`.R.T.T.T.T.T.T.E.E.E.E.E.<X<X<X<X<X<X<X2X>X6X6X6X8X8X8XkXkXlXlXlXlXzXzXzXzXxXcXcXcXcXcXcXcXcXcXcXcXcXvXzXqXqX0X0X6X>X>X:X-X-X-X-X-X-X=X-X-X;X-X-X-X-X-X:X>X>X>X:X:X:X:X>X>X6X0X0XwXwXvXvXvXvXnXbXMXMXMXMXMXMXnXnXnXnXnXnXmXmXcXxXzXzXzXlXlXkX8X8X8X8X6X6X0X0X0X3X3X3X3X3XwXwXwXwXwX3X3XyXrX'.'._._.[.[.[.[._.[. X X X X X X X X X X[.[.[.[.[.[.}.}.}.}.}.}. X XtXuXgXgX<XK.T.T.C.C.C.C.C.C.C.C.C.C.C.C.B.B.B.B.B.B.B.B.B.B.B.B.B.B.G.H.L.I.=X-X:X:X5X5X:X:X:X:X-X=XI.L.H.H.J.V.N.N.Y.Q.'.].XXXX].Q.x.j.s.0.5.+.4.n.n.3.] H _ _ { { X.*.0.5.*.&.&.&.O.O.O.*.O.+.X...O.&.:.9.a.f.a.d.f.a.9.8.-.-.O.X...` _ H l j j f f f f f f f > f j j < 1 1 1 1 1 1 1 1 1 1 1 1 1 1 1 1 1 1 1 1 1 1 1 1 1 1 1 j j ",
"1 1 1 1 1 1 1 1 1 1 1 1 8 8 8 8 8 8 6 B 8 8 6 6 6 6 6 6 6 8 6 6 6 6 6 6 6 6 6 6 6 6 k k k j N P P U ' $.@.-.-.-.q.a.f.k.k.z.z.z.l.z.z.N.N.Z.x.A.Q.`.]. XXXXXVXVXVXVXXX].x.s.0.5.2.o.} [ [ [ [ } } 1.o.o.+.4.4.5.8.8.0.s.s.f.k.z.z.Z.R._..XVXVXdXsXuXuXgXgX3X3X<X<X1XrXW.R.`.'. XsXdXFXFXFXdXdX.X+X+X$X#X%X%XHXHXHXHXHXHX*X%X#X#X+X|.|.{.[.[.[.[.).R.S.S.S.`.`.R.A.A.T.T.T.T.T.E.E.E.E.<X<X<X<X<X<X<X<X2X2X6X6X6X8X8X8XkXkXkXkXlXlXlXzXzXzXxXxXcXcXcXcXcXcXnXnXnXnXcXcXcXcXzXlXqXqXqX0X6X6X6X6X>X>X6X6X6X6X6X6X>X>X>X6X6X6X6X6X6X6XqXqXqXzXvXvXcXcXnXnXMXMXMXMXMXMXMXMXnXnXnXnXnXnXmXcXcXxXzXzXzXlXlXlX8X8X8X8X6X6X6X0X0X0X0X0X3X0X3X3XwX3X3X3X3XyXrXrX`.'._._._.[.[.[.[._.'.'.'.'.'.'. X X X[.[.[.[.[.[.[.[.}.}.}.}.}. X XtXuXgXgX3XE.C.C.C.C.C.C.C.C.C.C.C.C.C.C.C.C.C.B.B.B.B.B.B.B.B.B.B.B.B.G.H.I.=X-X:X:X5X5X5X:X:X:X-X=X=XI.L.H.G.J.V.N.Z.T.`.'.XXXX].].Q.z.s.0.8.4.o.o.6.r.} _ H _ ] { X.X.*.*.*.&.*.*.&.O.O.O.*.O.+.+.O.-.-.>.d.k.d.d.a.a.a.9.:.-.&.O...` _ H H l j j f f f f f > > j j 1 > > 1 1 1 1 1 1 1 1 1 1 1 1 1 1 1 1 1 1 1 1 1 1 1 1 1 j j j j ",
"1 1 1 1 1 1 1 1 1 1 1 1 8 8 8 8 8 8 8 1 8 8 6 6 6 6 6 6 6 6 6 8 6 6 6 6 6 6 6 6 6 k k k k j N P P U ' $.@.&.-.-.q.a.f.k.k.k.l.z.z.z.z.z.z.N.x.A.Q.Q.). XXXXXVXVXVXVXXXoXD.g.0.5.4.o.} [ [ [ [ [ [ 1.1.o.+.2.4.4.5.8.9.0.s.f.f.z.z.N.Q.).}.@XVXdXsXsXuXuXgXgX3X2X<XE.E.E.W.).'. XpXsXhXFXFXFXdXaX.X+X+X#X%X%XDXHXHXHXHXHXHX%X%X#X#X+X|.|.[.[.[.[._.).~.S.S.).).R.S.S.T.T.T.T.T.T.E.E.E.E.<X<X<X<X<X<X<X<X2X2X>X6X6X6X8X8X8X8XkXkXlXlXlXlXzXzXzXxXxXxXcXcXcXcXnXnXnXnXnXnXcXcXcXcXvXvXzXzXzXqXqXqXqXqXqXqXqXqXqXqXqXqXqXlXqXlXzXzXzXvXvXcXvXnXbXbXbXMXMXMXMXMXMXMXnXnXnXnXnXnXnXmXmXcXxXxXzXzXlXlXkXkX8X8X8X6X6X6X6X0X0X0X0X0X0X0X3X3X3X3X3X3X3XyXrXtX'.'._.[.[._.[.[.[.[.'.'.'.'.'. X X X X[.[.[.[.[.[.[.[.}.}.}.}.}. X XtXuXuXgX3XE.K.C.A.A.A.C.C.C.C.C.C.C.C.C.C.C.C.C.C.B.B.B.B.B.B.B.B.B.B.G.H.L.I.-X:X:X5X5X5X:X:X:X:X-X=XI.L.H.H.G.G.V.J.T.Q.'.XXXXXX].m.x.j.s.0.5.+.{ ] ] ] H _ _ ] { X.O.O.*.*.*.*.*.*.&.O.O.O.O.O.O.O.&.-.:.9.l.N.M.k.a.a.9.8.-.-.&.X.` _ H H H j j f f f f < > > > j f > > 1 1 1 1 1 1 1 1 1 1 1 1 1 1 1 1 1 1 1 1 > 1 1 1 1 1 1 1 j j ",
"1 1 1 1 1 1 1 1 1 1 1 8 8 8 8 8 8 8 8 8 8 8 1 6 6 6 6 6 6 6 6 6 6 6 6 6 6 6 6 6 6 k k k k k j N P U ' ' @.@.-.-.q.a.d.f.k.k.l.l.z.z.z.z.N.N.N.A.Q.Q.).'.XXXXVXVXVXVXXXXXm.x.0.5.4.o.} [ [ [ [ [ [ } } o.o.+.4.4.5.8.8.9.0.s.f.k.z.N.Z.R. X.XVXAXdXsXhXuXgXgX3X3X<X<XE.W.W.).).'.pXsXhXFXFXFXFXdX.X.X+X+X#X%X%XDXHXHXHXHXHX*X%XDX%X#X+X|.{.[.{.[._._.~.~.~.).S.S.S.S.T.T.T.T.T.T.T.E.E.E.E.<X1X1X1X1X<X<X<X<X2X>X6X6X6X8X8X8X8XkXkXkXkXkXlXlXzXzXzXzXxXxXcXcXcXcXcXcXcXnXnXnXnXcXcXcXcXcXcXcXcXcXcXcXcXcXcXcXvXvXvXcXcXcXvXvXvXnXcXnXnXnXnXMXMXMXMXMXnXnXnXnXnXnXnXnXnXnXmXmXcXcXcXxXzXzXlXlXlXkX8X8X8X6X6X6X6X6X6X0X0X0X2X0X2X2X0X3X3X3X3X3XrXrXtX'.'.'.[.[.[.[.[.[.[. X'.'.'.'. X X X X[.[.[.[.[.[.[.[.}.}.}.}.}.}. XpXtXuXyX1XE.T.K.C.A.C.C.C.C.C.C.C.C.C.C.C.C.C.C.C.C.C.B.B.B.B.B.B.B.B.G.H.L.I.=X:X:X5X5X5X5X:X:X:X-X=XI.I.L.H.G.G.V.V.K.R.'.'.XXXXoX].m.x.s.0.8.*.o.{ ] H H H _ ] { X.O.O.*.*.-.-.*.*.*.&.O.O.O.O.O.O.&.&.-.:.a.l.N.M.f.a.a.9.:.-.&.O...` _ H H l j f f f f f < > < < f > j j < 1 1 1 1 1 1 1 1 1 1 1 1 1 1 1 1 1 1 1 > > 1 1 1 1 > 1 g 1 ",
"1 1 1 1 1 1 1 1 1 1 1 8 8 8 8 8 8 8 8 8 8 8 8 6 6 6 6 6 6 6 6 6 6 6 6 6 6 6 6 6 6 k 6 k k k j j P P ' ' $.@.-.-.q.a.g.f.l.k.l.l.z.z.z.z.N.N.N.Z.A.Q.).]. XXXVXVXVXVXVXXX].x.0.8.4.o.} [ [ [ [ [ [ } } 2.o.2.2.4.4.5.8.9.0.s.f.k.z.z.N.Q._.}.@XVXAXsXsXuXuXgXgX3X3X<XE.E.W.R.).'. XpXsXdXFXFXFXAXaX.X+X+X#X#X%X%XDXHXHXHXHXHX*X%X%X#X+X+X|.{.{.{.[._._.^.).~.S.S.S.S.R.T.T.T.T.T.T.T.E.E.E.<X<X1X1X1X1X<X<X<X<X<X2X6X6X6X6X8X8X8X8XkXkXkXlXlXlXlXzXzXzXxXxXxXcXcXcXcXcXcXcXcXnXcXcXnXcXnXnXcXnXnXcXcXcXnXnXnXnXcXcXcXnXnXnXnXnXMXnXMXnXnXnXnXnXnXnXnXnXnXnXnXnXnXnXnXmXcXcXcXxXzXzXzXlXlXlXkXkX8X8X8X6X6X6X6X6X6X6X2X2X2X2X2X2X3X3X3X3X3X1XrXrX'.'.'._._.[.[.[.[.[.[. X X'.'.'.'. X X[.[.[.[.[.[.[.[.[.}.}.}.}.}.}. XpXtXuXyX1XE.K.C.C.C.C.C.C.C.C.C.C.C.C.C.C.C.C.C.C.C.C.C.C.B.B.B.B.B.B.G.H.L.I.=X-X:X5X5X5X5X:X:X:X-X-X=XI.L.H.H.G.G.V.K.Q.'.XXaXaXXX].Q.x.j.s.8.5.+.X.] ] T H _ ] { { X.O.*.*.-.-.-.*.*.*.&.O.O.O.O.&.&.&.-.-.>.d.k.l.k.a.a.9.8.-.*.O.X.` _ H H l j f f f < f f j < 1 < > j j j > 1 1 1 1 1 1 1 g 1 1 1 1 1 1 1 1 1 1 1 > > 1 1 1 j > 1 1 f ",
"1 1 1 1 1 1 1 1 1 8 8 8 8 8 8 8 8 8 8 8 8 8 8 6 6 6 6 6 6 6 6 6 6 6 6 6 6 6 6 6 k k k k k k j N N P U ' $.@.&.-.-.g.g.g.l.k.k.l.z.z.z.N.N.N.N.Z.A.Q.`.). X.XaXVXVXVXVXXXoXm.j.8.4.+.} [ [ [ [ [ [ [ } 1.2.2.2.2.4.5.8.8.9.s.s.f.k.z.z.Z.R. X@XVXVXdXsXhXuXuXgXyX3X<X<XE.W.R.).).'. XpXsXhXFXFXFXdXaX.X+X+X#X#X%X%XDXHXHXHXHX*X%X%X#X#X@X+X|.{.{.[.[._.^.^.).).).~.S.R.R.R.R.T.R.T.T.T.E.E.E.<X<X3X3X3X3X1X1X<X<X<X2X>X6X6X0XqX8X8X8XkXkXkXkXlXlXlXlXzXzXzXzXxXxXcXcXcXcXcXmXnXnXcXnXnXnXnXnXnXnXnXnXnXnXnXnXnXnXnXnXnXnXnXnXnXnXnXnXnXnXnXnXnXnXnXnXnXnXnXnXnXnXcXcXcXxXxXzXzXzXlXlXlXkXkX8X8X8X6X6X6X6X6X6X6X0X>X2X2X2X2X2X3X3X3X3X1XrXrXrX'.'.'._._._.[.[.[.[.[. X X X X'. X X X[.[.[.[.[.[.[.[.[.[.}.}.}.}. X XpXtXuXyX1XW.T.C.C.C.C.C.C.C.C.C.C.C.C.C.C.C.C.C.C.C.C.C.C.B.B.B.B.B.B.B.G.H.I.=X-X:X:X5X5X5X5X:X:X:X-X=XI.I.L.H.H.G.G.K.T.`.'.XXfXXX].].m.x.s.0.5.*.+.{ ] H _ ] ] { X.X.O.&.*.-.-.-.-.*.*.*.*.*.&.&.&.&.*.-.:.9.d.k.k.k.f.a.9.9.:.-.&.O...` _ H H j j f f f < j g 1 1 1 > > 1 j < > > < > > 1 1 1 j 1 1 1 1 1 1 1 1 1 1 > > > 1 1 g j > > > < ",
"1 1 1 1 8 8 8 8 8 8 8 8 8 8 8 8 8 8 8 8 8 8 8 6 6 6 6 6 6 6 6 6 6 6 6 6 6 6 6 6 6 6 6 k k k j N N P U ' ' @.;.-.-.q.g.g.g.k.k.l.l.M.N.N.N.N.N.Z.Z.Q.R.).'. X.XVXVXVXVXXXXX!.x.0.5.+.o.} [ [ [ [ [ [ } } 2.2.2.2.2.4.5.8.9.0.s.f.k.z.z.N.Q._..XVXVXAXsXhXuXuXgXyX3X<X<XE.E.W.W.).'.'.pXsXdXFXFXFXFXdX.X|.+X@X#X#X%X%XDXHXHXHX%X%X%X%X%X#X#X|.{.{.{.[.(.^._._._.).).~.S.R.R.R.R.R.R.R.T.T.E.E.E.<X<X3X3X3X3X1X1X1X<X<X2X2X2X0X0X0X8X8X8X8XkXkXkXkXlXlXlXlXzXzXzXzXxXxXxXcXcXcXcXcXmXmXmXmXmXcXcXnXnXnXnXnXnXnXnXnXnXnXnXnXnXnXnXnXnXnXnXnXnXnXnXnXnXnXnXnXnXcXcXcXcXcXxXzXzXzXzXlXkXkX8X8X8X8X6X6X6X6X6X6X>X>X>X>X2X2X2X2X2X3X3X1X1XrXrX`.`.'.'._._._._.[.[.[._._.'. X X'. X X X[.[.[.[.[.[.[.[.[.[.[.[.}.}.}.}. XpXuXuXyX1XW.T.A.A.A.C.C.C.C.C.C.C.C.C.C.C.C.C.C.C.C.C.C.C.C.B.B.B.B.B.B.G.H.L.=X-X:X:X5X5X5X5X:X:X:X-X=X=XI.L.H.H.G.G.G.K.R.].XXaXfXXX].Q.x.s.0.8.*.+.{ { _ _ _ _ { { X.O.O.*.*.*.-.-.*.*.*.*.*.&.&.&.&.&.-.-.:.a.f.k.k.f.f.a.9.:.-.*.O.X.` _ H H l j j f f f < > 1 1 < j < > > f > > > > > > > > > j 1 1 1 1 1 1 1 1 1 1 > > 1 1 j > g 1 1 1 1 ",
"1 1 1 1 8 8 8 8 8 8 8 8 8 8 8 8 8 8 8 8 8 8 6 8 6 6 6 6 6 6 6 6 6 6 6 6 6 6 6 6 6 6 k k k k k j N P U ' ' @.@.,.-.q.g.g.g.k.k.l.z.M.M.N.N.N.N.Z.Z.Q.R.).'. X.XVXVXVXVXVXXX].x.0.5.4.o.} [ [ [ [ [ [ [ } } 2.2.2.2.4.5.8.8.0.s.f.k.z.z.N.K.).}.@XVXAXdXsXsXuXuXyX3X3X<X<X<XE.W.R.).'.'.pXsXdXFXFXFXAXaX.X.X+X@X#X#X%X%X%XDXDX%X%X%X%X%X%X#X+X|.|.{.[.[.(._._._._.~.~.~.~.S.R.).`.`.R.R.R.R.E.E.E.<X<X3X3X3X3X3X1X1X1X<X<X2X2X2X0X0XqXqX8X8XkXkXkXkXkXlXlXlXlXlXzXzXzXzXxXxXxXcXcXcXmXmXmXcXcXcXmXmXnXmXnXnXnXnXnXnXnXnXnXnXnXnXnXnXnXnXnXnXnXnXnXmXmXcXcXcXcXcXcXcXnXcXzXlXlXlXkX8X8X8X8X6X6X6X6X6X>X>X>X>X>X>X2X2X<X2X2X1X1X1X1XrX`.`.`.'._._._._.[.[._.[. X.X X X X X'. X X[.[.[.[.[.[.[.[.[.[.[.[.[.}.}.}. XpXtXuXyXrXR.T.A.A.A.A.C.C.C.C.C.C.C.C.C.C.C.C.C.C.C.C.C.C.C.B.B.B.B.B.B.G.H.L.=X-X:X:X5X5X5X5X:X:X:X-X-X=XI.L.H.H.G.G.G.K.R.`. XaXVXaXoXm.x.j.0.0.5.+.X.{ ] _ _ _ _ { X.O.O.+.*.*.*.*.*.*.*.*.&.*.&.&.&.&.&.-.:.9.a.f.f.f.f.a.9.8.:.&.&.O.` _ H H H j j f f f f > > < j f f > 1 1 1 f > > > > > > > > 1 1 1 > 1 1 1 1 g 1 1 > > 1 > > f f > > < f ",
"8 8 1 8 8 8 8 8 8 8 8 8 8 8 8 8 8 8 8 8 8 8 8 8 8 6 6 6 6 6 6 6 6 6 6 6 6 6 6 6 6 6 k k k k k j N P U ' ' $.@.;.-.q.q.g.g.g.k.l.z.z.M.N.N.N.Z.Z.Z.T.R.`.). X.XaXVXVXVXVXXXoXm.j.0.4.o.} [ [ E E E [ [ } 1.2.2.2.2.4.4.5.0.0.s.f.f.k.z.z.N.Q.'..XCXCXAXsXsXuXuXyXyX3X3X<X<XE.E.W.).).'.pXpXsXhXFXFXFXdXaX.X|.+X+X$X#X%X%XDXDXDX%XDX%X%X%X#X+X+X|.{.{.[.[.[.[.^.^.^.^.~.~.~.).`.'.'.).R.R.R.R.R.W.W.W.1X3X3XwXgXgX3X1X1X1X<X<X2X2X0X0XqXqX8X8X8X8X8XkXkXkXkXlXlXlXlXlXzXzXzXzXxXxXxXxXxXxXcXcXcXcXcXcXmXcXcXcXcXmXmXmXmXmXmXmXmXmXcXmXcXcXcXcXcXcXcXxXxXxXzXlXzXcXMXNXnXzX8XkXlX8X8X8X6X6X6X6X6X>X>X>X>X2X2X2X<X<X1X1X1X1X1X1X1X`.`.`.'._._._._._.[.[.[.[.[..XFXAX X_. X X X[.[.[.[.[.[.[.[.[.[.[.[.[.[.}.}. XpXtXuXyXrXW.T.A.A.A.C.C.C.C.C.C.C.C.C.C.C.C.C.C.C.C.C.C.C.C.C.B.B.B.B.G.G.H.L.I.-X:X:X:X5X5X5X:X:X:X-X-X=XI.L.L.H.H.G.G.K.T.`. XaXVXaXXX].m.x.s.0.5.+.X.{ { ] ] ] ] { X.X.O.*.*.*.-.-.*.*.*.*.*.*.*.&.&.&.*.-.:.>.a.d.f.f.d.a.a.9.:.-.&.O...` _ H H l j f f f f 1 < f < f f f > > 1 < > g g > > > > > > 1 1 > > > > 1 1 1 1 > > f > > > > > > > f < ",
"8 8 8 8 8 8 8 8 8 8 8 8 8 8 8 8 8 8 8 8 8 6 8 8 6 8 6 6 6 6 6 6 6 6 6 6 6 6 6 6 6 6 k k k k k j N P P ' ' $.@.;.-.-.q.g.g.g.k.k.z.z.M.M.N.N.Z.Z.Z.K.Q.R.).'..XaXVXVXVXVXVXXX!.x.0.4.2.} [ [ E E E [ [ [ } 2.2.2.2.2.4.5.8.0.0.s.f.k.z.z.N.K.`.}.#XCXAXdXsXhXuXuXyX3X3X<X<XE.E.W.R.).).'.pXsXdXFXFXFXFXdXaX+X@X+X+X#X#X%X%XDXDX%XDX%X%X#X#X$X+X+X|.{.{.[.[.[.[._.^.^.^.^.~.~._.'.'.).R.R.R.R.R.R.W.W.W.1X1X3XgXgXgXgX3X1X1X<X<X<X2X2X0X0X0X6X8X8X8X8X8X8X8XkXkXkXlXlXlXlXlXzXzXzXzXzXzXzXzXxXxXxXxXxXxXxXxXcXcXcXcXcXcXcXcXcXcXcXcXxXxXxXxXxXxXzXzXzXzXzXzXlXlXcXMXNXnXlX8X8X8X8X6X6X6X6X>X>X>X>X>X2X2X<X<X<X<X3XyXyXrXW.W.`.`.`.`._._._._._._.[.[.[.}..X}..XZXAX X[.[.[.[.[.[.[.[.[.[.[.[.[.[.[.[.[.}.}. XpXtXtXrX1XR.T.A.C.C.C.C.C.C.C.C.C.C.C.C.C.C.C.C.C.C.C.C.C.B.C.B.B.B.B.B.G.H.L.I.=X:X:X:X5X5X5X:X:X:X-X-X=X=XI.L.H.H.G.G.K.T.`.'.pXVXVXXX].Q.x.s.0.8.*.o.{ { ] ] ] ] { X.X.O.+.*.*.-.-.-.*.*.*.*.*.*.*.&.&.&.-.-.:.a.d.f.f.f.a.a.9.8.-.-.O.X.` _ _ H H j f f f f f 1 > < f > f > > > > < f f f 1 > > > > > > 1 > > > > 1 1 1 g > > > > > < > > > > < f ",
"8 8 8 8 8 8 8 8 8 8 8 8 8 8 8 8 8 8 8 8 8 6 6 6 6 6 6 6 6 6 6 7 B k k k k k k 6 6 k k k k k k j j N P U ' ' @.;.-.-.q.g.g.g.k.k.z.z.M.M.N.Z.Z.Z.Z.Z.Q.R.).'. XaXVXVXVXVXVXXX].m.e.4.2.2.[ [ E E E E [ [ } 2.2.2.2.2.4.4.5.0.0.s.s.j.z.z.z.N.Q.'..XCXVXdXsXsXuXuXgXyX3X3X<X<XE.E.R.R.).'. XpXsXdXFXFXFXFXdXZXGXVX+X@X#X%X%X%XDXDXDXDX%X%X#X#X#X+X+X|.{.{.[.[.[.[.[._._.^.^.~.).).).).~.).R.R.R.R.R.W.W.W.1X1X3XwXgXgXgXgX3X1X1X<X<X2X2X2X0X0X6X6X6X6X8X8XqXqX8X8XkXkXkXlXlXlXlXzXzXzXzXzXzXzXzXzXzXzXzXzXzXzXzXzXzXzXzXzXzXzXzXzXzXzXzXzXzXzXzXzXlXzXlXlXlXlXqXzXcXmXzX8X6X6X6X6X6X>X>X>X>X>X>X2X<X<X<X<X<X<X1XyXgXhXtX`.`.`.`._._._._._.[.[.[.[._.}.aXVX}.}.aX.X[.[.[.[.[.[.[.[.[.[.[.[.[.[.[.[.[.}.}.}. XpXtXtX`.R.S.C.C.A.A.C.C.C.C.C.C.C.C.C.C.C.C.C.C.C.C.C.C.B.B.B.B.B.B.B.G.H.L.I.=X-X:X:X5X5X5X:X:X:X:X-X=X=XI.L.L.H.H.G.J.T.W.'.pXaXVXfXXX!.x.j.0.8.*.+.X.{ ] ] ] ] { { X.O.+.*.*.-.-.-.-.-.-.-.-.*.*.*.*.*.*.-.:.9.a.d.f.f.d.a.9.9.:.-.*.O...` _ H H j f f f f f f > 1 < < 1 1 < > > < > < f g j < > 1 g g > > > > g j > j 1 1 > > > f f f f f > f f f ",
"8 8 8 8 8 8 8 8 8 8 8 8 8 8 8 8 8 8 8 6 8 8 6 6 6 7 7 7 6 6 6 7 B B B k k 6 k 7 7 k k k k k k k j N P U ' ' @.@.;.-.w.q.g.g.f.k.z.z.z.N.N.Z.Z.Z.Z.Z.T.R.`.'. X.XVXVXVXVXVXXXXX!.j.6.2.2.} [ [ [ E [ [ [ } 1.2.2.2.2.2.4.5.0.0.0.s.f.z.z.z.z.Y.`.}.#XCXAXsXsXhXuXuXgXyX3X1X<XE.E.W.R.).`.'.'.pXsXhXFXFXFXdXFXGXVX|.+X@X#X#X%XSXDXDXDX%X%X%X#X#X$X+X+X|.{.{.[.[.[.[.[.[.^.^.^.^.~.~.~.~.).).).).).).R.R.W.W.W.1X3X3XgXgXvXgXgX3X1X<X<X<X2X2X2X2X2X2X0X0XwXlXqXqX8X8X8X8X8XkXkXkXlXlXlXlXlXlXlXlXlXlXlXlXlXzXzXzXzXzXzXzXzXzXzXzXzXzXlXlXlXlXlXlXlXlXlXlXlXlXlX8XqXqXqXqX6X6X6X6X>X>X>X2X2X>X2X<X<X<X<X<X1X1X1XW.rXhXhXtX`.)._._._._._._._.[.[.[.[.[. XaXaX}.[.}.[.[.[.[.[.[.[.[.[.[.[.[.[.[.[.[.[.}.}. X XpXtXtX`.R.S.A.C.C.rXrXA.C.C.C.C.C.C.C.C.C.C.C.C.C.C.C.C.B.B.B.B.C.B.B.G.H.L.I.=X-X:X:X5X5X5X:X:X:X:X-X-X=XI.L.L.H.H.G.J.K.W.`.pXaXVXVXXX].v.j.0.8.5.+.o.{ ] ] ] ] { { X.X.O.*.*.*.-.-.-.-.-.-.5.5.-.*.-.*.-.-.:.9.a.d.f.d.d.a.9.9.:.-.*.O.X.` _ H H H j f f f f < < < < > < < < > < < > > > > g < > > > 1 > > f > > 1 j f 1 1 1 > > > > f f < < f f f f ",
"8 8 8 8 8 8 8 8 8 8 8 8 8 8 8 8 8 8 8 6 8 8 6 6 7 7 7 7 7 6 6 7 k k k k k 7 6 7 7 7 k k 6 k k k N N P U ' ' @.@.;.,.,.q.g.g.g.k.k.z.z.N.N.N.Z.Z.Z.Z.T.Q.R.'. X XaXVXVXVXVX@XXX!.x.0.4.2.} [ [ [ E [ [ [ [ } 1.2.2.2.2.4.4.8.0.0.s.s.z.z.z.z.N.K._..XVXVXAXsXsXsXuXgXyX3X3X<X<XE.E.W.R.).'.'. XpXhXFXFXFXhXAXVX}.|.+X+X@X#X%X%X%XSX%X%X%X%X#X#X#X+X+X+X|.|.{.[.[.[.(.[.(.[._._._._._._.).).).).).).).R.R.).W.W.W.1XyXgXvXvXvXgXgXyX1X<X<X<X<X2X2X2X2X2XwXwXwX0X6X6X8X8X8X8X8X8XkXkXkXkXkXkXkXlXlXlXlXlXlXlXlXlXlXlXlXlXlXlXlXlXlXlXlXkXkXkXlXkX8X8XqXlXcXMXcXqX6X6X6X>X>X>X>X>X2X2X<X<X<X<X<X<X1X1X1XW.W.W.W.W.`.pXpX'.)._._._._._._._._.[.[.[. X X X X X}. X X X[.[.[.[.[.[.[.[.[.[.[.[.[.[.[.[.}. XpXpXtXrX`.R.S.A.A.C.C.rXrXK.C.C.C.C.C.C.C.C.C.C.C.C.C.B.C.C.C.B.B.B.B.B.G.H.L.I.=X-X:X:X:X5X5X:X:X:X:X-X-X=XI.I.L.H.H.H.J.K.E.`. XaXVXVXfXoXQ.x.0.8.5.*.+.X.{ ] ] ] { { X.X.+.+.*.*.-.-.-.-.-.5.8.8.8.5.-.-.-.-.:.>.9.d.d.f.d.a.a.9.:.-.*.&.O...` _ H H j j f f f < < < < < 1 < < > 1 < 1 1 1 > > 1 > > > > > > > > > 1 1 g 1 f < 1 > > > > > > < > > > > > ",
"8 8 8 8 8 8 8 8 8 8 8 8 8 8 8 8 8 8 8 8 6 8 6 7 7 7 7 7 7 6 6 6 7 7 7 7 6 7 7 k 7 k k 6 6 k k N U B N U U ' $.@.;.,.-.q.g.g.g.l.l.z.z.N.N.N.Z.Z.Z.K.K.Q.R.`.'. X.XaXVXVXVXVXXXXXm.w.4.2.} [ [ E E E [ [ [ [ 1.1.2.2.2.2.4.5.0.0.0.s.s.z.z.z.z.N.R. X@XCXAXdXsXhXhXuXyXyX3X1X<XE.E.E.W.R.)._.'.pXsXdXFXFXFXdXdX.X}.|.+X+X#X#X#X%X%X%X%X%X%X%X#X#X#X+X+X+X|.|.{.{.[.[.[.[.[.[.[.[._._._._._.).).).).).).).).).).`.W.1X3XgXgXvXvXvXgXgX3X1X1X<X<X<X<X2X2X2X0X0X2X0X0X0X6X6X6X8X8X8X8X8X8X8X8XkXkXkXkXkXkXkXkXkXkXkXkXkXkXkXkXkXkXkXkXkX8X8X8X8X8X8X8XqXvXMXIXMXqX>X>X>X>X>X2X2X2X<X<X<X<X<X<X<X<X1XuXuXrXW.`.`.).).`._._._._._._._._._.[.[.[.[. X X X X X X X X X[.[.[.[.[.[.[.[.[.[.[.[.[.[.[.[.}. XpXpXtXrXW.R.T.A.C.C.C.C.C.A.C.C.C.C.C.C.C.C.C.C.C.C.C.C.C.C.C.C.C.B.B.B.G.G.H.I.=X-X:X:X:X:X5X:X:X:X:X-X-X=X=XI.L.L.H.H.J.K.W.`.'.aXVXCXVXXXm.x.j.0.5.*.+.X.{ { ] ] { { X.X.O.*.*.*.-.-.-.-.5.5.8.9.0.8.8.-.-.-.:.:.9.a.d.d.d.a.a.9.:.-.-.&.O.X.` _ H H H j f f f < < < < 1 < < < < 1 < < 1 1 < > 1 > > < > < < > > > > > 1 < > 1 < < > > > > > > > < f > f < ",
"8 8 8 8 8 8 8 8 8 8 8 8 8 8 8 8 7 7 8 8 8 6 6 7 7 7 6 6 7 6 6 6 7 8 8 6 7 7 7 k 7 7 7 7 k j B B B B N P U ' ' @.@.;.-.w.q.g.g.g.l.z.z.N.N.N.Z.F.V.K.K.T.R.).'. X.XaXVXVXCXVX@XXX!.m.6.2.1.[ [ [ E E E E [ [ } } 2.2.2.2.4.0.e.e.0.0.s.f.k.z.M.M.x.)..XVXZXAXdXsXhXuXyXyX3X3X1X<XE.E.W.R.)._.'. XpXsXdXFXFXFXdXaX.X.X|.+X+X@X#X#X%X%XSX%X%X%X%X#X#X#X+X+X+X|.|.{.[.[.[.[.[.(.[.[.(.[._._._._._.).).).).).).).).).`.W.1X3XgXgXvXvXvXbXvXgXgX3X1X<X<X<X<X2X2X2X2X2X2X2X0X6X6X6X6X6X6X8X8X8X8X8X8X8X8X8X8X8X8X8X8X8X8X8X8X8X8X8X8X8X8X8X8X8X8X8X6X6X6XqXzXnXNXnXwX2X2X2X2X<X<X<X<X<X<X<X<X<X1X1XW.1XuXuXrX`.`.).)._._._._._._._._._.[.[.[.[. X X X X X X X X[.[.[.[.[.[.[.[.[.[.[.[.[.[.[.[.[.}.}. XpXpXtX`.W.T.A.A.A.A.C.C.C.C.B.C.C.C.C.C.C.C.C.C.C.C.C.C.C.C.C.C.B.B.B.B.K.H.H.L.I.-X:X:X:X5X:X:X:X:X:X-X=X=XI.I.I.L.L.H.J.U.E.`.'.aXVXCXVXXX!.v.j.0.8.5.*.o.{ { ] { { { X.X.O.O.*.*.-.-.-.-.-.-.-.:.8.9.8.:.-.-.-.:.9.a.d.d.d.d.a.9.9.:.-.&.O.X.` _ H H H j f f f f < < f f j j < < < < < < < 1 < > < 1 > > < < 1 > f f < > > > 1 > > > < > > f > > f < > f < < ",
"8 8 8 8 8 8 8 8 8 8 8 8 8 8 8 8 5 5 8 8 8 6 7 7 7 6 6 6 7 6 7 7 7 7 7 7 7 7 7 7 7 7 7 7 k j N B B k N P U ' ' $.@.;.-.-.w.g.g.g.l.x.z.M.N.N.Z.F.Z.K.K.K.Q.R.'. X X.XVXVXVXCXVXXXoXm.q.4.2.} [ E E E E E E [ [ } } o.2.2.4.0.e.e.0.0.s.s.f.k.z.M.N.Q. XVXCXZXAXsXsXuXuXyXyX3X3X1X<XE.W.R.).)._.'.'.pXsXFXFXFXFXdXaX.X.X|.+X+X@X#X#X%X%X%X%X%X%X%X#X#X#X+X+X+X|.{.{.{.{.[.[.[.[.[.(.[.[.[._._._._._._._.).).).).).).`.`.`.1X3X3XgXvXIXNXvXvXgXgX3X3X<X<X1X1X<X2X2X2X2X2X2X2X2X6X6X0X6X6X6X6X6X6X6X6X6X8X8X8X8X8X6X6X6X6X6X6X6X6X6X6X6X6X6X6X6X6X6X6X>X0XwXgXwX2X<X<X<X<X<X<X<X<X<X<X1X1X1XW.W.W.W.rXrX`.).)._._._._._._._._._.[.[.[.[. X}. X X X X X X X[.[.[.[.[.[.[.[.[.[.[.[.[.[.[.[.[.[.}. X XpXtX`.W.R.S.A.A.A.A.C.C.C.C.C.C.C.C.C.C.C.C.C.C.C.C.C.C.C.C.C.B.B.B.G.G.H.L.I.I.-X:X:X:X:X:X:X:X:X>X>X-X=XI.I.L.L.L.H.I.U.E.W.'.pXVXZXVXXX].m.x.0.8.5.*.+.X.{ { { { { X.X.O.O.*.*.-.-.-.-.-.:.-.-.-.:.8.:.-.-.:.:.9.a.a.d.d.d.a.9.9.:.-.*.O.X.` ` _ H H j j f f < < < < f f j j < < < < < > < < > < > < > > > > > > > < < > > > > > > > < > < > > < < < < < < > ",
"8 8 8 8 8 8 8 8 8 8 8 8 8 8 8 8 5 5 8 8 6 7 7 7 5 6 6 7 7 7 6 7 7 7 7 7 7 7 7 7 7 7 k k k k k k k k N P U ' ' $.@.;.,.,.,.q.g.g.l.l.z.z.N.N.N.Z.Z.C.K.K.T.R.).'. X.XaXVXVXCXVXVXXX!.w.6.2.1.[ E E E E E E E [ } } } 2.4.4.6.6.0.8.8.0.s.s.f.k.z.z.x.)..XCXCXAXdXsXhXuXuXyXyX3X3X<X<XE.W.W.).).'.'.pXsXdXFXFXFXFXdXaX.X.X|.|.+X#X#X#X%X%X%XSX%X%X%X#X#X#X+X+X+X|.{.{.{.{.[.[.[.(.[.[.[.[.[.[.[._._._._._._._.).).).).).`.`.W.1X3XgXbXbXvXvXvXvXgXgXwX3X1X1X1X<X<X<X<X2X2X2X2X2X2X2X2X2X2X0X0X0X0X0X0X0X0X6X6X6X6X6X6X6X6X6X6X0X0X6X6X6X6X>X>X>X>X>X>X2X2X2X<X<X<X<X<X<X<X<X<X<X1X1XW.W.W.`.`.`.).).).)._._._._._._._.[.[._._.[.[.[. X X X X X X X X X[.[.[.[.[.[.[.[.[.[.[.[.[.[.[.[.[.[.}. X XtXtX`.R.R.S.S.A.A.A.C.C.C.C.C.C.B.C.C.C.C.C.C.C.C.C.B.B.C.C.C.V.B.J.;X;XI.L.I.I.=X-X:X>X:X:X:X:X:X>X6X>X:X=XI.I.L.L.L.I.U.E.W.'.pXVXCXCXfXoXQ.x.s.8.5.*.+.o.{ { { { { X.O.O.O.*.*.-.-.:.:.:.:.-.-.-.-.:.:.-.:.:.:.9.a.a.f.f.d.a.a.9.:.-.-.&.O...` _ H H H j f f f < < < < < < f f f 1 1 1 < < < < < f f < > > > > > > f f f > > > < > < < < < < < > < < < < < > > ",
"8 8 8 8 8 8 8 8 8 8 8 8 8 8 8 8 8 5 5 6 7 7 5 5 7 7 7 7 7 7 7 7 7 7 7 7 7 7 7 7 7 7 7 7 7 k k k k k j P U U ' ' @.@.;.,.,.q.g.g.g.l.z.z.N.N.N.Z.Z.V.K.K.T.R.).'. X XaXVXVXCXCXVXXX!.v.e.2.1.[ E E E E E E [ [ [ } } 2.2.4.4.4.5.5.8.0.0.9.s.f.f.z.M.Q.'.@XCXZXAXdXsXhXuXyXyX3X3X1X<XE.W.W.W.).).'.'.pXsXdXFXFXFXFXdXaX.X.X|.+X+X@X#X#X%X%XSXSX%X%X#X#X#X$X+X+X+X|.|.{.{.{.{.[.[.(.[.[.[.[.[.[.[.[._._._._._._._.).).).).`.`.`.rXrXyXgXgXvXcXcXcXvXvXvXgXgX3X3X1X1X1X1X<X<X<X2X2X2X2X2X2X2X2X2X2X2X2X2X2X2X2X2X2X2X>X2X2X0X2X2X2X2X2X2X2X2X2X2X2X2X2X<X<X<X<X<X<X<X<X<X1X1X1X1XW.W.`.`.`.`.`.)._._._._._._._._._._._.[.[.[.[.[. X}.}. X X X X X X X X[.[.[.}.[.[.[.[.[.[.[.[.[.[.[.[.[.}. X XtXtX`.R.R.S.A.A.A.A.C.C.C.C.C.C.B.B.C.C.C.C.C.C.C.C.B.B.B.B.C.V.B.G.;XwXqX>X;XI.=X-X:X>X>X>X:X:X:X:X:X>X:X-X=XI.L.L.L.I.U.E.W.'. XaXCXZXVXXXm.x.s.0.8.*.+.X.{ { { { { X.O.O.+.*.-.-.-.:.:.:.:.:.-.-.-.:.:.:.:.:.:.9.a.a.f.f.f.d.a.9.:.:.-.&.O...` _ H H H j j f f < < < < < < < < f f 1 < 1 < < < < f f f < < > < > > > < f < f > f < < < < f < < > > > > < > > > > ",
"8 8 8 8 8 8 8 8 8 8 8 8 8 8 8 8 8 5 5 7 7 7 5 7 7 5 7 7 7 7 7 7 7 7 7 7 7 7 7 7 7 7 7 7 7 7 7 k k k j B U U ' ' $.@.;.,.,.w.h.g.g.l.z.z.N.N.N.Z.Z.K.K.K.K.T.R.`.'. X.XVXVXCXCXVXXXoXm.r.4.2.[ E E E E E E [ 1.1.} } 2.2.2.2.4.4.5.8.0.0.0.s.s.f.k.z.N.R.}.#XCXZXAXsXsXuXuXyXyX3X1X1X<XE.W.W.R.).).'.'.pXsXhXFXFXFXFXdXaX.X.X|.+X@X@X#X#X%X%X%X%X%X%X%X#X#X$X+X+X+X|.|.{.{.{.{.[.[.[.[.[.[.[.[.[.[.[.[._._._._._._._._.).).).`.`.`.`.rXyXgXgXgXvXvXvXvXvXvXvXgXgXyX3X1X1X1X<X<X<X<X<X<X<X2X2X2X2X2X2X2X2X2X2X2X2X2X2X2X2X2X2X2X2X2X2X2X2X2X<X<X<X<X<X<X<X<X<X1X1X1X1X1X1XW.`.`.`.`.`.'._._._._._._._._._._._._.[.[.[.[.[.[. X}. X X X X X X X X X X}.[.[.}.VX.X[.[.[.[.[.[.[.[.[.[.[.}. X X X'.`.R.R.T.A.C.C.A.A.C.C.C.C.C.B.B.C.C.C.C.C.C.C.C.C.C.C.C.C.C.V.V.G.;XqXqX>X;X;X-X:X:X>X:X:X:X:X:X-X-X-X-X=XI.I.L.L.I.U.E.W.`.pXaXVXZXVXXX!.x.j.0.0.5.+.X.X.{ { { { X.X.O.+.*.*.-.-.:.:.8.:.:.:.:.:.:.:.:.:.:.:.>.a.a.f.f.f.f.d.a.9.:.-.&.O.X.` _ H H H j j f f f < < < f f < < < < j j j j < < < > f f > < < > > > > > > < < > > < f < < < < f > > > > > > > > < > ",
"8 8 8 8 8 8 8 8 8 8 5 8 8 8 8 8 5 5 5 7 7 7 7 7 5 5 7 7 7 7 7 7 7 7 7 7 7 7 7 7 7 7 7 7 7 7 k k k k k B U U ' ' ' @.@.;.,.w.w.g.g.l.z.z.z.N.N.Z.F.K.K.K.K.T.R.).'. X.XVXVXVXCXVXVXXX!.t.r.2.[ E E E E E E E 1.1.[ 1.1.2.2.2.2.4.4.5.8.0.0.0.s.f.k.z.z.K._.@XCXCXAXdXsXhXuXuXyXyX3X1X1X<XE.W.R.R.).).'.'.pXsXhXFXFXFXdXdXaX.X|.|.+X+X@X#X#X#X%X%X%X%X%X#X#X#X#X+X+X+X|.|.{.{.{.{.[.[.[.{.[.[.[.[.[.[.[.[.[.[._._._._._._._._._._.).`.`.rXrXyXyXgXgXgXvXvXvXcXnXvXvXgXgXgX3X3X3X3X1X1X<X<X<X<X<X<X<X<X<X<X<X<X<X<X2X<X<X<X<X<X<X<X<X<X<X<X<X<X<X<X1X1X1X1X1X1XW.W.W.W.`.`.`.`.`.`._._._._._._._._._._._._.[.[.[.[.[.[.[.}. X X X X X X X X}.}.}.}.[.[.[.[.}.VX.X[.[.[.[.[.[.[.[.[.[.}. X X'.'.`.R.R.R.S.A.A.C.C.C.C.C.C.C.C.B.B.C.C.C.C.C.C.B.B.C.C.C.C.C.V.V.K.H.;X>X:X;X=X-X-X:X:X:X:X:X:X-X-X-X=X=XI.I.I.L.L.I.U.E.W.`. XaXVXCXVXXX!.v.j.s.8.5.+.X.X.{ { { { X.X.O.*.*.-.-.-.:.8.:.:.:.:.:.:.:.:.:.:.:.:.>.9.a.f.f.f.f.d.a.9.:.-.-.&.O.` ` _ H H v j f f f < < < < < < < < > > > < < f < < > > > > > < > > > > > > > < > > > > < < > < < > > < > > < < > > > > ",
"8 8 8 8 8 8 8 8 5 5 5 5 5 5 8 8 5 5 5 7 7 7 7 7 7 5 7 7 5 7 7 7 7 7 7 7 7 7 7 7 7 7 7 7 7 7 k k k k k B B U U ' ' @.@.;.,.,.w.h.h.x.x.z.Z.N.N.Z.Z.K.K.K.K.T.T.R.`.'. XaXVXVXVXVXVXXXoXm.r.2.1.[ ( Y Y E E E E [ [ } 1.1.2.2.2.2.4.5.5.8.8.0.s.s.k.z.z.N.R.}.#XCXZXAXdXhXsXuXyXyX3X3X1X1XW.W.W.W.`.).).'.pXsXhXhXhXFXFXdXdXaX}.|.|.+X+X@X#X#X#X%X#X%X%X%X%X#X#X#X+X+X+X+X|.{.{.{.{.[.{.{.[.{.[.[.[.[.[.[.[.[.[.[.[.[._._._._._._._.).).`.`.rXrXyXyXgXgXgXvXvXcXvXvXvXvXvXvXvXgXwXgX3X3X3X3X3X3X1X<X<X<X<X1X1X1X<X<X<X<X<X<X<X1X<X1X1X1X1X1X1X1X1X1X1X1XW.W.W.W.`.`.`.`.`.'.'._._._._._._._.[._._.[.[.[.[.[.[.[.[.[.[. X X X X X X X X X}.}.}.}.}.[.[.[.[.[.}.[.[.[.[.[.[.[.[.[.}.}. X X'.'.`.R.T.S.S.A.A.A.C.C.C.C.C.C.C.C.C.C.C.C.C.C.C.C.B.B.C.C.C.V.V.V.K.J.H.L.;XI.=X-X-X:X:X:X:X:X:X:X-X-X=X=X=XI.I.L.L.L.U.E.W.`.pXaXVXZXVXfX].m.x.s.9.5.*.o.{ { { { { X.X.O.*.*.-.-.-.:.:.8.8.8.:.:.:.:.:.:.:.:.>.>.9.a.d.f.k.f.f.a.9.8.-.-.&.O...` _ H H v j j f f < < < < < < < < < > > < < < < < > > > > > > > > > < > > < > < < < < > > > > > > > > > > > > < > f < > ",
"8 8 5 5 5 5 8 8 5 5 5 5 5 5 5 5 5 5 5 7 7 7 7 7 7 7 7 7 7 7 7 7 7 7 7 7 7 7 7 7 7 7 7 7 7 7 7 7 k k k k B U U ' ' ' @.@.;.,.w.h.g.a.d.k.x.N.N.N.Z.Z.K.K.K.K.T.R.).'. XaXVXVXVXVXVX@XoX!.t.6.2.[ E E Y Y Y E E E [ 1.1.1.1.2.2.2.2.4.5.8.8.9.0.s.f.z.z.M.K.).}.CXZXZXAXsXsXuXuXyXyX3X1X1XW.E.W.W.R.).).'.'.pXsXhXhXhXFXFXdXsXaX}.}.|.+X+X+X#X#X#X#X#X%X%X%X%X#X#X$X#X#X#X+X|.{.{.{.{.{.[.{.{.{.{.{.{.[.[.[.[.[.[.[.[.[.[.[._._._._._._._._.`.`.`.rXrXyXyXgXgXgXgXvXvXvXcXvXvXcXvXvXvXgXgXgXgXgX3X3X3X3X3X3X3X3X3X3X3X3X3X1X1X1X1X1X1X1X1X1X1X1X1X`.`.`.`.`.`.`.`.).)._._._._._._._._.[.[.[.[.[.[.[.[.[.[.[.[. X}. XpXdXaXpX X X X X X}.}.}.}.[.[.[.[.[.[.[.[.[.[.[.[.[.[.[.[.}.}.}. X'.'.).R.R.S.S.A.A.C.C.C.C.C.C.C.C.C.C.C.C.C.C.C.C.C.B.B.B.C.C.V.V.K.K.J.I.I.I.I.I.;X-X:X:X:X:X:X:X-X-X-X=X=X=XI.I.L.L.L.U.E.W.`.pXaXVXZXVXfXoXQ.x.s.0.8.*.+.X.{ { { X.X.+.+.*.*.-.-.:.:.:.:.8.8.8.:.:.:.:.:.:.:.>.>.9.a.d.f.f.f.f.a.a.9.:.-.&.O...` _ H H H v j f f f < < < < < < < < < > > < > > < < > < < > > > > f f < > < f f f < > < < > > > > > > > > > > > < < f < > ",
"5 5 5 5 8 8 8 5 5 5 5 5 5 5 5 5 5 5 5 7 7 7 7 7 7 7 7 7 7 7 7 7 7 7 7 7 7 7 7 7 7 7 7 7 7 7 7 7 k k k k B B U U ' ' #.#.;.,.w.q.q.g.x.f.z.N.N.N.Z.Z.K.K.K.K.T.R.R.`. X XaXVXVXVXVXVXXXoXm.r.2.1.1.( ( Y Y Y Y E E [ [ 1.1.1.2.2.2.4.4.5.8.8.9.a.f.f.z.z.N.R.'.@XCXZXAXAXhXsXuXuXyXyX3X1X1X1XE.W.W.W.).).'.'.pXsXhXhXFXFXhXdXaX.X}.|.|.+X+X+X#X#X#X#X#X%X%X#X#X#X#X#X#X#X#X+X|.{.{.{.{.[.[.{.{.{.{.{.{.{.{.[.[.[.[.[.[.[.[.[.[.[.[.[._._._._._._.'.`.`.rXrXyXyXgXgXgXgXvXvXvXvXvXvXvXvXvXvXgXgXgXgXgXgXgXgXgXgXyXyX3XyXyXyXyXrXyXrXrXrXrXrXrX`.`.`.`.`.`.`._._._._._._._._._._._._.[.[.[.[.[.[.[.[.[.[.[.}.}. X XpXFXPXFXpX X X X}.}.}.}.[.[.[.[.[.[.[.[.[.[.[.[.[.[.[.}.[.}.}. X X'.`.).R.R.S.A.A.A.A.C.C.C.C.C.C.C.C.C.C.C.C.C.C.C.C.B.B.B.B.C.V.V.K.J.J.I.U.U.I.I.;X-X:X:X:X:X:X:X-X-X=X=X=XI.I.I.L.L.L.U.E.W.`.'.pXVXZXZXVXXXm.x.s.0.8.*.+.X.X.X.X.X.X.+.+.*.*.-.-.-.:.9.8.>.>.:.:.:.8.8.9.9.9.>.>.9.a.d.d.f.k.f.d.a.9.:.-.&.O.X...` _ H H H v f f f < < < < < < > < < > < < < < > < f < < < > > v _ { H f > < f f f f > > > > > > > < > > > > > < f < < < > ",
"5 5 5 5 5 5 8 5 5 5 5 5 5 5 5 5 5 5 7 7 7 7 7 7 7 7 7 7 7 7 7 7 7 7 7 7 7 7 7 7 7 7 7 7 7 7 7 7 k k k k B B U U ' ' #.#.;.;.w.q.:.iXhXQ.k.z.Z.N.N.N.Y.K.K.K.T.T.R.`.'. XaXaXVXCXVXVXXXoX!.t.6.1.1.( ( Y Y Y Y Y E E [ [ [ 1.2.2.2.2.4.4.5.8.9.9.s.f.k.k.z.Z.R. XVXCXZXAXdXsXsXuXuXyXyX1X1X1XE.W.W.W.R.).).'.'.pXsXhXhXFXhXdXdXaX.X}.|.|.+X+X@X@X#X#X#X#X#X#X#X#X#X#X#X#X@X+X|.|.|.|.{.{.{.{.{.{.{.{.{.{.{.{.{.[.[.{.[.[.[.[.[.[.[.[.[.[._._._._._._.'.'.`.`.rXrXrXyXyXgXgXgXgXgXgXgXgXgXgXgXgXgXgXgXgXgXgXgXyXyXyXyXyXyXyXyXrXrXrXrXrX`.`.`.`.`.`.`._._._._._._._._._._.[.[.[.[.[.[.[.[.[.[.[.[.[.[.}.}..X XaXpXpXFXFXFX X}. X}.}.}.}.[.[.[.[.[.[.[.[.[.[.[.[.[.[.[.}.}.}.}. X'.'.).R.R.R.S.A.A.A.A.C.C.C.C.C.C.C.C.C.C.C.C.C.C.C.C.C.C.B.B.C.C.V.K.J.I.U.U.U.U.I.;X-X-X:X:X:X:X-X-X-X=X=X=X=XI.I.L.L.L.I.U.E.`.'.pXVXCXZXVXXX!.x.j.0.8.-.+.O.X.X.X.X.X.X.+.+.*.*.-.-.:.8.9.9.9.>.>.>.>.>.>.9.9.9.9.9.a.a.d.f.k.f.f.a.9.8.-.*.O.O...` _ H H H v j f f < < < < < < < > < < > > < > > < f f < < < , < H 4.8.X.v < < < f f f < > > > < > > > > > > < < f f f < < > ",
"5 5 5 5 5 5 5 5 5 5 5 5 5 5 5 5 5 5 7 7 7 7 7 7 7 7 7 7 7 7 7 7 7 7 7 7 7 7 7 7 7 7 7 7 7 7 7 7 7 k k k k B U U U ' ' #.@.,.w.w.w.iXhXx.f.x.z.N.N.N.Z.K.K.K.K.T.R.`.`.'. XaXVXVXCXVXVXXXoXm.t.2.1.( ( Y Y Y Y Y Y E E [ [ 1.1.2.2.2.2.4.5.5.8.9.9.s.f.k.z.z.K.)..XCXZXZXAXdXsXsXuXyXyXyX1X1X1XW.W.W.W.R.).).'. XpXsXhXhXhXhXdXdXaX.X}.|.|.+X+X+X@X#X#X#X#X#X#X#X#X#X#X#X@X+X+X+X+X|.|.{.{.{.{.{.{.{.{.{.{.{.{.{.{.{.{.{.{.[.[.[.[.[.[.[.[.[.[._._._._._._._.'.`.`.`.rXrXrXrXyXyXyXyXyXyXyXyXyXyXyXyXyXyXyXyXrXrXrXrXrXrXuXuXrX`.`.`.`.`.`.'._._._._._._._._._._._.[.[.[.[.[.[.[.[.[.[.[.[.[.}.}.}.}..X.X.XaXaXaXpXaXdXaX}.}.}.}.}.[.[.[.[.[.[.[.[.[.[.[.[.[.[.[.[.}.}.}.}. X'._.).).R.R.S.A.A.A.C.C.C.C.C.C.C.C.C.C.C.C.C.C.C.C.B.B.C.B.C.C.C.V.K.K.U.U.U.U.U.;X;X;X-X-X:X:X-X-X-X-X=X=X=X=XI.I.L.L.L.I.U.E.`.tXpXVXCXCXVXXX!.x.j.s.8.-.*.+.X.{ { X.X.X.+.+.*.*.-.-.:.:.9.9.9.9.>.>.>.>.>.9.9.9.9.a.a.a.d.d.k.k.f.f.a.9.:.-.&.O.X.` _ _ H H v j f f f < < < < < < < < < < < < < f < > < f < < < > f ` 5.0.+.H f > > < f < < < < < < < < < < < > > < f f < < < > ",
"5 5 5 5 5 5 5 5 5 5 5 5 5 5 5 5 5 7 7 5 7 7 7 7 7 7 7 7 7 7 7 7 7 7 7 7 7 5 7 7 7 7 7 7 7 7 7 7 7 7 k k k k B U U U ' #.#.;.,.w.-.h.x.g.g.l.z.N.N.N.Z.K.K.K.K.T.T.R.`.'. XaXVXVXCXVXVXXXoX!.t.3.1.1.( Y Y Y Y Y Y Y E E [ 1.1.1.2.2.2.4.4.5.8.8.9.s.s.k.z.z.z.Q. XVXCXZXAXAXsXsXuXuXyXyX3X1X1X1XW.W.W.W.R.).).'.pXpXsXhXhXhXhXdXdXaX.X}.|.|.+X+X+X@X@X#X#X#X#X#X#X#X#X#X#X@X+X+X+X+X|.|.{.{.{.{.{.{.{.{.{.{.{.{.{.{.{.{.{.{.{.{.[.[.[.[.[.[.[.[.[.[.[._._._._._._._.).`.'.'.'.'.`.rXrXrXrXrXrXrXrXrXrXrX`.`.`.`.`.`.`.tXsXhXtX`.`.`.`.'._._._._._._._._._.[.[.[.[.[.[.[.[.[.[.[.[.[.[.}.}.}.}..X.X.XaXaXaXaXaXaXaX X X}.}.}.}.}.[.[.[.[.[.[.[.[.[.[.[.[.[.[.}.}.}.}.}.}. X'.).).R.R.S.S.A.A.C.C.C.C.C.C.C.C.C.C.C.C.C.C.C.C.B.B.C.B.B.C.C.C.K.K.K.U.U.U.U.U.;X;X;X-X-X-X:X-X-X-X=X=X=X=X=XI.I.I.L.L.U.U.E.`.tXpXaXCXCXVXXX].x.j.s.8.5.*.+.X.X.{ X.X.X.+.+.*.*.-.-.-.8.9.9.9.9.9.9.>.>.>.>.9.9.a.a.a.a.d.d.f.f.f.f.a.9.:.-.&.O.X.` _ _ H H j v f f f < < < < < < < > < < < < < > > < < f x f < > > f _ *.5.+.H < > > < < < < < > > < < < < < > > < f < f < < < < ",
"5 5 5 5 5 5 5 5 5 5 5 5 5 5 5 5 7 7 7 7 7 7 7 7 7 7 7 7 7 7 7 7 7 7 7 7 7 7 7 7 7 5 7 7 7 7 7 7 7 7 k k k k B U U U ' $.@.;.,.,.w.w.q.g.x.l.z.z.N.N.Z.Z.C.K.K.T.T.R.).'. XaXaXVXCXVXVXXXXXoXm.t.2.[ E Y Y Y A Y Y Y E ( ( 1.1.1.1.2.2.4.4.4.5.5.8.9.s.f.k.z.M.Z.).}.VXZXZXAXdXsXhXuXuXyXyX3X1X1XW.W.W.W.W.R.).`.'.tXpXsXhXhXhXhXdXsXaX.X}.|.|.+X+X+X+X@X@X#X#X#X#X#X#X#X#X#X#X@X+X+X|.|.|.{.{.{.{.{.{.{.{.{.{.{.{.{.{.{.{.{.{.{.{.{.{.{.{.[.[.[.[.[.[.[.[.[.[.[._._._._._._._._._.'.'.'.'.'.'.'.'.'.'.'.'.'.'._._._._._.tXpX'._._._._._._._._._.[.[.[.[.[.[.[.[.[.[.[.[.[.[.[.[.[.}.}.}.}.}..X.XaXaXaXaXaXaXaXaX.X.X X}.}.}.[.[.[.[.[.[.[.[.[.[.[.[.[.}.}.}.}.}.}.}.[.[._.).).R.S.S.A.A.C.C.C.C.C.C.C.C.C.C.C.C.C.C.C.C.C.B.B.C.B.B.C.C.C.K.J.U.U.U.U.U.U.U.;X;X;X;X-X-X-X-X-X-X=X=X=XI.I.I.I.I.I.U.E.W.`.'.pXaXVXVXVXXX].m.j.s.9.5.*.+.X.X.X.X.X.X.O.+.*.-.-.-.:.:.9.9.>.>.9.9.>.>.>.>.>.>.9.a.a.a.d.d.f.f.f.f.a.9.8.-.&.O.X.` ` _ H H v v x f f < < < < < < < < > < < < < > > > > < f v x < < < f H { { _ H < > < < < < < > > > > < < < < > < < < > < < < > > ",
"5 5 5 5 5 5 5 5 5 5 5 5 5 5 5 5 7 7 7 7 7 7 7 7 7 7 7 7 7 7 7 7 7 7 7 7 7 5 5 7 7 7 7 7 7 7 7 7 7 7 k k k k B B U U ' ' @.@.;.,.w.w.h.h.h.l.x.z.z.N.N.Z.C.K.K.K.T.T.R.`.'. XaXVXVXVXVXVXXXoX!.t.3.1.[ E Y Y A A Y Y Y ( E ( 1.1.1.2.2.2.2.4.5.5.8.8.s.s.f.k.z.N.Q.)..XCXZXAXAXdXsXsXuXuXyXyX3X1X1XW.W.W.W.R.R.).`.'.tXsXsXhXhXhXhXdXsXaX.X|.|.|.|.+X+X+X@X@X@X#X#X#X#X#X#X#X#X@X@X+X+X+X+X|.|.{.{.{.{.{.{.{.{.{.{.{.{.{.{.{.{.{.{.}.}.}.}.{.{.{.[.{.[.[.[.[.[.[.[.[.[.[.[.[._._._._._._._._._._._._._._._._._._._._._._._._._._._._._._._.[.[.[.[.[.[.[.[.[.[.[.[.[.[.[.[.[.}.}.}.}..X.X.XaXaXaXaXaXaXaXaXaX.X.X.X.X}.}.}.[.[.[.[.[.[.[.[.[.[.[.[.[.}.}.}.}.}.}.}.[.[._.).).R.S.S.S.A.C.C.C.C.C.C.C.C.C.C.C.C.C.C.C.C.C.B.B.B.C.B.C.C.C.K.K.U.U.U.U.U.U.U.;X;X;X;X;X-X-X-X-X=X=X=X=X=XI.I.I.I.I.U.U.E.`.'.pXaXVXVXVXXX].m.j.s.9.-.*.+.X.X.X.X.X.X.O.+.*.*.-.-.:.8.9.9.9.s.>.9.9.9.9.>.>.9.a.a.a.a.d.d.f.f.f.f.a.9.8.-.-.&.O...` _ H H F v f f f < < < > > > < < < < > < < < > R u.f > f f > < < < , < v v f f < < > > > < < > > > < < < < < < > < < < < < < > > ",
"5 5 5 5 5 5 5 5 5 5 5 5 5 7 5 5 7 7 7 7 7 7 7 7 7 7 7 7 7 7 7 7 q 7 7 7 7 7 0 5 7 7 7 7 5 7 7 7 7 7 7 k k k k B U U U ' #.@.;.,.,.w.w.h.h.l.x.z.z.N.N.Z.Z.C.K.K.K.T.R.).'. X.XaXVXVXVXVXVXXXoXm.t.2.[ E E Y Y A Y Y Y Y Y ( 1.1.1.1.r.r.o.2.4.5.5.8.9.s.s.f.k.z.z.Q. XVXCXZXAXAXsXsXhXuXyXyX3X3X1X1XW.W.W.W.R.R.).'.'.tXsXsXhXhXhXhXsXsXaX.X.X|.|.|.|.+X+X@X@X@X@X#X#X#X#X#X#X#X@X@X+X+X+X+X|.|.{.{.{.{.{.{.{.{.{.{.{.{.{.{.{.{.}.}.|.}.}.}.}.{.{.{.{.{.[.[.[.[.[.[.[.[.[.[.[.[.[.[.[.[.[.[.[.[._._._._._._._._._._._._._._._._.[.[.[.[.[.[.[.[.[.[.[.[.[.[.[.[.[.[.}.}.}.}.}.}..X.XaXaXdXaXaXaXaXaXaXaX.X.X.X}.}.}.}.}.[.[.[.[.[.[.[.[.[.[.}.}.}.}.}.}.}.}.}.}.[._._.).R.S.S.S.A.A.C.C.C.C.C.C.C.C.C.C.C.C.C.C.C.C.C.C.B.B.C.C.C.C.C.K.K.U.U.U.U.U.;X;X;X;X;X;X=X=X-X-X-X=X=X=X=X=XI.I.I.I.I.U.E.E.W.'.pXaXVXVXVXXX].v.j.s.8.5.*.+.O.X.X.X.X.X.O.O.*.*.-.:.:.:.:.:.=.=.9.9.>.a.a.9.>.9.a.a.a.d.d.f.f.f.f.f.a.9.9.:.-.&.O...` _ H H H L v f < < < < < > > > < < < > > < < > f OXFXW > f < < < < < , , , > > > < < > < < < < < < < < < < < < < < < < < < > < < > ",
"5 5 5 5 5 5 5 5 5 5 5 5 5 5 5 5 5 7 7 7 7 7 7 7 7 7 7 7 7 5 5 7 q q 7 q 5 5 5 5 7 5 7 7 5 7 7 7 7 7 7 7 7 k k B B U U ' ' @.@.;.,.,.w.h.h.g.l.z.z.z.N.Z.Z.C.K.K.K.T.T.R.`.'. XaXVXVXVXVXVXXXoX!.t.6.1.[ E Y Y A A A Y Y Y Y E 1.E 3.m.OX2.o.4.4.5.5.8.0.s.f.k.z.z.N.Q.}.VXZXZXAXAXhXsXuXuXyXyX3X1X1X1XW.W.W.W.R.).).'.'.tXpXsXhXhXhXdXsXdXZXGXZX@X}.|.|.+X+X+X@X@X@X@X@X#X#X#X#X#X@X@X+X+X+X|.|.|.|.|.{.{.{.{.{.{.{.{.{.{.{.{.{.{.{.}.}.|.|.|.|.|.}.}.}.{.}.{.{.{.[.[.[.[.[.[.[.[.[.[.[.[.[.[.[.[.[.[.[.[.[.[.[.[.[.[.[.[.[.[.[.[.[.[.[.[.[.[.[.[.[.[.}.}.}.}.}.}.}.}.}.}.}..X.XaXaXaXaXAXAXaXaXaXaX.X.X}.}.}.}.}.}.}.}.}.[.[.[.[.[.[.[.}.}.}.}.}.}.}.}.}.}.}.[._.).).R.S.S.A.A.C.C.C.C.C.C.C.C.C.C.C.C.C.C.C.C.C.C.B.B.B.C.C.C.V.K.K.U.U.U.U.;XU.;X;X;X;X;X;X=X=X=X=X=X=X=X=X=X=XI.I.I.I.I.U.E.W.`.'.pXaXVXVXVXXX].v.j.s.9.8.-.+.O.X.X.X.X.X.O.+.*.*.-.-.:.:.9.:.q.Q.j.=.s.a.i.a.a.a.a.a.a.d.d.d.f.f.f.d.a.9.9.:.-.&.O.X.` _ H H H H L v < < < < < > > > > > < , , > , < , x jXhXU 9 f f f , < > , < < > , < < > > < < > < < < > < < < < < < < > < < < > > > > ",
"5 5 5 5 5 5 5 5 5 5 5 5 5 5 5 5 7 7 7 7 7 7 7 7 7 7 7 5 5 5 5 7 7 5 5 q 5 5 7 7 7 5 7 7 7 7 7 7 7 7 7 7 7 k k k B B U U ' @.@.@.;.,.w.w.g.g.l.l.z.z.N.Z.Z.J.K.K.K.K.T.R.).'. X XaXVXVXVXVXXXXXoX!.t.2.[ ( Y Y A A A A Y Y Y Y ( E 3.BX!.3.o.2.2.4.5.5.8.0.s.f.z.z.z.A.)..XCXZXZXAXdXhXhXuXuXyXyX3X1X1XW.W.W.W.W.R.).).`.'.tXsXsXhXhXhXhXdXFXUXGXVX}.}.|.|.+X+X+X+X@X@X@X#X#X#X#X#X#X#X@X+X+X+X+X|.|.|.|.{.{.{.{.{.{.{.{.{.{.{.{.{.{.{.|.|.|.|.|.|.|.|.|.|.|.}.}.}.}.}.{.{.{.[.[.[.{.{.{.[.[.[.[.[.[.[.[.[.[.[.[.[.[.[.[.[.[.[.[.[.[.[.[.[.[.[.[.}.}.}.}.}.}.}.}.}.}..X.X.X.XaXaXaXaXaXaXaXaXaX.X.X.X.X}.}.}.}.}.}.}.}.}.}.}.[.[.[.[.[.}.}.}.}.}.}.}.}.}.}.[.[._.).).R.S.S.A.A.C.C.C.C.C.C.C.C.C.C.C.C.C.C.B.C.C.B.B.B.B.C.V.C.C.K.K.U.;X;X;X;XU.;X;X;X;X;X;X;X;X=X=X=X=X=X=X=X=XI.I.I.I.I.U.E.E.W.'.pXaXVXVXVXXX].m.j.s.9.:.-.+.O.X.X.X.X.X.+.+.*.*.-.-.:.:.>.s.:.x.hXW.=.s.f.a.a.a.a.a.a.a.d.d.f.f.f.d.a.9.9.8.-.*.&.O...` _ H H v F n x < < < < < , , > > > > < < < > < , > R  .> > f < < $ < > > < < < < < < < > < < > < < < > > > > < < < f f f f < > > > > ",
"5 5 5 5 5 5 5 5 5 5 5 5 5 5 5 5 5 7 7 7 7 7 7 7 7 7 7 7 5 7 7 7 7 5 5 5 0 5 7 7 5 5 5 5 5 7 7 7 7 7 7 7 7 7 k k k B U U ' ' #.@.;.,.,.w.h.g.g.l.x.z.Z.N.Z.F.K.K.K.K.T.R.R.`.'. X.XVXVXVXVX@XXXoX!.t.7.1.[ E Y A A A A A A Y Y E Y 1.u.u.1.} 2.2.2.4.5.8.8.0.s.f.z.z.M.Q.'.@XCXZXAXFXdXsXhXuXyXyXyX3X1X1X1XW.W.W.R.).).`.'.'.tXsXsXhXhXhXhXFXGXGXVX}.[.}.|.|.|.+X+X+X@X@X@X@X#X#X#X#X#X@X#X#X@X+X+X+X|.|.{.{.{.{.{.{.{.{.{.{.{.{.{.{.|.|.|.+X|.|.|.|.|.|.|.|.|.|.|.|.|.|.}.}.}.}.{.{.{.{.{.{.{.{.{.{.{.{.{.{.{.{.{.{.[.{.{.[.[.}.}.}.}.}.}.}.}.}.}.}.}.}..X.X.X.X}.}..X.XaXaXaXaXaXaXaXaX.X.X.X}..X}.}.}.}.}.}.}.}.}.}.}.}.}.}.[.}.}.}.}.}.}.}.}.}.}.}.[.[._._.).).S.S.S.A.A.C.C.C.C.C.C.C.C.C.C.C.C.C.C.C.C.B.B.C.B.C.C.C.K.K.K.U.U.<X<X;X;XU.U.U.I.;X;X;X;X;X;X=X=X=X=X=X=XI.I.I.I.I.I.U.E.E.1XtXpXaXVXVXVXXX].m.j.s.9.5.-.*.+.X.X.X.X.O.O.+.*.*.-.-.:.:.>.>.a.>.f.E.b.:.a.f.d.a.a.a.a.a.d.d.d.f.d.d.a.9.9.:.-.-.&.O...` _ H H v j x f < < < < < < , , > > > > < < < > < < , $ 9 > > f < , , f > > < < < < < < > < < < > > > > > > > > < > < v H H H f > > > > ",
"5 5 5 5 5 5 5 5 5 5 5 5 5 5 5 5 5 7 7 7 7 7 7 7 7 7 7 7 7 7 q q 7 7 7 5 0 0 5 5 5 5 5 5 5 7 7 7 7 7 7 7 7 7 7 k k B U U ' ' #.@.@.;.,.,.w.g.h.h.x.x.x.N.N.Z.Z.K.K.K.T.T.R.).'. X X.XVXVXVXVXXXXXoX!.u.2.[ E Y A A A A A A Y Y ( Y E 1.1.[ } 2.2.2.4.4.5.8.9.0.s.f.z.z.N.Q.}.VXCXZXAXdXhXsXhXuXyXyXyX1X1X1XW.W.W.W.R.).).`.'.'.tXpXsXhXhXhXhXdXdXaX X}.}.}.}.|.|.|.+X+X+X@X@X@X@X#X#X#X#XCXSXCX#X@X+X+X+X|.|.|.{.{.{.{.{.{.{.{.{.{.|.ZXZX|.|.+X|.|.|..X.X.X.X.X.X.X.X.X|.|.|.}.}.}.}.}.}.|.}.}.}.}.}.{.{.{.{.{.{.}.}.}.}.}.}.}.}.}.}.|.}.}..X.X.X.X.X.X.X.X.X.X.XVXVXaX.XaXaXaX.X.X.X.X.X}.}.}.}.}.}.}.}.}.}.}.}.}.}.}.}.}.}.}.}.}.}.}.}.}.}.}.}.}.[.[.[._.).).S.S.S.S.A.C.C.C.C.C.C.C.C.C.C.C.C.C.C.C.C.C.C.B.B.C.C.C.C.K.K.U.U.<X<X<X;X;XU.U.U.I.I.I.I.;X;X;X=X=X=X=X=XI.I.I.I.I.I.U.U.E.E.W.tXpXaXVXVXVXXX].v.j.s.8.5.*.*.+.X.X.X.X.O.O.+.*.*.-.-.:.:.:.>.a.a.a.a.f.f.d.a.a.d.d.a.a.d.d.d.d.f.d.d.a.a.>.:.-.-.&.O.X.` _ H H H v f f < < < < < < < , , < > , > < < < < < < < < < f > > > , < < , < < < < < < < > < < < > > > > < < < > > < f H ] _ H v > > > > ",
"5 5 5 5 5 5 5 5 5 5 5 5 5 5 5 5 5 7 7 7 7 7 7 7 7 7 7 q q q 7 q 7 7 0 q 5 0 5 5 5 5 5 5 5 7 7 5 5 7 7 7 7 7 7 k k B B U U '  .@.@.;.,.,.w.w.h.h.x.l.x.Z.N.Z.Z.C.C.K.K.T.T.R.).'. X.XaXVXVXVX@XXXoX!.t.7.1.[ E Y A A A A A A Y Y Y Y Y E [ 1.2.2.o.2.4.4.5.8.9.0.s.f.j.z.x.]. XVXZXZXAXdXhXsXsXuXyXyXrX1X1X1XW.W.W.R.R.).).).'.pXpXsXsXhXhXhXhXsXsXaX X}.[.}.}.}.|.|.+X+X+X+X@X@X@X@X@X#XSXDXDX#X@X@X+X+X+X+X|.|.|.|.|.|.|.{.{.{.(.+XKXUX+X|.+X|.|.|..X.X.X.X.X.X+X+X+X.X.X.X.X.X.X.X.X|.|.|.|.|.|.|.|.|.|.|.|.|.|.|..X.X.X.X.X.X.X.X.X.X.X.X.X.X.X.X@X.X.X.X.XVXGXGXVX.X.X.X.X.X.X.X}.}.}.}.}.}.}.}.}.}.}.}.}.}.}.}.}.}.}.}.}.}.}.}.}.}.}.}.}.}.[.[._._.).).S.S.S.A.A.C.C.C.C.C.C.C.C.C.C.C.C.C.C.C.B.C.C.C.B.B.C.C.C.K.K.U.<X<X<X<X;X;XU.U.U.U.I.I.I.I.I.=X=X=X=X=X=X=XI.I.I.I.I.U.U.E.1XrXtXpXaXVXVXaXXX].Q.j.s.9.:.*.+.+.O.X.X.X.O.+.+.*.*.-.-.:.:.9.>.9.a.a.a.d.d.d.k.d.d.d.d.a.d.d.d.d.f.f.d.a.a.9.:.-.-.&.O.X...` _ H H v v f < < < < < < , < < , < < > > > > < < < < < < < > < > > f > , , < > , > < < < > > < < > > > > < < < > > < f H ] ] _ v f f > < ",
"5 5 5 5 5 5 5 5 5 5 5 5 5 5 5 5 5 7 7 q 7 7 7 7 7 7 7 7 5 5 5 7 5 5 5 q 5 0 7 5 7 7 7 7 5 5 5 5 5 5 7 7 7 7 7 k k k k U U '  .#.@.@.;.,.w.w.h.h.g.l.z.x.N.Z.Z.C.C.K.K.K.T.R.`.'.'. XaXVXVXVXVXXXXXoX!.u.3.[ E Y A A A A C A A Y Y Y Y E 1.1.} 2.o.2.2.4.5.5.8.9.0.s.f.z.z.Q.)..XVXZXZXAXdXhXsXuXuXyXyXrX1X1X1XW.W.W.R.).).).AXGXAXpXpXsXhXhXhXhXsXsXpX X}.[.}.}.}.|.|.|.+X+X@X@X@X@X@X@XCXSXCX#X@X@X@X+X+X+X+X|.|.|.|.|.|.{.{.{.{.|.GXGX+X|.+X|.|.|.|.|.|..X.X.X+X+X@X@X@X+X@X@X@X.X.X.X+X+X+X+X+X+X+X.X+X.X.X.X.X.X.X.X.X.X.X.X.X@X.X.X.X.X@X@X@X@X@X@X.X.X.X@XGXGXVX.X.X}.}.}.}.}.}.}.}.}.}.}.}.}.}.}.}.}.}.}.}.}.}.}.}.}.}.}.}.}.}.}.}.}.[.[.[._._.).S.S.S.S.A.C.C.C.C.C.C.C.C.C.C.C.C.C.C.C.C.C.B.B.C.C.C.C.C.K.K.U.E.<X<X<X<X;X;XU.U.U.U.I.I.;X;X=X=X=X=X=X=X=X=X=XI.I.I.I.U.U.E.W.rXtXpXaXVXVXaX].].v.j.s.8.5.-.*.+.O.X.X.O.O.+.+.*.-.-.:.:.:.9.9.9.a.a.d.d.d.d.d.d.d.d.d.d.d.d.d.d.d.f.d.a.9.9.:.-.-.&.O...` ` _ H H v v v f f < < < , , , , , , , , < > , > > < < < < < < > , < < f < , , < > , < > < < < > > > > > > < < < < < < > < v H H H j f f f > ",
"5 5 5 5 5 5 5 5 5 5 5 5 5 5 5 5 5 7 7 q 7 7 7 7 q 7 5 5 5 5 7 7 5 5 5 5 0 5 5 0 5 7 q 5 5 5 5 5 5 5 5 5 5 7 7 7 7 k k B U ' ' #.@.@.;.;.,.w.h.h.h.l.l.x.N.N.Z.C.C.K.K.K.K.T.R.`.'. X.XaXVXVXVXVXXXoX!.t.u.1.[ Y Y A A C C C A A Y Y Y Y E 1.[ } } o.2.2.4.5.8.8.9.s.f.f.z.z.Q.'..XCXZXAXFXdXhXsXuXuXyXyX1X1X1X1XW.W.W.R.R.).ZXUXFX'.tXsXsXsXhXhXhXsXsXpX X}.[.}.{.{.{.|.|.+X+X+X@X@X@X@X@X#X@X@X@X@X@X@X@X+X+X+X+X|.|.|.|.|.|.|.{.{.+X+X{.|.|.|.|.|.|.|.|.|.|..X.X.X+X+X+X+X@X@X@X.X@X@X@X@X@X+X@X@X@X@X@X@X@X@X@X@X@X@X@X@X@X@X@X@X@X@X@X@X.X.X@X.X.X.X.X@X.X.XVXVX.X.X.X}.}.}.}.}.}.}.}.}.}.}.}.}.}.}.}.}.}.}.}.}.}.}.}.}.}.}.}.}.}.}.[.[.[._._.).).S.S.S.A.A.C.C.C.C.C.C.C.C.C.C.C.C.B.B.C.C.C.B.C.C.B.C.C.K.K.U.U.U.<X<X<X;X;X;X;XU.U.I.I.I.I.I.=X=X=X=X=X=XI.I.I.I.I.I.I.U.U.E.W.rXtXpXaXVXVXaX].].x.j.s.8.-.*.*.O.O.X.X.O.+.+.*.*.*.-.:.:.8.9.9.a.a.a.d.d.f.d.k.d.d.d.d.d.d.a.d.d.d.d.d.a.9.9.:.-.-.&.O.X.` ` _ H H H v f f f < < < < < < , , , , , , , < < < < < < < < < < > > < < , < < < f < < > > < < > < < > > < > < < < > > < > > f j v v f f f f < ",
"5 5 5 5 5 5 5 5 5 5 5 5 5 5 5 5 7 7 5 q 5 5 q q q 0 0 0 0 0 5 5 5 7 0 0 0 5 7 0 0 0 5 5 5 5 5 5 5 5 5 5 5 7 7 7 7 7 k B U U ' ' #.@.#.;.-.-.w.h.h.h.l.z.z.N.Z.Z.C.C.K.K.K.T.R.).'.'. X.XaXVXVXVXfXXXoX!.u.3.1.E Y A A C C C A A A A Y Y E E [ [ } o.2.2.2.4.5.8.8.9.s.f.z.z.N.Q. XVXCXZXAXFXdXsXsXuXuXyXyX1X1X1XW.W.W.W.R.R.sXGXdX'.'.tXuXsXsXhXhXhXsXsXpX X}.[.[.{.}.}.|.|.|.+X+X+X@X@X@X@X@X@X@X@X@X@X@X+X+X+X+X+X+X|.|.|.|.{.|.|.{.{.|.|.|.|.|.|.|.|.|.|.|.|.|.|.|..X.X.X.X.X.X+X.X.X@X@X@X@X@X@X@X@X@X@X@X@X@X@X@X@X@X@X@X@X@X@X.X@X@X.X.X.X.X.X.X.X.X.X.X|.|..X}.}..X}.}.}.}.}.}.}.}.}.}.}.}.}.}.}.}.}.}.}.}.}.}.}.}.}.}.}.}.}.}.[.[._._._.).S.S.S.A.A.C.C.C.C.C.C.C.C.C.C.C.C.C.B.B.B.B.C.C.B.B.C.C.C.K.K.U.U.<X<X<X<X;X;XU.U.U.U.I.I.I.I.I.I.=X=X=X=X=X=XI.I.I.I.I.U.U.E.E.1XrXtXpXaXVXaXpX].Q.x.j.s.9.5.*.*.O.O.X.X.O.O.O.*.*.-.-.-.:.:.9.9.a.a.a.d.d.d.d.d.d.d.d.d.d.d.d.d.d.d.d.a.a.9.9.:.-.-.&.O.X...` _ H H H v j f f < < < < < < < , , , , = , , < > < < < < < < < , , < , $ 9 < < x > , < < > > < < < < < < < > > > > < > > < < < < f f f f f > < ",
"5 5 5 5 5 5 5 5 5 5 5 5 5 5 5 5 5 5 0 q 7 5 q q q 0 0 0 0 0 0 q 5 q 0 5 0 0 0 0 0 5 0 0 5 5 5 5 5 5 5 5 5 5 5 7 7 7 k k B P U ' @.` $.;.,.-.,.w.h.h.l.x.z.N.N.Z.Z.C.C.K.K.T.T.R.).'. X.XaXVXVXVXVXXXoX!.OXu.1.[ E Y A C C C C C A A A Y Y E E [ } } o.2.2.4.4.5.5.8.9.s.f.k.z.x.`. XVXZXZXFXAXdXsXsXuXuXyXyX1X1X1XW.W.W.W.R.`.'.`.).`.'.tXuXsXsXhXhXhXsXsXpXpX}.[.[.[.[.}.}.|.|.|.+X+X+X+X+X@X@X@X@X@X@X@X+X+X+X+X+X+X+X|.|.|.|.|.|.|.|.|.|.|.|.|.|.|.|.|.|.|.|.|.|.|.|.|..X.X.X.X.X.X.X.X.X.X.X.X.X.X.X@X@X@X@X@X@X+X.X.X.X.X.X.X.X.X.X.X.X.X.X.X.X.X.X|.|.|.|.}.}.}.|.|.}.}.}.}.}.}.}.}.}.}.}.}.}.}.}.}.}.}.}.}.}.}.}.}.}.}.}.}.[.[.[._._.).).S.S.S.A.A.C.C.C.C.C.C.C.C.C.C.C.B.C.C.B.B.B.B.B.B.B.B.V.K.K.U.U.<X<X<X<X;X;X;XU.U.I.I.I.I.I.I.I.I.I.I.I.I.I.I.I.I.I.I.I.U.U.E.W.1XrXtXpXaXVXfXXX].Q.v.j.s.9.8.-.*.+.O.o.+.O.O.O.*.*.-.-.-.:.:.>.9.a.a.a.d.d.d.k.f.d.d.d.d.d.d.d.d.d.d.a.a.a.9.9.:.-.*.*.O.X.` ` _ H H H v j f f < < < < < < , , , < , , , < , , < > < < < < < < , < < $ x W < > f , > < < > > > < < < > < > < < < > > < < < f < > > > < f f > > ",
"5 5 5 5 5 5 5 5 5 5 5 5 5 5 5 5 5 5 5 0 q 7 q q q q 7 q 5 5 0 5 0 0 0 5 0 5 5 0 5 5 5 5 5 5 5 5 5 5 5 5 5 5 5 5 7 7 7 k B P P U ` $.@.@.,.,.w.w.h.g.g.l.x.x.z.N.Z.V.C.K.K.K.T.R.).`. X X.XaXVXVXVXVXXXoX!.u.7.1.( Y A C C C C C C A A A Y Y E E [ } } o.o.2.4.4.5.8.8.0.f.k.z.z.x.)..XCXCXZXAXAXsXsXsXuXuXyXyX1X1X1XE.E.W.T.R.R.R.).).`.'.tXtXsXhXhXhXhXsXsXpXpX}.[.[.[.[.{.}.}.}.|.|.|.+X+X+X+X@X@X@X@X@X@X+X+X+X+X+X+X+X|.|.|.|.|.|.|.|.|.|.|.|.|.|.{.|.|.|.|.{.|.|.|.|.|.|.|.|.|.|..X|..X.X.X.X.X.X.X.X.X.X.X.X.X.X.X.X.X.X.X.X}..X.X}.|.|.|.}.}.|.|.|.|.}.}.}.}.}.}.}.}.}.}.{.{.{.{.}.}.}.}.}.}.}.}.}.}.}.}.}.}.}.}.}.}.}.[.[.[._._.).~.S.S.S.S.A.C.C.C.C.C.C.C.C.C.C.C.C.C.C.C.C.B.C.C.B.C.V.K.K.K.K.U.<X<X<X<X<X;X;XU.U.U.I.I.I.I.L.L.L.L.I.I.;X;XI.I.I.I.I.I.I.U.U.E.W.`.rXtXpXaXaXaX].].Q.x.j.s.9.8.-.*.+.+.O.+.O.+.+.+.*.*.-.-.:.:.9.9.a.a.a.d.d.d.k.k.k.k.d.d.d.d.d.d.d.d.a.a.a.a.9.8.-.*.*.O.X.X.` _ H H H v j f f < < < < < < < , , < < , Q u.I , , < < < < > > < > , , , f u.u.c $ < > < < < > < < < > < < > , > < < < < > > < < < < < < < < < > > ",
"5 5 5 5 5 5 5 5 5 5 5 5 5 5 5 5 5 7 q 0 5 5 5 q 0 0 q 5 0 0 0 0 0 0 0 0 5 5 5 0 0 5 5 5 5 5 5 5 5 5 5 5 5 5 5 5 7 7 7 k B N B U H !.jX-.@.,.w.w.w.g.g.g.x.x.x.N.Z.Z.V.C.C.K.K.T.R.).'. X XaXaXVXVXVXXXXX!.OXu.3.1.E Y C C C C C C C A A Y Y Y E [ [ } } 2.2.+.4.5.5.8.9.s.f.f.z.z.Q.)..XCXZXZXAXdXsXsXsXuXyXyXyX1X1X1X1XE.E.R.R.R.R.).).`.'.tXtXsXhXsXhXhXsXsXpXpX X}.[.[.[.[.[.{.}.}.|.|.+X+X+X+X@X@X#X#X@X+X+X+X+X+X+X+X+X+X|.|.|.|.|.|.|.|.|.|.|.{.{.|.|.|.|.{.|.|.{.|.|.|.|.}.}.|.|.|.|.|.|..X}.}.|.|.|.|.|.|.|.|.}.|.}.}.|.}.}.}.}.}.}.}.}.}.}.|.|.}.|.}.}.}.}.}.}.}.}.{.{.{.{.{.{.}.}.}.}.}.}.}.}.}.}.}.}.}.}.}.}.}.[.[.[._._._.).S.S.S.S.A.A.C.C.C.C.C.C.C.C.C.C.C.C.C.C.C.B.C.C.C.C.C.K.E.1X1X<X<X<X<X<X<X;X;X;XU.U.U.I.I.I.I.I.I.L.L.L.I.I.I.;XI.I.I.I.I.I.U.E.E.W.`.`.tXpXaXaXXX].Q.v.x.f.a.9.:.-.-.*.+.+.+.+.+.+.*.*.*.-.-.:.>.9.9.a.a.a.d.d.d.k.k.k.k.d.d.d.d.d.d.d.a.a.a.a.9.9.8.-.-.&.O.X.X.` _ _ H H v v j f f < < < < < < < < < < , , 3.OXW 9 , < < < < > > > > < < , > %.u.x $ < > < < < < > > > > < > < > > < < > > < > > < < < < < f < > > > ",
"5 5 5 5 5 5 5 5 5 5 5 5 5 5 5 5 5 5 0 0 5 5 5 5 0 0 q 0 0 q 5 0 0 0 0 5 0 5 0 0 0 5 5 5 5 5 5 5 5 5 5 5 5 5 5 5 7 7 7 k k B B ^ H jXPX-.$.;.,.w.w.g.h.h.x.x.z.z.N.Z.Z.V.C.K.K.T.T.R.).'. XaXaXVXVXVXVXXXoX!.t.7.1.E Y A C C C C C C C A A Y Y Y E [ [ } 2.o.o.2.4.5.5.8.9.s.f.z.z.z.K.].aXCXZXZXAXdXsXsXuXuXyXyXyX1X1X1XW.W.W.E.W.R.R.).`.`.`.tXtXuXhXhXhXhXsXsXsXpX X}.[.[.[.[.[.{.}.}.}.|.|.|.+X+X@X@X@X+X+X+X+X+X+X+X+X+X|.|.+X+X|.|.|.|.|.|.|.|.|.|.|.|.|.|.|.|.|.{.|.|.|.|.{.{.{.{.{.|.|.|.}.}.}.|.|.|.|.|.|.}.}.}.}.{.}.}.}.}.}.}.}.}.{.{.{.{.{.{.{.{.{.{.{.{.{.{.{.{.{.{.{.{.{.{.{.}.}.}.}.}.}.}.}.}.}.}.}.}.}.[.[.[._._._.).).S.S.S.S.A.C.C.C.C.C.C.C.C.C.C.C.C.C.C.C.C.C.C.C.C.C.C.V.K.1XgXgX2X<X<X<X<X;X;X;XU.U.I.I.I.J.H.L.I.L.L.L.I.I.I.I.I.I.I.I.I.U.U.E.E.W.`.rXtXpXaXaXXX].Q.v.x.f.s.9.:.-.*.*.+.+.O.O.+.+.*.*.-.-.-.:.:.9.9.a.a.a.d.d.d.k.k.k.k.d.d.d.d.d.d.d.d.a.a.a.a.9.:.-.-.&.O.O...` _ _ H H v v j f f < < < < < < , < < , , , , < c < , < < > > > , > > > < < > , < , , < < > < < < < < < < > < < < < < > < < < < < > < < < < < < < > < > ",
"5 5 5 5 5 5 5 5 5 5 5 5 5 5 5 5 5 0 0 0 5 q 0 5 0 0 0 0 0 5 0 0 0 0 5 5 5 5 0 0 0 5 5 5 5 5 5 5 5 5 5 5 5 5 5 5 5 7 7 7 k k B B D 3.7.$.@.;.;.,.w.w.h.h.h.x.x.z.N.N.Z.Z.C.C.K.K.T.R.).'.'. XaXaXVXVXVXXXXXoX!.t.3.1.E A C C C C C C C A A A A Y E ( [ [ } } o.2.2.4.5.5.8.9.s.f.k.z.z.Q.'.VXCXZXZXAXdXsXsXuXuXyXyX3X1X1X1XW.E.E.E.R.R.R.R.`.`.`.tXtXuXhXhXhXhXsXsXsXpX X X[.[.[.[.[.[.{.{.{.}.{.|.|.|.+X|.|.+X+X+X+X+X+X|.|.+X+X+X|.+X|.|.|.|.|.|.|.|.|.|.|.|.|.|.|.|.|.{.|.|.|.|.{.{.{.{.{.|.|.{.{.{.{.{.{.{.{.{.{.{.{.{.{.{.{.{.{.{.{.{.{.{..X|.{.{.{.{.{.{.{.{.{.(.[.{.{.{.{.{.{.{.{.}.}.}.}.}.}.}.}.}.}.}.}.}.[.[.[._._._.).).S.S.S.S.A.A.C.C.C.C.C.C.C.C.C.C.C.C.C.C.C.C.C.C.C.V.C.K.K.K.U.<X3X3X2X<X<X;X;X;XU.U.U.I.J.J.J.H.H.H.L.L.L.I.I.I.I.I.I.I.I.I.U.U.E.E.1X`.`.tXpXpXpXXX].Q.x.f.f.s.9.:.-.*.*.+.+.+.+.+.+.*.*.-.-.-.:.9.9.9.a.a.d.d.d.k.k.k.k.k.k.d.d.d.d.d.d.d.a.a.a.9.9.:.-.-.*.O.O.X.` _ _ H H v v f f f f < < < < < , , , , , , < , $ $ , , < , > F 1.Y < > > , , < < , , , , < < < > > < < < < < > > > > > < < < < < < < < < < < < < < < > > ",
"5 5 5 5 5 5 5 5 5 5 5 5 5 5 5 5 5 5 5 5 0 q q 5 0 0 0 0 0 5 0 0 5 5 5 5 5 0 0 5 0 5 5 5 5 5 5 5 5 5 5 5 5 5 5 5 5 5 7 7 7 k B U U ' ` #.;.;.;.,.,.w.w.g.g.g.l.z.z.N.Z.Z.C.C.K.K.T.T.R.`.'. X XaXVXVXVXVXXXoX!.t.u.1.1.Y A C C C C C C C C A A Y Y E ( E [ 1.} 2.2.2.4.5.5.8.9.s.f.z.z.z.Q. XVXZXZXAXFXhXhXsXuXuXyXyX1X1X1X1XW.W.E.E.R.R.R.R.`.`.`.`.tXuXuXhXhXhXsXsXsXpXpX X X[.[.[.[.[.[.{.{.{.{.}.}.|.|.|.|.|.|.|.+X+X|.+X+X+X+X+X+X+X|.|.|.|.|.|.|.|.|.|.|.|.|.|.|.|.{.|.|.|.{.{.{.{.|.{.{.|.{.{.{.{.}.|.{.{.{.{.{.{.{.{.{.{.{.{.{.{.[.(.|.CXCX{.(.{.{.{.{.[.|.+X{.{.{.{.{.{.{.{.}.}.}.}.}.}.}.}.}.}.}.[.[.[.[.[._._._.).~.S.S.S.S.S.A.A.C.C.C.C.C.C.C.C.C.C.C.C.C.C.C.C.C.C.C.C.K.K.U.U.;X<X<X2X2X;X;X;X;X;XU.U.U.J.J.H.H.J.H.H.L.L.L.L.I.I.I.I.I.I.I.U.U.E.E.W.W.rX`.'.pXpXXX].].m.x.j.s.9.0.:.8.-.O.*.*.+.+.*.*.*.*.-.-.:.:.>.>.9.a.a.d.d.d.k.k.k.k.k.k.k.k.d.d.d.d.d.a.a.a.a.9.:.-.*.*.O.O...` _ _ H H v v j f f f < < < < < < < , > , , , , < , < < , , , Y BXgXjXR , < < < , < < < < < < < > > > < < < > < < < > < < < > > > < < < < < < > < < > < > > ",
"5 5 5 5 5 5 5 5 5 5 5 5 5 5 5 5 5 5 5 5 q q q 0 5 0 0 0 0 0 5 5 0 5 5 5 0 0 0 0 0 5 5 5 0 5 5 5 5 5 5 5 5 5 0 0 5 5 5 7 7 k k B U U  .@.@.;.-.-.-.-.w.h.h.h.l.l.z.Z.N.Z.Z.C.K.K.K.T.T.R.`.'. X.XaXVXVXVXXXXXoX!.t.7.1.E Y C C C C C C C C C A A Z Y ( E 1.1.} 2.o.+.2.4.5.5.8.9.0.f.z.z.x.Q.XXVXZXZXAXAXdXsXsXuXuXyXyX1X1X1X1XW.E.E.E.W.R.R.R.W.`.`.`.tXuXuXhXhXhXsXsXsXsXpX X X[.[.[.[.[.[.[.{.[.{.{.{.{.{.|.|.|.|.|.|.|.+X+X+X+X+X+X+X|.|.|.|.|.|.|.|.|.|.|.|.|.|.|.|.|.|.|.|.|.{.{.|.|.|.|.|.|.{.{.+XCXSX#X{.{.|.{.{.{.{.{.{.{.{.{.{.{.(.|.CXCX{.{.{.{.{.{.(.#XCX|.{.{.{.{.{.{.{.}.}.}.}.}.}.}.}.}.[.[.[.[.[._._._.).~.~.S.S.S.S.A.A.A.C.C.C.C.C.C.C.C.C.C.C.C.C.C.C.C.C.V.C.K.K.U.U.;X<X<X2X2X>X;X;X;X;XU.U.U.J.J.J.H.G.H.H.H.H.L.L.L.I.I.I.I.I.I.U.U.U.E.E.W.W.`.rX'.'.'.'.].Q.v.x.f.z.Y.j.-.-.4XgX7...*.*.*.*.*.*.-.-.:.:.>.>.a.a.a.d.d.d.k.k.k.k.k.k.k.k.k.d.d.d.d.a.a.a.9.:.:.&.-.&.O.X.X.` _ H H H H v x f f < < < < < , , , < , , < , , < < , , , < < , 3.bXIXPX3.9 f < < < < < < < < < < < > < < < < > > > > > < < < < > > < < < < < > < < < < > < < ",
"5 5 5 5 5 5 5 5 5 5 5 0 5 5 5 5 0 0 5 5 0 q q 0 5 0 0 0 0 0 0 5 0 0 0 5 0 0 0 0 0 0 5 5 0 0 0 0 5 5 5 5 5 5 0 0 5 5 5 5 5 7 k k B U ' ' ;.w.7.*.-.-.w.h.h.h.g.l.l.z.Z.N.Z.C.C.K.K.K.T.R.).'. X X.XaXVXVXVXXXoX!.!.u.3.1.Y A C C i i i C C C A A ( Y A Y E [ } 1.o.o.2.2.4.5.8.8.9.s.f.z.z.z.]. XVXZXZXAXFXdXsXsXuXuXyXrX1X1X1X1XW.E.E.E.W.R.W.W.R.`.`.`.rXuXuXhXhXhXsXsXsXsXpXpX X X[.[.[.[.[.[.[.[.[.[.{.{.{.{.}.|.|.|.|.|.|.|.|.|.|.|.|.|.|.|.|.|.|.|.|.|.|.|.|.|.|.|.|.|.|.|.|.|.|.|.|.|.|.|.|.|.{.CXKXUXDX|.{.|.|.|.{.{.{.{.{.{.{.{.{.{.{.|.|.{.{.|.{.|.{.(.+XVX|.{.{.{.}.{.}.}.}.}.}.}.}.}.}.[.[.[.[.[._._._.).~.~.S.S.S.S.S.A.A.A.A.C.C.C.C.C.C.C.C.C.C.C.C.C.C.C.V.C.K.K.K.U.U.;X<X<X2X2X;X;X;X;X;XU.U.U.J.J.G.G.G.G.H.H.L.L.L.I.I.I.I.I.I.U.U.U.U.E.E.W.`.`.`.'.'.'.'.`.Q.x.x.f.a.z.4Xj.O.-.PXIXt.` *.*.*.*.*.-.-.:.:.>.9.9.a.a.d.d.k.k.k.k.k.k.k.k.k.k.d.d.d.a.a.a.a.9.9.x.x.&.O.O.O.X.` _ _ H H v v x f f < < < < < < , , , , < , , , , > < < , , < < , R hXIXhX .9 < < < < < < < < < < < < < < < < < < < < > > > < < < < < < < < < < < < < < < < < < ",
"5 5 5 5 5 5 5 5 5 5 5 5 5 5 5 0 0 5 5 5 5 0 0 5 5 5 5 0 0 0 0 0 0 0 0 0 0 5 0 5 5 0 0 5 0 0 0 0 5 5 5 - - 5 0 0 5 5 5 5 5 7 7 B B U U $.w.m.x.w.-.w.w.w.w.h.g.l.l.z.z.N.N.Z.C.K.K.K.T.T.R.).'. X X.XVXVXVXVXXXoX!.t.u.1.( Y A C i i i C C C i i ( ( A Y E [ 1.1.1.2.o.2.2.4.5.8.8.0.s.f.z.z.x.].XXVXZXZXZXFXsXsXsXuXyXyXrX1X1X1X1XW.E.E.E.W.W.R.W.W.`.`.`.rXtXuXuXhXhXsXsXsXsXsXpX X X[.[.[.[.[.[.[.[.[.[.[.[.[.[.{.{.{.|.|.|.|.|.|.|.|.|.|.|.|.|.|.|.|.|.|.|.|.|.|.|.|.|.|.|.|.|.|.|.|.|.|.|.|.|.|.|.CXKXUXDX|.{.|.|.|.|.{.{.{.{.{.{.{.{.{.{.[.{.{.{.}.{.{.}.{.{.|.{.{.{.{.}.}.}.}.}.}.}.}.[.[.[.[.[.[._._._.).~.~.S.S.S.S.S.S.A.A.A.A.A.A.C.C.C.C.C.C.C.C.C.C.C.C.C.C.K.K.K.U.U.<X<X;X2X2X>X;X;X;X;XU.U.I.J.J.G.G.G.G.H.H.H.L.L.I.I.I.I.I.I.U.U.U.U.E.E.W.W.W.`.`.'.'.].`.Q.Q.z.x.s.9.>.s.j.-.&.&.m.iX*.O.*.*.-.-.-.:.:.>.>.9.a.a.a.d.d.k.k.k.l.k.k.k.k.k.k.k.d.d.d.a.a.9.:.:.8.Q.Q.&...O.X.` _ _ H H H v f f f < < < < < , , , , < < < < , , < , < < < < < < < f u.jX3.x < < < < < < < < < < < < < < < < < < < < < < < > < < < < < < < < < < > > < < < < < < ",
"0 5 5 0 5 5 5 0 5 5 5 0 5 5 5 5 5 0 5 0 5 5 0 0 0 5 5 0 0 0 0 0 0 0 0 0 0 0 0 0 5 0 5 5 5 5 0 0 5 5 5 - 5 - - 4 - 5 5 5 5 7 7 k k k U #.v.Q.Q.h.-.w.w.-.w.q.g.h.x.x.z.N.N.Z.Z.C.C.K.T.T.R.).`.'. X.XaXVXVXVXXXoX!.!.t.7.1.E A C i i i C C y ( ( i A ( E ( 1.1.[ } } 2.2.2.2.4.5.5.8.0.s.f.f.z.x.]. XVXZXZXAXAXdXsXsXuXyXrX1X1X1X1X1XE.E.E.E.E.W.R.W.W.W.W.`.rXrXuXuXhXhXgXhXhXsXsXpX X X X_._._.[.[.[.[.[.[.[.[.[.[.[.{.{.{.|.|.|.{.|.|.|.|.|.|.|.|.|.|.|.|.|.|.|.|.|.|.|.|.|.|.|.|.|.|.|.|.|.|.|.|.{.+XSXSX+X{.|.|.|.|.|.{.|.{.{.{.{.{.{.{.{.{.{.{.}.{.{.{.{.{.{.{.{.{.{.}.}.}.}.}.}.[.[.[.[.[.[._._._.).~.~.S.S.S.S.S.S.S.A.A.A.C.C.C.A.C.C.C.A.A.C.C.C.C.C.C.C.C.K.K.K.U.U.<X2XwXwX0X2X;X;X;X;XU.U.U.J.K.K.G.G.G.G.H.H.L.L.L.I.I.I.I.I.I.U.U.U.U.E.E.W.W.`.`.`.'.'.'.`.Q.x.z.z.s.9.:.:.-.O.O.O.O.O...O.-.*.-.-.-.:.8.9.9.9.a.a.d.d.d.k.k.k.l.l.l.k.k.k.k.k.d.d.a.a.>.>.>.:.-.&.8.8.O.O.X.` _ H H H H v j f f < < < < < , , , , < , , , < , < < < < < < < < < u < , > , < < < < < < < < < < < < > < < < < < < < < < < > < < < < < < f f < < < < < < < < < < < ",
"5 0 5 5 5 5 5 0 0 0 0 0 5 5 5 5 5 0 0 0 5 5 0 0 0 0 0 0 0 0 0 0 0 0 0 0 0 0 0 0 0 0 5 5 - - 5 5 5 5 5 - - - - - - - 5 5 5 5 7 7 k k U #.w.x.x.w.-.,.,.,.-.w.w.h.g.l.x.z.N.N.Z.Z.C.C.C.T.T.R.).'.'. XaXaXVXVXfXXXoX!.OXt.3.1.Y A C i i C i i BXjX( u Y Y E ( ( 1.[ } } 2.2.+.2.4.5.8.8.0.s.f.z.z.Q.'..XVXZXZXZXAXdXsXsXuXyXrX1X1X1X1X1XE.E.E.E.W.E.W.R.W.W.W.`.rXrXuXuXuXuXhXgXhXsXsXpXpX X'._._.[.[.(.[.(.[.[.[.[.[.[.[.[.[.{.{.{.{.{.{.{.|.|.|.|.|.|.|.|.|.|.|.|.|.|.|.|.|.|.|.|.|.|.|.|.|.|.|.|.|.|.|.+X|.{.{.|.{.|.|.|.|.|.{.{.{.{.{.{.{.{.{.{.{.{.{.{.{.}.{.}.}.}.}.{.}.}.}.{.[.[.[.[.[._._._._.).~.~.S.S.S.S.A.A.S.A.A.A.C.C.C.C.C.A.A.C.C.A.A.C.C.C.C.C.K.K.K.K.U.U.<X<X2XwXvXvXwX2X;X;XU.U.U.J.K.G.G.G.G.G.G.H.H.L.L.L.I.I.I.I.I.I.U.U.U.U.U.E.W.W.`.`.`.`.`.`.Q.Q.z.z.f.s.9.:.-.-.&.+.+.+.*.*.*.*.*.*.-.-.:.:.9.9.a.a.a.d.d.k.k.l.l.l.l.l.l.l.k.k.k.d.d.d.a.a.>.:.:.:.:.*.O.O.O.X.` _ H H H H v j f f < < < < < < , , , < < < , < < < , < < < < < < < < , < < < < < < < < < < < < < < < < < < < < < < < < < < > < < < < < < f f < < < < < < < < < < < < ",
"0 0 5 0 5 5 0 5 0 0 0 0 5 5 0 5 0 0 0 0 5 0 0 0 0 0 0 0 0 0 0 0 0 0 0 0 0 0 0 0 0 5 5 5 - - - - - - - - - - - - - - - 5 5 5 5 7 7 k j ' #.;.;.@.@.;.,.7.w.w.w.g.g.h.l.z.z.N.Z.Z.C.C.K.K.T.R.R.`.'. X XaXVXVXVXXXXXoX!.t.u.1.E Y C C C C i i 3.u.C C Y Z Y ( ( ( [ } } } o.o.2.4.4.5.5.8.9.s.f.z.z.Q.'..XCXZXZXZXAXsXsXsXuXrXrX1X1X1X1X1XE.E.E.E.E.E.W.W.W.W.W.`.rXrXyXuXuXuXhXgXhXhXsXsXpXpX'.'._._._.^.^.^.(.[.[.[.[.[.[.[.[.[.[.[.{.{.{.{.{.{.{.{.|.|.|.|.|.|.|.|.|.|.|.|.|.|.|.|.|.|.|.|.|.|.|.|.|.|.|.|.{.{.{.{.|.|.|.|.{.|.{.{.{.}.{.{.{.}.{.{.{.{.{.}.{.{.}.}.}.}.{.}.[.[.[.[.[._._._._.).).~.~.S.S.S.S.S.S.S.A.A.A.A.A.C.C.C.C.C.A.A.C.C.C.C.C.C.C.C.K.K.U.U.U.<X2X2X2X2X0XwXwX0X;XI.I.I.J.K.G.G.G.G.G.G.G.H.H.L.L.I.I.I.I.I.U.U.U.U.U.U.E.E.W.W.`.`.`.`.`.R.Q.x.z.z.s.9.9.:.-.-.*.*.+.+.*.*.*.*.*.*.-.:.:.9.9.a.a.a.d.d.d.k.k.l.l.l.l.M.l.l.l.k.k.k.d.a.a.i.>.>.:.-.-.*.O.O.O...` _ _ H H H v v f f < < < < < , < < , < < < , < < < < < < < < < < < < < < < < < < < < < < < < < < < < < < < < < < < < < < < < < < < < < < < < f < < < < < < < f < < < < ",
"5 0 0 0 5 5 5 5 0 5 5 0 5 5 5 0 0 0 0 0 0 0 0 0 0 0 0 0 0 0 0 0 0 0 0 0 0 0 0 0 0 0 5 - - - - - - - - - - - - - - - - - - 5 5 5 7 7 k P U ' ' #.#.@.&.-.h.h.g.g.g.h.l.x.z.z.Z.Z.Z.C.C.K.T.T.R.R.`.'. X.XaXVXVXVXXXoX!.m.t.7.} E A C C i i i i i i C C Z A Y Y E E [ [ } } o.2.2.4.4.5.8.0.s.s.f.k.z.Q.].fXCXZXZXAXAXsXsXsXuXrXrX1X1X1X1XW.E.E.E.E.E.E.W.W.W.W.W.`.rXrXrXuXuXuXuXgXhXhXsXsXtXtX X X_._._.^.^.^.^.^.^._._.[.[.[.[.[.[.[.[.[.[.[.{.{.{.{.{.{.{.|.|.|.|.|.|.|.|.|.|.|.|.|.|.|.|.|.|.|.|.|.|.|.|.|.{.{.{.|.|.|.|.|.|.|.}.}.}.}.}.}.}.}.}.{.{.{.{.{.{.[.[.[.[.[.[.[.[._._._._.^.~.~.~.~.S.S.S.S.S.S.S.S.S.A.A.A.A.C.C.A.C.C.C.C.C.C.C.C.C.C.K.K.K.E.E.<X<X2X2X2X2X2X2X2X2X;X;XI.I.H.H.G.G.G.G.G.G.G.H.H.H.L.I.I.I.I.I.I.U.U.U.U.U.U.E.E.W.W.`.`.`.`.R.Q.Q.z.z.f.s.9.8.-.-.-.*.*.*.+.+.+.*.*.*.-.-.:.8.9.9.a.a.d.d.d.k.k.k.l.l.M.M.M.M.l.l.l.k.k.d.d.a.a.>.>.:.-.-.&.O...X.X.` _ _ H H H v j f f < < < < < < < < < , , < < < < < < < < < < < < < < < < < < < < < < < < < < < < < < < < < < < < < < < < < < < < < < < < < < < < f < < < < < < < < < < f ",
"0 0 0 0 5 0 5 0 0 5 5 5 0 5 5 0 5 5 0 0 0 0 0 0 0 0 0 0 0 0 0 0 0 0 0 5 5 5 0 0 0 0 4 4 0 e e e - - - e - - - - - - - - 4 5 5 5 5 7 k B U U ' ' #.@.@.-.h.x.w.w.g.g.g.l.l.z.Z.Z.Z.Z.C.C.K.T.T.R.).'.'. XaXaXVXVXXXXXoX!.t.u.3.[ E A C i i i i i i i C C A A Y Y E E [ } } o.o.2.2.4.4.5.8.0.0.s.f.f.x.Q.].aXVXCXZXAXdXsXsXsXtXrXrX1X1X1X1XE.E.E.E.E.E.W.W.W.W.W.W.W.rXrXrXyXuXuXgXgXuXuXuXsXsXpXtX'.'._._._._._.^._..X}.^.^._._.^.^.(.(.[.[.[.[.[.[.[.[.[.{.{.{.{.{.{.{.{.|.{.{.{.|.|.|.|.|.|.|.|.|.|.|.|.|.|.|.}.{.}.}.}.}.}.}.}.}.}.}.{.{.}.}.}.{.[.[.[.[.[.[.[.[.[.[.[._._._.^.^.~.~.~.~.S.S.S.S.S.S.S.A.A.A.A.A.A.A.A.A.A.C.C.C.C.C.C.C.C.C.K.K.K.E.E.<X<X<X2X2X2X2X2X2X2X;X;XU.U.I.J.H.G.G.G.G.G.G.G.H.H.H.L.L.I.I.I.I.I.I.U.U.U.U.U.E.E.E.W.W.W.`.`.Q.Q.Q.x.z.k.f.a.9.8.5.-.-.*.*.*.*.+.*.*.*.-.-.-.:.:.9.i.a.d.d.d.k.k.l.l.l.M.M.M.M.M.M.l.l.k.k.k.d.a.i.>.:.:.-.-.&.&.O.X...` _ _ H H H v f f f < < < < < < < < , , , , < < < < < < < < < < < < < < < < < < < < < < < < < < < < < < < < < < < < < < < < < < < < < < < < < < < < < < < < < < < < < < < < ",
"0 0 0 5 0 5 0 0 5 5 5 5 5 5 5 0 5 0 0 0 0 0 0 0 0 0 0 0 0 0 0 0 0 5 5 5 5 5 0 - 0 0 5 - e e e e - - - e - - - - - - - - 4 4 5 5 5 7 k k B U U ' ' @.@.;.w.w.w.w.w.h.g.g.l.z.Z.Z.N.Z.C.C.C.K.T.T.R.`.'. X XaXVXVXVXXXoXoX!.t.u.3.[ Y C i i i i i i i C C C A A Y Y E [ 1.1.} } o.+.2.4.4.5.8.0.s.f.f.s.j.m.].aXVXZXAXAXdXsXsXuXtXrXrX1X1X1X1XE.<XE.E.E.E.E.E.W.W.W.W.W.W.rXrXyXyXuXuXgXgXgXhXhXsXpXtX'.'.'._._._.~.[.AXaX~.^._._.^.^.^._._.[.[.[.[.[.[.[.[.[.[.[.[.[.[.[.{.{.{.{.{.{.{.{.{.{.|.|.{.{.{.{.{.}.}.{.{.}.}.}.}.}.}.}.}.}.}.}.{.{.[.[.[.[.[.[.[.[.[.[.[._._._._._.).).~.~.~.S.S.S.S.S.S.S.S.S.A.A.A.A.A.A.A.A.A.A.C.C.C.C.C.C.C.K.K.T.T.E.E.<X<X2X2X2X2X2X2X2X2X;X;XU.U.I.J.G.G.G.G.G.G.G.G.H.H.H.L.I.I.I.I.I.I.I.U.U.U.U.U.U.E.E.E.W.W.W.W.R.Q.Q.Q.z.z.f.s.9.9.8.-.-.*.*.*.*.*.*.*.*.-.-.-.-.:.9.9.a.a.d.d.k.k.l.l.l.M.M.M.M.M.M.M.M.l.l.k.d.d.i.i.>.>.:.-.&.&.&.O.X...` _ _ H H H j f f f < < < < < < < < < , , < < , < , < < < < < < < < < < < < < < < < < < < < < < < < < < < < < < < < < < < < < < < < < < < < < < < < < < < < < < < < < < f < f ",
"5 5 5 5 5 5 5 5 5 5 5 5 5 0 0 0 0 0 0 0 0 0 5 0 0 0 0 0 0 0 0 0 0 0 0 0 0 5 - e 0 e e - - - - - - - - - - - - - - - - - 4 4 4 5 5 6 7 k j U U ' ' ' @.@.;.,.,.,.,.w.h.h.x.l.z.Z.N.Z.Z.C.C.C.K.T.R.).`.'. X.XaXVXVXfXXXoXoX!.t.7.1.E A C C i i i i i i i C C A A Y Y E E [ } } } o.+.2.4.4.5.8.0.0.s.Y.b.j.Q.].XXVXZXAXAXdXsXsXuXtXrXrX1X1X1X<XE.E.E.E.E.E.E.E.W.W.W.W.W.W.rXrXyXyXuXgXhXhXgXhXhXsXsXpXtX'.'._._.~._.dX X~._._.^.^.^._._._._.^.^._.[.[.[.[.(.[.[.[.[.[.[.[.[.[.[.[.[.[.[.[.{.{.}.{.{.{.{.}.}.}.{.{.}.}.}.{.[.{.{.[.[.}.[.[.[.[.[.[.[.[.[.[._._._._._._.~.).~.~.~.S.S.S.S.S.S.S.S.S.S.S.A.A.A.A.A.A.A.A.A.A.C.C.C.C.C.K.T.T.T.E.E.<X<X<X2X2X2X2X2X2X2X>X;X;XU.U.I.J.G.G.G.G.G.G.G.G.H.H.H.H.L.L.I.I.I.I.;XI.U.U.U.U.U.U.E.E.E.W.W.W.R.R.Q.Q.N.z.k.f.a.9.8.8.-.-.*.*.*.*.*.*.*.*.-.-.-.:.:.9.9.a.a.d.d.d.k.l.l.M.M.M.M.M.M.M.M.M.l.l.k.k.d.i.i.>.:.:.:.&.&.&.O.X...` _ _ H H H j f f < < < < , , , < < < < < < < < < , , , , , < < < < < < < < < < < < < < < < < < < < < < < < < < < < < < < < < < < < < < < < < < < < < < < < < < < < < < < < f f ",
"5 5 5 5 5 5 5 0 5 5 5 0 0 0 0 0 0 0 0 0 0 0 0 5 0 0 0 0 0 0 0 0 0 0 0 5 0 - - e 4 e e 4 - - - - - - - e - - - - - - - - - 4 4 5 5 8 6 k k B U U ' ' $.@.@.;.,.,.,.,.w.h.g.l.x.x.Z.N.Z.Z.C.C.K.K.T.R.).'.'. X.XaXVXVXXXXXoX!.t.u.3.1.Y A C i i i i i i i C C A A A Y Y E [ [ [ } o.o.2.2.4.4.5.0.-.n.bX2Xs.z.Q.].aXVXZXZXAXdXsXsXtXtXrXrX1X1XW.1XE.E.E.E.E.E.E.E.E.W.W.W.W.1X1XrXyXyXuXhXhXgXuXgXuXsXsXuXtXtX'.'.)._.'._.~.).~.~.^.^._._.^.^.^.^.^.^.^.^.^.^.^.^._._.[.[.(.(.[.[.[.[.[.[.[.[.[.[.[.[.[.[.[.[.[.[.[.[.[.[.[.[.[.[.[.[.[.[.[.[.[.[._._._._._._.^.).~.~.~.~.~.S.S.S.S.S.S.S.S.S.S.S.S.A.S.A.A.A.A.A.A.C.A.A.A.A.T.T.T.T.T.E.E.<X<X<X2X2X2X2X2X2X2X2X;X;X;XU.U.I.J.K.G.G.B.B.G.G.G.H.H.H.L.L.L.L.I.I.I.I.;X;X;XU.U.U.U.U.E.E.E.E.W.W.R.Q.K.N.z.k.f.a.a.9.8.8.-.-.*.*.*.*.*.*.*.-.-.-.:.:.:.9.a.a.d.d.d.l.l.l.l.M.M.M.M.M.M.M.M.M.l.l.k.k.d.a.i.>.:.:.-.&.&.O.O.X...` _ _ H H v v f f < < < < < , , , , , , , < < < < < , , < < < < < < < < < < < < < < < < < < < < < < < < < < < < < < < < < < < < < < < < < < < < < < < < < < < < < < < < < f f f f ",
"5 5 5 5 7 5 7 q 7 7 q 0 0 5 5 0 0 0 0 0 0 0 0 0 0 5 5 0 0 0 0 0 0 0 0 e 0 0 0 0 - - - - - - - - - - - - - - e 4 - - - - - - - 4 8 8 6 6 k B B U U ' ' @.@.@.;.,.,.,.w.w.g.g.l.z.x.Z.N.N.Z.C.K.K.T.T.R.).'. X X.XVXVXVXXXoXoX!.t.u.1.E Y A i i i i i i i i C C A A A Y E E E [ [ } o.o.o.2.2.4.0.5.n.gX4Xs.j.z.Q.]..XVXZXZXAXAXsXsXtXtXrX1X1X1XW.W.E.E.E.E.E.<X<XE.E.E.W.W.1X1X1X1XyXyXuXuXuXuXgXgXgXuXuXuXuXtXtX'.`.'.).).).~.~.~.).).).~.^.^.^.^._.^._.^.^._.^.^.^._._._._._._._._._._._._.[.[.[.[.[.[.[.[.[.[.[.[.[.[.[.[.[.[.[._._._._._._._._._._._.).).~.~.~.~.S.S.S.S.S.S.S.S.S.S.S.S.S.S.A.A.A.A.A.A.A.A.A.A.A.T.T.T.T.E.E.E.E.<X<X2X2X2X2X2X2X2X2X2X;X;X;XU.U.I.J.J.G.G.G.G.G.G.G.G.H.H.H.L.L.I.I.I.I.;X;X;X;X;XU.U.<XE.E.E.E.E.T.T.T.Q.K.N.N.z.k.f.s.9.9.8.8.-.-.-.*.*.*.*.*.-.-.-.:.8.8.9.9.a.d.d.k.k.k.N.F.N.M.M.M.M.M.M.M.M.M.M.l.k.k.d.a.i.>.:.:.-.&.&.O.O...` ` _ H H H H v x f < < < , , , , , , , , , , < < < < < < < < , , < < < < < < < < < < < < < < < < < < < < < < < < < < < < < < < < < < < < < < < < < < < < < < < < < < < < < < < < < f ",
"5 7 7 7 7 7 7 q q q 5 q 0 0 q 0 0 0 0 0 0 0 0 0 0 5 5 0 0 0 0 0 0 0 5 0 0 0 0 0 - - - - - - - - - - - - - - e e - - - - - - - - 8 5 8 6 6 k N U P U ' ' @.@.@.;.,.,.w.w.g.g.g.x.z.z.Z.N.Z.C.C.K.K.T.T.R.).'. X XaXVXVXXXXXoXoX!.t.7.1.E A C i i i i i i i i C C C A A Y E E E [ [ } } o.2.2.4.4.5.6.e.s.0.j.z.z.Q.].XXVXZXZXAXAXsXsXtXtXrXrX1XW.W.W.E.E.E.<X<X<X<XE.E.E.E.1X1X1X1X1X3XyXyXyXgXuXuXgXgXuXuXuXuXuXtXtX'.`.).).).~.~.).).).~.).~.~.~.~.~.~.~.~.^.^.^.^.^._._._._.^.^.^.^.^._.^._._._._._._._._._._._._._._._._._._._._._._._._.~.~.~.~.~.~.).).S.S.S.S.S.S.S.S.S.S.S.S.S.S.S.S.S.A.S.A.A.A.A.A.A.A.A.T.T.T.E.E.E.E.<X<X<X2X2X2X2X2X2X2X<X;X;X;XU.U.I.J.J.K.G.B.B.B.B.G.G.G.G.H.H.L.L.I.I.I.I.I.;X;X;XI.I.I.U.U.<XE.E.T.T.T.T.K.K.Z.N.z.k.f.f.s.9.8.8.5.-.-.-.*.*.*.*.-.-.-.:.8.8.9.9.a.a.a.d.k.l.l.l.N.J.V.N.M.B.M.M.M.M.M.M.l.k.d.d.a.i.>.:.:.&.&.&.O.O...` ` _ H H H v v x f f < < < < < , , , , , , , < < < < < , < < $ 9 , > < < < < < < < < < < < < < < < < < < < < < < < < < < < f f < < < < < < < < < < < < < < < < < < < < < < < < < < f f ",
"7 7 7 7 7 7 q q q q q 0 7 q q q q q 0 0 0 0 0 0 0 0 0 0 0 5 0 0 0 0 0 0 0 0 0 0 e - - - - - - - - - - - - - e - - - - - - - - - - 5 8 8 6 6 k B P U U ' ' @.@.;.;.,.w.w.q.g.h.g.x.x.x.Z.Z.Z.C.C.K.K.T.R.R.`.'. X.XaXVXVXXXXXoX!.OXt.3.1.Y A C i i i i i i i i C C C A A Y Y E E [ [ } 1.o.2.2.4.4.5.5.5.0.s.j.j.z.Q.].aXVXZXZXAXAXdXsXtXtXrXrX1X1XW.E.E.E.E.<X<X<X<XE.E.E.E.<X1X1X1X1X1X3X3XyXyXgXuXuXuXuXuXuXuXuXtXtXtX`.`.).).).).).).).).).).~.~.~.~.~.).~.~.~.~.~.~.).).~.~.~.~.~.^.~.~.~.~.).).~.).~.).~.).~.~.~.~.).).).).).).~.~.~.~.~.~.~.~.~.~.S.S.R.S.S.S.S.S.S.S.S.S.S.S.A.S.A.A.A.A.S.A.S.S.S.T.T.T.T.E.E.E.<X<X<X1X2X3X3X2X2X2X2X2X<X;XU.U.U.U.I.J.K.G.G.B.B.B.B.B.G.G.H.H.H.L.L.L.I.I.I.I.;X;X;X;XI.I.I.I.U.U.U.U.K.K.K.K.K.Z.Z.M.z.k.f.s.a.9.8.8.5.-.-.-.-.*.-.-.-.-.8.8.8.9.9.a.a.a.d.d.k.l.M.M.l.M.N.B.B.M.B.M.M.M.M.M.l.k.d.a.i.>.>.:.&.&.&.&.O.X...` _ _ H H H v v v f f < < < < < < < , < < < < < < < < < < < < 9 %.jXu.$ > < < < < < < < < < < < < < < < < < < < < < < < < < < < < < < < < < < < < < < < < < < < < < < < < < < < < < f f f ",
"7 q q q 7 7 7 q q q q 7 5 q q q q 0 0 0 0 0 5 5 0 5 0 0 5 0 0 0 0 0 0 0 5 5 0 0 e - - - e - - - - - - - - - - - - - - - - - - - - 5 5 5 7 7 k B U U U ' ' ' @.@.;.,.,.w.w.g.g.h.x.x.x.x.Z.N.Z.C.C.K.T.T.R.).`.'. X.XaXVXVXXXXXoX!.t.u.3.E Y A i i i i i i i i i C C C A A Y Y E E E [ [ } } 2.2.4.4.5.0.0.0.s.s.j.z.Q.].aXVXZXZXZXAXdXsXpXtXrX1X1X1XW.E.E.E.<X<XE.<X<XE.E.<X<X<X<X1X1X1X3X3X3XyXyXgXgXgXuXuXuXuXuXuXuXtXtXrX'.`.).).).).).).).).).).).).).~.~.~.~.~.~.~.).~.~.~.~.~.~.~.~.~.~.~.~.~.~.~.~.~.~.~.~.~.~.~.~.~.).~.~.~.~.~.~.~.~.S.S.S.S.S.R.R.S.S.S.S.S.S.S.S.S.S.S.S.A.A.A.A.A.A.S.T.T.T.T.T.E.E.E.E.<X<X1X3X3X3X3X2X2X2X<X<X<X;XU.U.U.J.J.J.G.B.B.B.B.B.B.G.G.G.H.H.L.L.L.L.I.I.I.;X=X=X=X=X;XI.I.I.L.L.J.J.K.K.K.C.K.V.N.M.l.k.f.f.s.9.9.8.8.5.-.-.-.-.-.5.-.-.-.8.8.9.9.9.a.a.d.d.d.k.l.M.M.M.M.M.M.M.B.M.M.M.M.M.M.l.k.d.i.>.>.:.-.&.&.&.&.O.X.` ` _ H H H H v v x f f < < < < < < , < , < < < , < < < < < < < , $ BXIXOX$ > < < < < < < < < < < < < < < < < f < < < < < < < < < f < < < < < < < < < < < < < < < < < < < < < < < < < < < f f ",
"7 7 7 7 7 7 7 q 7 7 q q 5 5 5 0 q q 0 5 5 5 5 5 0 0 0 0 0 0 0 5 0 0 5 0 e e e e e e e - - - - - - - - - - - - - - - - - - - - - - 4 5 5 5 7 6 M ^ %. .' ' ' $.@.@.;.,.,.,.w.g.h.g.l.l.z.Z.Z.Z.Z.Z.C.K.T.T.R.).'.'. X.XaXVXXXXXoX!.!.t.t.1.E Y C i i i i i i i i i i C C A ( Y Y Y E [ [ [ } 1.2.2.2.4.5.5.0.0.s.j.f.z.Q.].pXVXZXZXZXAXdXsXpXtXrXrXW.W.W.E.E.E.<XE.<X<X<X<X<X<X<X<X<X<X<X1X1X3X3X3XyXyXgXyXgXgXgXgXgXuXyXyXrXrXrX`.`.).).).).).).).).).).).).~.~.~.).).).~.~.~.~.~.~.~.~.~.~.~.~.~.~.~.~.).R.S.S.S.S.S.S.S.S.S.S.S.S.S.S.S.S.S.S.S.S.S.S.S.S.S.S.S.S.S.S.S.S.S.S.S.S.S.S.T.T.T.T.T.T.E.W.E.E.1X1X1X1X3X3X3X3X3X2X2X<X<X<X;XU.U.U.J.J.J.K.G.G.B.B.B.B.B.G.G.H.H.H.L.L.I.I.I.I.=X;X=X=X=X;X;X=XI.I.L.L.H.H.G.G.G.G.V.V.N.M.z.l.k.f.s.a.9.8.8.8.5.5.-.-.-.-.-.-.5.8.8.9.9.9.a.a.d.d.k.k.l.l.M.M.N.N.M.M.M.M.M.M.M.M.M.M.l.k.d.a.>.>.:.-.&.&.&.O.O...` ` _ H H H H v v f f < < < < < < < , , , , < < < < , < < < < < < , $ u.BXW , < < < < < < < < < < < < < < < < f < < f < < f < < < < f f < f f f < < < < < < < < < < < < < < < < < < < < < < f < ",
"7 7 7 7 7 7 7 7 7 7 q 7 5 5 7 q q 7 q 5 5 5 5 5 5 0 0 0 0 0 0 0 0 5 0 5 5 - 0 - e e - - - - - - - - - - - - - - - - - - - - - - - - - - 5 5 6 M ^ %. .U ' ' ' @.@.@.;.,.,.w.w.h.g.g.l.l.z.Z.N.Z.Z.C.C.K.K.T.R.).). X X.XfXXXXXXXoX!.!.t.7.1.E A C i i i i i i i i i C C A ( Y Y Y E E 1.E [ } } o.2.2.4.5.5.0.0.s.j.j.z.Q.].pXVXAXZXAXAXdXsXpXtXrXrXW.W.E.E.E.E.E.E.E.<X<X<X<X<X<X<X<X<X<X<X3X3X3X3X3XyXyXyXyXyXyXgXgXgXgXyXyXyXrXrX`.`.`.).).).).).).).).).~.~.~.).).).~.~.~.~.).~.~.~.).~.~.~.~.~.~.S.R.R.S.S.S.S.S.S.S.S.S.S.S.S.S.S.S.S.S.S.S.S.S.S.R.R.S.R.R.R.T.T.T.T.R.T.T.T.T.T.T.R.E.W.W.W.W.1X1X1X1X1X3X3X3X<X<X<X<X<X;XU.U.U.U.K.J.K.G.G.G.B.B.B.B.B.G.G.G.H.H.H.L.L.L.I.=X=X=X=X;X;X=X=X=XI.I.I.I.L.H.H.G.G.B.B.V.V.N.M.M.z.k.k.f.s.9.9.8.8.5.5.5.-.-.-.-.5.5.5.8.8.9.9.a.a.d.d.k.k.l.l.M.M.M.N.B.B.B.B.B.B.M.M.M.M.l.l.k.d.i.>.:.=.-.&.&.&.O.O.....` _ H H H v v f f f < < < < < , , , , , , < < < < < , < < < < < < < , 9 , > f f < < < < < < < < < < < < < > , < x < < < f f < < < < f < < < < < < < < < < < < < < < < < < < < < < < < < < < f f ",
"6 7 B B 7 7 7 7 7 q q 5 7 7 5 7 0 q 0 0 5 5 5 5 0 0 0 0 0 0 5 5 5 5 5 5 5 5 e - e e - - - - - - - - - - - - - - - - - - - - - - - 3 - - - 5 8 6 6 M N P P U ' ' $.@.;.;.,.,.w.w.g.g.g.l.l.x.Z.N.N.Z.C.K.K.K.T.R.R.).'. XXXXXXXXXoXoX!.!.u.7.1.E A C i i i i i i i i i C C A A A ( Z Z ( E [ [ [ } 2.2.2.4.5.5.0.0.s.s.j.j.x.Q.'.aXVXZXZXAXAXsXsXtXrXrX1XW.E.E.E.E.E.E.E.E.<X<X<X;X<X<X<X<X<X<X2X2X3X3X3X3X3X3XyXyXyXyXgXgXgXgXyXyXyXrXrXrX`.`.).).).).).).~.~.~.).).).).~.~.).~.).R.S.).R.R.).R.).).S.~.R.R.R.R.R.R.R.R.S.S.S.S.R.R.S.S.S.R.R.R.R.R.R.R.R.R.R.R.R.R.R.R.R.R.R.R.W.W.W.W.W.W.W.1X1X1X1X1X1X1X1X1X<X<X<X<X<XE.U.U.U.U.K.K.K.K.K.K.B.B.B.B.B.B.G.G.G.H.H.L.L.L.I.I.I.;X;X;X;X;X;X=X=XI.I.L.L.L.H.H.H.G.G.B.V.V.N.M.M.z.l.k.f.f.s.a.9.8.8.5.5.5.5.5.5.5.5.8.8.8.9.9.a.a.d.d.f.k.l.l.M.M.M.M.M.B.B.B.B.B.B.B.M.M.M.M.k.k.d.i.>.:.:.&.&.&.&.O.O...` ` _ H H H v v f f f < < < < < , < , , , , , , , , < < < < < < < < < < , , , < < < < < < < < < < < < < < f < f x f < f < < f < < < < < f < < < < < < < < < < < < < < < < < < < < < < < < < < < < f ",
"6 6 B V B 7 7 7 7 7 q q q 7 0 0 0 0 0 0 5 5 5 5 5 0 0 0 0 0 0 5 5 5 5 - 5 5 e - - - - - - - - - - - - - - - - - - - 4 4 - - - - - 4 4 - 4 4 5 7 6 6 k N P U ' ' $.@.@.;.;.,.,.w.q.g.g.l.l.z.x.Z.N.Z.Z.K.K.C.W.rX`.R.].'.XXXXXXXXXXoXoX!.OXt.7.[ Y A C i i i i i i i i C i C C C 3.( m Y ( E [ [ [ } 2.2.2.4.5.5.0.0.s.j.j.j.x.Q.].aXVXZXZXAXAXdXpXtXtXrX1XW.E.E.E.E.E.E.E.U.E.E.;X;X;X;X<X<X<X2X2X2X3X3X3X3X3X3X3X3X3XyXyXyXgXgXgXyXyXyXyXrXrX`.`.`.R.R.R.R.S.~.R.).).R.).).).).R.R.R.R.R.R.R.R.~.S.S.R.).R.R.R.R.R.R.R.R.R.R.R.R.R.R.R.R.R.R.R.R.R.R.R.R.R.R.W.W.W.W.W.W.W.W.W.W.W.1X1X1X1X1X1X1X1X1X1X1X<X<X<X<XE.U.U.U.U.K.K.K.K.K.K.K.K.B.B.B.B.G.G.G.G.H.H.H.L.L.L.I.I.=X=X=X;X=X=X;X;X=X=XI.I.L.L.H.H.G.G.G.B.B.V.B.N.M.M.z.k.k.f.f.s.s.9.8.8.5.5.5.5.5.5.5.8.8.8.9.9.9.a.a.d.d.k.k.l.l.M.M.M.M.M.B.B.B.B.B.B.M.M.M.M.l.k.d.a.>.:.:.&.&.&.&.O.O.O...` ` _ H H H v j f f < < < < < , , , < , , , , , , , , < < < < < < < < < < < < < < < < < < < < < < < < < < f < f 1.r.[ > > x f < < < < < < < < < < < < < < < < < < < < < < < < < < < < < < < < < < < < ",
"6 6 B ~ B 7 7 7 7 7 7 q q q q q 0 0 0 5 5 5 5 5 5 5 0 0 0 0 0 5 0 0 0 0 5 5 5 - - - - - e - - - e - - - - - - ; - 4 4 4 4 - - - - - 4 4 4 3 8 5 6 6 B B N P U ' ' ' @.@.;.,.,.w.q.g.g.g.g.l.z.z.z.N.Z.C.C.C.W.uX`.Q.`.].'.XXXXXXXXXXoXoX!.t.t.3.[ Y A C i i i i i i i i i i i A BXu.C A Y E E E [ [ } 2.2.2.4.5.5.0.0.0.s.s.j.x.Q.].aXVXZXZXAXAXdXsXpXtXrX1XW.E.E.E.E.E.U.U.U.E.U.;X;X;X;X;X;X<X2X2X2X2X2X2X2X3X3X3X3X3X3X3X3XgXgXgXgXgXyXyXyXrXrXrXW.W.`.).R.R.R.R.R.R.R.R.R.R.R.R.R.).).).R.R.R.S.R.).R.R.R.R.).R.R.R.R.R.R.R.R.R.R.R.W.W.W.W.W.W.W.W.W.W.W.W.W.1XW.1X1X1X1X1X1X1X1X1X1X1X1X1X1X1X<X<XE.E.E.E.U.K.K.K.K.K.K.K.K.K.V.B.B.B.G.G.G.G.G.G.J.J.J.I.L.L.I.I.=X=X;X;X-X-X=X=X=X=XI.I.L.L.H.H.G.G.G.B.B.V.N.N.M.M.z.z.z.k.f.s.s.0.9.8.8.5.5.5.5.5.5.8.8.8.8.9.9.a.a.s.d.k.k.l.M.M.N.N.B.B.B.B.B.B.B.B.B.B.N.M.M.l.k.d.a.>.:.-.-.&.&.&.O.O.X...` _ _ H H H v v f f < < < < < < , , , < , , , , < < < < < , , < < < < < < < < < f f < < < f < < < < < < < < f < < 1.r.1.< < x f < < < < < < < < < < < < < < < < < f < < < < < < < < < < < < < < < < f f ",
"6 6 B ! B 7 7 7 7 q q 7 7 7 q q 5 5 5 5 5 5 5 5 5 5 0 0 0 0 5 5 5 0 0 0 0 5 5 e e - - - - - - - - - - - - - - ; - 4 5 0 4 - - - - - 4 4 4 - - 8 8 8 7 B B N P U ' ' $.@.@.;.,.,.w.w.g.g.g.l.l.z.z.z.Z.Z.Z.Z.Q.W.R.Q.R.).].XXXXXXXXXXXXoXoX!.t.7.3.( Y C i i i i i i i i i i i C u.3.C A A Y Y E E [ [ } o.2.2.4.4.5.0.0.0.s.s.j.z.Q.].pXVXZXZXZXAXAXsXpXtXrXrXW.E.E.E.E.U.U.U.U.U.U.;X;X;X;X;X;X<X2X2X2X2X2X2X2X2X3X3X3X1X1X3X3X3X3X3XgXgXgXgXgXyXyXrX1XrXrXW.W.R.R.R.R.R.R.R.R.R.R.R.R.R.R.R.R.R.S.R.`.'.`.R.R.).).W.`.W.W.`.W.W.`.W.W.`.`.`.`.`.`.`.rX1X1XrXrX1X1X1XrX1X1X1X1X1X1X1X1X<XE.E.E.E.E.E.E.U.K.K.K.K.K.K.K.K.K.K.K.K.K.G.G.G.G.K.J.H.H.H.J.I.I.I.I.I.I.;X=X=X=X-X;X;X=X=X=XI.I.L.L.H.H.G.G.G.B.B.V.V.N.M.M.z.z.z.k.f.f.s.s.0.9.8.8.8.5.5.5.5.5.8.8.9.9.9.a.a.a.f.f.k.l.l.M.M.N.B.B.B.B.B.B.B.B.B.B.B.M.M.l.l.k.a.>.:.:.-.&.&.&.O.O.O.X...` _ _ H H H v v f f < < < < < < < , < < < , , , , < < < < < , , < < < < < < < > < f < < < < < < < < < < < < < f < > n Y n < < x f < < < < f f f < < < < < < < < < f f f < < < < < < < < < < < < < < < < < ",
"7 7 7 k k 7 7 7 7 7 7 7 7 7 7 5 7 0 5 5 5 5 0 5 0 0 5 0 0 0 5 5 5 5 0 0 0 e 5 - e - - - - - - - - - - - - - - - - - 4 4 4 - - - - - 4 4 3 - - 3 8 8 6 6 k N P P U ' ' @.@.;.;.,.,.w.w.h.g.h.l.l.l.z.N.Z.Z.Z.Z.Z.A.Q.R.`.).).].XXXXXXXXoXoX!.OXt.7.1.E A i i i i i i i i i i i i i i i C A A Y Y Y E E [ } } 2.2.+.4.5.5.0.0.s.s.s.j.Q.].XXaXCXZXZXAXAXsXpXpXtXrXW.E.E.E.E.U.U.U.U.U.U.;X;X;X;X;X;X;X2X2X2X2X2X2X2X2X2X2X3X1X1X1X3X3X3X3X3X3XgXgXgXyXyXyXyXyXrXrXW.W.W.R.R.R.R.R.R.R.R.R.R.R.R.R.R.R.R.`.sXrXR.R.R.R.W.`.W.W.W.W.W.W.W.W.W.W.W.W.W.`.rX1XW.1X1X1X1X1X1XyX3X1XE.E.E.E.E.E.E.E.K.K.K.K.K.K.K.K.K.K.K.K.K.K.K.K.K.K.K.G.G.G.K.J.J.J.J.I.I.I.I.I.I.I.;X;X=X=X-X-X=X=X=X=XI.I.L.L.H.G.G.G.G.B.B.B.V.N.N.M.M.z.z.z.f.f.s.s.0.0.8.8.8.5.5.5.5.8.8.8.8.9.9.9.a.f.f.k.k.k.l.M.M.N.B.B.B.B.B.B.B.B.B.B.B.B.M.M.l.k.d.a.>.:.-.&.&.&.O.O.X.X...` ` _ _ H H H v v f f < < < < < < < , , , , < , , , , < < < < < < < < < < < < < < < x < < < < < < < < f < < f < < f f < < > > < f f f f f f f f f f f < < < < < < < < < f f < < < < < < < < < < < < < f < f f ",
"7 7 7 7 7 7 7 7 7 7 7 7 7 7 5 5 7 5 5 5 5 5 0 0 5 0 0 0 5 5 5 0 5 - e e 5 5 - - e e e - - - - - - - - - - - - - - - - 4 4 - - - - - - 4 - - - - - 8 8 7 k M N P U ' ' ' @.@.;.;.,.,.w.w.h.g.g.l.l.x.z.Z.Z.Z.N.Z.Z.A.Q.Q.).).].].XXXXXXXXoXoX!.OXt.7.1.E A C i i i i i i i i i i i i C C C A A Y Y Y E [ [ } 1.2.o.2.4.4.8.8.0.s.s.s.j.x.Q.'.fXVXZXZXAXAXdXaXpXtXrXW.E.E.E.U.U.U.U.U.U.U.U.;X;X;X;X;X;X;X>X2X2X2X2X2X2X2X2X2X2X2X<X<X<X1X3X3X3X3XgXgXgX3XgXgXyXyX1X1XrXrXW.W.W.W.R.R.R.R.R.R.R.R.R.R.R.W.rXW.R.R.R.R.R.R.W.W.W.W.W.W.W.W.W.W.W.W.W.W.W.W.W.W.E.E.E.E.3X3X3XE.T.K.K.K.K.K.K.K.K.K.K.K.K.K.K.K.K.K.K.K.K.G.G.G.K.J.H.J.H.H.J.I.I.I.I.I.I.I.I.;X;X;X=X=X=X-X-X=X=X=XI.L.L.H.H.G.G.G.G.B.B.B.V.V.N.N.M.M.z.z.z.f.s.s.s.0.9.8.8.8.5.5.8.8.8.8.8.9.9.9.a.a.d.k.k.l.l.l.M.N.N.B.B.B.B.B.B.B.B.B.B.B.B.M.M.l.k.d.i.>.:.&.&.&.O.O.O.....` ` ` _ H H H H v f f f < < < , , , , , , , , , , < , , , < < < < < < < < < < < < < < < < < < < < < < < < < < < f < < f f f f f < f f f f f f f f f f f f < f f < < f < < < < f < < < < < f < < < < < < f f < f f ",
"7 7 6 6 7 7 7 7 7 7 7 7 7 7 7 7 7 7 5 5 5 5 0 5 0 0 0 0 5 5 5 5 5 - - 5 0 e e 0 - - - - - - - - - - - - - - - - - - - - - - - - - - - 3 - - - 4 - 8 8 6 6 k N U P U ' ' @.@.@.;.,.,.,.w.q.g.g.g.l.l.z.x.Z.z.Z.T.T.Z.Q.Q.Q./.].].oXXXXXXXoXoXoX!.t.u.7.1.Y Z C i i i i i i i i i i i i C C C A A Y Y E E [ [ } } o.o.2.2.4.5.0.0.0.s.s.j.x.m.].aXVXZXZXZXAXdXaXpXtXrX`.W.E.E.U.U.U.U.U.U.U.U.U.;X;X;X;X;X;X>X>X2X2X2X2X2X2X2X2X2X2X<X<X<X<X<X2X3X3X3X3X3X3X3X3X3X3XyX3X3X1X1X1X1XW.W.W.W.W.W.W.R.R.R.R.T.R.R.R.R.R.R.R.R.R.R.R.T.T.T.T.T.T.T.T.T.T.T.T.T.T.T.T.T.K.E.1X3X<XE.K.K.K.K.K.K.K.K.K.K.C.K.K.K.K.K.J.J.J.J.J.J.H.J.J.L.I.I.I.I.L.L.I.=X=X=X=X;X;X;X-X-X-X=X=X=X=XI.I.L.L.H.H.G.G.G.B.B.B.B.B.V.N.N.N.M.z.z.z.j.f.s.s.0.0.0.0.8.8.5.5.8.8.8.8.8.9.9.a.a.f.f.k.k.l.l.M.N.N.B.B.B.B.B.B.B.B.B.B.B.B.B.M.M.l.k.a.>.>.:.-.*.&.O.O.X.X...` ` _ _ H H H H v x f f < < < < , , , , , , , , , , , , , , , < < < < < < < < < < < < < < < < < < < < < < < < < < < < < f f f f f f f f f f f f f f f f f f < < < < f f f < < < < < < < < < < < < < < > < f < < < < ",
"7 7 7 7 7 7 7 7 7 7 7 7 7 7 7 7 7 5 5 5 5 5 5 5 5 5 5 5 5 5 5 5 5 - - - e - 0 5 - - - - - - - - - - - - - - - - - - - - - - - 4 4 - - 3 - - - - - 8 8 6 6 k M B U U U ' ' @.@.@.;.,.,.,.w.q.g.g.g.l.x.x.x.l.N.T.T.Z.Z.Q.Q.Q./.].].oXoXXXXXoXoX!.!.t.t.3.[ Y Z i i i i i i i i i i i i i C C C A A Y Y E E E [ [ } o.2.2.2.4.5.8.0.0.s.s.s.j.Q.].XXVXZXZXZXAXAXaXaXpXtXrXW.E.E.E.U.U.U.U.U.U.U.U.;X;X;X;X;X;X>X>X>X2X2X2X0X0X2X2X2X2X2X2X<X<X<X<X<X3X3X3X3X3X3XwXwX3X3X3X3X3X3X3X1X1X1X1X1X1XW.W.W.W.W.E.E.R.T.T.R.R.T.T.T.T.T.T.T.T.T.T.T.T.T.T.K.T.T.T.K.C.C.C.C.K.E.E.U.K.C.K.K.K.K.K.K.K.K.K.K.K.K.K.K.J.I.J.I.I.I.I.I.I.I.I.I.I.I.I.I.I.I.=X-X=X=X-X-X-X-X=X=X=X=XI.I.L.L.H.H.H.G.G.B.B.B.B.V.V.V.N.N.M.M.z.z.z.z.j.s.0.0.0.0.0.8.8.8.5.5.8.8.8.9.9.a.a.s.f.k.k.k.l.M.M.N.B.V.B.B.B.B.B.B.B.B.B.B.B.B.M.M.l.k.a.>.>.:.-.&.&.O.O.X...` ` _ _ H H H H v v f f < < < < < < , , , , , , , , , , , , , , < < < < < < < < < < < < < < < < < < < < < < < < < < < < < f f f f f f f f f f f f f f f f f f f < < < < f f f f < < < < < f < < < < f < < < f f f f f f ",
"k k 7 7 7 7 7 7 7 7 7 7 7 7 7 7 7 5 5 5 5 5 5 5 5 5 5 5 5 5 5 5 5 5 5 5 - - - - - - - - - - - - - - - - 4 5 - - - - 4 4 5 4 - - 5 5 - - - 4 5 - - 8 8 8 6 6 k j N P U ' ' ' @.@.@.;.,.,.,.w.q.g.g.g.l.x.z.l.z.N.Z.Z.Z.Q.D.Q.Q./.].].].oXXXXXoXoX!.!.t.7.3.[ Y Z i i i i i i i i i i i i i C C C A A Y Y Y E E [ [ } } 2.2.2.4.5.0.0.0.s.s.s.j.Q.].XXaXZXZXZXAXAXAXsXpXtXrXW.E.E.E.U.U.U.U.U.U.U.U.U.;X;X;X;X;X>X>X>X>X2X>X0X0X0X0X0X2X2X2X2X<X<X<X<X<X3X3X3X3X3X3X3X3X3X3X3X3X3X3X3X3X3X1X1X1X1X1X1X1XW.W.W.E.E.W.E.E.E.E.T.T.T.T.T.T.T.T.T.T.T.K.K.T.T.K.K.K.K.C.K.K.K.K.K.K.K.K.K.K.K.K.K.K.K.K.K.U.U.U.U.I.I.U.I.I.I.I.I.I.;X;X=XI.;X0X0X-X=X-X-X-X-X-X=X=X=XI.I.L.L.L.H.H.G.G.G.G.B.V.B.N.N.N.N.N.N.M.z.z.z.z.j.j.s.0.0.0.0.0.8.8.8.8.8.8.8.9.9.9.a.s.f.f.k.k.l.l.M.N.V.V.B.B.B.B.B.B.B.B.B.B.B.B.N.M.M.l.d.a.>.:.:.-.&.&.O.X...` ` ` _ _ H H H H v v f f f < < < , , , , , , , , , , , , , , , , , , < < < < < < < < < < < < < < < < < < < < < f f < < < < f f f f f f f f f f f f f f f f f f f f f f f f f f f f f f f < f f f f < f f f < f j H H H j f ",
"k 7 7 7 7 7 7 7 7 7 7 7 7 7 7 7 7 7 5 5 5 5 5 5 5 5 5 5 5 5 5 5 - - 5 5 5 - - - 5 5 5 - - - - - 4 4 5 5 4 4 - - 4 - 4 4 5 5 5 5 3 3 - 8 - 3 4 - - 8 8 8 8 6 6 k j N P U U ' ' @.@.@.;.,.,.,.q.q.g.g.g.l.x.z.l.l.z.x.Z.x.D.D.Q.D./.].!.].oXoXoXoXoX!.OXt.7.3.[ Y C i i i i y i i y i i i i i i C C A A A Y Y E E E [ [ } o.o.2.4.5.5.0.0.0.s.s.j.Q.Q.].aXVXZXZXZXAXAXdXpXpXtX`.W.E.U.U.U.U.U.U.U.U.U.U.U.;X;X;X;X;X;X>X>X>X>X>X>X0X0X0X0X2X2X2X2X<X<X<X<X<X<X2X2X3X3X3X3X3X3X3X3X3X3X3X3X3X3X3X3X3X3X1X1X1X1X1X<XW.E.E.E.E.E.E.E.E.E.T.T.T.T.T.T.T.K.K.K.K.K.K.K.K.K.K.K.K.K.K.K.K.K.K.U.U.U.U.U.U.U.I.I.I.;X;X;X;X;X;X;X=X;X=X;X;X;XI.-XqXqX:XI.=X=X=X=X=XI.I.I.L.L.H.H.H.G.G.G.G.B.B.B.V.V.M.M.N.N.N.z.z.z.z.j.j.s.s.0.0.0.0.0.0.0.8.8.8.8.8.9.9.a.s.f.f.k.k.l.l.M.M.V.G.G.G.B.B.B.B.B.B.B.B.B.B.B.N.M.l.l.d.a.>.:.-.&.&.&.O.O.X.` ` _ _ H H H H H v v f f f < < < < , , , , , , , , , , , , , , , , < < < < < < < < < < < < < < < < < < < f < < < f f f f < < f f f f f f f f f f f f f f f f f f f f f f f f f f f f f f < f f f f f f f f f f f v H H H H j ",
"k 7 7 7 7 7 7 7 7 7 7 7 7 7 7 7 7 5 5 5 7 5 5 5 5 5 5 5 5 5 7 7 5 5 5 5 5 5 5 - 5 5 5 5 - - - - 4 5 5 5 - - - - 4 - - - 5 5 5 5 - - - - 8 8 - - - 8 8 8 8 6 6 k k N U U U ' ' ' @.@.;.;.,.,.w.q.q.g.g.g.l.l.z.z.z.z.z.x.x.Q.Q.Q.D./.].].!.oXoXoXoXoX!.m.t.7.1.E Z C i i i y y y y y i i i i i i i C C A A Y Y Y E E [ [ } } 2.2.2.4.5.5.0.0.s.s.j.x.Q.].pXVXZXZXZXAXAXdXaXpXtXrXW.E.U.U.U.I.I.U.U.U.U.U.U.;X;X;X;X-X>X>X>X>X>X>X>X6X6X6X6X6X2X2X2X2X2X<X<X<X<X<X<X2X2X2X2X2X2X2X3X3X3X3X3X3X3X3X3X3X3X3X3X1X<X1X<X<X<X<X<X<XE.E.E.E.E.E.E.E.E.E.E.U.U.U.U.U.U.U.K.U.U.U.U.U.U.U.U.U.U.U.U.U.U.U.I.I.;X;X;X;X=X-X-X-X-X-X-X-X-X-X-X-X=X=X-X-X=X=XI.I.I.I.L.L.L.H.H.H.H.G.G.G.G.G.G.B.V.V.U.U.F.M.N.N.z.z.z.z.j.s.s.s.0.0.0.8.0.0.0.8.8.8.8.0.0.s.s.s.f.k.k.l.M.M.N.N.N.V.G.H.G.B.B.B.B.B.B.B.B.B.B.M.M.l.k.d.a.9.:.:.-.*.&.O.O.X.` ` _ _ H H H H v v x f f < < < , , , , , , , , , , , , , , , , , < < < < < < < < < < < < < < < < < < < < < < < < < f f f f f f f f f f f f f f f f f f f f f f f f f f f f f f f f f f f f < f < < < f f f f f f j H H _ _ H j ",
"7 7 7 7 7 7 7 7 7 7 7 7 7 7 7 7 7 7 5 5 7 5 5 5 5 5 5 5 5 7 ! ! s 5 5 5 5 5 - 5 5 5 5 5 5 5 5 5 5 5 5 5 5 5 - - 4 5 3 4 5 5 5 5 - - 8 8 8 8 8 - - 8 8 8 8 8 6 6 k B B U P U ' ' ' @.@.;.;.,.,.w.q.q.g.g.g.g.l.x.l.l.z.z.x.x.v.m.Q.D./.!.!.!.oXoXoXoX!.!.t.t.3.} E Z i i i i y y y y y i i i i i i C i C A A A Y Y Y E [ [ } 1.2.2.2.4.4.5.0.0.0.s.s.j.Q.].XXaXZXZXZXAXAXAXdXaXpXtXW.E.U.K.I.I.I.I.I.U.U.U.U.U.;X;X-X-X;X;X>X>X>X>X>X6X6X6X6X6X6X6X2X2X2X2X<X<X<X<X<X<X<X<X<X<X2X2X2X2X2X2X2X2X2X2X2X2X2X2X2X2X2X2X2X2X2X<X<X<X<X<X<X<X<X<X<X<XU.U.U.U.U.U.U.U.U.U.U.U.U.U.U.U.U.U.U.I.;X;X;X;X;X;X;X-X-X-X-X-X-X-X-X-X-X-X-X-X=X=X=X=XI.I.I.I.I.L.L.H.H.H.H.H.G.G.G.G.G.G.G.G.G.G.J.N.J.U.U.F.z.z.z.z.z.j.j.s.s.0.0.0.0.0.8.8.5.8.8.8.8.0.s.s.f.f.f.k.l.l.M.M.N.B.B.B.B.B.G.G.B.B.B.B.B.B.B.B.B.M.M.l.k.d.a.>.:.:.-.-.&.O.O.X...` _ _ H H H H v x f < < < < < , , , , , , , , , , , , , , , , < , < < < < < < < < < < < < < < < < < < < < < < < f f f f < f f < f f f f f f f f f f f f f f f f f f f f f f f f f f f f f f < f < < < < < f f f f j H _ ` _ H j ",
"7 7 k 7 7 7 7 7 7 7 7 7 7 7 7 q 7 7 7 7 7 5 5 5 5 5 5 5 8 5 s s 7 5 5 5 5 5 5 5 0 5 5 5 5 5 5 5 5 5 5 5 5 5 5 - 3 3 5 5 5 5 5 5 5 - 5 8 5 5 - - 8 - - 5 8 5 5 7 7 k B B P U U ' ' $.@.@.;.;.,.,.w.q.w.g.g.g.g.g.l.x.z.l.x.x.x.v.v.D.v.m.!.!.!.oXoXoXoX!.!.t.t.3.} E Z C i i y y y y y y i i i i i C C C C C A A Y Y Y E E [ [ } 2.2.2.4.4.5.0.0.0.s.s.j.m.Q.].aXVXZXZXZXAXAXdXaXpXtX`.W.T.K.K.J.I.I.I.I.I.I.I.I.I.;X;X;X;X;X;X>X>X>X>X>X6X6X6X6X6X6X6X>X>X>X2X2X2X<X;X;X;X<X<X<X<X<X<X<X2X2X2X2X2X2X2X2X2X2X2X2X2X2X2X2X2X2X2X2X2X2X>X;X;X;X;X;X;X;X;X;X;X;X;X;X;X;X;X;X;X;X;X;X;X;X-X-X-X-X-X-X-X-X-X:X-X-X-X-X-X-X-X-X=X=X=X=XI.I.I.I.I.I.L.H.H.H.G.G.G.G.G.G.G.G.G.G.G.G.G.G.V.V.N.N.F.F.N.z.z.z.z.j.s.s.e.0.0.0.0.0.6.5.0.8.0.0.0.0.s.s.f.f.k.l.l.M.M.N.N.B.B.B.B.B.B.B.B.B.B.B.B.B.B.B.M.M.M.l.d.d.a.>.:.:.-.-.&.O.O.X...` _ _ H H H v v v f < < < < < < , , , , , , , , , < < < < , < < < < < < < < < < < < < < < < < < < < < f < < f f f f f f f f f f f f f f f x f f f f f f f f f f f f f f f f f f f f f f f < < f f < < < < f f f f f j H { { { H j ",
"7 k k k k k k k 7 k 7 7 7 7 7 q 7 7 7 7 7 7 5 5 5 5 5 5 5 5 5 7 5 5 5 5 5 5 5 5 5 5 5 5 5 5 5 5 5 5 5 5 5 5 5 5 5 5 8 5 5 5 8 8 5 5 5 8 8 8 5 5 5 8 - 8 - 5 5 5 7 k k B N P U ' ' ' @.@.@.;.;.,.,.w.w.q.g.g.g.g.g.l.l.l.l.x.x.x.v.v.D.v.m.!.!.!.oXoXoX!.!.OXt.t.3.} Y Z i i i i y y t t y y i i i i i i C C C A A Z Y Y E [ [ [ } 1.2.2.2.4.5.5.0.0.0.s.j.x.m.].XXaXAXZXZXAXAXAXdXpXtX`.W.T.K.K.J.J.J.J.J.I.I.I.I.I.I.;X;X;X;X;X>X>X>X>X>X>X>X6X6X6X6X6X>X>X>X>X>X>X>X;X;X<X;X;X;X;X;X;X;X;X;X<X<X<X<X<X2X2X2X2X2X2X2X2X2X2X2X2X2X2X2X>X2X2X;X>X;X;X;X;X;X;X;X;X;X;X;X;X-X;X;X;X-X-X-X-X-X-X-X-X-X-X-X-X-X-X=X=X=X=X=XI.I.I.I.I.L.L.H.H.H.H.H.G.G.G.G.G.G.G.G.G.G.G.G.G.B.B.V.V.V.V.N.M.z.z.z.z.z.j.s.s.0.0.0.0.0.6.6.0.6.0.0.0.0.0.0.s.f.f.k.k.l.l.M.N.N.N.B.B.B.B.B.B.B.B.B.B.B.B.B.B.B.M.M.l.k.d.a.a.>.:.:.-.-.&.O.O.O...` _ H H H H v v v f < < < < < , , , , , , , , , , < < < < < < < < < < < < < < < < < < < < < < < < < < < f f f f f f f f f f f f f f f f f f f f f f f f f f f f f f f f f f f f f f f f f f f f f f f < f < f f f f f f H H _ H H f ",
"7 k k k k k k k z z 7 7 7 7 7 7 7 7 7 7 7 5 7 7 5 7 7 5 5 5 5 5 5 5 5 5 5 5 5 5 5 5 5 5 5 5 5 5 5 5 5 5 5 5 5 5 8 5 5 5 5 8 5 5 8 8 8 8 8 8 4 4 5 8 - - 4 8 8 8 6 6 k k B U P U ' '  .@.@.@.;.;.,.,.w.q.q.g.g.g.g.g.g.g.g.h.x.x.x.v.v.m.m.m.!.!.!.!.!.!.!.!.m.t.7.3.[ Y Z C i i i y y t t y i i i i i i i i C C A A Y Y Y E E [ [ } } 2.2.2.4.5.5.0.0.s.s.s.j.m.Q.].aXVXZXZXZXAXAXdXaXpXtX`.W.E.K.J.J.J.J.J.I.I.I.I.I.I.;X;X;X;X;X>X2X0X>X:X>X>X>X>X6X6X6X6X6X>X>X>X>X>X>X;X;X;X;X;X;X;X;X;XU.U.U.U.;X;X;X;X;X;X;X;X;X>X>X>X;X;X>X>X>X;XwXvX0X;X>X>X>X;X;X;X;X;X>X>X:X>X-X>X;X;X-X-X-X-X-X-X-X-X-X-X-X-X=X=XI.I.I.L.L.L.L.H.H.H.H.G.G.G.G.G.G.G.G.G.G.G.B.G.B.B.G.G.G.G.J.V.V.N.N.N.N.z.z.j.j.j.s.s.e.0.0.0.0.0.6.6.0.0.0.0.0.0.0.s.s.f.k.k.l.l.M.M.M.N.N.B.B.B.B.B.B.B.B.B.B.B.B.B.B.N.M.M.l.k.d.d.a.>.:.:.-.-.&.O.O.X...` _ _ H H H v v f f < , , < , , , , , , , , , , , , < < < < < < < < < < < < < < < < < < < < < < < f f < < f f f f f x f f f f f f f f f f f f f f f f f f f f f f f f f f f f f f f f f f f f f f f f f f < < f f f f f f f v v v f f ",
"k k k k k k k k z k q 7 q q k 7 7 7 7 7 7 7 7 7 7 7 7 7 7 5 5 5 5 5 5 5 5 5 5 5 5 5 5 5 5 5 5 5 5 5 5 5 5 5 5 5 5 5 5 5 5 8 8 8 5 8 8 8 8 5 5 5 5 8 8 - 3 8 8 8 8 6 6 k B N P U U ' '  .@.@.@.;.;.,.-.w.q.q.g.g.g.g.g.g.g.g.h.h.x.x.v.v.m.m.m.!.!.!.!.!.!.!.!.v.t.7.o.[ Y Z i i i i y y y y y y i i i i i i i C C A A A Y Y E E E [ } } 2.2.2.4.4.6.0.0.0.0.s.s.x.Q.].XXaXVXZXZXZXAXAXaXpXtX`.W.E.K.K.J.G.H.J.J.J.L.I.I.I.I.I.;X;X;XgXbXwX-X:X>X>X>X>X>X>X>X6X6X>X>X>X>X>X>X>X>X>X;X;X;X;X;X;XU.U.U.U.U.U.U.U.U.U.U.;X;X;X;XU.;X;X;X;XU.3XvX2X;X;X;X;X;X;X;X;X;X;X;X-X-X-X-X-X;X;X;X;X;X;X;X=XI.I.I.I.L.L.L.H.H.H.H.H.H.G.G.G.G.G.G.G.G.G.G.G.G.G.G.G.G.B.B.B.B.J.J.J.J.N.N.N.N.N.z.z.z.j.s.s.s.e.e.0.0.0.0.0.0.0.0.0.0.0.0.0.s.s.f.f.k.k.l.M.M.N.N.N.B.B.B.B.B.B.B.B.B.B.B.B.B.B.B.N.M.M.l.k.d.a.a.>.:.:.-.-.&.&.O.X.` ` _ _ H H H v j f f < , < < < < , , , , , , , , , , , < < < < < < < < < < < < < < < < < < < < < f f f f < < f f f f f f f f f f f f f f f f f x f f f f f f f f f f f f f f f f f f f f f f f f f f f f f f f f f f f f f f f < f f f f ",
"7 k k k k k z z z B k z z q 7 7 7 7 7 7 7 7 7 7 7 7 7 7 7 7 5 5 5 5 5 5 5 5 5 5 5 5 5 5 5 5 5 5 5 5 5 5 5 5 5 5 5 5 5 8 5 5 8 8 5 5 8 5 5 5 5 5 5 8 8 8 5 8 8 5 8 6 6 k k B N P U ' ' '  .#.@.#.;.;.-.-.w.q.q.g.g.g.g.g.g.g.g.h.h.x.x.v.v.v.v.m.!.!.!.!.!.!.!.!.m.t.7.o.] Y C i i i i i y y y y i i i i i i i i C C C A A Y Y E E E [ [ 1.1.2.2.2.4.4.6.0.0.0.0.s.j.Q.Q.].aXVXAXZXZXAXVXdXaXpXtX`.W.E.K.K.G.G.H.G.H.H.H.L.L.L.I.I.U.bXIXgX;X;X:X:X:X>X>X>X>X>X>X6X6X6X6X6X>X>X>X>X>X>X;X;X;X;X;X;X;X;XI.U.I.I.I.I.I.U.U.U.U.U.U.U.U.I.I.U.;XU.U.U.U.U.U.I.I.I.I.I.I.I.I.I.I.I.I.I.I.L.L.L.L.L.L.H.H.H.H.H.H.G.G.G.G.G.G.G.G.G.G.G.G.G.G.G.G.G.G.G.G.G.G.G.G.G.V.V.N.N.N.N.N.z.z.z.z.j.j.s.s.e.e.0.0.0.0.0.0.0.0.0.0.0.0.0.0.s.s.f.k.k.z.z.M.M.N.N.B.B.B.B.B.B.B.B.B.B.B.B.B.V.B.N.M.M.l.k.k.d.a.a.>.:.:.-.-.&.&.O...` ` _ _ H H H v v f f < < , m Y < , = = , , , , , , , , , < < < < < < < < < < < < < < < < < < < < < < f f f f f f f f f x f f f f f f f f f f f x x f x f f x x f f f f f f f f f f f f f f f f f f f f f f f f f f f f f f f f < < < < f f ",
"k k k k k k B k k k k z z 7 k 7 7 7 7 7 7 7 7 7 7 7 7 7 7 7 7 7 7 7 7 7 5 7 5 5 5 5 5 5 7 7 7 7 7 7 5 5 5 5 5 5 5 5 5 5 5 8 8 8 5 8 5 5 5 8 5 5 8 8 8 8 5 8 5 5 8 6 6 7 k M N P P U ' ' ' #.@.@.#.;.,.,.,.w.q.q.g.g.g.g.g.g.g.g.h.h.x.x.c.v.v.v.v.!.!.!.!.!.!.!.OXt.t.7.@.] Y C u y y y y y y y y i i i i i i i i i C C A A Y Y Y E E [ [ [ 1.2.2.2.2.4.5.0.0.0.0.s.j.n.Q.].pXaXVXZXZXZXAXAXaXaXpXtX`.W.T.K.K.G.G.H.G.H.H.H.I.I.I.I.3XgX2XI.;X;X-X-X:X:X:X>X>X>X>X>X6X6X6X6X>X>X>X>X>X>X>X>X>X>X;X;X;X;X;X;X;XI.I.I.I.I.I.U.U.U.U.U.U.I.J.J.I.I.J.I.I.I.I.I.I.L.L.L.L.L.L.I.L.H.H.H.H.H.H.H.H.H.G.G.G.G.G.G.G.G.G.G.G.G.G.G.G.G.G.G.G.G.G.G.G.G.G.G.G.G.J.J.J.V.N.N.N.z.z.z.z.z.z.j.s.s.e.e.e.e.0.0.0.0.0.0.0.0.0.0.0.0.s.s.f.f.z.z.z.z.M.M.N.N.B.B.B.B.B.B.B.B.B.B.B.B.B.B.N.N.M.l.l.k.d.d.a.a.>.:.:.:.&.&.&.O...` _ _ H H H H v j f f < < , , x Z , = < , , , , , , , , , , < < < < < < < < < < < < < < < < < < f < < f f f f f f f f f f x x f f x x f f f x f x v v x f x f x f f f f f f f f f f f f f f f f f f f f f f f f f f f f f f f f f f f < < < f ",
"7 k k B k B B B k k k k k z q q 7 7 7 7 7 7 7 7 7 7 7 7 7 7 7 7 7 7 7 7 7 7 7 7 7 7 7 7 7 7 7 7 7 7 7 5 5 5 5 5 5 5 5 8 8 8 7 7 5 7 5 8 8 8 8 8 8 8 8 8 8 8 5 8 8 6 6 6 6 k k N P U U ' '  .@.@.@.@.;.,.,.w.w.q.q.g.g.g.g.g.g.g.h.g.g.x.x.c.v.v.v.v.v.!.!.!.!.!.!.OXt.t.7.@.E Z C u y y i y t t y i i t r y i C i i C C C C A A Y Y E E [ [ [ 1.1.2.2.2.4.4.5.0.0.e.s.j.j.Q.Q.].aXVXZXZXZXZXVXVXaXpXtX`.W.E.K.J.G.G.G.G.G.H.H.H.L.H.J.U.I.I.;X;X-X-X-X-X:X:X:X:X>X>X>X>X>X>X>X>X>X>X>X>X>X>X>X>X>X>X>X;X;X-X-X-X;X;X;XI.I.I.I.I.2X3X<XI.I.I.I.I.I.I.H.H.H.H.H.H.H.H.H.H.H.H.H.H.H.H.H.H.H.G.G.G.G.G.H.H.H.G.G.G.G.G.G.G.G.G.G.G.G.G.G.G.G.G.G.G.G.G.J.J.J.F.F.N.N.z.z.z.z.z.z.j.j.s.e.e.e.0.0.0.0.0.0.0.0.0.0.0.0.0.s.s.s.f.j.z.k.z.z.M.M.N.N.B.B.B.B.B.B.B.B.B.B.B.B.B.B.N.M.M.l.k.k.d.a.a.>.>.:.:.-.&.&.O.O...` _ _ H H H H v j f f < < < , , < u , $ , u = , , , , , , , , < , < < < < < < < < < < < < < < < < < < < f f f f f f f f f f f f f f f f f f f f f x v v x f f f x f f f f f f f x f f f f f f f f f f f f f f f f f f f f f f f f f f f f f f f ",
"k k k k B k k k k k k k k z q q 7 7 7 7 7 7 7 7 7 7 7 7 7 7 7 7 7 7 7 7 7 7 7 7 7 7 7 7 7 7 7 7 7 7 7 7 5 5 5 5 7 5 5 7 8 7 q 7 8 8 7 8 8 8 8 5 5 5 8 8 8 8 5 8 8 8 6 6 6 k k N N P U U ' ' @.@.@.@.;.;.,.-.w.w.q.q.g.g.g.g.g.g.g.g.g.g.x.x.h.v.v.v.m.v.v.!.!.!.!.!.m.t.t.7.| T Z C u y y y t t y t i t u.u.i i i i i C C C A A A Y Y E E E [ [ [ } 1.2.2.2.4.5.6.0.0.e.s.j.x.Q.].XXfXAXZXZXZXAXVXaXaXpXtX`.W.T.K.K.G.V.G.G.G.G.H.H.H.H.H.L.I.I.;X;X-X-X-X-X:X:X:X:X>X:X>X>X>X>X>X>X>X>X>X>X>X>X>X>X:X:X:X:X:X:X-X-X-X;X;XI.I.I.;X>X;XI.I.I.I.I.I.I.L.L.L.L.L.L.H.H.H.H.H.H.H.H.H.H.H.H.H.H.G.G.H.I.I.I.H.H.G.G.G.G.G.G.G.G.G.G.G.G.G.G.G.G.G.G.J.J.F.F.F.N.z.z.z.z.z.j.j.j.s.s.s.e.e.e.0.0.0.0.0.0.0.0.0.0.0.0.s.s.s.f.f.z.z.z.z.M.M.M.N.N.B.B.B.B.B.B.B.B.B.B.B.B.B.B.N.M.l.l.k.d.d.a.>.>.:.:.-.-.&.&.O.O...` _ H H H H v v j f f < < < , , , , = , u , , < , , , , , , , , < , < < < < < < < < < < < < < < < < < f f f x f f f f f x x x x x x x x x f f f x v v v v v v x x x x f x f f f f x f f x f f f f f f f f f f f f f f f f f f f f f f f f f f f f ",
"k k B k B B B k k k k k k k q q k 7 7 7 7 7 7 7 7 7 7 7 7 7 7 7 7 7 7 7 7 7 7 7 7 7 7 7 7 7 7 7 7 7 7 7 7 7 7 7 7 7 7 7 5 7 q 8 8 8 5 8 8 8 5 8 5 5 5 5 8 8 8 5 5 8 6 6 6 6 k M N B U U U ' '  .@.@.@.;.;.,.-.w.q.q.q.q.g.g.g.g.g.g.g.g.g.g.h.h.h.v.v.v.v.v.!.!.!.!.v.v.t.t.7.} T Y C i i i t t y y t t BXjXi t i i i i i i A A A Y Y Y Y E E E E [ [ } 2.2.2.4.4.6.0.0.0.e.s.j.m.m.].pXVXZXZXZXZXAXVXaXaXpX'.`.W.T.K.K.J.V.V.G.G.H.H.H.H.H.L.L.I.I.=X=X=X=X-X-X:X:X:X:X:X:X:X>X:X>X>X>X>X:X>X>X:X:X:X:X:X:X:X:X:X:X:X-X-X;X=X=X=XI.I.I.=X;XI.I.;XI.I.L.L.L.L.L.L.L.L.L.L.L.L.L.L.H.H.H.H.H.H.H.J.U.U.U.L.H.G.H.H.G.G.G.H.H.H.G.G.G.G.G.J.J.J.F.F.F.N.N.z.z.z.j.j.j.j.s.s.e.e.e.e.e.e.e.0.0.0.0.0.0.0.0.0.0.s.s.s.f.j.z.z.z.z.z.M.M.N.N.N.B.B.B.B.B.B.B.B.B.B.B.B.N.N.M.M.l.k.k.d.a.9.>.:.:.:.-.&.&.O.X.....` _ H H H H v v f f f < < < , , , , < , , m < , < , , , , , , , , < < < < < < < < < < < < < < < < < f f x x x x x x x x x x x x x x x x x x x x v v v v v x v v v v v j x f f f f f x f f f f f f f f f f f f f f f f f f f f f f f f f f f f f f f ",
"k k B B B B k B k k k k k k z q k k 7 7 7 7 7 7 7 7 7 7 7 7 7 7 7 7 7 7 7 7 7 7 7 7 7 7 7 7 7 7 7 7 7 7 7 7 7 7 7 7 7 8 8 6 8 8 8 7 8 8 6 6 5 5 5 5 5 5 8 8 8 5 5 7 7 7 6 6 k k N N P P U ' '  .@.@.@.#.;.,.,.,.w.q.q.q.q.g.g.g.g.g.q.g.q.g.w.h.h.h.v.v.v.v.m.OXOX!.!.m.m.t.t.3.} ] Y C i i y t t i y t ( ) t i i i i i y i A C A A Y Y Y Y Y E E E [ [ 1.1.2.2.2.4.6.6.0.0.0.s.j.j.m.Q.].aXVXAXZXZXAXAXVXaXpXpX'.`.W.T.K.J.V.V.B.B.G.G.G.H.H.H.H.L.L.I.I.I.I.=X-X-X-X-X-X-X:X:X:X:X:X:X:X:X:X:X:X:X:X-X:X:X-X-X:X:X:X:X-X-X-X-X=X=X=X=X=X=XI.=X-X;XI.I.I.I.I.I.I.I.I.L.L.L.L.L.L.L.H.H.H.H.H.H.L.U.U.I.L.H.H.I.U.L.G.G.G.G.G.G.G.J.J.J.F.N.N.N.z.z.z.z.z.j.j.s.s.s.e.e.e.e.e.0.0.0.0.0.0.0.0.0.0.0.0.0.0.s.s.f.f.j.k.z.z.z.M.M.M.N.N.N.B.B.B.B.B.B.B.B.B.B.B.N.N.M.M.l.k.k.d.a.a.>.:.:.-.-.&.&.&.O.X...` ` _ H H H H v v f f < < < , , , , , u , = , , < < , , , , , , , , , < < < < < < < < < < < < < < < < < f x x x x x x x x x v v v v v v v v v x v v v v v v x x v v v v v j f f f f f f x x x f f f f f x f f f f f f f f f f f f f f f f f f f f f f f ",
"k B B B k k k k k k k k k k k k k k k k 7 7 7 7 7 7 7 7 7 7 7 7 7 7 7 7 7 7 7 7 7 7 7 7 7 7 7 7 7 7 7 7 7 7 7 6 6 7 q 8 8 ~ / 6 7 7 6 8 8 8 5 7 7 8 8 8 8 5 5 7 5 7 6 6 6 6 6 k k N N U U U ' '  .@.@.@.#.;.,.,.w.w.w.q.q.q.g.g.q.q.g.g.g.g.g.g.g.h.h.v.v.v.m.m.m.v.v.m.m.v.t.t.3.} T Z C i i y t t i i t t i i t i i i i ( C i A A A Y A Y Y Y Y E E [ [ 1.1.2.2.2.2.4.6.0.0.0.s.s.j.n.m.].XXfXAXZXZXZXAXVXaXaXpXpX'.`.W.T.K.J.V.V.V.J.J.J.J.G.H.H.H.L.L.L.I.I.=X-X-X-X-X-X-X-X-X-X:X-X:X:X:X:X:X:X:X0XzX>X-X-X-X-X-X-X-X-X-X-X=X-X=X=X=X=X=X=X=X;X=XI.I.I.I.I.I.I.L.L.L.L.L.L.L.L.H.H.H.H.H.H.H.I.I.L.H.G.H.U.<XI.J.J.J.J.F.F.F.F.F.F.b.z.z.z.z.j.j.j.j.s.s.e.e.e.e.e.e.e.0.0.6.6.6.0.0.0.0.0.0.0.0.0.s.s.j.j.j.z.z.z.z.M.M.M.M.N.N.N.B.B.B.B.B.B.B.B.B.M.M.M.M.l.k.k.d.d.a.a.>.:.:.-.&.&.&.O.O.....` _ _ H H H v v f f f < < < < , , , , , , , < , , < , = , , , , , , , < < < < < < < < < < < < < < < < < < f x x x x x x x x v x x x v v v v x v v v v v v v j v v v v v v v v f x f f v f j x x x f f f f f f f f f f f f f f f x x x x x f f f f f f f f ",
"k B B B k B B k B k k B k k k k k k k k k 7 7 7 7 7 k 7 7 7 7 7 7 7 7 7 7 7 7 7 7 7 7 7 7 7 7 7 7 7 7 7 7 7 7 7 6 8 6 8 6 ^ ^ B 6 7 6 6 6 6 7 5 8 8 8 8 6 5 7 7 7 7 6 6 6 6 6 6 k M B N P U U ' '  .@.@.@.#.;.,.,.,.w.w.q.q.q.g.q.q.q.g.a.9.g.g.w.g.h.h.h.v.v.v.v.m.v.v.m.v.v.t.7.3.} T Y Z u y i t i i r t i t t i i i i i i i C u C Z C A A A Y Y E E E [ [ 1.1.2.2.2.4.6.6.0.0.0.s.j.j.m.Q.].pXaXAXZXZXZXVXVXaXaXpX X'.`.W.T.K.J.V.V.N.N.V.V.J.G.G.H.H.H.H.L.I.I.=X=X=X-X-X=X=X-X-X-X-X-X-X-X:X-X-XqXcX>X=X-X-X-X-X-X-X-X-X-X-X-X=X=X=XI.I.I.I.I.I.I.I.I.I.I.L.L.L.L.L.L.L.L.L.L.H.H.H.H.H.H.H.H.H.J.J.F.F.J.J.F.F.F.F.N.z.z.z.z.z.z.z.z.j.j.s.s.s.s.e.e.e.e.e.e.e.e.0.0.6.6.6.6.6.6.0.0.0.0.0.0.0.s.s.j.j.z.k.z.z.z.z.M.M.M.M.N.N.N.N.B.B.B.B.N.N.M.M.M.l.l.k.k.d.d.a.a.9.>.:.-.&.&.&.O.O.X...` ` _ _ H H H v v f f f < < < , , , , , , , $ 3.OXb $ = , , , , , , , , , < < < < < < < < < < < < < < < < < < x x x x x x x x x x v v v v v v v x v v v v v v v v n v v v v v v v f x f f v v j v f x f f j f f f f f f f f f f f f x f f x f f f f f f f f f ",
"k B B B k B B k B B k B B k k k k k k k k k k 7 k k k k 7 7 7 7 7 k k 7 7 7 7 k q 7 7 7 7 7 7 7 7 7 7 7 7 6 6 q 7 6 6 6 8 B ~ 6 6 6 6 6 6 6 6 7 7 6 8 8 7 7 7 7 7 6 6 6 7 6 6 6 k B M N P P U ' ' '  .@.@.@.;.;.,.,.,.w.w.q.q.q.q.q.9.q.g.9.9.q.q.w.w.w.h.h.h.v.v.t.t.v.v.v.v.t.t.7.3.} ] Y m u i i t i y y t t i i y y i t C u.BX3.A C C C A A A Y Y E E E E [ [ } 1.2.2.2.4.6.0.0.0.s.s.s.j.Q.].].fXaXAXZXZXZXAXVXaXaXpXpX'.`.W.T.K.J.J.N.N.N.N.V.J.J.G.G.G.H.H.L.L.J.J.I.;XI.I.=X=X=X=X=X-X-X-X-X-X-X-X=X-X-X=X=X-X-X-X-X-X-X=X=X=X=X=XI.I.I.I.I.I.L.I.L.L.L.J.J.J.L.J.J.J.J.H.J.J.J.J.J.J.J.J.J.F.F.F.b.z.b.b.z.z.z.z.z.z.j.j.j.j.j.j.j.j.j.e.e.e.e.e.e.e.6.6.6.6.6.6.6.6.6.6.6.6.0.0.0.0.0.0.0.s.s.f.f.j.z.k.z.z.z.z.l.M.M.M.N.N.N.N.N.N.N.M.M.M.l.l.l.k.k.d.d.a.a.>.>.:.:.-.&.&.&.O.O...` ` _ _ H H H H v f f f < < < , , , , , , , , = $ R OXb $ , , , , , , , , , < < < < < < < < < < < < < < < < < < < x x x x x x x v x v v v v v v v v v v v v v v v v v v v v f v v v v v v v x x v j x j v f f f j v x x f f f f f x x x x x x f f f f f f f f f f ",
"k B B B B B B B k B k B k k k k k k k k k k k k k k k k 7 7 7 k k k 7 7 7 k k k 7 7 7 7 7 7 7 7 7 7 7 7 7 6 6 6 6 6 q B q 6 8 6 7 6 6 6 6 6 6 7 7 7 6 6 6 6 7 7 6 6 6 6 6 7 7 7 7 k M M B U U U U ' '  .@.@.@.;.;.;.-.w.w.w.q.q.q.q.9.9.9.a.q.q.w.w.w.w.w.w.w.h.t.t.t.t.v.v.v.t.t.t.7.3.o.] Y Z C i i i y t ) ) t y i y i y u.IXIXjX3.y C C C Z Z Z Z Y Y Y E E E [ [ 1.2.2.2.4.4.6.0.0.0.0.s.s.x.Q.].].aXVXAXZXZXAXVXVXaXaXpX'.'.`.W.T.K.J.F.N.N.N.N.N.F.J.J.J.J.J.N.U.vX<XJ.I.I.I.I.=XI.=X=X=X=X=X=X=XI.=X=X=X=X=X=X=X-X=X=X=X=X=X:X-X=XI.I.I.I.L.L.L.L.J.J.J.J.J.F.F.F.F.F.J.J.F.F.F.F.F.F.F.F.b.b.b.b.z.z.j.j.j.j.j.j.j.j.j.j.j.j.e.e.e.e.e.e.e.e.6.6.6.6.6.6.6.6.6.6.6.6.6.6.0.0.0.0.0.0.0.0.0.s.s.f.f.z.z.k.k.z.l.l.l.M.M.M.M.M.N.M.M.M.M.l.l.k.k.k.k.d.d.a.a.>.>.:.:.-.-.&.&.&.O.....` ` _ _ H H H v v f < < < , , , , , , , , , , , , , $ , , , , , , , , , , , < < < < < < < < < < < < < < < < < < < f x x x x x x x v v v v v v v v v v v v v v v v v v v v v j j v v v v v v v j v v v v j v f f f v v v v v f f f f v v v v x x x f f f f f f f f f ",
"k k B B B B B B B B B k k k k k k k k k k k k k k k 7 7 7 7 k k 7 7 7 7 B B 7 7 7 7 7 7 7 7 7 7 7 7 7 7 7 6 6 7 6 8 8 6 8 6 p q p 6 6 6 6 6 6 6 6 6 6 6 6 6 6 6 6 7 7 7 6 6 6 6 7 7 k B N N P P U ' '  .' @.@.@.#.;.-.-.w.w.w.q.q.g.g.9.:.g.m.x.q.q.w.w.w.w.w.w.t.t.t.v.v.v.t.t.t.t.w.w.6.+.] Y Z C u u r i IXPX( + i i i * u.UXUXbX3.y i C C C C Z Z Z Y Y Y Y E E E [ } 1.2.2.2.4.6.6.0.0.e.e.s.j.m.m.].XXaXVXAXZXZXZXVXaXaXaXpX X'.`.W.Q.K.F.F.N.N.N.N.N.N.N.N.J.N.Y.bX3XJ.L.L.H.L.L.L.I.I.I.I.I.I.=XI.I.I.I.I.I.=X=X=X=XI.I.=X:X0X>X=XI.I.L.L.L.J.J.Y.F.F.F.F.F.F.F.F.F.F.F.F.F.b.b.b.b.b.b.b.b.b.z.j.j.b.n.j.j.j.j.j.j.e.e.e.e.e.e.e.e.e.e.6.6.6.6.6.6.6.6.6.6.6.6.6.6.6.6.6.0.0.0.0.0.0.e.s.s.s.f.f.k.k.k.k.l.z.l.z.l.M.M.M.M.M.M.M.M.l.l.k.k.k.d.d.a.a.a.>.>.:.>.:.&.&.&.&.O.O...` ` _ _ H H H v v x f < < , , , , , , , , , , , , = , < = = , < , , , , , , u < < < < < < < < < < < < < < < < < < < f x x x x x x v v v v v v v v v v v v v v v v v v v v v v v v v v v v v v v v v x x v v v x v j j v v v f f v v x x v v v x f x f f x f f f f f f f ",
"k B B B B B B B B B B B B B B k k k k k k k k k B B k k 7 7 k B 7 7 7 7 B B B k 7 7 7 7 7 7 7 7 7 7 7 7 q 6 7 7 7 7 q B 6 6 p p p 6 6 6 p p 6 6 p 6 6 6 6 6 6 6 6 6 6 6 7 6 6 7 7 6 k k M N N P U U ' ' '  .@.@.@.;.;.-.7.w.w.q.q.q.g.g.>.g.m.x.q.q.q.q.w.w.w.w.w.w.w.t.t.t.t.t.t.t.t.w.w.6.o.] T Z C C u i PXPX( r t y i r ( jXbXy.A i i C C C C C Z Z A A Y Y Y E E E [ [ 1.2.2.2.4.4.6.0.0.0.e.e.s.j.m.m.].].aXVXAXZXZXAXVXVXaXaXpXpX'.`.W.Q.T.Y.F.N.N.N.N.N.z.N.V.M.Y.F.N.J.J.J.J.H.H.L.L.L.L.L.L.L.I.I.L.I.I.I.I.I.I.I.L.L.=X>X0X>X=XJ.J.J.J.J.J.F.F.F.F.F.F.F.F.b.b.b.b.b.b.b.b.b.j.j.j.j.j.j.j.j.j.s.j.j.j.e.e.e.e.e.e.e.e.e.e.e.e.6.6.6.6.6.r.r.4.4.4.4.4.6.6.6.6.6.6.6.0.0.0.0.0.0.e.s.s.s.f.f.f.k.k.k.l.z.l.l.l.l.M.M.M.M.l.l.l.l.l.k.d.d.d.a.a.9.9.>.>.=.-.8.-.&.&.&.O.....` _ _ H H H H v j f f < < , , , , , , , , , , , , , * , , < < , < , = < , < < , < < , < < < < < < < < < < < < x f < < x x x x x x x v v v v v v v v v v v v v v v v v v v v v v v v v v v v v v v v v v v v v v v v v v v v v f j v v v v v v v x x f f f x x f x f f x f ",
"B B B B B B B B B B B B B B B k B B k k k k k k B B B B k k k B k k 7 B k B B k k q B k 7 7 k k k B B B k q B 6 6 6 6 p p 6 6 p q p q p p p p 6 6 6 6 6 6 6 6 6 6 6 6 6 7 6 6 p 7 6 k B M M B U U U U ' '  .@.@.@.@.;.-.,.w.w.w.q.q.g.g.9.9.g.g.9.q.q.q.w.w.w.w.w.w.w.w.w.t.t.t.t.t.w.w.w.q.6.o.{ T Y Z m y ( ( i i t t t i y i ( u i i i i C C i C C C C A A Y Y Y E E E [ [ } 1.2.2.2.4.4.6.0.0.0.0.0.s.j.m.m.].].aXVXAXZXZXZXVXaXaXaXaXpX'.`.W.R.T.Y.F.N.N.z.z.z.N.z.z.N.z.N.N.F.F.J.J.J.J.J.J.J.F.J.J.J.J.J.J.J.J.J.J.J.J.J.L.=X:X-XJ.F.F.F.F.F.F.F.F.F.F.Y.Y.Y.b.b.b.b.z.j.b.n.j.j.j.j.j.j.j.s.e.e.e.e.e.e.e.e.e.e.e.e.6.6.6.6.6.6.6.6.6.6.4.4.4.4.4.4.4.4.4.4.6.6.6.6.6.6.6.0.0.0.0.0.0.s.s.s.f.f.f.k.k.k.k.z.z.z.l.l.l.l.l.l.l.k.k.k.d.d.a.a.a.>.>.>.:.:.:.&.&.&.O.O.O.O...` _ _ H H H H v v f f < < < , , , , , , , , , , , , , , , , , , , , , , , < < < x , < < < x < < < < < < < < < < < x x f f x x x x x x x v v v v v v v v v v v v v v v v v v v v v v v v v v v v v v v v v v v v v v v v v v v v v v v v v v v v v v x x f j f x x x x f f f f ",
"B B B B B B B B B B B B B B B B B B k B k B k B B B B B k k B B B k B B k B B B B B B B 7 k B B B B B B k B k M 6 6 6 q p 6 p M B B B M p M q q 6 6 6 6 p 6 p 6 6 6 M M q k M M 7 B B M M M N B U U U U ' '  .@.@.@.#.;.,.,.w.w.q.q.q.g.q.9.9.9.9.9.9.9.w.w.w.w.w.w.w.w.w.w.w.t.t.t.w.w.w.w.7.6.o.{ T Y Y u & u ( ( i t t t t t t t u i i i i i i i C C C C Z A Y Y Y Y E E E [ [ } 1.2.2.2.4.6.6.0.0.0.0.s.s.j.m.m.].].fXVXAXAXAXAXAXVXaXaXpXpX'.`.`.R.Q.K.Z.N.N.z.z.z.z.z.z.z.z.z.z.z.z.N.N.F.F.F.F.F.F.F.F.F.F.F.F.F.F.F.F.F.F.F.F.F.F.F.F.F.F.b.b.b.b.b.b.b.Y.Y.b.j.b.b.j.j.j.j.j.j.e.e.e.e.e.e.e.e.e.e.e.e.e.e.6.6.6.6.6.6.4.4.4.4.r.4.4.4.4.4.3.4.4.4.4.4.4.4.6.6.6.6.6.6.0.0.0.0.0.0.0.s.s.f.f.f.f.k.k.k.k.k.k.k.k.k.k.k.k.k.k.d.d.d.d.a.9.9.>.>.:.:.-.-.&.&.*.O...O...O...H H H H H v v f f f < < , , , , , , , , , , , , , , , , , , , , , , , , < , , $ , u < , < x < < < < < < < < < < f x x f f x x x x x x x v v v v v v v v v v v v v v v v v v v v H v v v v v v v v v v v v v v v v v v v v v v v v v v v v v v v v v x v v v v x x x x x f f x ",
"B B B B B B B B B B B B B B B B B B B B B B B B B B B B B B B B B B B B B B B B k 7 k 7 7 7 B k B 7 k q 7 7 7 6 6 6 B ~ B 6 M B 6 6 6 q p p p k k 6 6 6 6 6 p 6 6 6 p 6 k p p p 6 k k 6 k M M N N U U U U ' '  .@.@.@.;.;.,.7.w.w.q.q.q.g.q.9.9.9.9.9.8.8.w.w.w.w.w.w.w.w.w.w.w.t.w.w.w.w.w.w.7.*.o.{ T T m u ( 3.( C y t t t t t i i i i i i i i i i i i C C Z Z Z A Y Y Y E E E [ [ 1.1.2.2.4.4.6.6.0.0.0.0.s.s.j.m.Q.].].fXaXVXAXZXAXAXVXVXaXpXpX'.].`.W.Q.Q.K.N.N.z.z.z.z.z.z.z.f.E.1XF.z.z.z.F.F.F.b.b.b.b.b.b.b.b.b.b.b.b.b.b.b.b.b.b.b.b.b.n.n.n.n.n.j.j.n.n.j.e.j.j.j.e.e.e.e.e.e.e.e.e.e.e.6.6.6.6.6.6.6.6.6.4.4.4.4.4.4.4.4.4.3.3.3.3.3.3.3.3.3.3.4.4.4.4.6.6.6.6.0.0.0.0.0.0.0.0.s.s.s.f.f.f.f.k.k.k.k.k.k.k.k.f.k.f.f.d.d.a.a.a.9.9.>.>.:.8.:.-.-.&.&.&.&.......O.x.e._ H H v j f f < < < , , , , , , , , , , , , , , , , , , , , , , , , , , , , %.W 9 < u < < < < < < < < < < < < < f f x x x x x x x x x v x v v v v v v v v v v v v v v v v v v v H v v v v v v v v v v v v v v v v v v v v v v v v v v v v v v v v v v v v v v x x x x x f f f ",
"B B B B B B B B B B B B B B B B B B B B B B B B B B B B B B B B B B B B B B B B B B q k k k B B B 7 B B q k 7 6 6 6 B V B 6 q q 6 6 p q B p B M k 6 6 6 p p p 6 6 6 6 6 6 p k p 6 M k k M M M M B N P P U U ' '  .@.@.#.;.;.,.,.w.w.q.q.q.q.9.9.9.9.9.8.:.:.w.w.w.w.w.w.w.w.w.w.w.w.t.w.w.w.w.w.7.*.X.{ ] Y Z ( ( ( i y t i y i y i i i i i i i i i i i i i C C Z Z A A Y Y Y Y E E E [ [ } 2.2.2.2.4.6.6.0.0.0.e.e.s.j.m.m.m.].fXaXVXAXAXAXAXVXaXaXaXpX'.].].].Q.Q.Q.N.N.F.N.z.z.z.9.gXbXY.j.z.z.z.z.z.z.z.z.z.z.z.z.z.j.z.z.j.z.z.z.j.j.j.j.j.j.j.j.j.j.j.e.e.e.e.e.j.j.6.e.e.e.e.e.6.6.6.0.e.6.6.6.6.4.4.4.4.4.4.4.3.3.4.3.3.3.3.3.3.2.2.2.2.2.2.2.2.3.3.4.4.4.4.6.6.6.6.6.0.0.0.0.0.0.0.s.s.s.f.f.f.f.f.f.f.f.f.f.f.f.f.d.d.a.a.a.9.>.>.:.:.:.:.:.-.-.&.&.O.O.O...` ` ` 6.vXgXo.j H f f < < < , , , , , , , , , , , , , , , , , , , , , , , , = , , , $ I FXOX< , < u < < < < < < < < < < < < f f x x x x x x x x v v v v v v v v v v v v v v v H v v v v v H H v v v v v v v v v v v v v v H v v v v v v v v v v v v v v v v v v v v v v v x v v v v x x f ",
"B B B B B B B B B B B B B B B B B B B B B B B B B B B B B B B B B B B B B B B B B B B B B k B B B k k B B B k k 6 M M M 6 M B B M p B B B B B B M M M M M M M 6 6 6 k 6 6 6 6 M p 6 p p k p M M N N N P P U U '  . .@.@.#.;.;.,.,.-.w.q.q.q.9.9.9.9.9.9.:.:.8.w.8.w.w.w.w.w.w.w.w.w.w.w.w.w.w.w.w.7.+.o.X.{ T Y A C i y t t i i i t y i t i i i i i i i i i i C C C Z Z A A Y Y Y Y E E [ [ } 1.1.2.2.4.4.6.6.0.0.0.e.e.s.s.x.Q.m.].XXfXaXVXVXAXAXVXVXaXaXpXpX].'.`.Q.Q.Q.Q.Q.z.Z.z.9.n.Q.z.z.z.j.s.s.j.j.j.j.j.j.j.j.j.j.j.j.j.j.j.j.s.e.e.e.e.e.e.e.e.e.e.e.e.e.6.4.Y.Y.6.4.6.6.6.4.4.6.4.4.6.4.4.4.3.3.3.3.3.3.3.3.3.3.3.3.2.3.3.2.2.2.2.2.2.2.2.2.2.2.2.2.4.4.4.4.4.5.5.6.0.8.0.0.0.0.s.s.s.s.f.f.f.f.f.f.f.f.s.f.s.a.a.a.a.a.9.>.>.:.:.:.-.-.-.-.&.&.O.O.X...` ` ` _ H 4.gXgX} j v f < < < , , , * = , , , , , , , , , , , , , , , , , , , , , , u , , c OXOXx < < x < < < < < < < < < f f f x f x x x x x x x x v v v v v v v v v v v v v H v v v v v v v H H v v v H v v v v v v H v H v v H v v v v v v v v v v v v v v v v v v v v v v v v v v v x x x ",
"B B B B B B B B B B B B B B B B B B B B B B B B B B B B B B B B B B B B B B B B B B B B B M B M B B B B B B k k k M M k M B B M M M M B B M M B M M M M M M M k k 6 k k k M M k 6 6 p M k 6 M M M M N N U P U U '  . .@.@.#.;.;.,.-.w.w.q.q.q.q.9.a.9.9.8.8.8.w.:.5.7.7.7.w.w.w.w.w.w.w.w.w.w.w.w.7.7.*.+.o.{ Y Z C u y y t t y t y y i y i i i i i i i i i i i C C C C C A A A Y Y Y E E E [ [ 1.1.2.2.2.4.4.6.6.6.0.0.0.0.s.s.x.m.m.].XXXXfXVXVXVXAXVXVXaXaXpXpX'.].].].].Q.Q.Q.Z.z.z.f.f.z.z.s.j.z.s.s.s.s.s.s.s.s.e.e.e.e.e.e.e.e.e.e.e.e.e.e.e.6.6.6.6.6.6.6.4.4.e.y.4.2.3.4.4.3.3.3.2.4.r.2.2.3.3.3.2.2.2.2.2.2.2.2.2.2.2.2.2.2.2.2.2.2.2.2.2.2.2.2.2.2.2.2.4.4.4.5.5.5.8.8.8.9.9.9.s.s.s.s.f.f.f.f.f.d.d.a.a.a.a.a.a.9.9.9.>.:.:.:.-.-.-.&.&.&.O.O.X.X.` ` ` _ _ H H H 3.1.f f f < < , , , , * * , , , , , , , , , , , , , , , , , , , , , , , , , < , x R < , < < < < < < < < < < < f x x f x x x x x x x x x v x v v v v v v v v v v v v H v v v v v H H H H H H H H H v v v v H H H H v H v v v v v v v v v v v v v v v v v v v v v v v v v v x x x x ",
"B B B B B B B B B B B B B B B B B B B B B B B B B B B B B B B B B B B B B B B B B B B B B M M M B M B B B B M B B B B B M M M M B M B B B M M B B M M M M M M k k 6 6 6 6 k k 6 6 6 p M k k k M M k M B N P P U U '  . .@.@.#.;.;.,.,.w.w.q.q.q.q.a.a.9.9.8.8.-.-.-.7.5.7.7.w.7.7.7.w.w.w.w.w.w.w.w.w.5.*.+.o.] T Y Z u i i y t i i y y t t i i i i i i i i i i i C C C C C Z A A A Y Y Y Y E E E [ 1.1.1.2.2.3.4.4.6.6.0.0.0.e.s.j.j.m.m.m.].XXfXaXVXVXAXAXVXVXfXaXpXXX].].].].Q.K.Q.Q.z.z.z.z.j.Z.Q.s.0.s.s.e.e.0.e.e.e.0.6.6.6.6.6.6.6.6.6.4.4.4.4.4.4.4.4.4.4.4.4.4.4.4.2.2.2.3.3.3.3.2.r.y.3.2.2.2.2.2.2.2.2.2.2.2.2.2.2.2.2.2.2.2.2.2.2.2.2.2.2.2.2.2.2.2.2.4.4.5.5.5.8.8.8.9.0.0.s.s.s.s.s.s.s.s.a.a.a.a.a.a.a.9.9.9.9.:.:.:.-.-.-.*.&.&.&.O.O.X.X...` ` _ _ H H H v < f < < x < , , , , , , , , , , , , , , , , , , , , , , , , , , , , , , , < < , u x < , , < < u < < < < u < < f f f x x x x x x x x x x v v x v v v v v v v v v v v v v v v v v F H H H v v H H H H v H v H H H H H H H H v v v v v v v v v v v v v v v v v v v v v v v v v v v x f ",
"B B N N B B B B B B B B B B B B B B B B B B B B B B B B B B B B B B B B B B B B B B B B B B M B M M B M B M M M M M B B B B M M M B B M M M B M B M M B M M M 6 k k k 6 k k k k M 6 p 6 k k 6 M M 6 k N N N N U U U ' '  .@.@.#.;.,.,.,.w.w.q.q.q.g.a.g.q.q.8.:.-.-.-.-.-.-.7.7.7.7.7.7.7.7.w.w.w.w.7.7.-.*.*.o.} T Y n Z C u i ( y C ( ( y y y i i i i i i i i i C C C C C C C Z A A A Y Y Y Y E E [ 1.1.1.1.2.2.2.2.4.6.6.0.0.0.0.s.s.j.x.m.m.!.].XXfXfXVXVXVXVXVXaXaXpXXX'.].].W.Q.Q.Q.Q.b.z.z.Z.Q.z.s.s.s.s.0.6.5.6.0.6.6.6.4.4.4.4.4.4.4.2.3.2.2.2.2.2.2.2.3.3.3.3.2.} 2.2.2.2.2.2.2.} r.y.2.1.1.1.1.1.1.1.1.1.1.1.1.1.1.1.1.1.} } 1.1.1.2.2.o.2.2.2.2.2.4.4.4.5.5.5.8.8.9.9.9.9.s.s.s.s.s.a.a.s.a.a.9.9.9.9.9.9.8.:.:.:.-.-.-.*.&.&.&.O.O.O.X.X.` ` ` _ _ H H H H v v f f n x , u , , , , , , , , , , , , , , , , , , , , , , , , , , , , , < , < < , < < , < u < , , < < < x u < < f x x x x x x x x x x x v v v v v v v v v v v v v v v H H n v v v H H F H H v H H H H H H H H H v f f F F H H H H v v v v v v v v v v v v v v v v v v v v v v v v x x ",
"N N N N B B B B B B N N B B B B B B B B B B B B B B B B B B B B B B B B B B B B B B B B B B B B M M M M M M M M M M M M B B B M M M M M M M M B B M B B M M k k k k k k M M M k k M k 6 k 6 p M M B M k M N N P P U U ' '  .@.@.#.;.;.-.-.w.w.q.q.q.g.g.g.g.9.8.:.-.-.-.-.-.-.-.-.-.7.7.7.7.7.7.7.7.7.7.7.7.4.+.o.{ T T Y Z u C C u ( eX3.i y y i i i i i i i i i i i C C C C C C C A A A Y Y Y Y Y E E [ 1.1.1.1.2.2.2.2.4.6.6.0.0.0.0.e.e.s.j.m.m.m.!.!.].XXfXfXAXVXVXaXfXfXXX].].].].W.Q.Q.Q.Q.z.z.z.z.z.j.s.0.j.n.e.0.6.6.6.4.4.3.2.2.2.2.2.2.2.2.2.2.2.1.1.1.1.1.1.} [ 1.1.1.1.1.1.} [ 1.3.1.} 1.1.1.1.1.1.1.1.} } 1.} } } } } } } } } 2.o.} o.+.2.+.4.4.4.4.5.5.8.8.8.9.9.9.9.a.s.a.a.s.a.a.a.a.9.9.9.9.8.:.8.:.:.-.-.-.-.&.&.&.O.O.O.X...` ` ` _ _ _ H H H H v v f f f < < < , , , , , , , = , , , , , , , , , , , , , , , , , , , , , , < < < < < , < , , , u < < x < < m x < < f < x x x x x x x x x v v v v v v v v v v v v v v v v v H v v v v F H F F H F n v v H H H H H H H j  .W v F v v H H H v v v v v v v v v v v v v v v v v v v v v v v x f ",
"N N N N N N N B N N N N N B B B B B B B B B B B B B B B B B B B B B B B B B B M B B B B B B B B M M M M M M M M M M M M M M B M M M M M M B B B B B B B M M k k k k k 6 M M M M k k k 6 6 M M M 6 B B 6 M B N P U B U U '  . .@.@.#.;.;.-.w.w.w.q.q.q.g.g.g.g.9.8.:.5.-.-.-.-.-.-.-.-.7.7.7.7.7.7.7.7.7.7.7.*.*.+.o.{ } ] Y C u i y ( 3.( u y y i i i i i i i i i i i i C C C C C C C A A A A Y Y Y Y E E E E [ [ 1.1.2.2.2.2.4.4.5.6.0.0.0.0.e.e.s.j.m.m.m.m.!.].XXfXfXfXfXfXfXfXfXpX].].].].Q.Q.Q.x.z.z.z.z.j.s.4XgX4X0.0.6.6.6.4.4.4.2.2.2.2.2.2.2.1.} 1.} } } 1.1.1.[ [ [ [ [ 1.1.1.[ [ E E [ [ [ [ [ [ [ [ [ [ [ [ [ } } } } } } } } o.o.2.o.+.+.4.4.5.5.5.5.8.8.8.9.9.9.a.9.9.a.s.a.a.a.a.a.9.9.9.8.:.:.:.:.-.-.-.-.-.&.&.O.O.O.X.X...` ` _ _ _ H H H H H H v v f f < < u , , u = , , , , , = , , , , , , , , , , , , , , , , , , , , , , < < < < < < u u < < < f 3.u.1.u m v < u f < x x x x x x x x x v v v v v v v v v v v v v v H v v n H H n v n H H H H n v v v v v H H H F f 3.PXfXH j H H H H H H v v v v v v v v v v v v v v v v v v v v v v x x ",
"N N N B N N N N N N N N N N N B N N B B B B B B B B B B B N B B N N N N N N N N B B B B B B B N M N N N M M M M M M M M M M M M M M M B M B M M M M B B B M M k k k M k 6 k k k k k k k M k 6 M k B B M k M B N N P U U U '  . .@.@.#.;.;.7.w.w.w.q.q.q.9.9.g.g.9.8.-.-.&.-.w.5.-.-.-.-.-.7.7.7.-.-.7.7.7.7.7.4.*.+.o.3.3.1.Y m C u u i y r u i i i i i i i i i i i i i i i C C C C C C A A A A A Y Y Y Y E E E E [ [ } 1.2.2.2.2.2.4.4.6.6.0.0.0.0.0.e.s.j.x.m.m.m.!.oXXXXXXXfXfXfXfXfXXX].].].].].Q.m.m.m.m.x.j.Y.3Xn.0.0.0.0.0.0.6.4.4.4.2.2.2.2.2.2.1.1.} } } } [ [ [ [ [ [ [ [ [ [ [ [ [ [ 1.[ [ [ [ [ [ [ [ } } } } } o.o.o.o.o.2.2.2.2.4.*.4.5.5.5.8.8.8.8.9.9.9.9.9.a.s.a.a.9.9.9.9.9.9.9.9.8.8.:.-.-.-.-.-.-.*.*.&.O.O.O.X.X.{ ` ` _ _ H H H H H H H v v f f f < < < , $ b u.n , , , , = , , , , , , , , , , , , , , , , , , , , , , , , < < < < < , < < < $ 1.gXIXjX( < x < x < < < x f f x x x x x x v v v v v v v v v v v v H H v v H H H H v v v H H H n v H H H v H H F F j [ jXOXj v H H H v v v v v v v v v v v v v v v v v v v v v v v v v v x ",
"N N N B N N N N N N N N N N N B N N N N B B B B B B B B N N B N N N N N N N N N B N N B B N N N N N N N N M M M M M M M M N M N M M M N N M B B M M M M B B M M M k k k k k M k k M M M M j M V M k k B k M M N N N U U U U '  . .@.@.#.;.;.7.w.w.w.q.q.:.:.g.g.0.8.:.q.q.-.-.8.-.-.-.-.-.-.-.-.-.*.-.-.-.7.7.7.4.+.+.r.r.3.T n Y Z u u y y u i y i i i i i i i i i i i i C C C C C C C C A A A A A Y Y Y Y Y Y E E E [ [ 1.1.1.2.2.2.2.4.4.4.5.6.0.0.0.0.e.e.s.j.j.m.m.m.m.!.!.oX].].].].].].].].].].Q.m.m.m.Q.n.z.z.j.s.j.s.s.0.0.0.0.0.6.5.5.4.4.2.2.2.2.o.o.2.2.} } } } } } } } } } 1.1.1.1.} } } } } } } } } o.o.o.2.2.2.2.2.2.4.4.4.5.5.5.5.5.0.8.8.9.9.9.0.0.0.0.0.0.a.a.9.9.9.9.9.9.8.8.8.8.:.-.-.-.*.*.*.*.*.4.*.O.X.X.{ ` ` ` _ _ H H H H H v v v v f f f < < < < , , $ 3.BX3.= , , = = , , , , , , , , , , , , , , , , , , , , , , , < < < < < < < < < < $ 3.bXIXIX3.9 < x x x x x f f x x x x x x x v v v v v v v v v v v v H H n v v F H v v v v H H H v v H H H H H H F v H v f j j v H H H H v v v v v v v v H v v v v v v v v v v v v v v v x x ",
"N B B B N N N B N N N N P N U N N N N N N N B B B B B B N N N N B N N N N N N N N N B B N N N N N N N N N N M M M M M N M N N N M M M M B M M M M M M M B B M M M M M M k M M M M M M M k M ^ ^ j B 6 k M B B M N N N U U U ' '  . .@.#.#.;.;.7.7.w.w.w.9.9.9.9.9.:.q.W.W.q.&.-.-.-.-.*.*.*.*.*.-.*.-.-.-.-.-.-.6.*.+.4.4.2.] ] } Y m m C u i i y i i i i i i i i i i i i i C C C C C C C C Z A A A A A Y Y Y Y Y Y Y E E [ [ [ [ } 1.2.2.2.2.2.2.4.4.6.6.0.0.0.0.e.e.s.j.j.m.m.m.m.m.m.m.].].].].].Q.Q.Q.m.Q.Q.Q.Q.b.b.z.z.z.j.j.j.s.s.s.0.0.0.0.0.6.5.4.4.4.4.2.2.2.2.2.2.2.2.2.2.2.2.2.2.2.2.2.2.o.2.2.2.2.2.2.2.4.4.4.4.4.4.5.5.5.8.8.0.0.0.8.8.0.0.9.9.9.0.0.0.0.0.0.9.9.9.9.9.8.8.8.8.8.-.-.-.-.-.*.*.*.O.O.O.+.4.+.X.{ { ` _ _ _ H H H H H v v v x f f f < < < , , , , u , c 3.m = , , $ = , , , , , , , , , , , , , , , , , < , < < , < < < < < < < < < < < , Y jXIXjXG , x x x x n v x x x x x x x x x v v v v v v v v v v v v F H F H H H n H v v H H n v v H H H H H H H v F F H v H H F H H H v v v v v v v v v H v v v v v v v v v v v v v v v v x ",
"N B B U P P U U N N N N P P U U N N N N N N N N B B B B N N N N N N N N N N N V N N N N N N N N N N N N N N M M M M M M N N N N N M M M N M M M B M M M M M M M M M M M k M M M M M M M k N %.^ 1 M B k M B B B B B N P U U U ' '  . .@.#.#.;.;.,.7.w.w.w.q.9.:.q.8.0.Q.W.j.-.:.:.-.-.*.*.*.*.*.*.*.*.-.*.*.*.-.6.*.*.4.*.+.o.X.2.[ n Z Y m C i u i i i u u i i i i i i i i i C i C C C C C C A A A A A A A Y Y Y Y Y Y Y E E E E [ [ } 1.1.2.2.2.2.2.4.4.6.6.6.6.6.6.0.0.e.e.j.j.j.x.x.m.m.m.Q.Q.Q.m.Q.Q.Q.Q.Q.b.b.F.b.z.z.z.z.z.z.j.j.j.s.s.s.0.0.0.0.0.0.8.5.5.5.5.5.5.5.5.4.4.4.4.4.4.4.4.4.4.4.4.4.4.4.4.4.4.5.5.5.5.8.8.8.8.8.0.0.0.s.j.j.0.9.0.0.9.9.0.0.0.0.0.0.9.9.9.8.8.8.8.-.-.-.-.-.*.*.*.*.+.O.O.X.X.X.X.+.o.{ _ _ _ _ H H H H H v v x x f f < < < < < , , , , , u , $ $ = = = = , = , , , , , , , , , , , , , , , , < < < < < < < < < < < < < < < < < < , Y u.Y f n x x x v n v x x x x x x v x x v v v v v v v v v v v v H H H H H F n n v v H H n v H H H H H H H F H F F H H F H H H H H H v v v v v v H v v v v v v v v v v v v v v v v v v v ",
"N N N N P P B U U N U U N P U P P N N N N N N N B N B B N N N N N N P N b U c N P N N N N N N N N N N N N N N M M M M M N N N N M M M M N M M B M M M M M M M M M M M M M M M M M M M M M k B N 1 M M M M M M M N N N N U U U U U  . .#.@.#.#.;.,.-.w.w.8.w.9.9.q.9.9.g.j.9.8.8.8.:.-.-.-.*.*.*.*.*.*.-.*.*.*.*.-.*.*.*.4.*.*.+.o.} ] T T Y Z C m u i i i i i u u i i i i i i i i C C C C C C C C Z Z Z Z Z A A A Y Y Y Y Y Y Y Y E E E [ [ [ } 1.2.2.2.2.2.2.4.4.4.6.6.6.0.0.0.e.e.s.s.s.j.j.j.n.n.z.z.z.z.z.z.z.z.z.z.z.z.z.z.z.z.z.z.j.j.s.s.s.s.s.s.s.0.0.0.0.8.8.0.0.8.0.8.8.8.8.8.8.8.8.8.8.8.8.8.8.0.j.0.5.0.0.0.0.0.0.0.0.0.0.s.s.s.z.j.0.9.9.0.0.0.0.9.9.9.8.8.8.8.8.8.5.5.-.-.-.*.*.*.*.+.+.O.O.O.X.X.X.` { X.{ _ _ H H H H H H v v x x f f < < < < < < , , , , , , , , , , , , , , , , = , , , , , , , , , , , , , , , < < < < < < < < < < < < < < < < < x < x < , v v f f x x x x x x x x x x v v v v v v v v v v H v v v v v v H F F F F n H H H H F F H F H F F F F H F H F F F H v H H H H F F H v v v v v v v v v v v v v v v v v v v v v v v v ",
"V P N N U U U U U N U U N B B B P P P P N N N N N N N N N N N P N N U j W %.b N P N N N N N N N N N N N N N N N N N N N N N N N N N N M N M M M M M M M M M M M M M M M M M M M M M M M M k k M M M M M M M M M M M N N P U B B U '  . .@.@.#.#.;.,.7.w.w.w.9.q.9.9.9.9.8.9.9.9.9.:.:.-.-.-.*.*.*.*.*.*.*.*.*.*.-.-.7.4.4.4.*.+.+.+.o.{ ] ] Y n n m m m i i u u u u i i i i i i i i C C C C C C C C C Z Z Z Z Z A A A A Z Z A A Y Y Y Y Y E E E [ [ } } 1.1.2.2.2.2.2.2.4.4.6.6.0.0.0.e.e.s.s.s.s.j.j.j.j.j.j.j.j.z.z.z.z.z.z.z.z.z.z.j.j.f.f.s.s.s.s.s.s.s.s.s.0.0.0.0.0.0.0.0.0.0.0.0.0.0.0.0.0.0.9.0.8.j.E.m.8.0.0.0.0.0.0.0.0.0.0.s.s.s.s.0.0.8.9.9.8.8.8.8.8.8.8.5.5.5.-.-.-.-.*.*.*.+.+.+.O.O.X.X.X.X.{ { ` _ _ _ _ H H H H H v v v f f f x < < < < < < < , , , , , , , , , , , , , , , , , = = , , , , < , , , , , , , , , < < < < < < < < < < < < < < u u < < f x v x f x x x x x x x v v v x v v v v v v v v v v v v F H F F F F H H H F F F F F F F F F F F F F F F F F F F F F F F F F F F F F F F H H v H H H H H H v v v v v v v v v v v v v v v v ",
"V B P U U U U U U P U U N B B U B U U P P B N N N N N N N N P N N N U j ^ u.I P N N N P N N N N N N N N N N N N N N N N N N N N N N N M M N N N N M M M M M M M M M M M M M M M k M M M M M M M B B M M M M M M M M M N N N N U B U '  . .#.@.#.#.;.,.-.w.w.w.q.q.9.9.s.s.0.9.9.9.9.8.:.-.-.-.*.*.*.*.*.*.*.*.*.*.*.-.*.*.*.*.*.*.*.+.+.X.{ ] T F n m Z C C i u u i i i i i i i i i C C C C C C C C C C C C C Z Z Z Z Z Z Z Z Z Z Z Z Y Y Y Y Y E E E [ [ [ [ } } 1.1.2.2.2.2.4.4.4.6.6.0.0.e.e.e.e.s.s.s.j.j.j.z.z.z.z.z.z.z.j.j.j.j.j.f.f.s.s.s.s.s.s.s.s.0.s.0.0.0.0.0.0.0.0.0.0.0.0.0.0.0.0.0.0.0.0.8.j.Q.m.8.8.0.0.0.0.9.0.0.0.0.0.0.9.8.8.8.8.8.8.8.5.5.5.5.5.-.-.-.*.*.*.*.*.+.+.O.O.X.X.X.X.{ { ` _ _ _ _ H H H H H H v v v x x f f < < < < , , < , , , , , , , , , , , , , , , , , , , , , , , , , < < , , < < , < , , < < < < < < < < < < < < < < < < x u < < < x x x v v v x x x x v v v v v v v v v v v v v v v F F F F F F F F H F F F F F F F F F F F F F F F F F F F F F F F F F F F F H H F F F F F v n H v H H v v v v v v v v v v v v v v v v ",
"U U P U U U U U U U U N N U U U U P U U P P P N N N N N N P U U N P U b U W U N U N P P N N N N N N N N N N N N N N N N N N N N N N N N M N N N N N N N M M M M M M M M M M M M M M M M M M M M M N B M M M M M N M M V B N N B B U U '  . .#.#.#.;.;.-.-.-.w.w.w.q.9.g.g.s.a.s.a.a.9.9.:.-.-.-.*.*.*.*.*.*.*.*.*.*.*.*.*.*.*.*.*.*.*.+.+.X.{ } 1.3.E Z Z C C m i i i i i i i i i C C C C C C C C C C C C C C C C C C C C C C C C Z Z Z Z Z Z Z Z Y Y Y Y E E E E [ [ [ 1.1.1.2.2.3.3.3.4.4.6.6.0.e.e.e.s.j.j.z.z.z.z.z.j.j.j.s.s.s.s.s.s.s.s.s.0.0.0.0.0.0.0.0.9.9.0.0.0.0.0.0.0.0.0.0.0.0.0.0.0.0.8.8.8.8.e.0.5.8.8.8.0.0.8.8.8.8.8.8.8.8.8.5.5.5.8.5.5.5.4.4.4.*.*.*.*.*.+.+.+.O.X.X.X.X.{ { { { ` _ _ _ H H H H H H v v v v v x f < < < < < < , , , , , , , , , , , , , , , , , , , , , , , , , , , , , < < < < < < < < , < < < < < < < < < < < < < < < x < < x x f x f f x x x v v x x x v x v v v v v v v v v v v v v F F F F F F H F F F F F F F F F F F F F F F F F F F F F F F F F F F F F F H H H F F H F v v v v H H v v H v H H v v v v v v v v v v ",
"U U U U P P P P U P U U D U U U U P U U P P N N N N P N N P P P P U U U b U U P U U U N U N N N N N N N N N N N N N N P N N N N N N N N N N N N N N N N M M M M M M M M M M M M M M M M M M M M M M N M M M M M M M M ^ ^ B N N U B B U '  . .@.@.#.;.;.7.7.w.w.w.q.q.g.s.s.s.f.s.s.a.9.9.:.:.-.-.-.*.*.*.*.&.*.*.*.*.*.*.*.*.*.*.*.*.*.+.+.X.2.4XiX3.Y Y Z Z C C C C i i i i i C C C C C C C C C C C C C C C C C C C C C C C C C C C C C Z C C Z Z Z Z Z Z Y Y Y Y Y E E E [ [ [ 1.1.2.2.2.2.2.4.4.6.0.0.s.j.b.b.z.z.j.s.0.0.0.0.0.0.0.0.8.0.0.8.8.8.8.0.8.8.8.0.8.0.0.8.8.8.5.0.8.8.8.5.5.5.5.5.5.5.5.5.5.-.*.4.5.5.0.e.0.5.5.5.5.5.5.5.5.5.5.4.4.-.*.*.*.*.+.+.+.+.+.+.X.X.X.X.X.{ { { { ` _ _ _ H H H H H H H v v v v v x f f f < < < < < < , , < , , , , , , , , , , , , , , , , , , , , , , , , , , , < < < , , < < < < < < < < < < < < < < < < < < < < < < < x f f f x v x x v v v x v v v v v v v v v v v v v v v F F F F F F F F F F F F F F F F F F F F F F F F F F F F F H F F F F F H H H F H H H v v v H H v v v v H v v v v v v v v v v v v v v v ",
"U U U U P P P U U U D U U b D D U U P U P P P N N P P P N P P P P P U U D b b P G b P U P N P N N b b N b N N N N N P N N N N N N N N N N N N N N N N N N N M M M M M M M M M M M M M M M M M M M M N N N N M M M B M V B N N N B U U U U ' '  .@.@.#.;.;.-.7.w.w.q.q.g.g.f.f.f.f.f.f.a.a.9.8.:.-.-.-.*.*.&.O.O.O.*.*.*.*.*.*.*.*.*.*.*.*.*.X.o.iXgXr.] ] T Y Y Z Z C C C C m C C C C C C C C C C C C C C C C C C C C C C C C C C C C C C C C C C C C C C C Z Z Z Z Z Y Y Y E E E E [ [ 1.1.1.1.2.3.4.4.6.e.j.n.z.b.b.s.0.6.6.5.5.5.5.5.5.5.5.5.5.5.5.5.5.5.5.5.5.5.4.4.4.5.5.4.5.5.5.5.5.5.4.4.5.5.5.5.5.5.5.4.4.4.4.0.e.6.4.4.4.*.*.*.*.*.*.*.+.+.+.+.+.+.+.o.o.o.X.X.{ { { { { { _ _ _ _ H H H H H H H v v v v x x x x x f < < < < < < < , , , , , < < , , , , , , , , , , , , , , , , , , , , , , , , , , < , < < < < < < < < < < < < < < < < < < < < < < < < < < f x x x f f x v v v x v v v v v v v v v v v v v v n F F F F F F F F F F F F F F F F F F F F F F F F F F F F F F F F F F F H H F H H F F H H v H v v v H v H H v v v v v v v v v v v v v v ",
"U U U U P P U P P P b U U b  . .U U P U P U P N U P P U N P U P P U U U U b b U G b U U P P P D b b b N N N P N P N N P P N N N N N N N N N N N N N N N N N N M M M M M M M M M M M M M N M M M M M M N N N M M M N M M M M N N B B N B U U U  . . .@.#.#.;.-.7.w.w.q.q.g.s.f.f.f.f.f.f.f.a.9.:.:.-.-.*.*.&.O.O.O.&.*.*.*.*.*.*.*.*.*.*.*.*.+.+.6.y.4.o.{ ] ] T T Y Z Z C C C C C C C C C C C i i i i i i i i i C i C C C C C C C C i i C i i C C C C C C C C C C C C Z Z Z Z Y Y Y E E E E E [ 1.1.2.2.2.4.e.e.n.n.n.e.4.4.2.4.2.2.2.4.2.2.2.4.2.2.2.2.2.2.2.2.4.2.2.2.+.+.+.2.2.2.4.2.4.2.*.4.4.4.4.*.+.+.*.+.+.+.4.4.6.4.+.+.+.+.+.+.+.+.o.o.o.o.o.X.X.X.{ { { { { { { ] ] _ _ _ H H H F F F F F v v v v x x f f f < < < < < < < , , < , , , , , , , , , , , , , , , , , , , , , , , , , , , , , , , , < , < < < < < < < < < < < < < < < < < < < < < < < < < x < f x x x x f x f x v v v v v v v v v v v v v v v v v v F F F F F F F F F F F F F F F F F F F F F F F F F F F F F H F F F F F F H F F F F F H v H v v F v H H H H v v v v v v v v v v v v v v ",
"U U U U P P P P U D U U b D u.OXD D U P U U P P U G G U U P D D G P D U G G U U D U U D P U G D G D D P P P P U P U P U P N P N N N N N N N N N N N N N N N N N N M M N M M M M M N N N M M M M M M N N N N M M M N M M M N N N N N N P P U U U '  . .@.#.#.-.;.7.w.q.q.g.s.s.f.f.f.k.k.f.f.a.a.9.:.-.-.*.&.&.O.O.O.O.+.*.*.*.*.*.*.*.*.*.*.*.+.+.X.o.+.o.{ { ] ] T Y Y Z Z Z Z Z C C C C C C i i i i i i i i i i i i i i C i i i i i i i i i i i i i i i i i C C C C C C C Z Z Z A A A Z Y Y Y Y E E [ [ 1.3.r.y.n.y.6.2.2.2.o.o.o.o.o.o.o.o.o.o.o.o.o.o.o.o.2.2.} 2.2.o.o.o.o.o.o.o.o.+.+.+.+.+.+.+.o.o.o.o.o.o.o.o.+.2.2.o.o.o.o.o.o.o.o.{ { { { { { { { ] ] _ ] _ H H H H H F F F F H v v v v v x x x x u < < < < < < < < < < < , , , , , , , , , , , , , , , , , , , , , , , , , , , , , , , , , < < < < , < < < < < < < < < < < < < u u < f x x x < < < < f x x x x f f v v f x x x v v v v v v v v v v v v v v v v F F F F F F F F F F F F F F F F F F F F F F F F F F F F F H F F H F F F F F H F H H H H H v v F v H H v v v v v v v v v v v v v v v v ",
"U U P P P P P U P P U G G v  .%.v G U D U P P P G G D D P P G G G D D G U G G D D D D U D D G G G G D D D D U U b N b N U P P N N N N N N N N N N N N N N N N N N N N N M N N N N N N B M M M M M N N N N M M M M N N M M M N N N N N N N P U U U '  . .@.#.#.;.-.-.w.w.q.9.a.s.s.f.f.f.f.f.f.f.a.9.:.-.*.*.&.O.O.O.O.O.O.&.*.*.*.*.*.*.*.*.*.*.*.+.+.+.o.o.} } ] ] T Y Y Z Z Z Z Z m C C C C i C i i i i i i i i i i i i C i i i i i i i i i i i i i i i i i i i i i i C C C C C C Z Z Z Z A Y Z Y Y Y Y Y 2.r.y.y.y.r.1.[ [ [ [ [ } [ [ } } } } } } } } } o.2.T [ 2.[ } } } } } } } } o.o.o.o.} o.} } { } } } } } { } o.o.} { { { { { { ] ] ] ] ] ] ] ] ] ] H H } } ] H F F F n v v v v v x x x x x u u < < < < < , , , , , 8 , < , , , , , , , , , , , , , , , , , , , , , , , , , , , , , < , , < < < < < < < < < < < < < < < < < < < < < f x x < u x f f f x x x x < < x v j f v x x v v v v v v v v v v v v v v v v H F F F F F F F F F F F F F F F F F F F F F F F F F F F F F F F F F F F F H H H H F H H H H H H H v v v v v v H v v v v v v v v v v v ",
"U U U P D D U U U U G G G D j b D U D D U P P D G G G D P P U G G G G G U G G P G D G G G G v v G G G G D D G U U b b P U U U U P U N N P N N N N N N N N N N N N N N N N N N N N N N N N N N N M N N N N N M M M N N N N M M M N N N N N N P U U U '  . .@.@.#.;.,.-.w.w.w.9.9.a.s.f.f.f.f.k.k.f.a.9.8.-.-.&.&.O.O.O.O.O.O.+.+.*.*.*.*.*.*.*.*.*.*.+.+.+.+.o.o.} { ] ] T Y Y Y Z n m m C C C i C i i i i i i i i u i i i i u i i i u i i i i i i i i i i i i i i i i i i i i C C C C C C C Z A Z Z A A A Z 1.r.r.r.r.1.E E E E E E E E E E [ [ E E E E [ [ ] T T jXbXr.T } [ [ [ [ [ [ [ [ } } [ ] [ ] ] ] ] ] ] ] ] ] } { ] ] ] ] ] ] ] T T T T T T T T H H F F 1.3.[ F v v v v x x x x x x u u u < < < < < , , , , , , , , 8 , , , , < , , , , , , , , , , , , , , , , , , , , , < , , , , < < < < < < < < < < f f < < < < < < < u < < < < f f f f x f x x x x x x x u x x x f 3.iX3.f v v v v v v v v v n v v v v v v H F F F F F F F F F F F F F F F F F F F F F H F F F F F F F F F F F F F F F F F F F F F F F F F F v n v v v v H v v v v v v v v v v v ",
"U G G G G U U U U D G U D U G D G G P U U U D D G G G D P P P U G G G G D D G U G U G D G D G F G D U G D G G U U U U U U U U U U U U U U P N N N N N N U U N N N N N N N N N N N N N N N N N N M N M N M M M M M M N N N M M M M M N N N N N P P U U ' '  .@.@.#.;.;.-.-.7.8.8.9.a.s.f.f.k.k.k.k.f.f.a.>.:.-.-.*.&.O.O.O.O.O.O.O.*.*.*.*.*.*.*.*.*.*.+.*.+.+.+.+.o.} } ] ] ] T F F Z n Z C C m C m i i i i u i u i u i i i i u u u u u u i u i i u i i u i i i y y i i i i i i i C C i i C C C C C i C C C A Y E E Y Y Y Y Y Y Y Y Y Y Y Y T T Y Y Y Y Y T T F Y jXIXu.F [ T T T T T T T T T T T T ] T T T T T T T T T T T T T T T H H F F F F F F F F F F F n n 1.1.T v x x x x x x u < < < < < < < < < , < , < 1 8 8 , , , , , , , , , , , , , , , , , , , , , , < < , , , , < < < < , , < < < < < < < < f < < < f < < x u u < x x f < < f f f f f x x x x x x x x x x x f x f m.IXjXf f n v v v v v v n v n v v v n F F F F F F F F H H F H H H H H H H H H H H H H H H H H H F F F F F F F F F F F F F F F F F F F F F F F H n F H F v v v v v v v b v v v ",
"U G G G U U U U G G G G D D G U G G P U U U D D G G D D G U G U U G G G G D G G G G G U b v OXu.v D G G G G G U U U G G G U U U U U U U U U N P P N P P U U P N N N N N N N N N N N N N N N N N N N N M M M M M M M N N M M M M M M M M M N N N N P U U U ' ' @.@.@.;.-.-.-.7.w.w.q.a.s.f.f.k.z.z.k.f.f.a.9.:.-.-.*.&.&.&.O.O.O.O.O.*.*.*.*.*.*.*.*.*.*.*.*.*.+.+.+.o.o.{ { ] ] T T Y Y Z Z Z m C m m i u i u i u u u u i i i i u u y y u u y y y y y y y y y y y y y y i i i i i i i i i i i i i i i C C C C C C Z Z Z Z Z Z Z Z Z Z Z Z Z Z Y Y Y Y Z Y Y Y Y m ( u.Y n E Y Y Y Y Y Y Y Y Y T Y T T Y Y Y Y Y Y F Y Y F F F F F F n n n n n n n n n n n n n n x n K x < f u u u < < < < 1 < 1 1 , 8 8 , 8 < 1 1 8 8 8 , , , , , , , , , , , , , , , , , , , < < < < < , , , < < < < < < < < < < < < < < f x x u u x u < u u u x x x < f x x x x x f f x x x x x x x x x x x v f 3.iXu.f v v v v v v v v n n n n n n F F F F F F F F H F H F F H H H H F F H H H H H H H F H H H H F F F H F F F F F F F F F F F F F F F F F F F F H H F H n v v v v v b b v b ",
"U U G U U U U U G G G G G G G G G G G G G G D D D D D D G G G G G G G D P G G U G D G W v D fXOXj D U G G G G G G U G U U U U U U G D G b D P P N N P U U P P N N N N N N N N N N N N N N N N N N M N N N M M M M M N N M M M M M M M M M M N N N N P U U U '  . .@.@.#.@.-.-.w.w.w.9.s.s.f.f.z.z.k.k.f.f.a.9.:.:.-.&.&.&.&.&.&.O.O.&.*.*.*.*.*.*.*.*.-.*.*.-.-.+.+.+.o.X.{ { { ] ] T T T Y Y Z Z C C u m u u u i i u u u i i y u y y y y i i y y y y y y y y y y y y y i i i i i i i i i i i i i i i i i C C C C C C C C C C C C C Z Z C C Z Z Z Z Z C Z Z m Y Z u n n n Y Y Y Z Z Z Z Z Z Z Y Y Y Y Y n Z Z n n n n n n n n n n n n m m v m m m x x x x x x x u u u < < < u < , , < , , , , , 8 8 , , , 1 < 1 8 , , , , , 8 , 8 , , , , , , , , , , , , , , < , , < < , , < < < < < < < < < < < < < < < f f x u x < < < < < < f x f x x < f x F F v x x x x x x x x x x x v v x x f f F F v v n v v v v v v v n F F F F F F F F F H H H H F H F F F F F F H H H H F F F H F H F H H H F F F F F F F F F F F F F F F F F F H H H H H n v v v v v v v v v v v v ",
"U G G G G U U U G G G G G G G G G G G G G G G D G G G D G G G G G G G D G G G G G D G G L j 3. .H L L G G G G G G G G G U U U U U G G G G D P P P U U U U N N N N N N N N N N N N N N N N N N N N N N N N M M k M M N M M M M M M M M M M M N N N N N P U U U ' '  .@.@.@.@.-.-.-.w.q.q.9.s.f.f.x.z.k.k.k.f.a.9.9.:.-.-.&.&.&.&.O.O.&.*.*.*.*.*.*.*.-.6.6.4.6.-.+.q.w.q.+.X.X.X.{ { ] ] ] T T Y Y Z Z C C m u u i u i u u i i u u y y i y i i y y y y y y y y y y y y y i y y y y y y u i i i i i i i i i u u i i i i i i C C C C C C C C C C C C m C m m C C C u m ( Z m Z Z Z Z n n Z m m n n n n n n n n n n m m m m m m m m x x x x x x c c x x u p u u u u u u u , , 8 8 , , , 8 8 , , , 8 8 8 8 8 , 1 1 1 8 8 , , 8 , 8 8 8 , , , , , , , , , , , , < < < < < < < < < < < < < < < < < < < < < < u f f f x x x < < < < x f f f f x x < x n Y T n x x x x v v x x x v v x v n n v F F v v v v n v n v v n v F F F F F F F F F F H H H H F F F H H H H H H H H H F F H H H F F F H H F F F F F F F F F F F F F F F F H H F F H H F H v v v v v v v v v v v v ",
"U U G G G G U G G G G G G G G G G L G G G G G G G G G D G G G G G G G G G G D G G G G H L H v v W G G L G G G G G G G G G G U U U U U U U P P P P P U U P P N P N N N N P N P P N N N N N N N N N N N N N M N M M M M c M M M M M M M M M M N N N N N N P U U U U '  . .@.@.@.-.-.7.w.w.q.q.s.f.f.k.k.k.k.f.f.a.a.9.8.:.-.-.&.&.&.*.&.&.O.+.*.*.*.*.-.6.6.6.6.-.+.w.m.m.6.O.+.+.o.o.{ { { ] ] ] T Y Y Z Z n m m C C i u u u u u u u u y y y y y y y y y y y y y y y y y y y y y y y y y y u i u y y y y u y u u i i u u i i i i i i u i u u u u u u u u u u i u u u u u m m m m m m m m m m m m m m m m m m m m m m m u m u u u u u u u p p p p p p p p p p p u u u , , 8 8 8 , , , 8 8 8 8 8 8 8 8 8 1 1 1 1 1 1 8 8 8 8 8 8 8 8 , , < , , , , , , , , < < < < < < < < < < < < < < < < < < < < < < f f f f f x x x x x x x x x x x x x x f x n T T n v x v v v v v v v v v v v n v v n v v v v v v v v v v n n F F F F F F F F F H F H H H H H H H H H H H H H H F F F H F H H F F F F F F F F F F F F F F F F F F F F F H F F H H v v v v v v v v v v v v b b ",
"U U G G G G G U G G G G G G G G G G G G G G G G G G G G G G G G G G G G G G G G G G G R H G L F G H G L G G G G G G G G G G G U U U U U U U N N P P U U P U U U U N P N N N N N N N N N P N N N N N N N N N N N M c P c M M M M M M M M M M M M M N N N N P P U U U '  . .@.@.@.-.-.-.w.w.q.s.s.f.f.f.f.k.f.f.f.d.a.a.9.>.:.-.&.&.*.&.O.O.O.O.+.*.*.*.*.-.-.6.6.*.7.t.w.-.+.6.@.+.+.o.o.o.} { { ] T T Y Y Y Z m C C C u u u u u u u u u u y y y y y y y y y y y y y y y y y y y y i y y y u y y y y y y y y y i i i y u u u y y u y u u y u u y y y u u y y u u y u y y u u u u u u u u u u u u u u u u u u u u u u u u u u u u p p u u u u u u u p p u u u u 8 , 8 8 , 8 8 8 8 , 8 8 8 8 8 8 8 8 8 8 1 1 1 1 1 1 1 8 8 8 8 8 8 8 , , < < < < , , , < < < < < < < < < < < < < < < < < < < < < < < f x f x x x x x x x x x x x x x x x x x x x n Y F n v x v v v v v v v v v v v v v v v F F n v v v v v F F n n F F F F F F F F F F H H H H H H H H H H H H H H H H F H H H H F F F Y F F F F F F F F F F F F F F F F F F H F H H H v v v v v v v v H H v H b b ",
"G G L L G L G G G G G G G G G G G G G G G G G G G U W U G G G G G G G G G G G G G G G L F G G F G L G G L L G G G G G G G G G G G U U U U U P D D U U U U U P U U N U N N N N N N N N N N N N N N N N M N N N M j j ^ Q j M M M M M M M M M M M M M N N N N N P P U U U  . . .@.#.;.-.-.w.w.q.q.g.g.s.f.f.f.f.f.f.f.d.a.a.>.-.-.*.&.&.&.7.7.O.O.*.*.*.*.*.*.*.6.6.*.7.7.-.6.6.6.-.@.@.+.@.@.o.o.} { ] ] T T F n n m m m m m u u u u u u u u u y y y y y y y y y y y y t t t t t y y y y y y y y y y y y y y y y y y y y y y y y y y y y u r y y y y y u y y y y y y y y y y y y y y y u u u u u u u u u u u u y u u u u u u u u u u u u u u u u u u u u u 8 8 8 , 8 8 8 8 8 8 8 8 8 8 8 8 8 8 8 8 8 8 1 6 1 1 1 1 1 8 8 8 8 8 8 8 < < < < < < < < < < < < < < < < < < < < < < < < < < < < < f f x x x x x x x x x x x x x x x x x x x x x x x x v v v v v v v v v v v v v v n v v v n v v v v v v v n v n F n H F F F F F F F F H H F F H H H H H H H T T H H H H H H H F H F F H H F F F H F F F H F F F F F F F F F F F F F F n n n n H H v F v v H v v v v b ",
"G L L G L L L G G G G L G G G G G G G G G G G G G W W W G G G G G G G G G G G G G G L R F H G L L F L L L G G G G G G G G G G G G G G U G G U D D D G U D b b b U P U P P N N N P N N N N N N N N N N M M N M M c c u.%.1 M M M M M M M k M M M M M N N N N N N N P U U U '  .| @.#.-.-.-.7.w.w.q.q.q.s.g.f.f.f.f.f.f.a.a.9.:.-.-.&.&.5.m.t.O.O.*.*.*.*.*.*.*.*.4.6.7.7.7.7.7.7.6.6.6.@.@.@.@.o.o.o.{ { { ] F T Y n n Z Z m m m u u u u u u i i u y y y y y y y y y y y t t y y t t y y y y y y y y y y y y y y y y y y y y y y y y y y t t y y t y y y y t y y r r r y y u y y y y y u u u u u u u u u u u u y u u u u u u u u u u t u t t t t t u u u 8 8 8 8 8 8 8 8 8 8 8 8 8 8 8 1 8 8 8 1 1 8 1 6 6 1 6 1 1 1 8 8 8 8 8 8 1 < < < < < 1 < < < < < < < < < < < < < < < < f x < < f f f x f x x x x x x x x x x x x x x x x x x x x x x x x x v v v v v v v v v v v v v v v v v v v v v n v v v H H n F F F F F F F F F F F F H F F F H H H T H T T T T H H H H H H F H F F H H H F F H F F F H F F F F F F F F F F F F H F n n v v H F H n H H v D v v v b ",
"G G G G L L L L L L L G G L L L L G G G G G G G G L L L G G G G G G G G G G G L L L L L L G G G F F L L L L L L G G G G G G G G G G G G G G G G G D b D b W u.W b P U P P N N N N N N N N N N N N N N M M N M M j 1 %.%.j M M M M M M M k k k M M M M M M N N N N N P U U U '  . .@.@.@.-.-.-.7.w.w.q.q.q.a.s.s.s.f.f.f.a.a.9.>.:.&.&.*.r.7.O.+.+.*.*.*.*.*.*.*.*.7.7.7.7.7.7.7.7.7.7.7.-.@.@.@.@.@.@.@.o.{ ] 3.3.T F Y Y n Z n m m C C C C C i u u u y y y y y y y y y y y y y t t t t y y y y y y y y y y y y y y y y y y y y y y y y y y r r r y y y y y t y y y u u u u t t t t t t t t t u u u t t t t t t t t t u u t u u t 8 t t > > > > > > u u u 8 8 8 8 8 8 8 8 8 u 8 8 1 1 1 1 p 1 1 6 6 p 6 6 6 6 6 1 8 8 < 8 8 8 8 < < < < < < < < < < < < < < < < < < < f f f x x x x x x f x x x f x x x x x x x x x x x x v v v v v v v v v v v v v v v v v n n v v v v v n v n v v v n v v n v v v v F F F F F F F F F F F F F F H T T F H H H T T T T T T H H H H H H H F F F H H H H F F F F F F F F F F F F F F F F F F F F F v H H F F F F D b D D v v v b ",
"L L L L L L L L L L L L L L L L L L L L L L L L L L L G G G L G L G G L L L L L L L L H H L L G L L L L L L L L L G G G G G G G G G G U G G G G D D b G j u.fXu.v U U P D D P b N N b N N N N N N N M M N N M M k 1 N P M M M M M M M k k k M M M M M M M M N N N N N P U U U '  . .@.@.@.@.-.-.-.w.w.w.q.9.9.a.s.a.s.a.a.a.a.9.>.:.&.&.O.O.&.5.*.O.*.*.*.*.*.*.*.-.6.7.7.7.7.7.7.7.7.7.7.7.7.6.6.@.@.@.@.o.o.u.7.] T T T Y Y Y n n Z Z C m C m u u u u u y y y y y y r r t y y y y y y y y y y y y y t y y y y y y y y y y y y t y y y t r t r y y r r r y r t y t t t t t t t t t t t t t t t t u t t u t t t t t t u p u 3 t > > > t > > > 3 3 3 u u u 8 8 8 u u u 8 8 8 u u 1 1 6 p p p p 6 6 6 p 6 p 6 6 6 1 8 8 1 , 8 8 8 < < < < < < < < < < < f < f < < < f f f f x f x x f v n x f x x x x x x x x x x v v v v v v v v v v v v v v v v v v n n v n n n v n v n v v n n v n n v n v v n v n F F F F F F F F F F F F F H H H H T T T H H H T T T T T H H H H H H H H F F H H H H F F F F F F F F F F F F F F F F H F F F F H H H H H n n b D D D v v v v ",
"L L L R R L R R L L L L L L L L L L L L L L G G G G G G G G L G L G L L L H L L L L L L L G G L L L L L L L L L G G G G G G G G G G G U U G G G D G D U v  .OX%.D U D D b b N b b b N N N N N N N N N N N N N M M M j M M M M M M M M M M k M M M M M M M M M N N N N N N P U U ' ' | | @.@.@.-.-.-.7.7.w.8.9.9.9.9.a.a.a.a.a.9.9.9.:.:.-.&.-.0.*.O.*.*.*.*.*.*.*.*.-.-.7.7.7.7.7.7.7.7.7.7.7.7.7.7.7.-.6.7.@.7.3.| [ ] ] T T Y Y Y Z Z n m m m m u u u u u y y y y r u y r y y y y y y y y y y y y y y y y y y y y y y y y y y t t y y t t r y y & & y t r t y r r r t t t t t t t t t t t t t u u u u u t > t t t t t t t t t t 3 t > > t > > > 8 8 8 8 8 u u u 8 8 8 8 8 1 1 6 6 6 6 6 6 p p 6 6 6 6 p p 6 1 1 1 1 1 1 1 1 , < 1 1 1 < < < < < < < x f f x f < f u x x x f x f x b b x f x x x x x x x x v v v v v v v v v v v v v v v v v v v v n v n n v v v v v v v v v n n v v v v n n n n v F F F F F F F F F F F H H Y H F H H H H T T T T T T T H H H H H H H F F F H H H Y F F F F F F F F F F F F F F F F F F H F F H H n F b G n b H n v v b v b v ",
"L L L L L L R R R L L L L L R L H L H L L L L L G F H F G L L L L G G H F F G H L L L G G G G L L L L L L L L L G L G G G G L L L L L L G G U G D G D U U b G b D G D D P G N b N b N N N N b N N N N N M N N N N M c M M M M k M M M M M M M M M M M M M M M M M N N N N N P U U ' ' | | @.@.@.@.-.-.-.7.w.8.8.8.9.9.9.9.9.a.a.9.9.9.>.>.:.&.-.*.&.*.*.*.*.*.*.*.*.*.-.-.7.7.7.7.7.7.7.7.7.7.7.7.7.7.7.7.7.7.3.@.@.@.| { ] ] ] T T Y Y Y n n m m m m m m u u u u u u Q Q u y u y y y y y y y y y y y y y y y y y y y y y y y y y y y y t t y u + p y t u t t t r t t t t t t t t t t t t t t u u u u p p u u u t u t t t t t t 8 p 8 8 t > t > 8 8 8 8 8 8 u u 8 p 8 6 6 6 6 6 6 6 6 6 p 6 p p 6 6 6 6 6 p 6 1 1 1 1 1 1 1 1 , < < < < 1 1 f < < < f f f f x f f f f < f x f f x x n n x x x x f x x x v v x v v v v v v v v v v v v v v v v v v n n n n n v v v v v n n v n n v n n n n F F n F F F F F F F F F F F F F H H H F H H H H H T T T T T T H H H H H H H H F H F H H H H H F F F F F F F F F F F F F F F F F F F H H H H v b b G G H v H H G H D v ",
"U L L L L L R R L L R L L L L L L L L L L R L L L H H H H H G L G G G G H H H H F H L F G G H H L L H L L L L L G G G L L L L L L L G L L L L G G G U D G D b b D U U U U P U P b b b N b b b b N b M M M M c c c M M c M M M M M M M M M M M M M M M M M M M M M c c c c N N P U L U ' ' | | @.@.@.-.-.-.-.-.w.w.8.8.8.9.9.9.9.9.9.9.9.>.>.:.-.-.-.-.*.*.*.*.*.*.*.*.*.*.-.7.7.7.7.7.7.7.7.7.7.7.7.7.7.7.7.7.7.3.@.#.#.@.{ { { ] ] T T T Y F n n n m m m m m u u u u u.%.u u u u u u u y y y y y y y y y y u u y y y y y y y y y y y y y y y r & BXOXr p p t t t t t t t t t t t t t t u u t u u p V V V p p p p p u t t > > > 8 8 8 8 3 3 u p 8 p p p p p p p p p p 6 p p p p 6 6 p p p 6 p p 6 p 6 6 p 6 6 6 1 1 1 1 1 1 1 < < < < < 1 1 1 f j f f f f f f f f f < < f f x x x x v v x x x x x x x v v v v v v v v v v v v v v v v v v v v v v n n n n v n v v v n n n n F n n F F F n F F F F F F F F F F F F F F H H H H H Y H H H H H T T T T H H H H H H H H H H H F F F F H H H H H F F F F F F F F F F F F F F F F F H H v H v H F G D D D G D G D b v ",
"L L L L L L L L R L R L L R L R L L L L R L L L H H H H H L L L L L L G H H H H H H H F F H H H H H L L L L L L L L L L L L L L L L L L L L L L L G G D G U U G b P U G P D G U b b b N b b b b b c c N c c c c c c c c M c c M c M c M j k j c M M M M M M c c c c c c c b b N P P U U L ' ` | | @.@.@.-.-.-.-.-.7.8.8.8.8.9.9.9.9.9.9.9.9.9.:.:.:.:.-.*.*.*.*.*.*.*.*.*.*.-.7.7.7.7.7.7.7.7.7.7.7.t.7.7.7.7.7.7.7.7.;.@.@.@.@.X.{ { ] ] T T Y F F n n n m m m m u m ) ) u u u p u u u y y y y y y y y u u u u y y y y y y y y u y y y y y y u u BXBXu u p u t t u u u u u u u p p p p u p p p V Q Q Q P M p p p p p p u u 8 8 8 8 8 8 8 p p p p p p p p p p p p p p p p p p M M M p p M M p p p 6 6 6 p 6 6 1 1 1 1 1 1 1 1 < c c j 1 j 1 1 1 f f f x f f f f f < < < f x x x x x x x x x x x x x v v v v v v v v v v v n n v n n n n n v v v n n n n n n n v n n n n F F F F F F F F F F F F F F F F F F F F F F H H H H H H T T T T T T T T H T H H H H H H H H H H H T H F F H H H H H H F F F F F F F F F F F F F F F F F F v v n F H G b G D D D G b f b ",
"L L R L L L L L L L L R R R R L H L L L L L L L H H H H H H G L L L L R L R L L H H L G Y L H H H H L L T H R R R L L L L L L K L L L L L L G L L D G G D D G D D D D b D D G G b b b b b b b b b M N M N c c c c c c c c c c M c c c M c c c c c c c M M M c c c c c M c c c b N b D U L L ' ' | | @.@.@.@.-.-.-.7.7.7.8.8.8.8.9.9.9.9.9.9.9.9.9.9.9.:.:.-.-.-.-.*.*.*.*.*.-.-.5.7.7.7.7.7.7.7.7.7.7.t.t.7.7.7.7.7.7.7.7.7.-.@.@.@.o.o.{ { ] ] T T Y F n n n m m m u m m u u m u u u u u u u u y u u y u u u u y y y y y y y y y y y y y r y Q u Q ) y r u y t u u p p u u u u u u u u p p u p b I W W Q p u p p p u p u 8 p p 8 u p p p p p p p p p p p p p p p M M M M M M M p p p p M k 6 6 p p 6 6 6 1 1 1 1 1 1 1 1 1 1 c V Q c j j 1 < < x f < f f f f f f f f x x x v v v v v x x v v v v v v v v v v n v F v f n x v v v n n n n n v H v n n F F F F F F n n F F F F F F F F F F F F F F F F F F F F F F F F F H H T T H H H H H H H H H H H H T H H H T T H H H H H F H H H H H H H H H H F F F F F F F F F F F F F F F F F F F H v F b b b b j v v v ",
"L L L L L L L L L L L L R R R H T R R L L L H H H H H H H L L L L L L L R L L L H H H H F F H H T H H H T H H T R L L L L G L G L L L L L G G G G H L L D D G D D D D D b b D b b b b b b b b b b b N c b c c c c c c c c c c c c c c c c c c c c c c j c M c j j c c c c c c c N b b D D G U L ' | | @.@.@.@.@.-.-.-.-.-.-.-.:.8.8.9.9.9.9.9.9.9.9.9.9.8.:.:.-.-.-.-.-.-.-.-.-.5.5.7.7.7.7.7.7.7.7.7.7.7.7.7.7.7.7.7.7.7.7.7.7.7.@.@.@.@.@.{ { { ] T T T F F b b b m x m m m m V m u u u u p p u u u p p p p p u u u u u u u u y y y u y > u p * & * u y u u u p p p p u u u u u u p p p p u p I  . . .I p p p p p p p p p p p p p p p p p p p p p p p M M M M M M M M M M M M M p p p M M k 6 p 6 6 6 1 1 1 1 1 1 1 1 1 c 1 1 P P c j j j < < j x f f f f f f f x x v v v v v v v v v v v v v v v v F F F F F v F x f BX%.> F v n F n n F F F n F F F F F F F F F F F F F F F F F F F F F F F F F F F F F F F Y F H H H T T H H H H T H H H H H T H H T H H H T T H H H H T H H H H H H H H H H H H H H F F F F F F F F F F F F F F G H H v v b v b b f OXOX< ",
"L L L L L L L L L L L L R R L H H R T L L L H H H H H H L L L L L L H H H T R L H H H H F F F H H H H H H H H H H T L L L L L R L L L L G G G G G G D D D G G D G D D D b b D b b b b b b b b b b b b b c c c c c c c c c c c c c c c c p c c c c c p c c p j j 1 j c c c c c c b b b b D U U U L L ' | | @.@.@.@.@.-.-.-.-.-.-.8.8.8.8.8.9.9.9.9.a.a.9.9.9.8.8.8.8.5.-.5.-.-.-.5.5.-.-.-.7.7.7.7.7.7.7.7.7.7.7.7.7.7.t.7.7.7.7.7.7.7.#.@.@.@.@.@.{ | | | R H L G G K b b b b b P m m V m V V V p V u u m p p p p p p p u u u u u u p p p u p p p p p p p p u u p p p p p p u p p p p p p p p p U  . . .U M p p p p p p p p p p p p p p p p p p p M M M M M M M M M M M M M M M M p M M M M 6 p 6 p 6 6 1 1 1 1 1 1 1 1 1 p 1 < 1 c c j j j 1 < < c x x f x x x v v v v v v v v v v v v v v v v H F F F F F F F n F v < OX3.> F v F F n n F F F n F n n F F F F F F F F F F F F F F F F F F F F F F F F F F F F F H F F H H T T H H T T T T H H T T T T T T H H T T T T H H H H H H H H F Y H H H H H H H F F F F F F F F F F F F F n F b b b b v v b f b FXjXf ",
"L L L R L L L L L L L H L R L L T T T T H H H H R T H L H L L L H H H H H H L H H H H H H H H H T T H H H H H T T H H H F F G L F H F G G G G G G G G G G G G D G D D D D D D b b b b b b b b b b b b c b b c c c c c c c c c c c c c p 1 j j 1 c c p c c p 1 1 1 1 j c c c c c c b b b N b D G L L L ' | | | @.@.@.@.@.-.-.-.-.-.-.:.8.8.8.9.9.9.9.a.s.a.a.9.9.9.9.8.8.8.8.5.5.5.-.-.-.-.-.7.7.7.7.7.7.7.7.7.7.7.7.7.7.7.7.7.7.7.7.7.7.7.#.@.@.@.@.@.@.| | | | L L R R G G G b b b b P P V V V V V p p m m V V V V V V V V p p p p p p p p p V p p p p p p u p p p p p p p p p M M M M M M M M P U W I b M p p M M M p p p M p p M M M M M M M M M M M M M M M M M M M M M M M M M M M M M p 6 6 p 6 6 1 1 1 1 1 1 1 1 1 1 1 1 1 1 c c j c c f c c x x x x v v v v v v v v v v v v v v H F F F F F F F F F F F F F H v v v v F n F F F F F F F F F F F F F F F F F F F F F F F F F F F F F F F F F F F F F F H F H F H H H T T H H T T T T T T T T T T T T H H T T T T H H H H F F F T Y Y Y Y H H H H F F G G F F F F F F F F F H b n b b b b v v b v v u.%.f ",
"L L L L L L L R L H H H L L H H H H T T L H H H R R H H H H L L L H L L L H H H H H H H H H H H T H T T H T H H H L L L L L H L H F F G G G G G L L G G G G G G G D D D G D b b D b b b b b b b b b b c c c c c c c c c c c c c c j 1 1 c j j j p c c c j 1 p p 1 1 1 1 c c c c c c c c b N b D G L L L ' ' ' | @.@.@.@.@.@.-.*.*.-.-.8.8.8.8.9.9.9.9.s.s.s.s.s.a.s.9.9.9.8.8.8.5.5.5.7.7.7.7.7.7.7.7.7.7.7.7.7.7.7.7.7.7.7.7.t.t.7.7.7.7.7.7.;.;.@.@.@.@.@.@.| | | | | R L L L G G G b b b b m m m P P m m m m P V V V V V V V V V V V V p p u p V V V V V p V p V m V V V V V M V V M V V V V V V V M M M V V M M M M M M M M M M M M M M M M M M M B M M M M M M M M M M M M M M p M p p p 6 6 6 6 6 6 1 1 1 1 1 1 1 1 1 1 1 1 1 c c c c f x c x x v v b b v v v v v v v v v v v F F H F F F F F H F F F F F F H F F v v n F F F F F F F F F F F F F F F F F F F F F F F F F F F F F F F F F F F F F F F Y F H H H H H H H T H T T T H H H T T T T T T T T H H T T T T H T T H F F H F H F F H F H H H H G F F F F F F F F F F H D H n v v v v b G b x v x x ",
"R L L L L L L L L L H H L L H H H H H T L H H H R H H L H H H L L R T H H H H H H H H H H H H H T T T T T T H H H H H L H L H H H F F F G G F G G G F G G G G G D D D D G D D b b b D b b b b b b b c c c c c c c c c c c c c c c c j j p c 1 1 1 j 1 1 j p j j 1 1 1 1 c c c c c c c c c b b D D G G L L L ' | | | @.@.@.@.@.*.*.*.*.-.-.8.8.8.9.9.9.s.s.s.f.f.f.f.f.a.9.9.9.8.8.8.8.8.8.8.5.5.w.7.-.7.7.7.7.7.7.7.7.7.7.7.7.t.t.t.t.7.7.7.7.7.7.7.7.@.@.@.@.@.@.@.| | | | | | | R L L G G G b b b b b x x b b P P V V V V V V V V V M V m V V V V V V V V V V V V V V V V V V V V V V P P V V V M M M V V M V V V V V M M M M M M M M M M M M M M M B M M M M M M M M M M M M p M p p p p p 6 p 6 6 6 1 1 1 1 1 1 1 p p p 1 1 p p c c c c x c b b v v v b b v v v v v v v v v v v F F F F F F F F F F F F F F F F v F F F F F F n F F F F F F F F F F F F F F F F F F F F F F F F F F F F F F F F F F F Y Y F T H H H H H H T T H T T H H T T T T T T T T T H H T T T T H T H Y Y F F F H H H F T H H H H G F F F G G G F F F F G D b n n H G D b b b b b v v ",
"L R L L L L L L L L R R R L H H H H T T H H H H T H H H H H H H H T L L H H H H H H H H H H H H H H T T T H T L R T H H H H H L L L H H H F F F F F F F G H D D D D G G G G b b D D D b b b b b b b c c c c c c c c c c c c c c c c j j c c p c 1 1 1 1 p p j c c p p c c c c c c c c c c b b b b D D D L R R  ._ _ { @.@.X.X.+.@.@.-.-.-.-.-.8.8.9.9.9.9.s.s.f.f.f.f.s.s.s.a.9.9.9.8.8.8.8.8.g.x.q.4.7.7.7.7.7.7.7.7.7.7.7.7.7.t.t.t.t.7.7.7.7.7.7.7.7.7.7.#.#.#.#.@.@.@.@.| | | | | | R R L L I G x  .u.3.x G b b P P P b P P P P P P V V V P P V V V V V V V V V P V P P P P P P P P P P P P V V V V P P V V V V V P V P V V N B N N N N M M B B M M M M M M M M M M M M M M M p p p 6 6 p 6 6 6 p p 1 1 1 1 p p p 6 p p p p c c c c c b b b b b b b b b v v v v v v v v H F F F F F F F F F F F F F F F F F F F F F F F F F F F F F F F F F F F F F F F F F F F F F F F F F F F F F F F F F F F F F Y Y H H T T H T H H H H T T T T H H H H H H T T T T H H H T T T T H H H Y F H F F F F H Y F T F H F F G F F F F G F F G G G G b n v b D b b b G b f v G ",
"L L R R L L L L R L L T R H H H H H H T _ _ ] ] ] T H H H H T H H H L H H H H H T H H H H H T T H T T T T T H T T T H H H H H T H H H F F F F F H H H H G G D D G G G G G G b b D D D b b b b c c c c c c c c c c c c c c c c c c j 1 1 1 1 1 1 1 1 1 1 1 p p 1 1 p 1 p c c c c c c c P P b b b b b b D D G G G  .u. ._ | @.@.@.@.@.@.-.*.*.-.5.8.8.8.9.9.9.s.s.s.f.f.f.f.f.f.s.a.a.9.9.9.8.9.x.m.w.4.7.7.7.7.7.7.7.7.7.7.7.7.7.7.7.t.t.t.7.t.t.t.t.t.t.7.7.7.7.7.#.#.#.#.@.#.@.@.| | | | | | |  .R H u.FXOXv D G G G U U b P P b P P P P P P P P P V P P P P P P P P P P P P P P P P P P P P P V V V V P P P V V V V V P P V V P P N B P N M M B M M M M M M M M M M M M M M M p p 6 6 6 6 6 p 6 6 p p 1 1 1 1 p p p p c c c c c c c b b b b b b b b b b b v v v v v v H F F F F F F F F F F F F F F F F F F F F F F F F F n F F n F F F F F F F F F F F F F F F F F F F F F F F F F F F F F F F F H F Y F H H T H H T H H H T T T T T H H H T H H T T T T H H H T T T H H H H H T F F F F F H F Y F F F F F F F F F F G G F G G G G G n b b b G b b G b v G H ",
"R L L L L L | L R | H H H H H T H _ H ] ] _ { ] _ _ ] H H H H H H H H H H H H H T T H H H T T T H H T T H H T H T T H H H H H T H H H F F F F F F H F F F H D D H G G G D D b b b b b b b b v x c c c c c c c c c c j c c c c c 1 1 j 1 < < 1 1 1 1 1 1 1 1 p 1 1 < 1 p c c c c c c c I Q c c b b b b D D D v v OXdXu._ | | | @.@.@.@.@.@.*.*.-.-.5.8.8.8.9.0.s.s.s.f.f.j.j.f.f.f.s.s.a.s.9.0.j.j.q.5.-.7.7.7.7.7.7.7.7.7.7.7.7.7.7.7.7.t.t.t.t.7.7.7.7.t.t.7.7.7.7.7.7.3.#.#.#.#.@.@.@.| | | | | | _ u.jXOXH L R L L U U G G G b b P P P P P P b P P P P P P P P P P P P P P P P P P P P P P P P P V V V V V V P P P P V V V V P N B N M M M M M M M M M M M M M M M p p p p 6 M 6 6 6 6 6 p 6 6 1 p p 1 1 1 p c c c c c c c b b b b b b b b b b b b b v v v x v v H F F F F H H F F F F F F F F F F F F F F F F F F F F F F F F F F F F F F F F F F F F F F F F F F F F F F F F F F F F F F F H H F Y Y Y H H T T T T T T T T T T T T H H T T H H T T T T H H H H H H H H H H T T Y H H F F F H H H F F F F F F F F G F F F F G G F G F H b b G n b G G D b v ",
"R R L R R L | | R R _ T T H T H H _ ] _ _ ] } ] _ _ ] H H H H T H H H H H H H H T T T T H H ] T ] T ] ] T H H H H H H H H H T H H H H F F F F F F F H F F H H D H H G G D D b b b b b b b b v x c c c c c c c c c j j j c c c c 1 1 < 1 < < 1 1 1 1 1 1 1 p 1 1 1 < < < c c c c c c c U Q b c b b b b b G G G j u.fXu.H | | | | | | @.@.@.@.+.-.*.*.-.5.8.8.9.9.0.s.s.f.j.j.j.f.f.f.f.s.f.s.9.0.0.8.8.8.w.w.7.7.w.7.7.7.7.7.7.7.7.7.7.7.7.7.t.t.7.t.m.t.7.t.t.t.t.7.7.7.7.7.7.3.#.#.#.#.#.#.@.@.| | | | | ' | | | | |  .| L L L G G U U U U G b b P P P P P P P P P P P P P P P P P P P P P P P P P P P V V V V P P P P P P P P P N N M M M M M M M M M M M M M M M M p p p p M M M p 6 6 1 c c p 1 p p 1 1 c c c c c c b b b b b b b b b b b b b b b b v v v v v F G L L L H F F F F F F F F F F F F F F F F F F F F F F F F F F F F F F F F F F F F F F F F F F F F F F F F F F F F F F F F F H H Y Y Y Y H H T T T T T T T T T T T T T T T T H H T T T T H H H T T T H H H H H H T H H F H F H H H H F F F F G G G G F F G G G G G G G G G b b n b b b b b b ",
"L L L L R | R L L H _ T T _ H H H ] ] H _ OXjXBX3.H H H T T T H T H T T H T H H H T T T H H H T T T T ] H T H H T H H H H H T H H H H F F F F F F F F F F H H H H H H H H H v v v v b b b b x x c c c c c x c c c c j c c c p 1 p < u < < 1 < < 1 < 1 < < < 1 < < < < 1 j c c c c c c b P c c c b b b b G b W v W u.L H L L ' ' | | { { @.@.@.@.@.-.*.-.7.5.8.8.9.0.s.s.j.j.f.f.f.f.f.f.f.f.f.s.s.0.9.0.w.w.w.w.w.w.w.7.7.7.7.7.7.7.7.7.7.7.7.7.t.FXGXOX7.t.t.t.t.t.t.t.t.7.t.7.7.7.7.#.#.#.#.#.#.#.#.| _ { @.| |  . . .|  .| |  .W W W L U U G G G U U U U U P P P P P P P P P P P P P P P P P P P P P P P P V V V P P P P P P P M M M M M M M M M M M M M M M M M M p p p M M M M M M p c c c c c c c c c M M N b b b b b b b b b b b b b b b b c c x v v G F F L L L H H F F F F F F F F F F F F F F F F F F F F F F F F F F F F F F F F F F F F F F F F F F F F F F F F F F F F F F F F H F H H T T T H H H T T T T T T T T T T H T T T T T H H T T T T H H T T T T H H T T T H H H H H F F H H H H F F F F G G G G G G F G G G G G G G G b G b b b b b b b ",
"R L L L R R R R L H ] T T H H H H ] ] H { hXIXPXu.H H T T T H T T T T T T T T H H T T T H T H H ] ] ] T H H H H T H H H H T H H H H F F H F F F F H F F H H H H F H H H H v v v v v b b b v x x x c c c c x c 1 f < 1 f c p < 1 < 1 < < < < < < < < < < < < < < < < < < j c c c c c c c c c c c b b b b b b b b b v j G G L L L H ] } } | | | @.@.@.@.-.-.-.5.8.8.8.9.0.s.s.f.f.f.f.j.j.j.j.j.j.f.f.f.s.s.0.q.w.w.w.w.w.7.7.7.7.7.7.7.7.7.7.7.;.t.FXPXOX7.t.t.t.t.t.t.t.t.t.t.t.t.t.7.7.7.7.7.#.7.#.#.#.#.#.#.#.#.#.@.#.@.|  . . . . . . . .W W R R W W U U U U U U U U U U U U U U P P P P P P P V P P V P V V V P P P P P P P P V M M M M M M M M M M M M M M M M M M M M M M M M M M M M c M M M M N N N N N N N N N N N N b b b b b b b c c c b v v F G L L L L L H F F F F F F F F F F F F F F F F F F F F F F F F F F F F F F F F F F F F F F F F F F F F F F F F F F F F F F F F H H F F H H T T T H H H T T T T T T T T T T T H T T T T T T T T T T H H T H T T T T T T T T T T T H H H H H H H L F F F G G G G F G G G G G G G G G G D G b b b G G b b ",
"L L L L | | R R L H H ] T T H H _ H ] ] { PXUXIXOXH _ H ] H H H T T _ ] ] T H H H T T T T ] T H T _ _ T T T T H T H H H H H H H H H H H F F F F H F H H F H F n v v v v v v v v v v b b b x x c x x c c j c c p p p 1 1 p 1 < < < 1 < 1 1 < < < 1 < < < 1 1 1 1 < < < < 1 c c c c c c c c c c c c b b b b N b b b b b G G G L L H { 3.3.| ' ` | { @.X.+.*.*.-.5.5.8.8.9.9.s.s.s.f.f.f.f.j.j.j.j.z.z.z.z.j.f.s.q.q.q.q.w.w.w.w.7.7.7.7.7.7.7.7.7.7.t.t.7.7.t.t.t.t.t.t.t.t.t.t.t.t.t.t.t.7.7.7.7.7.7.7.7.7.7.#.#.#.#.#.#.#.#.@. .#. . . . . . . . . . . .W W W W W W I I W W U U U U U U U U U U U P V P P P P P P P P P V P P P P P P P N N N N M M M M M V V V M M M M M M M M M M M M M M M M N N N N N N N N N N N N N N N N N b c c c c c c b G G G L L ' ' L L H F F F F F F F F F F F F F F F F F F F F F F F F F F F F F F F F F F F F F F F F F F F F F F F F F F F F F F Y Y Y Y Y Y T Y H H H H T T T T T T T ] T T T T T T T T H T T T T T T H H H H T T T T H H T H H H T T R T T H T T T L G F F F G F G G G G G G G G G G G G G b G G b b b G G b ",
"L L L H | | R L L H _ ] ] H H H H H _ ] _ m.PXjXr.H _ ] H H H H T T ] ] _ ] H T T H ] T T ] T H T _ _ ] ] T T H H H H H H H H H H H H H F F F F F F F H F F H v v v v v v v v v v v b b b x x x x x c x c c x < < f < < < < < < < < < 1 < < < < < < < < < 1 1 1 < < < 1 1 1 c c c c c c c c c c c c b b b U b b b b b b D G G G F | 3.3.] H _ ' | { | X.O.+.-.-.-.5.5.8.8.9.0.s.s.s.s.f.f.j.j.j.z.z.z.z.z.z.f.g.g.s.q.q.w.w.w.w.w.w.7.7.7.7.7.7.7.@.@.7.7.7.7.7.t.t.t.t.t.t.t.t.t.t.t.t.t.t.t.t.7.7.7.7.7.7.7.7.7.7.7.7.#.#.#.#.#.#.#.#.#.#. . . . . . . . . . . . . .W  .W W W U U U U U U U U U U U U P P P P P P P P V V P V P P P P N N P N N N P N P P P P N M M N M V N M N N N N N N N N N N N N N N b N N N c M M M c c M M c c c b b b G L L L L | ' L H H F F F F F F F F F F F F F F F F F T F F F F F F F F F F F F F F F F F F F F F F F F F F F F F Y T T F Y F F H Y Y Y Y Y T T H H H H H T T T T T ] ] T T T T T T T T T H H T T T T T H H H H T T T H T H T T H T T H T R H H T R R L G F F F G G G G G G G G G G G G G G G b G G b b b b G b ",
"L L L ' | ] L H H H _ ] _ ] H H _ _ _ ] _ _ { | ] _ ] ] H ] H H H T H H _ _ _ T T ] ] T ] _ _ ] T T ] T ] T H H T H F F H H H H H H H H F F F F F F F H F F v v H n v v v v v v v v v b x x x x x x x u x x f < < < < < < < < < < < < < < < < < < < < < < < 1 1 < < < < 1 p c c c c c c c c c c c c c c c b c b b b b b b b b b G R [ | L F L L L | | | X.@.O.@.-.-.5.5.8.8.8.0.0.0.s.s.s.f.f.j.j.z.z.z.z.z.z.j.j.0.8.0.9.0.q.w.w.w.w.w.7.7.7.7.7.w.7.7.7.7.7.7.7.7.7.7.7.t.t.t.t.t.t.t.t.t.t.t.t.t.t.t.t.7.7.7.7.7.7.7.<.<.<.<.7.7.7.7.#.#.#.#.#.#.#.@. . . . . . . . . . . . . . .W U W W U U U U U U U U U U B U U U B B B B U U U U U U U U P P P P U P U U P P P P P P P P P P P P N P P P N N N N N N M M M c M c M M c c c m m b b G L L L L L L L T H H F F F F F F F F F F F F F F F F F F F H F F F F Y F F F F F F F F F F F F F F F Y H Y F F F F F F F H H T H H F H F T H T Y T T H H H T T T T T T T ] ] ] T T T T T T T T T T T T H T T H T T T T H T H T T L L H R R R R L L L R R L L G F G G G G L G G G G G G G G G G G G b G G b b b b b b ",
"L L | | ] _ L L H H ] ] ] ] H H _ ] ] ] ] H H H ] ] ] _ T ] ] ] ] H H H _ _ _ T ] ] ] T T ] _ ] T H T T T T H H H H H H H H H H H H F F F F F H F F F H H H v v H v v v v v v v v v v c x x x x x x < u < < < < < < < < < < < < < < < < < < < < < < < < < u < 1 1 < < < 1 1 c c j c c c c c c c c c c c x c c x x b b b b b b b b G G G D D L G H L _ _ | @.@.X.@.@.*.-.5.5.8.8.8.9.0.0.s.s.f.j.j.j.j.z.z.z.z.z.j.j.Q.Y.0.s.s.0.0.q.q.w.w.w.7.7.7.7.7.7.7.7.7.7.7.7.7.7.7.7.7.7.7.7.7.7.t.7.7.t.t.t.t.t.t.t.t.t.t.t.t.t.7.7.7.7.7.<.<.<.<.7.7.#.#.#.#.#.#.#.#.#.#.#.#. .#. . . . . . . . .W W W W W W W U U W W Q Q Q U U U B B U B U B B B B B U U U U U U U U U U U U U U P P P P P P P P N P N N N N M M M M M M M M c c c c b b G G L L ' ' ' ' R L H H F F v n F F F F F F F F F F F F F F F F F L H L Y F H F F F F F Y F F F F F F F F F F F F F F F F F F H H F H H T F F H T H Y T T H Y T T T H T T T T T ] ] ] T T T T T T T T T T T T T T T T T T T T T T T R R R R R R R R R R R L R R L L L G G G G L G G G G G G G G G G G G G b G G b b b b b b ",
"H ] ] ] H H H H H H ] | _ H _ H _ ] ] _ ] H ] _ H ] ] H ] ] ] ] H H H _ ] ] ] _ ] _ H H H H ] T H H H H H H H H H H H H H H F H H F F F F F F H H H H H H v v v v v v v v v v x x x x x x x f x f f u < < < u u u f < < < < < < < < < < < < < < < < < < < < < < < < < 1 1 p c c p c j c c c c c c c c c c b x x x x b c c b b b b b b b b v G G G G | | H _ @.@.{ @.@.+.*.*.7.5.8.8.8.0.0.s.s.s.s.f.j.j.z.z.z.z.j.E.PXhXj.s.f.s.s.s.0.q.q.w.w.w.w.7.7.7.7.7.7.7.7.7.7.7.7.7.7.7.7.7.7.7.7.7.7.t.t.t.t.t.t.t.t.t.t.t.t.t.t.t.t.t.t.7.7.7.<.<.<.<.<.<.#.7.7.7.7.#.#.#.#.#.#.#.#.#. . . . . . . . . .W W W W W  .' W W W W W W W W W Q Q W W W U U B B U U U U U U U U U U U P P P P P P N P P N P M M M M M c c M c c c c c c m b G G L L L L ' L L L L H H F G F n F F G F F Y F F F F F F F F F H F F R T F H H F H L G F F Y Y F F F F F F H F F F Y F F F F Y F F F F H H F F H H Y T T Y H H H T T T T T T T T T T T T T T T T T T T T T T T T T T T T T T T T R R R T T R R H R R R R R R R T L L R R R L G G L G G G G G G G G G G G G G G G b b b b b b b ",
"H T ] ] H _ H _ H H H H ] ] ] ] ] ] ] ] ] ] T H _ ] ] _ ] ] ] ] ] ] ] _ ] _ ] ] ] _ H H T T _ H H H H H H H H H H H H H H H H H F F F F F F H H H H H H H H v v v v v v v v v x x x x x x x f f x f x < u u u < u f < < < < < < < < < < < < < < < < u < < < < < < < < < j j c c u p c j c c c c c c c c c b x b I x x c c c b b b b b b b v v b D D L | 3.' H | @.| @.@.@.@.*.*.-.5.5.8.8.9.0.s.s.s.f.f.j.j.j.z.j.Y.bXgXs.j.z.j.j.f.s.s.s.0.9.q.8.8.w.7.7.7.7.7.7.7.7.7.;.7.7.7.7.7.7.7.7.7.7.7.7.7.7.7.7.t.7.t.t.t.t.t.t.t.t.t.t.7.t.7.<.u.<.<.<.<.<.<.<.<.<.<.<.<.<.%.%.%.%.%.%. .%.%. . . . . . . . .%.%.%.%.W W W %.W W ^ W W W W W W W U U B B B B B B B U U U U U P P P P P N N M M M M M M M M c M c M c c c c N b b G G L L L L L L L L L G F F F G G F G G G G K K F F G F G H R K F F H H H F F F H T L G L T F F Y Y F Y F F F F Y G G F Y Y F F F H F F F F H H H H H H T T F Y H H Y T T T H T T T T T T T T T T T T T ] T T T T T T T T R T T R T R R R R T T R L R R R L R R R R R L L L R R R L G L G G G G G G G G G G G G G G G b b b b b b b ",
"H H T T _ _ ] ] | ] H H _ ] _ ] _ ] ] ] ] ] ] _ ] ] _ _ ] ] ] ] ] ] ] ] ] ] ] ] _ H H H T ] T T T T H H T T T H H H H H H H H H F F F F F F F F F F H v H H H v v v v v v v x x x x x x x f f f f f f f f < u u u < < < < < < < < < < < < < < < < < < < < < < < < < < < u 1 < 1 < < 1 1 j c c c c c c c x c x x b b x b c c c b b b b b b v b b b G v f jX!.H ' | | | | @.@.@.@.-.*.*.5.5.8.8.8.9.0.s.s.s.f.s.j.z.s.j.j.f.z.z.z.z.f.j.f.f.s.s.s.0.0.9.w.8.w.7.7.7.7.7.7.7.7.7.7.7.7.7.7.7.7.7.7.7.7.7.7.7.7.7.7.7.7.7.7.7.7.7.7.t.t.t.7.t.u.t.u.u.<.<.<.<.<.<.<.<.<.<.%.%.%.%.%.%.%.%.%.%.%.%.%.%.%.%.%.%.%.%.%.^ W ^ ^ W ^ W W W W Q Q W W W W B B B B B B B U P P P P P P P P N P P M M M M M M M M c c c c c b b U U U U L L L L L L L L G G G G F F G G G G G R K G K K L L L L G H T K F G H T L v T T H T R K L Y G G L L T K F Y G F F G F F K F F F H F F Y H F F H F F T T T T F F H T H T T T T T T ] ] T T T T T ] T T T T ] T T R R R R R R R R R R R R R R T T T T R R R R R R R R L L R R R R G L L G G G G G G G G G G G G G G b b b b b b b b b ",
"L T _ ] _ _ _ ] ] ] ] ] H _ _ ] _ _ _ _ _ ] _ _ _ ] _ _ ] ] ] ] ] ] ] ] ] ] ] ] _ H H H T T T T T H H H T H H H H H H H H H F H H F F F F F F F F H H v H H v v v v v v v x x x x x x x x f f f f f f f f < < < u < < < < < < < < < < < < < < < < u < < < < < < < < < < < < < < u < < u j j c c c c x c c x f x b b x c c c c c c c c b x b b b b D b v OXOXH L | | | | | | @.@.o.+.@.*.*.*.5.5.8.8.9.0.s.s.s.s.j.f.s.k.z.z.z.z.z.k.z.z.z.z.f.f.f.s.s.s.a.9.9.w.w.w.7.7.7.7.7.7.7.7.;.7.7.7.7.7.7.7.7.7.7.7.7.7.7.7.7.7.7.7.7.7.<.<.<.<.<.<.<.<.<.<.<.<.<.<.<.<.<.%.%.%.%.%.%.%.%.%.%.%.%.%.%.%.%.^ ^ ^ ^ ^ %.^ ^ W W W W W W W B Q Q B Q Q Q Q B B B B V V V B P P P P P P P P M V V V M M M M M M c M c c b P G G U U U U U U L L L L G G G G G G G G G G G K G G G R K L L L L L H H T R T H H H R T [ R n Y R K G K G G G L T Y Y K G G H F G G L G F F F Y Y Y Y T T T F F T T T T H F H H H T T T T T T T T ] ] T T T T T T T T T T T R R R R R R R R R R R R R R T T T R R R R R R R R R R R R R R R G G L G G G G G G G G G G G G G G b b b b b b b b b ",
"H H | | ] ] ] ] _ H _ _ _ | H H _ ] ] ] _ _ _ _ ] _ _ ] ] ] ] ] ] ] ] ] ] ] _ ] ] ] T ] H H H H T H H H H H H H H H H H H H H H H H F F F F F F F F H H v H v v v v v v v x x x x x x x f f < < f < < f < < < < < < < < < < < < < < < < < < < < < < < < < < < < < < < < < u u u u < 1 p c c f c c x c c c c x m b b c c c c c c c c c c c b b b v v b U x f H L L L H H | | | { X.X.X.+.+.-.-.4.5.8.8.9.9.0.0.s.0.s.f.z.z.k.z.z.z.z.z.z.z.z.f.j.j.f.f.f.f.s.s.0.8.q.w.w.w.w.w.w.7.7.7.7.7.7.7.7.7.7.7.7.7.7.7.7.7.7.7.7.7.7.7.7.<.<.7.7.7.<.<.<.<.<.<.<.%.%.%.%.%.%.%.%.%.%.%.%.%.%.%.%.%.%.%.^ %.%.^ ^ ^ ^ W W W W W W W W Q B B B Q Q Q Q B B B B B V V V V V P P V V V V V V M M M M M M M M V P P P b G U U U U U L ' L L L L L G G G G G G G G G G G F G R F F H L R L L L T T T T T T H T T T T F f F [ F K K G G F F F F F F T Y Y F F F Y Y F F F F F F F F F F T T Y Y H T T T T T T T T H T T T T T T T ] T T T T T T T R T T T ] T T R R R R T T R R R T R R R R T T T R R R R R R R R R L R R L G G L G G G G G G G G G G G G G b b G G b b b b b b ",
"H L | ] ] ] _ _ _ _ ] _ _ _ | 1.H ] ] ] _ ] _ _ _ ] _ _ _ ] ] ] ] ] ] ] ] ] ] _ ] ] T T H H H H T T H H H H H H H H H H H H H H H H F F F F F F F n H H v v v v v v v v v v x x f f x f f f < < < < < < < < < < < < < < < , < , , , , < < < < < < < < < < < < < < < < < < u < u < < p p x c < x c x c c c < c b b c c x x c c c c c x c c v b b b v b b < b D G G H G H L L | ] { { { { o.@.+.+.*.*.5.5.8.8.8.9.0.s.s.s.s.f.f.z.z.j.k.f.f.z.j.z.z.z.j.j.j.f.f.s.s.s.s.s.q.q.w.7.5.-.w.7.7.7.6.7.7.7.7.7.7.7.7.7.7.7.7.7.7.;.7.7.7.7.7.7.#.#.#.#.7.7.7.3.%.%.%.%.%.3.%.%.%.%.%. .%.%. . . .%.W W W W ^ ^ Q Q W W W Q Q Q Q B B B B B Q B B B V V V V V V V V V P P P V V V V V V M M M V N b b P P U U U L L L U U L L L L L L L G G G G G G G G G G G G G G K F F [ R F T R L L T T T T T T H H T | F v | T L L F K G G Y F T T F Y T Y F F F F L F H F F Y F Y F H F F T T Y T F H T T T T T T T T T T T ] T T ] ] T ] T T T T T T T T T ] ] T R R R R T R R R R R R R R T R R T T T T R R R R R R R R R L G G L G G G G G G G G G G G G G b b G G b b b b b b ",
"H H _ ] H H _ _ _ ] _ _ { H OXhX3.H ] ] _ _ ] _ ] ] ] ] ] ] ] ] ] _ ] _ _ _ ] ] _ H ] T H T H H T H H H T T T H H T H H H H H H H F F F F F F H F F n v v v v v v v v v v v x x x x x f f x < < u u u u < < < < < < < < < < , , , , , , , < < < < < < < < < < < < < < < < < < < < 1 < < u x < x j x c c c < f c x x x x x x c c c c c c c c b b b b b f b P b b v v D G G G H L H ] ] { | | @.@.o.+.+.*.*.-.5.5.8.8.0.9.0.s.f.f.j.f.f.f.f.f.f.f.z.z.z.z.z.j.j.j.f.j.j.f.s.g.8.0.q.8.9.8.5.5.7.7.7.7.7.7.6.6.6.6.7.7.7.7.;.7.7.#.7.3.7.3.7.7.#.#.7.3.7.#.3.#.3.3.3.#.3.#.#. . . . . . . . . .W W W W W Q Q Q Q Q Q Q Q Q B B B B B B B B V V V V V V P P V P P V V V V M M V V V N P N P U U U U U U U ' ' ' L L U U U L L W G U G G G G G G G G G G G G G G R F T 3.1.F T T R L L L L L T H H H T [ n ] hXOXj T Y K F G Y Y T T Y H T R K G F F F L F F F Y F L F F T Y Y T T T F H H T T T T T T T T T T T ] T ] ] ] ] T T T T R R R R R R T T R R T R T T T R R R R R R T R T T T R R R R R R L R R L R L L L L G G G G G G G G G G G G G b b G b b b b b b b ",
"H H H T H H H _ _ _ H H { l OXPXu.H H ] ] _ ] ] ] _ ] ] ] ] ] ] ] ] ] ] ] ] ] ] _ H ] ] ] ] H H T H H H T T H H H H H H H H H F F F F F F F F H v n v v v v v v v v v v v x x x x x x f f < < < u u < < < < < < < < < < < < , , , , , , , , , < < < < < < < , < < < < < < < < < < < < < u u < < < u x c < < < f u < x x x x c c c c c c x x b b c b b b c b b b v b D D G G G G L L L | | | | | | X.X.@.@.+.*.-.*.5.8.8.8.0.0.0.0.s.s.s.s.s.f.f.f.z.j.z.z.j.j.j.j.z.z.z.j.s.s.Q.iXj.0.g.g.0.w.w.w.w.7.7.7.7.7.7.7.7.7.7.6.7.7.;.3.3.3.3.3.#.#.#.#.#.3.#.#.#.#.#.#.#.3.#. . . . . . . . . .W W W W W W Q Q Q Q Q B B B Q Q B Q B B B V V V V V V V P P P P P P P P V V P P P U U U U U U U '  . . .' ' '  .L U U U U U U U U U U U U G G G G G G G G G L G H R F H 1.[ H T T H R L L L L T H H T T T F [ hXu.f | T R F Y Y Y T T F F R R R R F F R L Y T Y Y Y F H F Y T T T T T T H T T T T T T R T H F H H T ] ] T T T T T T R R R R R T R R | R R R T T R T R T T R R R R T R R R R R R R R R L R R R R R L G L G G G G G G G G G G G G G b b b b b b b b b b ",
"T ] H H H _ _ ] _ _ _ H ] H  .u.H H H _ _ _ ] ] ] _ ] ] _ _ ] ] ] ] ] ] ] ] ] ] ] _ _ _ _ ] ] ] ] T T T T H H H H H H H H H H F F F F F H H H H H H H v v v v v v v v v v x x x x f x f < x < < < < < < < < < < < < < < < < , , , , < , , , , , , < < < < < < < < < < < < < c c c < u < < f u < u < u < < < < f c < < f x x c x c c c c c c c c c b b b x v b c b b b b v v b G G G F G L L L | | | | | @.@.@.@.+.*.4.5.5.5.8.8.8.8.0.0.s.s.s.f.f.f.j.j.j.j.j.z.z.z.z.z.k.f.j.1XrXj.9.x.x.g.9.q.q.q.q.w.w.w.w.w.w.7.7.7.7.7.7.7.6.6.7.7.7.3.#.#.#.#.#.#.#.#.#.#.#.#.#.#. . . . . . . . . . . . .W I Q Q Q Q Q Q B B B B V B Q W Q P P V V V P P P P P P P P U U U U U U W W W  . . . . . .| |  . . .U U U U U U U U U G U U U U U U U G G G G G G L L L R R R F T | T F H T T T L L H H H H H T H T F H 3.R v T R H H T Y Y Y Y T R R R F F F F Y Y F F T T Y K Y T T T T T T Y T T T T T T T R T T T | [ T T T T T T T T T T T ] T T T R R T R T T T T T T T T R T R R T R R R R R R R R R R R R R R R R R R L L G G G G G G G G G G G G G b b b b b b b b b b ",
"T T H H H _ _ _ _ ] ] _ _ _ H H H ] _ ] ] _ ] ] ] ] ] ] ] ] ] ] ] _ ] ] ] ] ] ] ] _ _ _ _ _ ] _ ] T T T T T H H H H H H H H H F H F H F H H H v H H v v v v v v v v v v x x x x x x f f x x u < < < < < < < < < < < < < < < , , , , , , , , , , , < < < < < < < < < < < < f c < u u u < x x u < < < < u < u < x c c x < f x x x x x c c c c c c x c b c c x x c c c b v v v b b b b G F F G L L L | | | | | @.@.@.@.+.+.*.*.5.5.5.5.8.8.9.9.0.0.s.s.s.s.f.f.f.f.j.j.z.j.f.j.f.z.x.j.j.z.z.j.s.s.g.g.g.g.g.q.q.q.q.q.q.q.q.w.w.w.7.7.7.7.7.7.7.7.7.#.#.#.#.#.#.#.#.#.#.#.#.#.#. . . . . . . .3. . .W W W W W I W U U U B U I  . .W U U U W W W W U U W W W W  . . . . . . . . . . . . . . . . . .U U U U U U U U U U U G U U U U U U G G G G K G L L L R R L R T R T H H T T T T G Y Y H T H H T F F F F H F F T L L T T Y T T H R R R R R L T T T Y Y T R R R R Y Y T T T T T T T T T R R R T T T T T R | F T T T R T T T T T T ] T T T R R T R T T T T R T T T R R R R R R R R R R R R R R R R R R R R R R R R L L G G G G G G G G G G G G b b b b b b P b b b ",
"] ] H H H _ _ ] _ ] ] _ _ _ ] ] ] ] _ ] _ ] ] ] ] ] _ _ ] ] ] ] ] ] ] ] ] ] ] ] ] ] _ _ _ ] ] _ ] H T T H H H H H H H H H H F F H F F H F F H v H H v H v v v v v v v x x x x x x x f f x x u u < < < < , , , < , < < , , , , , , , , , , , , , , < , , < < < < < < < < < < < , < u < < < < < < < < < < < u p c c c < < < c x c x x x x x c x x c x c x x x x x c x v v v v v b b b b b b G G G L L L L ] ] | | | @.@.o.+.+.+.*.*.4.-.5.5.5.8.8.9.0.0.s.s.s.s.s.f.f.j.j.j.f.s.s.s.j.z.j.z.z.j.j.j.j.j.j.f.f.g.g.g.g.g.g.g.g.q.q.q.w.w.w.w.w.w.7.7.7.7.7.;.;.7.#.3.3.#.3.#.#.#.#.#.#. . . .3.7.7. . . . . . . . . . . . .W  . . . . . . . . . . . . . . . . . . . . . . . . . . . . . . . .U U U U U U U U U U U P P P U U U U G G U G G R R R R G L L R R R R R R L L L G Y T R T T T T T H T T H T T T T Y T T L R R R T T T H R K R R R R R R R R R R R R R R F F H L Y Y Y T T R R R R R T H H ] T H H F T T R R R R T T T T T T T R T T T T R R R R R R R R R R R R R R R R R R R R R R R R R R R R R R L L K L G G G G G G G G G G b b G b G b b b P b b b ",
"] ] H H H _ ] ] _ ] ] ] ] _ ] ] ] ] ] ] ] ] ] ] ] ] _ ] ] _ _ ] ] ] ] ] ] ] ] ] ] ] ] ] _ ] _ _ ] ] T H H H H H H H H H H H F F F H F F F F H v H H H v v v v v v v x v x f x x x f f x x x u < < < < < < < , , < < < , < < , , , , , , , , , , , , , , , , < , , < < < < , < Q Q < < f < < < < u u < < < u u u p c < < < u < u x x x x x x x x x x x x x x x x x x x v x v v v v b v v b b b b G G L H H L | | | | { { X.o.@.@.@.@.+.*.*.*.5.7.5.8.8.0.9.9.0.0.s.s.s.s.s.s.j.j.f.j.j.j.j.z.z.z.z.z.z.z.z.z.z.z.z.j.j.f.g.g.g.g.g.g.g.g.g.q.q.w.q.q.w.w.w.w.7.7.7.7.7.7.7.7.;.;.;.;.#.#.#.7.7.7.#.@.#.#.@.#.#.#.#.#.#.@.| @.#.3.@.@.#.#.#.#.#.#.#.#.#.#.#.@.@.@.@.@. . . . . . . . . .U U U U U U U U U P P P P U U P U U U G G U L L L R R R R L L L R K L R K K K L K G G R R T T T T T T T T T H H R L T T T L R R R R R H T R R R R R R R R R R T K R R L R R K G H H F Y R R R R R T R T T T ] H H ] [ R H R R R R R T T T T R T T T T T T R R R R R R R T R | R R R R R R R R R R R R R R R R R R R R L L K L G G G G G G G G G G G G b b G G b P P P b b ",
"] _ _ _ H H H ] ] ] ] ] ] ] ] ] ] ] ] ] ] ] ] ] ] ] ] ] ] ] ] ] ] ] ] ] ] ] ] ] ] _ _ ] ] ] _ ] ] ] ] T H H H H H H H H H F F F F F F F F H F v v v H v v v v v v x v n v x x x x x < < u < < < < < < < < < < < < < < , , , , , , , , , , , , , , , , , , < , , , , < < < , m u.u.< < u < u < < < < < u < < u < u u < < < u u u < u < x x x x c x c x x x x x x x x x x x x x b b v v b x b G v F G F F F G L L L L ] ] ] | | | X.@.o.+.+.+.*.-.-.*.5.5.8.8.8.8.0.0.0.0.s.s.s.j.f.f.j.j.j.j.z.z.x.x.z.x.x.x.z.z.z.x.x.x.j.j.j.l.j.g.g.g.g.g.g.g.g.g.g.g.w.w.q.q.w.w.w.w.w.w.w.7.7.7.7.7.7.7.7.7.;.;.7.7.;.;.;.#.;.;.;.@.@.;.;.7.-.;.7.7.;.#.#.#.#.#.#.#.#.#.#.@.@. . . . . . . .W W W U U U P P P U U U U U P P U U U U U U U U G L L R W R R R L G L K R R K K G R L R L L R T T T T H T T H F H H F H R L F R T T T T R R R R R R K K T Y R R R R R R R R T F F F F F F F T R R R R R T T T F T ] H ] ] H T R T T R T T T R T R R R R T T T R R R R R R R R R R R R R R R R R R R R R R R R R R R L R R R G G G G G G G G G G G G G G b b b b b b b b b b b b ",
"T ] _ _ H H H ] ] ] ] ] _ ] ] ] ] ] ] ] ] ] ] ] ] ] ] ] ] ] ] ] ] ] ] ] ] ] ] ] _ _ _ _ ] ] ] _ ] ] ] T H H H H H H H H H F F F F H F F F H v v v v v v v v v v x f v G b x x x x f < f < < < < < < < < < < < < , , , , , , < , , , , , , , , , , , , < , , , , , , , < < < x ^ %.< , < u u < < < < < < < < u u u x < < < < < < < u < < x x x x x x x x x x x x x x x x x x x v x x x b v f b b n F v F G F G G L L H H R | | | ] { { { | @.@.@.@.+.+.*.4.5.5.5.w.8.w.8.9.0.0.s.s.s.j.g.g.f.f.j.j.j.j.j.j.x.z.x.z.z.x.x.x.x.x.x.z.x.x.l.x.j.j.j.j.g.g.x.g.g.g.g.g.g.g.g.g.g.w.w.w.w.w.w.w.w.w.w.w.w.w.w.7.7.7.7.7.7.7.7.-.-.7.;.;.;.;.7.;.#.#.#.#.#.#.#.@. . . . . . .W W W W U U U U P P P P P P  .3.R U U P P P U P P U U U G G G R R L L R R G G G G L R K K R R R F R T R T T T H H T T T T T T T n G R F F T R L R R R H R R R R R R Y T T R R R R R R K T F F H F Y Y T R R R R R R T H H T T 3.4Xm.{ H T T T T T R R | T R T R R T T T R R R R R R R R R R R R R R R R R R R R R R R R R R R R R R R K G G G G G U G G G G G G G b b G b b b b b P P b b ",
"H H H H H H H _ ] ] ] ] _ _ ] ] ] ] ] ] ] ] ] ] ] ] ] ] ] ] ] ] ] ] ] ] ] ] ] _ _ _ ] ] ] ] ] _ ] ] _ H H H H H H H H H H F F F F H F H F F v n v v v v v v v x x x v G b x f x x < < u < < < < < < < < < < < < , , , , , , < , , , , , , , , , , , , , , , , , , , , , < < , , < , < u u < < < < u < < < < u u < < < < < < < < < < < < u x x x x x x x x x x x x x x x x x x v v v v x n x v G v v v F F F G G G G G L L L L L ] | | | | | | | @.@.@.@.+.+.+.*.*.*.5.5.8.8.8.8.0.0.0.s.s.g.s.g.g.g.j.j.j.j.j.j.j.f.j.z.z.z.z.z.x.x.x.x.x.j.j.j.x.x.j.x.x.j.g.j.j.h.h.g.h.g.g.g.g.g.g.g.w.w.w.w.w.w.w.w.w.w.w.7.7.7.7.7.7.7.,.;.;.;.#.#.#.#.#.#.#.#.@.@. . . . .W W U U U U U P U P P P P P P P W u.u.3.b P U U P P P P U U U I U K G K R L R L G R L G G K R K K R R T R T T R R R H H T T T T T T R F F T T T T T R R L T H R R R K K R F F T F F R K R R R R R K F F Y T R R R R R R R T T | T T y.bXgX1.H T T ] T R R ] ] R ] T R R R T T T R R | R R R R R R R R R R R R R R R R R R R R R R R R R R R L G G G G G U G G G G G G G G G U b G G b b P P b P ",
"H H H H H H H ] ] ] ] ] _ ] ] ] ] ] ] ] ] ] ] ] ] ] ] ] ] ] ] ] ] ] ] ] ] ] ] _ _ ] ] ] _ ] ] ] ] _ H H H H H H H H H H H H F F F F H H F F v v v v v v v v v x x x x x v x f x f < < < < < < u < < < < < < < < , , , , , , , , , , , , , , , , , , , , , , , , , , , , < < < < , , < u < < Q c < u u < < < < < < < < < < < < < < < < < u u x x x x x x x x x x x x x x x x v v x n F x v G v v x v n n F F F G F F F F G G L L H L R R | | | | | | | | X.o.o.o.o.@.*.*.*.-.5.5.8.8.0.0.0.0.0.0.g.g.g.g.s.s.s.f.f.f.f.j.j.j.f.j.j.j.j.j.j.j.g.j.x.j.j.j.j.j.j.j.j.g.g.g.g.g.g.g.g.g.g.g.g.g.q.q.q.w.w.w.w.w.w.7.7.,.-.7.7.;.;.;.#.#.#.#.#.#.#. . . . . . .W W W U U U U P P P P P P P P P P V P I %.u. .b P U U P P P P Q U U I U K G K G R R R G G L L G K R R R T T T H T T R L T F H H H T T F F T [ [ F T R F T R R F T Y R R K K R F G F F F F F G R R R G K G K Y T Y R R R R R R T T ] | H H 3.4XiXT H | T | R R T T T R | R R R T T R R R R | | R R R R R R R R R R R R R R R R R R R R R R R R R L L G G G G U U G G G G G G G b G U P G b U P P P b P ",
"H _ _ ] _ _ _ _ ] ] ] _ _ ] ] ] ] ] ] ] ] ] ] ] ] ] ] ] ] ] ] ] ] ] ] ] ] ] ] _ ] ] ] ] _ ] ] _ _ ] H H T T H H H H H H F F F F H H F F v v v v v v v v v v v v x x x f f f f x u < < < < < < u < < < < < , < < , , , , , , , , , , , , , , , , , , , , , , , , , , < < < < < < , , < < , c %.I , < u < < < < < < < < < < < < < < < < < u u u x x x x x x x x x x x x x x x x x v F n x f v v v v x n n n n F F F F G F F F F F G G L L L L L | | | ] | { { | | @.@.@.+.+.+.*.*.4.5.5.8.8.8.8.8.0.0.0.q.0.0.g.g.s.s.g.g.g.g.s.j.s.s.g.g.g.g.j.j.j.j.j.j.j.j.g.g.g.g.g.g.g.g.g.w.q.q.w.w.w.w.w.w.w.w.w.7.7.7.7.7.;.;.;.#.#.#.#.#.#.#.#. .#. . . . . .W W W U B U U U P P P P V V V V V V V V V V P I  .U b P U U P P U U P U U I G U K K G K L L L L H G R R R R G L R K T R R R R R F F F F T H v H T ] [ F F R F T R R H T K K K F Y R L R R Y F F R K K Y G G G G Y Y T Y R R R R R R R T ] R R H H 2.3.H | | T R | R R T R R T T R R R R R R R R R R R | R R R R R R R R R R R R R R R R R R R L R R R R L G G G G U G G G G G G G b b b b b P b b b b b b P ",
"T _ ] ] _ _ ] ] ] _ _ ] ] ] ] ] ] ] ] { ] ] ] ] ] ] ] ] { ] ] ] ] ] ] ] ] ] ] _ _ ] _ ] _ _ ] _ _ _ _ H T T H H H H H H H F F F H F H H v v v v v v v v v v v v x x x x f x x x x < < < < < < < < < < < , , , , , , , , , , , , , , , , , , , , , , , , , , , , , , < < < < < < , < < , , x W m = , < < < , < < < < < < < < < < < < < < < < < < u < f f u u < x x x x x x x x f v x x Y n x f v v x v n n n n n n n n F F F F F F G G G H H L L R | ] ] | ] | | | | { X.@.o.@.@.+.+.4.*.*.5.7.7.5.5.5.8.w.w.q.q.0.0.q.q.0.q.0.g.0.0.g.q.q.q.q.q.g.g.j.j.j.g.g.g.q.w.w.w.w.w.w.w.w.w.w.w.w.w.w.7.7.7.7.;.;.;.;.#.#.#.#.#.#.#.#.#. . . . . . . . .W W U U U U V P P P P V V P V V V V V V V V V V P V P V P P P U P P P P P P P G G I K G G G L R [ | L H R R R R G L R K T R R R R R T L Y Y F T 1.1.T T H F T T F T T T T Y K K K G K K L T R Y F F K R Y Y F F F L F F T Y R R R R R R R T T T T | H H L H | ] R R | R T T T T T R R R R R R R R R R R | | R R | | R R R R R R R R R R R R R R R R R R L L L G G G G U G G G G U G G G b b b b P b b b b b b b ",
"_ ] ] ] _ ] ] ] ] ] ] ] ] ] ] ] ] ] ] ] ] ] ] ] ] ] ] ] ] ] ] ] ] ] ] ] ] ] ] _ _ ] ] ] ] _ ] _ ] _ ] _ ] T H H H H H H F F F F H F F v v v v v v v v v v v v x x x x x x x x x u < < < < < , < < < < , , , , , , , , , , , , , , , , , , , , , , , , , , , , , , , , < , , , , , , , , < < , , < u , , < < , < < < < < < < < < < < < < < < < < u u < < < < u x x x x x x x x x v f R BXjXOXK f v n x v v v v v n n n n F F F F F F F G F H H H L R R ] | | | | | | | | | | | | @.o.@.@.@.@.@.-.*.*.*.4.7.7.7.7.5.7.7.w.w.w.w.q.q.8.q.w.w.m.m.w.q.q.q.q.w.w.w.w.q.w.w.w.q.q.q.w.7.7.7.7.7.7.7.7.;.;.#.#.#.#.#.#.#.#. . . . . . . . . . . .W W W I U B P P P V P P P P P V V V V V V P V V V P P V V P Q P P P P P P P P Q P P G U U G G G G L 1.3.3.] H R R R K K R R R Y T L L K K R R R F v 1.n.3.F F T T T F T T T T R K K K K K L L G R Y Y F K Y L K Y F Y K Y F Y F F R R R R R R T R R T T T W R T ] ] T R | ] R R R R R T T R R R R R R R R R R R | | | | R | R R R R R R R R R R R R R R L R L R R L G G G U U G G G U G G U U b b G b P b b P P U b b ",
"T ] ] ] _ _ ] ] ] ] _ _ ] ] ] ] ] ] ] ] ] ] ] ] ] ] ] ] { ] ] { ] ] ] ] ] ] ] ] ] ] ] ] ] ] _ H ] ] ] H ] H H H H H T H F F F F H H H v v v v v v v v v v v v x x x x x f f x x < < < < < < , , < < < , , , , , , , , , , , , , , , , , , , , , , , , , , , , , , , , < , , , , , , , , < < , , u , , , < < , < , < < < < < < , < < < < < < < < < < < < < < < u x x x x x x f x x f u.IXIXPXu.f x v x v v v v v v v n n n F F F F F F F F F F F H H H T L L L L L R | | | | | | | | | | @.@.@.@.@.@.@.@.@.@.@.@.-.-.-.6.7.7.6.6.7.7.7.6.m.sXiXt.7.w.7.7.7.7.7.7.7.7.6.7.6.7.7.7.7.7.#.#.#.#.#.#.#.#.#.#. . . . . . . . . . .W W W W W W W W U U U V P P V V V V P P P P V V V V V V P P P P P P V V P P P P V P P P P P P P P P U U G G K G R 3.r.3.] H R R R R G G K T R Y L R R K R R F F v [ 3.[ F R T T F F T T T T R R K K L L R R L G Y F F G R R F F F F G K Y T H F L R R R R R R R R R T H R H ] [ | R R R R R R R T T T R R R R R R R R R R R R | | R | | R R R R R R R R R R R L R L R L L R R R G G G G U U G G G U U U U G G b U U P b b I W W I b ",
"H _ _ _ _ _ _ ] ] _ ] ] ] ] ] ] ] ] ] ] ] ] ] ] ] ] ] ] ] ] ] ] ] ] ] ] ] ] ] ] _ ] ] ] _ _ _ _ _ H H H H H H H H H H H F F F F F H H H v v v v v v v v v v x x x x x x f f x u < u < < < < < < , < , , , , , , , , , , , , , , , , , , , , , , , , , , , , , , , , , , , , , , , , , , < < , < < , , , , , , , , , < , < < < < < < < < < < < < < < < < < < u < < < f x x x x f x x OXIXIXPXu.x n v x v x x v n v v n n n n F F F F F F F F F G G G L R H H H L R R R R H T R | | | | | | | | | | | | | @.@.@.@.@.@.@.@.@.@.@.@.#.@.@.3.!.FXdXt.@.7.6.6.6.6.6.6.@.@.#.#.#.#.#.#.#.#.#.#.#.#.#. . . . . . . . . .W W W W W W W W U U U I I Q B B B B P V V V V V V P P P P P P P V P P V V P P P P P P V P P P V P P P P P U P Q P U U G G G R 3.3.1.] L R R R R K R R K R T R R G T L R F F F F H F R [ F H T T F T T T R R R R Y Y K K Y Y Y Y F F L L Y Y Y Y F H L K F F Y R R R R R R R R R T R T T | ] T T T R R R R R R R R R R R R R R R R R | R | | | R R R | | R R R R R R R R R R R R L L L R R R L K G G G G G G G G U U G G U b U U P P b I W W Q P ",
"_ _ _ _ ] ] _ _ ] ] ] ] ] ] ] ] ] ] ] ] ] ] { { ] ] ] ] ] ] { ] ] ] ] ] ] ] ] ] _ ] ] ] ] _ _ _ _ _ _ H H H H H H H H H H F F F F H F F H v v v v v v v v v x x x x x x f f < < < < < < < < < < , , < , , , , , , , , , , , , , , , , , , , , , , , , , , , , , , , , , , , , , , , , , , , , , , , , , , , , , , , < , , , , , , , < < , < < < < < < < u < u u < < f < u x x x x x 1.BXhXBXR x v x x x x v v v v v n n n n F F n F F F F F G G G G G H H H H L H L L L L H H R R R | | | | | | | | | | | | | | | | @.@.@.@.@.@.@.| @.#.u.!.OX3.| #.#.#.#.#.#.#.#.#.#.#.#.#. . . . . . . . . . . . .W W W W W W W I I Q Q Q B B B B B B Q Q B B B B B Q B B B V V V P P P P V P P P P V V V P P V P P P P P P P P P P P P P P P P U U U K G G R [ T T L R R R R K T R R Y T R G G R R R R F F L F F T F F r.m.u.} H R T R R K R Y Y Y Y K K G Y Y F R L Y Y Y Y F L L F F F R R R R R R R R R R T R T T T T T R R | R | R R R R R R R R R R R R R | | R | | | | R R | R R R R R R R R R R R R R L L L R R R R G G G U U G G G G U U U G b b P P P P b U I I U b ",
"_ _ _ ] ] ] ] ] ] ] ] ] ] ] ] ] { { { { ] { { { ] ] ] { { { { { { ] ] { ] ] ] ] ] ] ] ] ] ] _ _ _ _ _ H H H H H H H H H F F F F F H F H H F v v v v v v v v x x x x x x f < < < < < < < < < , , , , < , , < , , , , , , , , , , , , , , , , , , , , , , , , , , , , , , , , , , , , , , , , , , , , , , , , , , , , , , , , , , , , , < , < < < < < < < < < < < < < u u u x u x x x x Y [ T v v x x x x x x v v v v v n v n n n v F K F F F F F F F F F F G L G H F G L G L R R R R R R R | | | | | | | | | | | | | | | | | | | | |  . . .#. . . .#.#.#. . . . . . . . . . . . . . . . . . .W W W W W W W W W W I I I Q Q Q B B B B Q B I Q Q Q B B Q Q Q Q Q Q Q V P P P V P P P P V V V P P V V V V V P V P V P P P P P U U P U U U G G G G K K G G R R R R R K K K T Y K K F G T T R T F F F F H F f 2.wXvXgXr.H T R H K K R K K K K K G G G Y Y R R K K K K L G F R R Y R R R R R R R R R R R R T T R R R R R R | | R R R R R R R R R R R R R R R R R R R R R R R R R R R R R R R R R R R R R R R R R R G G G U U U U U G G U U G P b b b P U b P b b b b b ",
"_ _ _ ] ] ] ] ] ] ] ] ] { ] ] { { { { { { { { { { { { { { { { { { { { { { { { { ] ] ] ] ] _ _ _ _ _ _ _ _ H H H H H H H F F F H H H F F H H v v v v v v v v x x x x x x f f < < < < < < < , , , , , , , , , , , , , , , , , , , , , , , , , , , , , , , , , , , , , , , , , , , , , , , , , , , , , , , , , , , , , , , , , , , , , , , < , < < < < < < < < < < < < u u u u u x x x x f x x v v x v x x x x x x v v v v v v v n n R R R F F F F F F Y F F F L G F F F G G L R R L L R R R R R R R | | | | | | | | | | | | | | | |  .| | | | |  . . . . . . . . . . . . . . . . . . . . . .W W W W W W W W I W Q Q Q Q Q Q Q Q B B B Q B Q Q Q Q B B Q Q Q Q Q Q Q V P V V V P P V P V V V V V V V V V V V P P V P P P P P U P P P U G G G G G G G G G R G K K K K K K K Y Y Y K F F R R R Y R F F R R F r.gXbXgXr.H H R T K K K K K K K K K L G K K K K K K K K K K G R R R R R R R R R R R R R R R R R R R R R R R R R R R R R R R R R | R R R R R R R R R R R R R R R R R R R R R R R L L R R R L R R R R U U U U U U U G G U U U U b b b P P P P U P P b b b ",
"] ] ] ] _ _ _ _ ] ] ] ] { ] { { { { { { { { { { { { { { { { { { { { { { { { { { { ] ] ] ] ] ] ] ] _ ] ] ] T H H H H H H H F F H H H H v H H v v v v v v x x x x x f x x x x u < < < < < < , , , , , , , , , , , , , , , , , , , , , , , , , , , , , , , , , , , , , , , , , , , , , , , , , , , , , , , , , , , , , , , , , , , , , , , , < < < < < , < < < < < < < u u < < u u u < x x x x x x x x x x v v v v x x v v v v n n n K R K F F F F F F F F G G G G F F F G K R R R L L R L L R R R R R | | | | | | | | | [ | | | |  . . .| | | [  . . . . . . . . . . . . . . . . .W  .W W W W W W W W W W W W Q W Q Q Q Q Q Q Q Q Q Q Q Q B B B B B Q Q Q I I I I V V V V U U U U B B U I V V V V V V V P P P P P P P P P P b b P b G G K G G G K G G G G G G Y Y K G G K K K K K G F R K G F R R F F R F } eXgX4X2.T T T K K K K K K K K K K K K K K K K K K K K R R R R R R R R R R R R R R R R R R R R R R R R R R R R R R R R | | R R R R R R | | | R R R R R R R R R R R R R R R R R W L R R W R I I K I G G U U U U U U U U G G G G G U U P P U P P b b b b ",
"_ ] ] ] ] ] ] ] ] ] { ] { { { { { { { { { { { { { { { { { { { { { { { { { { { { { { ] ] ] ] ] ] ] ] ] ] ] T H H H H H H H H H H F H H H H v v v v v v v x x x x x f f x u u < < < < , , , , , , , , , , , , , , , , , , , , , , , , , , , , , , , , , , , , , , , , , , , , , , , , , , , , , , , , , , , , , , , , , , , , , , , , , , , , < < < < < < < < < < < < < u < < < < x x x x x x x v x x x x v v x v x x v v v v v v v n F F n n F F F F F F F F G F F F F F K R R R L L R R L R L R R R | | | | | | | | | | | | | | |  . . .|  . .|  . . . . . . . . . . . . . . . . . . . .W W W W W W W W W W W W W W W W W W W W I I Q Q U B Q B B Q I Q I I I I Q Q Q V I U U I B U Q Q V Q B V Q V U U P P U P P P Q P P U b G b b G G G G G G G G G G G G F Y K K G G K K Y Y F G K Y K F G K Y F T Y F [ r.2.T Y T Y K K K K K K K K K K K K K K R K K K K K R R R R R R R R R R R R R R R R R R R R R R R R R R R R R R R R R R | | R R | | | | | | R R R R R R R R R R R R R R R R L L L W W R I I G K K U G U U U U U G G G G G b U G G P U P P P U P b b ",
"_ ] ] ] ] ] ] { ] ] { { { { { { { { { { { { { { { { { { { { { { { { { { { { { { { { ] ] ] ] ] ] ] ] ] ] ] T H H H H H H H F F F F F H v H v v v v v v v v x x x x x x x u u < < < < , , , , , , , , , , , , , , , , , , , , , , , , , , , , , , , , , , , , , , , , , , , , , , , , , , , , , , , , , , , , , , , , , , , , , , , , , , , , , , , < , , , , < < < < < < < < < u x x x x x x x x x x x x x v x x x x v v v v v v v v n v n n F F F F F F F F F F G F F H H R T H L L L R R R R R R R R R | | | | | | | | | | | | | | |  .|  . . . . .|  . . . . . . . . . . . . . . . . . . . .W W W W W W W W W W W W U U W W W W W W W Q I B B Q W I I I I U B B B B B U U B B B B B Q Q Q B B Q V V V P P P P U U Q I I P I b b G G K G K G G G G G G G G G K K K K K K Y K K R K G K K Y Y F Y T T F R F v F R K K K K K K K K K K K K K K K K K K R K K K K R R R R R R R R R R R R R R R R R R R R R R R R R | R R R R R R R R R R R R R R R R W R R R R R R R R R W R R R R L L R R R R R R R W I K G G G G G G U G G G G U U U U P b G G U U P b P U U P ",
"_ ] ] ] ] ] { { ] { { { { { { { { { { { { { { { { { { { { { { { { { { { { { { { { { { ] ] ] ] ] ] ] ] ] ] T H H H H H H H F F F F F H v v v v v v v v v v x x x x x x x u u u < < < , , , , , , , , , , , , , , , , , , , , , , , , , , , , , , , , , , , , , , , , , , , , , , , , , , , , , , , , , , , , , , , , , , , , , , , , , , , , , , , , , , , , , < < < < < < < < u u x x x x x x x x x x x x x x x x x x v v v v n v v n v n F F F F F F F F F F G F F G G Y H H H H L R R R R R R R R R R | | | | | | | | | | | | | | |  .| | |  . . .| | |  . . . . . . . . . . . . . . . . . .W W W W W W W W W W W W W W U U W W W W W I I U W W W Q W I I U B B B B B U B B B B B Q B Q B I U Q Q B B V P P P U P P Q U P U G G G G K G G G G G G G G K G K K K K K Y Y Y K K R K K K Y Y K K K R Y F R R F R R K K K K K K K K K K K K K K K K K K R K K K K R R R R R R R R R R R R R R R R R R R R R R R R R R R R R R R R R R R R R R R R R R W R R R R R R R R R W R R R R L R W L L W R R L W I G K G G G U U G G G G G G U U U U U b b P U P P U U U P ",
"_ ] ] ] ] { { { { { { { { { { { { { { { { { { { { { { { { { { { { { { { { { { { { { { ] { ] ] ] _ _ ] ] H H H H H H H H H F F F F F H H v v v v v v v x x x x x x x x < u < < < < < < , , , , , , , , , , , , , , , , , , , , , , , , , , , , , , , , , , , , , , , , , , , , , , , , , , , , , , , , , , , , , , , , , , , , , , , , , , , , , , , < < < < < < < < < u < < u u u u x x x x x x x x v v x x x v x v x v v n v n n n n n F F F F F F F F F F F F F F H L L R K K L L R R R R L L R R R R | | | | | | | | | | | | | | | | |  .| | | |  . . . . . . . .|  . . . . . . . . . . . . .W W W W W W W W W W W W W W U W I U I Q B B Q Q Q Q Q Q W W B B U U U B U B B B B U U Q U U B B P U I Q Q P P P P P P I P U U P G G G G G G G G G G K G K K K K G K K K K Y K K K K K Y Y Y K K K G G K G G R R K K K K K K K K K K K K K K K K K K K K K K K K K K R R R R R R R R R R R R R R R R R R R R R R R R R R R R R R R R R | R R R R R R R R W R R R R R R R R R R R R R R L U L R R R R U U U U G U K G G G G G G G G G U U U U U P U U U P b P P P ",
"_ _ ] ] { { { { ] { { { { { { { { { { { { { { { { { { { { { { X.{ { { { { { { { { { { { { ] ] ] ] _ _ _ H H H H H H H H F F F F F F H H v v v v v v v v x x x x x x < < < < < < < < , , , , , , , , , , , , , , , , , , , , , * * * * , , , , , , , , , , , , , , , , , , , , , , , , , , * * , , , , , , , , , , , , , , , , , , , , , , , , , , , < < < < , < < < < < < u u u u u x x f x x x x x x x v x x v x v x v v v v v n n n n H F F F F F F H F F F F F F H H L L K K L L R R R R L L L L R R R | | | | | | | | | | | | | | | | | | | | | | |  . .| |  . .|  . . . . . . . . . . . . . . . .W W W W W W W W W W W W W W W I W I U Q Q Q Q W Q W W B B I U I I B U U B B U U U I P U P P P I I P P P P U U U U P P P P U G G G G G G G G G G G K K G G K Y Y K K K K K K Y K K Y K K K K K R G K G G R K K K K K K K K K K K K K K K K K K R K K K K K K K R R R R R R R R R R R R R R R R R R R R R R R R R R R R R R R R R R R R R R R R R R | R R R R R W W R R R R R R R L L R R R R R U U U U G G K G G G U U U U G G G U U U G U U U U U b b b b ",
"_ ] ] { ] { ] { { { { { { { { { { { { { X.{ { X.{ { { { X.X.{ { { { { { { { X.{ { { { { { { ] ] _ _ _ _ _ H H H H H F F F F F F F F H H v v v v v v v x x x x x x u < < < < u u < < , , , , , , , , , , , , , , , , , , , , * * , , , * * * , , , , , , * , , * , , , , , , , , , , , , , , * , , , , , , * * , , , , , , , , , , , , , , , , , , , , < , , < , < < < < < < u u u x x x f x x x x x x x x x x v v v x x v v v v n n n n n F F F F F F F F F F F F H H H F F K K H L L R T T T T R R R R R | | | | | | | | | | | | | | | | | | | | | | | | | @.@. . . .| |  . . . . . . . . . . . . . .W W W W W W W W W W W W W W U W W W W W W I Q B B U U U B I U I I I I B Q U U U I I U U P U P P U U U P P P P P P P P P U G G G G G G G G G G G G K K K K K K K K K K K K K K K K K K K K G K K K K K K K K K K K K K K K K K K K K K K K K R R R K K K R K R R R R R R R R R R R R R R R R R R R R R R R R R R R R R R R R R R R R R R R R R | R R R W W W R R R R R R R R W W R W W W R R R R U R K K K G G U U U U U U G G G G b G G G U P b b b b b b ",
"_ ] { { { { { { { { { { { { { { { { X.X.X.X.X.X.{ { { X.X.X.X.X.X.X.{ { { { { { { { { { { { ] ] ] ] ] _ _ H H H H H F F F F F F F F F v v v v v v v v x x x x x x < < < < < < < < < , , , , , , , , , , , , , , , , , , * * * * * , * * * * * * , , , , * * , , , , , , , , , , , , , , * * * * , , , , * * * * , , , , , , , , , , , , , , , , , , , , , , , , < < < < < < u < u x x x f x x x x x x x x x v v v x x x v v v v v F F F F F F F F n F T T F F F F H H H F Y G K H L L L T T H T R R R R R R | | | | | | | | | | | | | | | | | | | | | | | @.@.@.| | | | |  . . . . . . . . . . . . . . .W W W W W W W W W W W W W W W U W W W W I I B I U U U U I I I I I I I Q U U U U U U U U U U U U U U U P Q P P P P P P P b G b G G G G G G G G G K G K K K K K K K K K K K K K K K K K K G G K K K R K K K K K K K K K K K K K K K K K K K K K R K K K K R R R R R R R R R R R R R R R R R R R R R R R R R R R R R R R R R R R R R R R R R R R R R R R R R R R R R R R R R R R R W W R R R R R U R K K G G G U U U U U U G G G G G G G G U G b b b b b b ",
"_ ] _ { { { { { { { { { { { { { { { { { X.X.o.X.X.X.X.{ X.X.X.X.{ { X.X.X.{ { { { { { { { { { ] ] ] ] ] ] H H H H H H F F F F F F F H v v v v v v v v x x x x x x < < < < , , , , , , , , , , , , , , , , , , * , , , , * * * * , * * * * * * * * * * , , , , , , , , , , , , , , , , , * , * , * * * , , * * * , , , , , , , , , , , , , , , , , , , , , , , < < < < < < < < < f x x x x x x x x x x x x x v v v x x n v v n v v n n n F F F F F F F F F F F F F F Y F F F F F R T T H H T R T H T H L R R R | | | | | | | | | | | | | | | | | | | | | | | | @.| | | | | | | | | |  . . . . . . . . . . .W W W W W W W W W W W W W W W W U U U W I I I W U U U Q I U U I I Q Q I I U U U U U U U U P P U U I P P P P P P P b G b G G G G G G G G G G G G G Y K K K K K K K K K Y K K K K Y K K K K K K K K K G K K K K K K K K K K K K K K K K K R R R R R R R R R R R R R R R R R R R R R R R R R R R R R R R R R R R R R R R W R R R W R R W W R R R R R R R R R R R R R R R R L L W W U L R R R R R K K I U U U U U G G U U G G G G G U U U G G b b P P b b ",
"_ ] ] { { { { { { { { { { { { { { { { X.X.X.o.X.X.X.X.X.o.X.X.X.X.X.X.X.X.{ { { { { { { { { { ] ] ] ] ] ] ] T H H H H F F F F F F F H v v v v v v v x x x x x x u < < < u < , , , , , , , , , , , , , , , , , * , * * * * * * * , * , * * * * * * * * * , , , , , , , , , , , , , , , , * , , , * * * * , , , , * * , , , , , , , , , , , , , , , , , , , , < , , < < < < < < < < f x x x x x x x x x x x x x v x x v G n v F v v F F n F F F F F F F n F F n F Y F F F F F F H L R T T H R R T T H H H H R R | | | | | | | | | | | | | | | | | | | | | @.@.@.@.@.@.@.@.@.@.| | | | |  .|  . . . . . . . . . .W W W W W W W W W W W W W W W W W W U W U W W U U U I I U I U U U U U U U U U U I U U U U U U U P P P P b P P b b b G G G G G G G G G G G G G K K K K K K G K Y K K K K Y K Y K K K K K K K G K K K K K K K K K K K K K K K K K K K K R R K K R R R R R W R R R R R R R R R R R R R R R R R R R R R R R R R R R W W R R R R W W W  .W R R | | R R R W R R W R R R R R R R W U U R K K R R R K I U U U U U G G U U G G G G G U U U U G G b P b b P ",
"] _ ] { { { { { { { { { { { { { { X.X.X.o.o.X.X.X.X.o.X.X.X.X.X.o.X.X.X.X.X.{ { { { { { { { { ] ] ] ] ] _ ] H H H H H F F F F H F F v H v v v v v x x x x x x x f < < < , , , , , , , , , , , , , * , , , , , * , , , * * , , * * * * * * * * * * * * * * , * , , * , , , , * * = * * * * * , * * * * , , * , * * * , , , , , , , , , , , , , , , , , , < < , , , , < < < < < < < f x x f x x x x x x x x x v v x x K  .F v F v v n F n F F F F H F v [ u.u.3.Y F F F H F H H H T T H H L H T T T T H H H | | | | | | | | | | | | | | | | | | @.@.@.@.@.@.@.@.@.@.@.@.@.@.@.| | | | | |  . . . . . . . . . . . . . . .W W W W W W W W W W W W W W W W W W I W W U W W W W U U U U U U U U U U U U U U U P P U P U U U U U P b b b G G G G G G G G G G G G G G G G K K K K K K K K K K K K K K K K K K K K G K K K K K K K K K K K K K K I K K I W W I I I K R R R R R R R R R R R R R R R R R R R R R R R R R R R R R R R W R R W W R R R R W W W W W W R R  .W R R R W R R R R R R W R W W L R R R R R U U U U G U G G G G U U U U G G U U U U U U U U P P P P ",
"_ _ ] ] { { { { { { { { X.X.{ { X.X.X.X.o.o.X.X.X.X.X.X.X.X.X.X.o.X.X.X.X.X.X.X.{ { { { { { { { { ] ] ] ] _ H H H H H F F H F H F F H v v v v v x x x x x x x x f < < u , u < , , , , , , , , , , , , * , , , * * , * * * * , , * * * * * * * * * * * * * * * , * , , , , * * * * * * * * * , * = * * * , , , , * , * * , , , , , , , , , , , , , , , , < , , , , , < < < < < < < < f f x x x x x x x x x x v v v v K  .F v F H v H F n F F F F H v T OXfXfX!.1.v F H H H H H H T T T R H H T T T T H H H ] ] | | | | | | | | | | | | @.@.@.@.@.@.@.@.@.@.@.@.@.@.@.@.@.@.@.@.@.@.| | | | |  . . . . . . . . . . . . . . .W W W W W W W W W W W W W W W W W W W W W  . .W W U U I I I U U U U U U U U U P P P P U U U U P U b U b b G G G G G G G G G G G G G G K K K K K Y K K K K K K K K K K K K K K K G K K K K K K K K K K K K K K K K K W W W W W R R W I R R R R R R R R W W R R R R R R R W R R R R R W R R R R R R R R W W R R R R R R W W W R R R W W R R R R W R R R R R R W W W R R I U R R L U U U G G G G G G U U U U G G G U U U U U U U U U P P ",
"_ ] ] { { { { { { { { { { { { X.X.X.X.X.X.X.X.X.X.o.o.o.X.X.X.X.X.X.X.X.X.X.X.X.{ { { { { { { { { { ] ] ] _ H H H H H H H F F H H v v v v v v v v v x x x x x x x u < < m ) Q u , , , * , , , , , , * * , , , , * * * , , , , , , , , * * * * * * * * , * * , , , , , , , , , , , * * * * * , * , * , * , , , , , , , , , , , , , , , , , , , , , , , , , , , , , , < < < < < < < < f x f f x x x x x x x x v v v x v F n F F F F F F F F F F F F H [ jXFXFXfX3.v F H F F Y T H H H H H H T T T T R T T L R | | | | | | | | | | { { } | | | @.@.@.@.@.@.@.@.@.@.@.@.@.@.| | | | | | | | | |  . . . . . . . . . .W  . . . .W W W W W W W W W W W W W W W W W W W W W W  .W U U U W W W U U U U U U U U P U U U U P P b b P P G G b b G G G G G G G G G G G G G G G G F K G R R R K K K K G K K K K K K K K K K K K K K K K K K K K K K K R R R W W R R R R R W R R R R R R R R R R R R R R R R R R R R R R R R R R R T | R R | W W W R R R R R R R R R W R R W R R W W R W W W W W W R R R R R R U U U U U U G G U G U U G U U U U U U U U U G U G G G G U U U P ",
"_ ] { { { { { { { { { { { X.X.X.X.X.X.X.X.X.X.X.X.X.o.o.o.X.X.X.X.X.X.X.X.X.{ X.{ { { { { { { { { { ] _ _ _ _ H H H H H H F F H H v v v v v v v v v x x x x f f x x < < b %.) u , p , * * , , , , , , , , , , , * , * * * , , u u , , , , * * * * * , , , , * , , , , , , , , , * * * * * * , , * , , , , , , * , , , , , , , , , , , , , , , , , , , , , , , , , , < < < < < < < < u x x f x x x x x x x x x v n v x v v F F F F F F F F F F F F F R OXFXFXBX .F F H F F F T T H H T H H H T T T T T R H | | | | | { { | { | | { X.X.X.@.X.@.@.@.o.o.@.@.@.@.@.@.@.@.@.@.@.@.| | | | | |  . . . . . . . . .W  . . . . .W W W  .W W W W W W W W W W W W W W W W W W U W W W U U W U U U U U U U U U U P U U U U P b b b P P b b b b G G G G G G G G G G G G G G G G G F G R R K F F F K G K K G K K K K K K K K K K K K G K K K K K I I R R R W W W W W R K R R K R R R R R R R R R R R R R R R R W R R R R R R R T | 3. .| | | W W R W R R R R R R R W R R R W W R W W W W W W R R R R R W R R U U U U I U G G G G G G G G U U U U U U U U G G U U U U U U P P ",
"] { { { { { { { { { { { X.X.{ X.X.X.X.X.X.X.X.X.X.o.o.o.o.X.X.X.X.X.X.X.X.X.{ { { { { { { { { { { ] ] _ _ _ _ H H H H H H H F F H v v v v v v v v v x x x x < f f x < , x Q m , p Q u * * , , , , , * , , , , * , , * * * , , u u u , , , * , , , , * , * * , , , , , * , , * * * , , * * * , * , * , , * , * * * , * * , , , , , , , , , , , , , , , , , , , , , < < < < < < < < < x x f x x x x x x x x x x x x v v n n n F F F F F F F F F F F F F 3.OXOXu.T F F H H F F F H T T H T H H H H H H T H H | ] | ] { { { { { { { { X.X.X.X.X.X.o.o.o.o.o.o.@.@.@.o.@.@.@.@.@.@.@.@.@.| | |  . . . . . .|  .| L | |  . . .W W W W  .W W W W W W W W W W W W W U W W U U W R U W W U U U U U U U U U U P U U U G G U U b b P P b G G G G G G G G G G G G G G G G G G G G F K R F F R R R G K K G K K K K K K K K K K K K K K K I I K K K K R R R R R R R R R W R R K R R R R R R R R R R R R R W R R R R W R R R W R T | u.3.| R R R R R R  .R W R W W W W R R R R W W W W W W R R R L R R W W R U R R W U W W W R U U U U G G G U G G U G U U U U U U U U U U P U ",
"] { { { { { { { { X.X.X.X.X.X.X.X.X.X.X.X.X.X.X.o.o.o.o.o.o.X.X.o.X.X.X.X.X.{ { { { { { { { { { { { ] _ ] _ _ H T H H H H F F F H H v v v v v v v x x x x x x f f f < , < , = = u V p , , , , * , , * * * , , , , * * * = , , u u u , , , , * , * , * , * , * , , , , , , , * * * , * * * * * * * * , , * * * = * * * * , , , , , , , , , , , , , , , , < < < < , < < < < < < < < < x x f x x x x x x x x x v v v v v n n n H F F F F F F F F F F F F F H T F F F H H H F T T T T T H H H H H H H H H T H ] ] | ] { { { { X.X.X.X.X.X.X.X.X.o.o.o.o.o.+.o.o.o.o.o.o.@.@.@.@.@.@.@.@.@.@.|  . . . . .| | | H m.m.@.| L  . . .W W  . . .W W W W W W W W W W U U U W W W W W W U U U U U U U U U U U U U U U G G G U U b b b b b G G G U G b G G G G G G G G G G G G G G K R L v G 3.u.W G K K K G K K G G K K K K K K K K K K K K K K K K R R R R R R R R W R R W R R R R R R W W R R R R W R R R R R R R R R R W R H ]  . .| L R R R R R R W W R W W W W R R R W R R W W R W R R R R R R W U L W R R R W W W U K G U G U G G G G G G G G U U U U U U U U U U b b ",
"{ { { { { { { { { X.X.X.{ X.X.X.X.X.X.X.X.X.X.o.X.X.o.o.o.o.o.X.o.X.X.X.X.X.X.{ X.{ { { { { { { { ] ] ] _ _ _ H H T H H H H F F H H v v v v v v v x x x x x x x x < < < < , , * , u , * , , * * , * * * , , , * , , * * = = , , , , , * , * * * , , * * * , * * , , , , * , * * , , * * * * * , * * , * * , * * * * , , , , , , , , , , , , , , , , , , u u < < < < < < < < < < < < < < x x x x x x x x x v v v v v v n n n H H F H F F F F F F F F F F H H F F F H F H H T H H T T H H H T H H H H T T T ] ] ] ] { { { { { { { X.X.X.X.X.o.o.o.o.o.o.+.+.+.+.@.o.o.@.@.@.@.@.@.@.@.| | | | |  . .| |  .U | hXbX6.L  . . . . .W  . .W W W W W W W W W W W U W W W W W U W U W W U U I U U U U U G U U U U U G G U U b G b b G b G G G b G G G G G G G G G G G G G G G G R R v F u.u.W G G G R R K K G K K K K K K K K K K K K K G R  .R F R W W R R R W R R R R W R R R R R R W R R R R R R R R R R R R R R W R R R H H | R R  .R R R R W W W W W R R R R R W W R R W W W W R R R W W W L R W W R R L I U U L U U U U U G G G G G G U G G G U U U G G U U U G b ",
"` { ` { { { { { { X.X.X.X.X.X.X.X.X.o.o.X.o.X.o.o.o.o.o.X.X.o.X.o.X.X.X.X.X.X.X.X.{ { { { { { { { ] ] ] _ _ _ H H H H H H H F F H F v v v v v v v x x x x x x x f < < < < , , , , , * * * , , , , * * * , , , * , , = * * = , , , , , , * * * * * * * * * , , , * , , , , , * * , , * * * , , , , * * , * , * * * * , , , , , , , , , , , , , , , , , , u x u < < < < < < < < < < < < < u x x x x x x x x v v v v v v v n n F n v v F F F F F F F F F F H H H F H F F H T T H H T T H H T T T T H H T T ] ] ] | ] { { { { { { } { { X.o.X.o.o.o.o.+.+.+.+.+.o.o.+.+.@.@.@.@.@.@.@.@.| | | | @. .| |  .| ' ] m.!.] |  .R W  . .W  . .W W W W W W W W W W W W W W W W W W U U W U I U U U U U G G U U U G U U G G U U b b b b G G G G b G G G G G G G G G G G G G G G G G K R F F  .3.R F G G L G K K K K K K K K K K K K K K K K G R u.3.F R W W W R R W R R W R W R R R R R W W R R R R R R R R R R R R R R W W R R | | | R R R R R R W R R W W W W R R W W W W R R R R W W R R R W W W R R W L R R U U G U R R G G G K U U G G G U U U G G U G U U G G U G G b ",
"{ { { { { { { { { X.X.X.X.X.X.X.X.o.X.X.X.X.o.X.X.+.+.+.o.o.o.X.X.X.X.X.X.X.X.X.X.{ { { { { { { { ] ] ] _ _ _ H H H H H H F F F F F H v v v v v v x x x x x < < u < < < , , , , , , , * , , * * * * * * , , , , , , = = * * , , , , * , * * * * * * * * * , , , * * * , , , , * * , , * * , * , , * * , , , , * * * , , , , * * , , , , , , , , , , , , u x u < < < < < < < < < < f f < < x x x x x x x x v v v v v v v n n n n v v F F F H F F F F F F H H H F F F F H H T T H H H H H T T T T H T T ] ] ] ] ] { { { { { { { o.{ { o.o.o.X.o.o.+.+.+.+.+.+.o.+.+.+.+.@.@.@.@.@.@.@.| | | | |  .| |  .| | L | | |  .L |  . . .W  . .W W W W W W W W W W W W W W W W W W U U U U K K U U U G G U G G U G U U G G U U G b G G G G G G b G G G G G G G G G G G G G G G G F G R R F F R G G G L L G K K G K K G K K K K K K K K K K G R u.3.F G R W W W W W R R R R R R W W R R R R W W W W R R R R W R W R R R W W R R | | | R R R W W W W R R W W W R R R W W W W R R R W W W R R W W W W R L R R R R G W G G G R G G G G U U U U U U U U G G G G U G G G U U U b ",
"{ { { { { { { { X.X.X.X.X.X.X.X.X.X.X.X.o.X.o.o.o.+.o.+.o.o.X.X.o.X.X.X.X.X.X.X.X.X.{ { { { { { { { ] _ _ _ _ H H H H H H F F F F H v v v v v v v x x x x x u < u < < , , , , , , , , * , , , * * * * * , * * , * , * * * * , , , , * * * * * * * * * * , * * * * * * * , , * * , , , * * * , , * * * , , , , , , , , , * , * * * * * , , , , , , , , , < u < < < < < < < < < < f f f f < f x x x x x x x x v v v v v v v n n n v v v n F F F F F F F F F F F F F F F H H H T T H H H H T T T T H T T ] ] ] ] ] { { { { { { { } { } o.o.o.X.o.o.o.+.+.+.+.o.o.+.+.+.@.@.@.@.@.@.@.@.| | | | | | | |  . .L  .W U W R L R  . . .W W W W W W W W W W W W W W W W W W W W W U U L U K G G G U U U G G G G G U U U U G U G G U G U G b b b b G G G G G G G G G G G G G G G G G F R R F G G W W L G G K G G K G G K K K K K K K K K W G F R  .G G W W R R W W R R K K W R W W R R R R W W W W R R R R W W R W R W W W W W R | | R R R W W W W W R W W R R R R W W W W R R R W W W R R W W W W R R R R R R R U L L G K U U L U G U U U U U U U G G G G G G G G U U U G "
};
