/* XPM */
static char *tp2[] = {
/* columns rows colors chars-per-pixel */
"512 512 256 2 ",
"   c #000005",
".  c #00000B",
"X  c #000213",
"o  c #00041B",
"O  c #000623",
"+  c #00032C",
"@  c #00082C",
"#  c #000826",
"$  c #020434",
"%  c #010A33",
"&  c #03063C",
"*  c #09053D",
"=  c #010A3D",
"-  c #08083E",
";  c #040743",
":  c #0A0643",
">  c #010944",
",  c #090846",
"<  c #0C074B",
"1  c #020B4C",
"2  c #0A094C",
"3  c #050749",
"4  c #10074D",
"5  c #00114B",
"6  c #020D53",
"7  c #0B0A53",
"8  c #030E5A",
"9  c #0B0C5B",
"0  c #0B0752",
"q  c #110954",
"w  c #120A59",
"e  c #110751",
"r  c #001156",
"t  c #01115C",
"y  c #07125D",
"u  c #10115D",
"i  c #050F62",
"p  c #0C0E63",
"a  c #0C0E6B",
"s  c #050F6A",
"d  c #011363",
"f  c #0A1163",
"g  c #01156B",
"h  c #0A116C",
"j  c #01196D",
"k  c #011A65",
"l  c #0D0F73",
"z  c #021673",
"x  c #0B1274",
"c  c #011974",
"v  c #02167A",
"b  c #0B137B",
"n  c #011B7B",
"m  c #0A197C",
"M  c #111174",
"N  c #00227D",
"B  c #032376",
"V  c #052371",
"C  c #0C1583",
"Z  c #011D83",
"A  c #0B1A84",
"S  c #021D8B",
"D  c #0B1B8C",
"F  c #091688",
"G  c #151688",
"H  c #031E93",
"J  c #0B1B93",
"K  c #0A1D9A",
"L  c #171A97",
"P  c #120E82",
"I  c #251899",
"U  c #291693",
"Y  c #002284",
"T  c #00238C",
"R  c #02298A",
"E  c #002493",
"W  c #002A94",
"Q  c #01249B",
"!  c #002A9C",
"~  c #0B2299",
"^  c #023399",
"/  c #112996",
"(  c #0B1EA5",
")  c #191DA5",
"_  c #161FB2",
"`  c #241BA7",
"'  c #2F1CAF",
"]  c #0324A3",
"[  c #002BA4",
"{  c #002CAC",
"}  c #0A23A9",
"|  c #1522A9",
" . c #0032AC",
".. c #0136A6",
"X. c #012DB3",
"o. c #022DBB",
"O. c #0A27B7",
"+. c #1726B7",
"@. c #0032B4",
"#. c #0032BC",
"$. c #023AB9",
"%. c #1533B8",
"&. c #2624B8",
"*. c #2A21B1",
"=. c #20229F",
"-. c #471CB7",
";. c #0143B9",
":. c #0F4BAE",
">. c #1652A6",
",. c #032DC3",
"<. c #0A2DC8",
"1. c #162BC8",
"2. c #0133C4",
"3. c #003AC4",
"4. c #0134CB",
"5. c #013BCC",
"6. c #0C35C9",
"7. c #1335CB",
"8. c #0B2ED4",
"9. c #182DD6",
"0. c #0234D3",
"q. c #013AD3",
"w. c #013BDB",
"e. c #0935D8",
"r. c #1736D9",
"t. c #272AC9",
"y. c #3728C9",
"u. c #262CD8",
"i. c #352CDA",
"p. c #2537DB",
"a. c #3334DA",
"s. c #063AE5",
"d. c #1738E7",
"f. c #183CF4",
"g. c #1634E8",
"h. c #282EE6",
"j. c #372EE6",
"k. c #2736E8",
"l. c #3835EA",
"z. c #2838F5",
"x. c #3838F8",
"c. c #302FF2",
"v. c #3C1FC0",
"b. c #4725CB",
"n. c #452DEA",
"m. c #4433EC",
"M. c #4C3BFE",
"N. c #4636F8",
"B. c #533BFE",
"V. c #5938FB",
"C. c #4F2FF1",
"Z. c #663BFE",
"A. c #763BFE",
"S. c #4D1FC2",
"D. c #0146C9",
"F. c #0249D7",
"G. c #1744D8",
"H. c #0054D9",
"J. c #0751CC",
"K. c #2644DB",
"L. c #0546E6",
"P. c #1944E9",
"I. c #0058E6",
"U. c #0448FA",
"Y. c #1A47F9",
"T. c #0459F7",
"R. c #1A59FE",
"E. c #195BE5",
"W. c #2745E9",
"Q. c #2848FA",
"!. c #3848FC",
"~. c #2758FF",
"^. c #3757FE",
"/. c #3546EC",
"(. c #0164EA",
"). c #0369F8",
"_. c #1967FF",
"`. c #0274FC",
"'. c #027CFE",
"]. c #0A77FD",
"[. c #1878FF",
"{. c #1670E8",
"}. c #2767FF",
"|. c #3867FF",
" X c #2777FF",
".X c #3877FF",
"XX c #2D6BEB",
"oX c #1A6DD1",
"OX c #4C44FF",
"+X c #4C4BFE",
"@X c #4447FD",
"#X c #5344FE",
"$X c #534BFF",
"%X c #5B48FE",
"&X c #4757FE",
"*X c #5758FF",
"=X c #4645EE",
"-X c #6848FF",
";X c #7748FF",
":X c #6857FF",
">X c #7757FF",
",X c #4867FF",
"<X c #5767FF",
"1X c #4777FF",
"2X c #5777FF",
"3X c #5965EF",
"4X c #6866FF",
"5X c #7665FF",
"6X c #6776FE",
"7X c #7876FE",
"8X c #4950DD",
"9X c #883DFF",
"0X c #8748FF",
"qX c #9649FF",
"wX c #8757FF",
"eX c #9656FF",
"rX c #A755FF",
"tX c #AF51FF",
"yX c #8766FF",
"uX c #9863FF",
"iX c #8A75FF",
"pX c #A967FF",
"aX c #CC5AFE",
"sX c #E963FE",
"dX c #DD60FE",
"fX c #0184FF",
"gX c #018BFF",
"hX c #0B87FF",
"jX c #1887FF",
"kX c #0193FF",
"lX c #019BFF",
"zX c #0B96FF",
"xX c #1797FF",
"cX c #2787FF",
"vX c #3887FF",
"bX c #2D97FE",
"nX c #01A3FF",
"mX c #05AAFE",
"MX c #18A8FE",
"NX c #04B6FE",
"BX c #18B7FE",
"VX c #2BB1FE",
"CX c #2A90D5",
"ZX c #4786FF",
"AX c #4F90FE",
"SX c #6E8CFE",
"DX c #4FADFE",
"FX c #63A4FD",
"GX c #03C7FE",
"HX c #12CFFE",
"JX c #2FCBFE",
"KX c #21E3FE",
"LX c #4CD2FE",
"PX c #66E0FE",
"IX c #2B82BF",
"UX c #8A96FE",
/* pixels */
"& & & & & & & & & & & & & & & & & & & & & & & & > > > > > > > > > > > > > > > > > > > > > > > > > > > > > > > > > > > > > > > > > > > > > > > > > > > > > > > > > > > > > > > > , , 2 2 2 2 2 2 2 2 2 2 2 2 2 2 2 2 2 2 2 2 2 2 2 2 2 2 2 2 2 2 2 2 2 2 2 2 2 2 2 2 2 2 2 , , , 2 2 2 , , , , , , , , , , , , , , , - - - - , , > > > > > > & & & & & & & & & & & & & & & & & & & > & & & > > > > > > > > > > > > > > > > > > > > > > > > > > > > > > > > > > > > > > > > > > & > > > > > > > > > > > > > > > > > > > > > > > > > > > > > > , , , , , , , , , , , , , , , , , , , , , , - - - - - - - - - & > & - & & & & & & & & & & & & & & & & & & & > & & r r 5 & & & & & & & > & & & > & & & & & > - - - , - - - - - - - - , - , - - - & & & & - - & & & & & & & & & & & & & & & & & & & & & & & & & & & & & & % % % $ % % $ $ $ $ $ $ $ $ $ $ $ $ $ $ $ $ $ $ $ $ $ $ $ $ $ $ $ $ $ $ $ $ $ $ $ $ $ $ $ $ $ $ % % $ $ $ $ $ $ $ $ $ $ $ $ $ $ $ $ $ $ $ $ $ $ $ $ # $ $ # $ $ # $ # # # # # $ $ $ $ $ $ $ $ $ $ $ $ $ $ $ $ $ $ $ $ $ $ $ $ $ $ $ $ $ $ $ ",
"$ $ $ $ $ $ $ $ $ $ $ $ $ $ $ $ $ & $ $ $ & & & & & & & & & & & & & & & & & & & & & & & & & & & & > & & ; ; & & & > > ; & ; > & ; ; ; ; ; ; ; ; ; ; ; & & ; & & ; ; ; ; ; ; ; ; ; ; ; ; ; ; ; > ; ; ; 2 ; ; 2 2 2 2 2 2 2 2 2 2 2 2 2 2 2 2 2 2 2 2 2 2 : 2 2 : : : : : : : : : : ; ; : : ; ; : & & * * & & & & & & & & & & & & & & & & & & & & & & & & & & & & & & & & & & & & & & & & & & & & & & & & & & & & ; > ; ; ; & & & & ; ; ; ; ; ; & & & & & & & & & & & & & & & & & & & & & & & & & & & & & & & & & & & ; & & & ; & ; ; ; ; & & ; ; ; ; ; ; ; ; ; ; & & & & & & & * & & & & & & & & & & & & & & & & & & & & & & & & $ $ $ $ $ $ & & $ $ & $ & & $ & > & $ & $ & & & & & & & & & & & & & & & & & & & & & & & & & & & & & & & & & & & & & & & & & & & & & & & & & $ $ $ $ $ $ $ $ $ $ $ $ $ $ $ $ $ $ $ $ # # # # # # # # # # # # # # # # # # # # # # # # # # # # # # # # # # # # # # # # # # # # # # # # $ # # # # # # # # # # # # # # # # # # # # # # # # # # # # # # # O # # O # # # # # # # # # # # # # # # # # # # # # # # # # # # # # # # # # # ",
"$ $ $ $ $ $ $ $ $ & & & & & & & & & & & & & & & & & & & & & & & & & & & & > > > > & > > > > > > > > > > > > > > > > > > > > > > > > > > > > > > > > > > > > > > > > > > > > > > ; > ; > > > > 1 1 1 2 2 2 2 2 2 2 2 2 2 2 2 2 2 2 2 2 2 2 2 2 2 2 2 2 2 2 2 2 2 2 2 2 , 2 , , : : : : : : , : : : : & : : : & * & & & & & & & & > & & & & & & & & & & & & & & & & & & & & & & & & & & & & & & & & & & > > > > > > > > > > > > > > > > > > > > > > > ; > > > > ; > > ; > & ; > ; & > & & ; > > > > ; ; ; ; > > ; > > > > > ; ; > > > ; > ; > > > > > > > , , : , , : : : * * & * * * * * & * * & & & & & & & & & & & & & & & & & & & & & & & & & & & & & & & & & > & & & & & & & & & & & & & & & & & & & & & & & & & & & & & & & & & & & & & & & & & & & & & & & & & & & & & & & & & & $ $ $ $ $ $ $ $ $ $ $ $ $ $ $ $ $ $ $ $ $ $ $ $ # $ $ $ $ # # # # # # # # # # # # # # # # # $ $ $ $ # $ $ # $ $ $ $ $ # # $ $ $ $ $ # # # $ $ # # # # # # # # # # # # # # # # # # # # # # # # # # # # # # # # # # # # # # # # # # # # $ $ # # # # $ $ $ $ $ $ # # $ $ # # ",
"$ $ $ $ $ $ $ % % & & & & & & & & & & & & & & & & & & & & & & & & & > > > > > > > > > > > > > > > > > > > > > > > > > > > > > > > > > > > > > > > > > > > > > ; > > > > > > > > > > ; ; 1 1 1 1 1 1 2 2 2 2 2 2 2 2 2 2 2 2 2 2 2 2 2 2 2 2 2 2 2 2 2 2 2 2 2 2 2 2 2 2 , , : , : : , ; : : : : : : & : * * & & & & & & & & & & & & & & & & & & & & & & & & & & & & & & & & & & & & & & & & & & & & > > & ; ; > > > > > > > ; > > > > > > > > > > > ; > > > ; ; ; > > > > > > & > ; & & ; > > & ; > & ; & ; > > > > > > > > > > > > > > > > > > > > > ; ; , , ; , ; : : & & & * : * * * & & & & & & & & & & & & & & & & & & & & & & & & & & & & & & & & & & & & & & & & & & & & & & & & & & & & & & & & & & & & & & & & & & & & & & & & & & & & & & & & & & & & & & & & & & & & & & & & $ $ $ $ $ $ $ $ $ $ $ $ $ $ $ $ $ $ $ $ $ # # # # $ $ $ # # # # # # # # # # # # # # # # # # # # $ $ # # $ $ $ $ $ $ $ # $ $ $ $ $ $ $ $ $ $ $ # # # # # # # # # # # # # # # # # # # # # # # # # # # # # # # # # # # # # # # # # # # $ $ # # # # $ $ $ $ $ $ $ $ $ # $ # ",
"& $ $ % $ $ & & & $ & & & & & & & & & & & & & & & & & & & & & > > > > > > > > > > > > > > > > > > > > > > > > > > > > > > > > > > > > > > > > > > > > > > > > > ; > > ; > > > > > > > > 3 1 2 2 1 1 2 2 2 2 2 2 2 2 2 2 9 2 2 9 2 2 2 2 2 2 2 2 2 2 2 2 2 2 2 2 2 2 2 2 2 : , : : : : : : : : : : ; ; : & & ; & & & & & & & & & & & & & & & & & & & & & & & & & & & & & & & & & & & & & & & & & & & > > > ; ; > ; ; > ; > > > > ; > > > ; > > > > > > > > ; ; > > > & ; > > > > ; ; & & ; ; ; ; ; ; ; ; > ; ; ; ; > > > > > > > > > > > > ; ; ; > > ; , , , > > > : : ; , : ; : & & & & & & & & & & & & & & & & & & & & & & & & & & & & & & & & & & & & & & & & & & & & & & & & & & & & & & & & & & & & & & & & & & & & & & & & & & & & & & & & & & & & & & & & & & & & & & & & & & & & $ $ $ $ $ $ $ $ $ $ $ $ $ $ $ $ $ $ $ $ $ $ # # $ $ # # $ # # # # # # # # # # # # $ # $ # # # $ # $ # # $ $ $ $ $ $ $ $ $ $ $ $ $ $ $ $ $ # # $ # $ # # # # # # # # # # # # # # # # # # # # # # # # # # # # # # # # # $ # # # # # $ $ $ $ $ $ $ $ $ $ $ $ $ $ $ $ $ # # ",
"& $ $ $ $ $ & & $ $ & $ & & $ & & & & & & & & & & & & > & > > > > > > > > > > > > > > > > > > > > > > > > > > > > > > > > > > > > > > > > > > > > > > > > > > > > > > > > > ; > ; 3 1 1 1 1 2 2 1 1 2 2 2 9 2 2 2 2 2 2 9 9 9 9 2 2 2 2 2 2 2 2 2 2 2 2 2 2 2 2 2 2 2 2 2 2 2 2 2 : : : : , : : ; ; : ; ; & & & ; ; & & & & & & & & & & & & & & & & & & & & & & & & & & & & & & & & & & & & & & > > > > > > > ; ; > ; ; > > > > > > > > > > > ; > > > > > > > > > > ; > > > > > > > ; & > ; ; ; ; ; ; > ; ; > > > > ; ; > > > > > > ; > > > > > > > , : > , > > , , > : , , ; > : : & & ; ; & & : & & & & & & & & & & & & & & & & & & & & & & & & & & & & & & & & & & & & & & & & & & & & & & & & & & & & & & > & & & & & & & & & & ; & & & & & & & & & & & & & & & & & & & & & & & & & & & & $ $ $ $ $ $ $ $ $ $ $ $ $ $ $ $ $ $ $ $ $ $ # # # $ # # # # # # $ # # # # $ $ $ $ # # # # $ # # $ $ $ $ $ $ $ $ $ $ $ $ $ $ $ $ $ $ $ $ $ $ $ $ # $ # # # # # $ # # # # # # # # # # # # # # # # # # # # # # # # # # # # # $ $ $ $ # $ $ $ $ $ $ $ $ $ $ $ $ $ # # ",
"& & $ & $ & & $ $ & $ $ & $ % & & & & & & & & & & & & > > > > > > > > > > > > > > > > > > > > > > > > > > > > > > > > 1 > > > > > > > > > > > > > > > > > > > > > > > > > > > 1 1 1 1 1 1 1 1 2 1 2 2 2 2 2 2 9 2 9 9 9 2 2 9 2 9 9 9 9 2 2 2 2 2 2 2 2 2 2 2 2 2 2 2 2 2 2 2 2 2 , , : : : : ; : ; : ; ; & & & ; ; & & & & & & & & & & & & & & & & & & & ; & & & & & & & & & & & & & & & & & ; > > > ; > > ; > > > > ; > > > > > > > 1 1 > > > > > > > > > > > > > > ; > > > > > > > > > > ; > ; > > ; ; > > > > > > > > > 1 > 1 1 1 > 1 1 > ; > > > , , , : ; , , , : , > , > : ; : ; : : > ; > : ; & & & & ; & & & & & & & & & & & & & & & & & & & & & & & & & & & & & & & & & & & & & & & ; ; & > ; & & & & & & > ; ; & ; & & & & & & & & & & & & & & & & & & & & & & & & & & & & & & & & $ $ $ $ $ $ $ $ $ $ $ $ $ $ $ $ $ $ $ $ $ $ $ # # $ $ # # # $ $ $ $ $ # # # $ $ $ $ $ # # $ # # $ $ $ $ $ $ $ $ $ $ $ $ $ $ $ $ $ $ $ $ $ $ $ $ # $ $ $ # # # # $ # # # # # # # # # # # # # # # # # # # # # # # $ $ # # # $ $ $ $ $ $ $ $ $ $ $ $ $ $ $ $ # # $ $ ",
"& & $ & $ & & & % & & & & & & & & & & & & & & & & & & > > > > > > > > > > > > > > > > > > > > > > > > > > > > > 1 > > 1 1 1 1 1 > > 1 > > 1 > > > > > > > > > > 1 > 1 1 1 1 1 1 1 1 1 1 2 1 2 2 2 2 2 2 9 9 9 9 2 2 9 9 9 9 9 9 9 9 9 9 9 9 9 9 2 2 9 9 9 2 2 2 2 2 2 2 2 2 2 2 2 2 2 : 2 , ; : , > ; ; ; ; ; ; ; ; ; & ; & & & & & & & & & & & & & & & & & & & & & & & & & & & & & & & ; ; & ; ; ; ; > ; > > > ; > > > > > > > > > > 1 1 1 > > 1 > > > > > > > > ; > > > > > > > > ; > ; ; & > ; > > ; > > ; > > > > > > 1 1 1 1 1 1 1 1 1 1 > > > > > 2 , > > , > , > > , , , : : ; > ; ; : > ; ; ; ; & & & > & & & & & & & & & & & & & & & & & & & & & & & & & & & & ; ; & & > ; & & ; ; ; ; > > ; ; & & & ; & ; > > ; ; ; & & & ; ; & & & & & & & & & & & & & & & & & & & & & & & & & & & & & & & & $ $ $ $ $ $ $ $ $ $ $ $ $ $ $ $ $ $ $ # $ $ $ $ $ $ $ $ $ $ # # # $ $ $ $ $ # $ $ $ $ $ $ $ $ $ $ $ $ $ $ $ $ $ $ $ $ $ $ $ $ $ $ $ $ $ $ $ $ $ # # # # $ $ # # # # # # # # # # # # # # # # # # $ $ $ $ $ $ # # $ $ $ $ $ $ $ $ $ $ $ $ $ $ $ $ $ $ $ $ ",
"& & & & $ $ & % & & & & & & & & & & & & & & & & & & & & > > > > > > > > > > > > > > > > > > > > > > > > 1 1 1 1 1 > > 1 1 1 1 1 1 1 1 1 > > > > > 1 1 > > > > 1 1 1 1 1 1 1 1 1 1 1 1 2 1 1 1 1 2 2 2 2 2 2 2 2 9 9 9 9 2 9 2 9 9 9 2 2 9 2 2 9 2 2 9 9 2 2 2 2 2 2 1 1 2 2 2 1 2 : 2 ; : ; ; ; ; ; ; ; ; ; ; ; ; & & & & & & & & & & & & & & & & & & & & & & & & & & & & & & & & & & & & & ; ; ; ; ; > ; ; > > > > > > > > > 1 1 1 1 1 1 1 > > > > > > > > > > > > > > ; > > > > > > > ; ; > 1 ; ; ; ; > > ; > > > > > > 1 1 1 1 1 1 1 1 1 1 1 1 1 1 1 1 : : : > > > , , ; ; > ; ; ; ; ; ; ; ; ; ; & & ; & & & & & & & & & & & & & & & & & & & & & & & & & & & & & & & ; ; & & & ; ; ; ; ; ; ; > > & & & ; ; > ; ; ; & ; ; & ; & & & & & & & ; & & & > & & & & & & & & & & & & & & & & & & & & $ & & & $ $ $ $ $ $ $ $ $ $ $ $ $ $ $ $ $ $ $ $ # # $ $ # # # # $ $ $ $ # $ $ $ $ $ $ $ $ $ $ $ $ $ $ $ $ $ $ $ $ $ $ $ $ $ $ $ $ $ $ $ $ $ $ $ $ $ $ $ # # # # $ $ # # # # # # # # # # # # # # # # # # # # # # $ $ # $ $ $ $ $ $ $ $ $ $ $ $ $ $ $ $ $ $ $ $ $ ",
"$ & & & $ $ % $ & & & & & & & & & & & & & & & & & & & & > > > > > > > > > > > > > > > > > > > > > > > > 1 1 1 1 1 1 1 1 1 1 1 1 1 1 1 1 > > > > > 1 1 1 1 1 1 1 1 1 1 1 1 1 1 1 1 1 1 1 1 1 1 2 2 2 2 9 2 9 9 9 9 9 9 9 9 9 9 9 9 9 9 9 9 2 9 9 9 9 9 9 2 2 2 2 2 2 2 2 2 2 1 2 2 2 1 2 2 ; ; ; ; ; ; ; ; ; ; ; ; ; & & & & & & & & & & & & & & > & & & & & & & & & & & & & & & & & & ; ; ; ; > ; ; ; ; ; > > > > > > > 1 > 1 1 1 1 1 1 1 1 1 1 > > > 1 1 1 > > > > > > > > > > > > > > ; > > > ; ; ; > > ; > > > > 1 1 1 1 1 1 1 1 1 1 1 1 1 1 1 1 1 1 > , > ; > ; ; > > ; ; ; , > ; ; ; ; ; > ; ; > ; ; & & & > ; & & & & & & & & & & & & & & & & & & & & & & & ; ; ; & & & & ; ; ; > ; ; ; ; & ; ; & ; ; ; ; ; ; > > > > & ; & & & ; & ; ; ; ; ; ; ; & & & & & & & & & & & & & & & & & & & & & & & & $ $ $ $ $ $ $ $ $ $ $ $ $ $ $ $ $ $ $ $ $ $ $ $ $ # # $ $ $ $ $ # # $ $ $ $ $ $ $ $ $ $ $ $ $ $ $ $ $ $ $ $ $ $ $ $ $ $ $ $ $ $ $ $ $ $ # $ $ $ $ # # # $ $ $ $ # # # # # $ $ # # # # # # # # $ # # # # $ $ $ $ $ $ $ $ $ $ $ $ $ $ $ $ $ $ $ $ $ $ $ $ ",
"$ $ & & & & $ % & & & & & & & & & & & & & & & & & & & > > > > > > > > > > > > > > > > > > > 1 1 1 1 1 1 1 1 1 1 1 1 1 1 1 1 1 1 1 1 1 1 1 1 1 1 1 1 1 1 1 1 1 1 1 1 1 1 1 1 1 1 2 2 1 1 1 1 2 2 2 2 9 9 9 9 9 9 9 9 9 9 9 9 9 9 9 9 9 9 9 9 9 9 9 9 9 9 9 2 2 2 9 6 2 2 2 2 2 2 2 2 2 2 2 2 > ; ; ; ; ; > > ; ; ; ; ; ; ; ; & ; & & & & & ; ; & & & & & & & & ; & & & & & > ; & ; & & > ; ; ; > > ; ; ; > ; > > > ; ; 1 1 > 1 1 1 1 1 1 1 1 1 1 1 1 1 1 1 1 > > > > > > > > > > > > > > > > ; ; r r ; > > > > 1 > 1 1 1 1 1 1 1 1 1 1 1 1 1 1 1 1 1 1 1 > > > > , > > > : : > , , , > > > : ; ; > > ; > ; ; & & ; > > & ; ; & & & & & & & & & & & & ; ; & & & & > ; > ; ; ; ; ; ; ; > > ; ; ; ; ; > > & ; ; ; ; ; ; > > ; ; & & ; & & & ; ; ; ; ; ; ; ; ; > & & > & & & & & & ; & & & & & & & & & & & & & & $ $ $ $ $ $ $ $ $ $ $ $ $ $ $ $ $ $ $ $ $ $ $ $ $ $ $ # $ $ # # # # $ # $ $ $ $ $ $ $ $ $ $ $ $ $ $ $ $ $ $ $ $ $ $ $ $ $ $ $ $ $ $ $ $ $ $ $ $ $ $ # # $ $ # # # # # $ $ # # # # # # # $ $ # $ $ # $ $ $ $ $ $ $ $ $ $ $ $ $ $ $ $ $ $ $ $ $ $ $ $ ",
"$ $ & & & & $ & & & & & & & & & & & & & & & & > & & > > > > > > > > > > > > > > > > > > > 1 1 > 1 1 1 1 1 1 1 1 1 1 1 1 1 1 1 1 1 1 1 1 1 1 1 1 1 1 1 1 1 1 1 1 1 1 1 1 1 1 1 1 2 2 9 2 1 1 2 9 2 9 9 9 9 9 9 9 9 9 9 9 9 9 9 9 9 9 9 9 9 9 9 9 9 9 9 9 9 9 2 2 9 9 9 9 9 9 9 2 9 2 2 1 2 2 3 ; > ; ; ; > > ; > > ; ; ; > ; ; > & & & & & & ; > & & & & & & & & & & & & & & & ; ; ; ; > ; ; ; ; > ; ; > > ; ; > > 3 1 1 1 1 1 1 1 1 1 1 1 1 1 1 1 1 1 1 1 1 > > > > > > > > > > > > ; > > > > ; 1 r > > > > > > 1 1 1 1 1 1 1 1 1 1 1 1 1 1 1 1 1 1 1 1 1 1 > , > > ; , , , ; , : > > ; : , : ; > ; ; ; ; > ; & > > ; ; > > > ; & & & & & > ; > & & ; & ; ; & ; > ; ; ; > ; ; ; > ; > > > ; ; ; ; ; ; ; > ; ; ; ; > ; > > > > ; ; ; > > ; > > > > > ; > > ; & & ; & & & ; & & & & & & & & & & & & & & & & & $ $ $ $ $ $ $ $ $ $ $ $ $ $ $ $ $ $ $ $ $ $ $ $ $ $ $ # $ $ $ $ $ # # $ $ $ $ $ $ $ $ $ $ $ $ $ $ $ $ $ $ $ $ $ & $ $ $ $ $ $ $ $ $ $ $ $ $ $ $ $ # # $ $ $ # # # # # $ $ $ # # # # # # $ $ $ $ $ $ $ $ $ $ $ $ $ $ $ $ $ $ $ $ $ $ $ $ $ $ $ $ $ $ ",
"& & & & & & & & & & & & & & & & & & & & & & & & > > > > > > > > > > > > > > > > > 1 > 1 1 1 1 1 1 1 1 1 1 1 1 1 1 1 1 1 1 1 1 1 1 1 1 1 1 1 1 1 1 1 1 1 1 1 1 1 1 1 1 1 1 1 1 1 2 9 1 1 1 1 9 9 9 9 9 9 9 9 9 9 9 9 9 9 9 9 9 9 9 9 9 9 9 9 9 9 9 9 9 9 9 9 9 9 9 9 2 1 9 2 9 2 1 3 1 1 2 3 2 1 1 ; ; ; ; ; ; ; ; ; ; ; > > > ; ; & & & & ; ; ; & & & & & > & & & & & & & ; > > ; ; ; ; ; ; ; > > ; > > > > > 1 1 3 1 1 1 1 1 1 1 1 1 1 1 1 1 1 1 1 1 1 1 1 > > > > > > > > > > > > > > > > > > ; ; > > > > > 1 > > 1 1 1 1 1 1 1 1 1 1 1 1 1 1 1 1 1 1 3 1 1 3 > , > , > > ; , > ; > > ; ; ; > > ; > ; > ; > ; & ; ; > ; ; ; ; & ; ; ; > ; ; ; > > > > ; ; > ; ; ; ; ; ; ; ; ; ; ; ; > > > > > > ; ; ; ; ; ; ; ; ; ; ; > ; > > ; ; ; > > ; ; > ; ; ; > ; ; ; ; > ; & & ; & 1 y ; & & & & & & & & & & & & & & $ $ $ $ $ $ $ $ $ $ $ $ $ $ $ $ $ $ $ $ $ $ $ $ $ $ # # $ $ $ $ $ $ $ $ $ $ $ $ $ $ $ $ $ $ $ $ $ $ $ $ $ $ $ $ $ $ $ $ $ $ $ $ $ $ $ $ $ $ $ $ $ $ $ $ # # # $ $ # $ # # # # $ $ # $ $ $ $ $ $ $ $ $ $ $ $ $ $ $ $ $ $ $ $ $ $ $ $ $ $ $ $ $ $ $ ",
"& & & & & & & & & & & & & & & & & & & & & & & & > > > > > > > > > > > > > > > 1 1 1 1 1 1 1 1 1 1 1 1 1 1 1 1 1 1 1 1 1 1 1 1 1 1 1 1 1 1 1 1 1 1 1 1 1 1 1 1 1 1 1 1 1 1 1 2 2 9 9 9 9 6 2 9 9 9 9 9 9 9 9 9 9 9 9 9 9 9 9 9 9 9 9 9 9 9 9 9 9 9 9 9 9 9 9 9 9 9 9 9 9 9 2 9 1 6 y 1 1 2 1 2 2 1 1 > > > ; ; ; ; ; ; ; ; > ; > > ; ; & & & & > ; ; & & & > & & & ; ; & & ; ; & > ; ; ; > ; ; ; > ; ; > ; ; > 1 1 1 1 1 1 1 1 1 1 1 1 1 1 1 1 1 1 1 1 1 1 1 > > > > > 1 > > > > > > > > > > > > > > > > > > > > 1 1 1 1 1 1 1 1 1 1 1 1 1 1 1 1 1 1 1 > 1 1 3 > 2 1 > , > > ; , > ; > > ; ; ; > > > > > > > > ; ; ; > ; > ; & ; ; > ; > ; > ; ; > ; ; > > ; > ; ; > ; ; ; ; ; ; > 1 ; > > ; > ; > > > > ; > > > ; > > ; > ; ; ; ; ; > > > ; > > > > > > > ; > ; > > & & & & y B > & ; & & & & & & & & & & & & $ $ & & $ $ $ $ $ $ $ $ $ $ $ $ $ $ $ $ $ $ $ $ $ $ $ $ $ $ $ $ $ $ $ $ $ $ $ $ $ $ $ $ $ $ $ $ $ $ $ $ $ & $ $ $ $ $ $ $ $ $ $ $ $ $ $ $ $ $ $ $ $ $ $ $ # # $ $ $ $ # # # # $ $ $ $ $ $ $ $ $ $ $ $ $ $ $ $ $ $ $ $ $ $ $ $ $ $ $ $ $ $ $ $ $ $ ",
"& & & & & & & & & & & & & & & & & & & & & & & > > > > > > > > > > > > > > > > 1 1 1 1 1 1 1 1 1 1 1 1 1 1 1 1 1 6 1 1 1 1 1 1 1 1 1 1 1 1 1 6 6 1 1 1 1 1 1 1 1 1 1 1 1 9 9 9 9 9 9 9 9 9 6 9 9 9 9 9 9 9 9 9 9 9 9 9 9 9 9 9 9 9 9 9 9 9 9 9 9 9 9 9 9 9 9 9 9 9 9 9 9 2 1 y 9 6 y 1 1 2 1 1 1 1 1 > > > > > > > > > ; ; ; ; ; > > > & & & ; ; & & & & & & & ; ; & ; ; & & & ; ; ; > > ; ; ; > > > ; ; 3 > 1 1 1 1 1 1 1 1 1 1 1 1 1 1 1 1 1 1 1 1 1 1 1 1 1 1 1 1 1 1 > > > > > > > > > > > > > > > > > > > > > 1 1 1 1 1 1 1 1 1 1 1 1 1 1 1 1 1 1 1 1 1 > 1 1 1 > > > > > > > > > ; ; ; > > > > > > > > ; ; ; > > > ; > ; > > ; > > ; ; > ; ; ; > > ; ; > > > > > > > > > ; 1 r 1 > > ; > > > ; ; > > > ; > > > > > ; > > ; > > > > > ; ; > > > > > ; > > > > > > > ; ; > > ; ; & ; & & & & & & & & & & & & & $ & & & & $ $ $ $ $ $ $ $ $ $ $ $ $ $ $ $ $ $ $ $ $ $ $ $ $ $ $ $ $ $ $ $ $ $ $ $ $ $ $ $ $ & $ $ & $ & * * * * * $ & $ $ $ $ $ $ $ $ $ $ $ $ $ $ $ $ $ $ $ $ $ $ $ $ $ $ $ $ $ $ $ $ $ $ $ $ $ $ $ $ $ $ $ $ $ $ $ $ $ $ $ $ $ $ $ $ $ $ $ $ ",
"& & & & & & & & & & & & & & & & & & & & & & & > & > > > > > > > > > > > > > > 1 1 1 1 1 1 1 1 1 1 1 1 1 6 6 6 6 1 1 6 6 6 6 6 6 6 6 1 1 1 1 6 1 1 1 6 1 1 1 1 1 1 6 1 9 9 9 9 9 9 9 9 9 9 9 9 9 9 9 9 f y 9 9 9 9 9 9 9 9 9 9 9 9 9 9 9 9 9 9 9 9 9 9 9 9 9 9 9 9 9 9 9 2 1 6 6 1 1 1 1 1 1 1 1 1 1 1 > > > > > > > > > > ; ; > > > > > > > ; & & > > & & & & & ; & ; > ; ; ; ; ; ; > > ; ; ; > > > > 1 > 1 1 1 1 1 1 1 1 1 1 1 1 1 1 1 1 1 1 1 1 1 1 1 1 1 1 1 1 > 1 1 > > > > > > > > > > > > > > > > > > > 1 > 1 1 1 1 1 1 1 1 1 1 1 1 1 1 1 1 1 1 1 1 1 1 1 1 1 1 1 1 1 > > > > > > > > > > > > > > > > ; ; ; ; > > > > ; ; > ; 1 1 > ; > > ; > > > > > > > > > > > > > 1 ; > 1 > > > > ; > > > ; ; > ; ; > > > ; > > > > > > > > > > > > > > > > > > > > ; > > > > ; ; ; & ; > & > ; & & & & & & & & & & & & & & & & & & & $ $ $ $ $ $ $ $ $ $ $ $ $ $ $ $ $ $ $ $ $ $ $ $ $ $ $ $ $ $ $ $ $ $ $ $ $ & & & & $ * * * * * * * * * * $ $ $ $ $ $ $ $ $ $ $ $ $ $ $ $ $ $ $ $ $ $ $ $ $ $ $ $ $ $ $ $ $ $ $ $ $ $ $ $ $ $ $ $ $ $ $ $ $ $ $ $ $ $ $ $ $ $ $ $ ",
"& & & & & & & & & & & & & & & & & & & & & & > > & 5 r & > > > > > > > > > 1 1 1 1 1 1 1 1 1 1 1 1 1 6 6 6 6 6 6 6 6 6 6 6 6 6 6 6 6 6 1 1 1 1 6 1 1 1 1 1 1 1 1 1 1 1 1 1 9 9 9 9 9 9 9 9 9 9 9 9 9 9 9 y y 9 9 9 9 9 9 9 9 9 9 9 9 9 9 9 9 9 9 9 9 9 9 9 9 9 9 9 9 9 9 9 9 9 9 9 6 9 1 1 1 1 1 1 1 1 > > > > > ; ; > > ; ; > ; ; ; > ; ; > & & & ; ; ; > ; ; ; ; & & ; ; ; ; ; ; ; ; > > ; > > 1 1 1 1 1 1 1 1 1 1 1 1 1 1 1 1 1 6 1 1 1 1 1 1 1 1 1 1 1 1 1 1 > > > > > > > > > > > > > > > > > > > 1 > > > > 1 1 1 1 1 1 1 1 1 1 1 1 1 1 1 1 1 1 1 1 1 1 3 1 1 1 > 1 ; 3 > ; > > > > > > > > > > > > ; > > ; ; ; > > > > ; > ; ; 1 > ; ; ; ; ; > > > > ; ; ; > ; > ; ; ; ; 1 > > > > ; ; > > > ; > ; ; ; ; > > ; > > > ; ; ; > > > > > > > ; > > > > > > > > > > > > ; > > > & ; > ; & & ; & & & & & & & & & & & & & $ & $ $ $ $ $ $ $ $ $ $ $ $ $ & $ $ $ $ $ $ $ $ $ $ $ $ $ $ $ $ $ $ $ $ $ $ $ & $ $ $ $ & $ $ $ * * $ $ $ $ $ $ $ $ $ $ $ $ $ $ $ $ $ $ $ $ $ $ $ $ $ $ $ $ $ $ $ $ $ $ $ $ $ $ $ $ $ $ $ $ $ $ $ $ $ $ $ $ $ $ $ $ $ $ $ $ $ $ $ $ $ $ ",
"& & & & & & & & & & & & & & & & & & & & > > > > > 1 1 > > > > > > > > 1 1 1 1 1 1 1 1 1 1 1 1 1 6 6 6 6 6 6 6 6 6 6 6 6 6 6 6 6 6 6 6 6 6 1 6 6 6 6 1 1 1 1 1 1 1 9 2 2 9 9 9 9 9 9 9 9 9 9 9 9 9 9 9 9 9 9 9 9 9 9 9 9 9 9 9 9 9 9 9 9 9 9 9 9 9 9 9 9 9 9 9 9 9 9 6 9 9 9 9 9 6 6 6 1 6 1 1 1 1 1 1 1 > ; > > ; > > > > > > > ; ; ; ; ; ; > > & & ; ; ; ; > ; ; ; > ; ; ; ; ; ; > ; ; > ; > > > 1 1 1 1 1 1 1 1 1 1 1 1 1 1 1 6 6 6 6 1 1 1 1 1 1 1 1 1 1 1 1 1 1 1 1 > > > > > > > > > > > > > > > 1 > > > 1 1 1 1 1 1 1 1 1 1 1 1 1 1 1 1 1 1 1 1 1 1 1 1 1 1 1 1 1 1 > > > > 1 ; ; > > > ; > > > > ; > > > > > ; > > > > > ; ; > ; ; > > > > ; > 1 1 > > ; ; ; > > ; > 1 > 1 1 > 1 ; > > ; > > > > > ; > ; ; > > > > ; ; > > > > > > > > > > > ; > > > > > > > > > > > > > > ; ; > > & > & & & & & & & & & & & & & & $ $ $ & & $ & $ $ $ $ $ $ $ & $ $ $ $ $ $ $ $ $ $ $ $ $ $ $ $ $ $ $ $ $ $ & & $ & & & $ $ $ * * * * & $ $ $ $ & $ * * $ $ $ $ $ $ $ $ $ $ $ $ $ $ $ $ $ $ $ $ $ $ $ $ $ $ $ $ $ $ $ $ $ $ $ $ $ $ $ $ & $ $ $ $ $ $ $ $ $ $ $ $ $ $ $ ",
"& & & & & & & & & & & & & & & & & & & & & > > > > > > > > > > > > > > 1 1 1 1 1 1 1 1 1 1 1 1 6 6 6 6 6 6 6 6 6 6 6 6 6 6 6 6 6 6 6 6 6 6 6 6 9 9 9 9 9 1 6 6 9 9 9 9 9 9 9 9 9 9 9 9 9 9 9 9 9 9 9 9 9 9 9 9 9 9 9 9 9 9 9 9 9 9 9 9 9 9 9 9 9 9 9 9 9 9 9 9 6 9 9 6 6 9 6 9 9 6 6 6 6 1 1 1 1 1 1 1 1 1 > > > > > > > > > > > ; > ; ; > > > ; ; ; > ; ; ; ; ; ; > ; ; ; ; ; ; ; > > ; ; ; ; 1 1 1 1 1 1 1 1 1 1 1 1 6 1 1 1 1 6 6 6 6 6 1 1 1 1 1 1 1 1 1 1 1 1 1 1 1 1 > > > > > > > > > > > > > > 1 > > > 1 1 1 1 1 1 1 1 1 1 1 1 1 1 1 1 1 1 1 1 1 1 1 1 1 1 1 1 1 1 1 1 1 ; 1 1 3 > > > > > > > > > ; ; > ; > > > > > > 1 > > 1 > > > ; ; ; ; > 1 1 1 ; 1 y 3 ; 1 1 1 3 1 1 1 ; 3 > ; > > > > > 1 > > > ; > > > > > > > > > > > > > > > > > > > > > > > > > ; > > > > > > > > > > ; ; ; ; & > > & & & & & & & & & & $ $ & & & & & & $ $ & > $ $ $ $ $ $ $ $ $ $ $ $ $ $ $ $ $ $ $ $ $ $ $ $ & & & $ & $ & & & * * * * * * * * * * * * * * * $ $ $ $ $ $ $ $ $ $ $ $ $ $ $ $ $ $ $ $ $ $ $ $ $ $ $ $ $ $ $ $ $ $ $ $ $ $ $ $ $ $ $ $ $ $ $ $ $ $ $ $ $ & & ",
"& & & & & & & & & & & & & & & & & & & > & > > > > > > > > > > > > 1 > 1 1 1 1 1 1 1 1 1 1 1 6 6 6 6 6 6 6 6 6 6 6 6 6 6 6 6 6 6 6 6 6 6 6 6 9 9 9 9 9 9 6 6 9 9 9 9 9 9 9 9 9 9 9 9 9 9 9 9 9 9 9 9 9 9 9 9 9 9 9 9 9 9 9 9 9 9 9 9 9 9 9 9 9 9 9 9 9 9 9 9 8 6 9 9 6 6 6 6 9 6 6 6 6 1 1 6 1 1 1 1 1 1 1 1 > > ; > > ; > > > > > > > > > > 1 > ; > > > ; ; ; ; ; > ; ; ; ; ; ; ; > ; > 3 ; ; ; 3 1 1 2 1 1 1 1 1 1 1 1 9 1 1 6 6 6 6 6 6 1 1 1 1 1 1 1 1 1 1 1 1 1 1 1 1 > > > > > > > > > > > > > > 1 > > 1 1 1 1 1 1 1 1 1 1 1 1 1 1 1 1 1 1 1 1 1 1 1 1 1 1 1 1 1 1 > 1 1 1 1 1 1 1 1 1 > > > > > > 1 1 > > > > > > > > 1 1 1 > 1 1 1 ; > > ; > > 1 3 1 ; N >.1 ; 1 1 1 1 1 1 1 3 1 > 1 > 1 > 1 3 1 > > > > > > 1 1 > > > 1 > > > > > > > > > > > > > > > > > > > > > > ; > > ; > > > > ; ; & & > & & & & & & & & & & & & & & & & & & $ $ > 1 & $ $ $ $ $ $ $ $ $ $ $ $ $ $ $ $ $ $ $ & $ $ & & & $ $ $ & * & * & * * * * * * * * * * * * * * $ $ $ $ $ $ $ $ $ $ $ $ $ $ $ $ $ $ $ $ $ $ $ $ $ $ $ $ $ $ & $ $ $ $ $ $ $ $ $ & $ $ $ $ $ $ $ $ $ $ $ $ & $ ",
"& & & & & & & & & & & & & & & & & & & & > > > > > > > > > > > > > 1 1 1 1 1 1 1 1 1 1 1 6 6 6 6 6 6 6 6 6 6 6 6 6 6 6 6 6 6 6 6 9 6 6 6 6 6 6 6 9 6 6 9 9 9 6 9 9 9 9 9 9 9 9 9 9 9 9 9 9 9 9 9 9 9 9 9 9 9 9 9 9 9 9 9 9 9 9 9 9 9 9 9 9 9 9 9 9 9 9 9 9 9 9 9 6 6 6 6 6 6 6 6 6 6 1 1 6 1 1 1 1 1 1 1 1 1 > > > > > > > ; > > ; ; > > ; ; 1 > ; > > > ; ; ; ; ; ; ; ; ; ; ; > ; ; ; ; ; 3 3 3 1 1 1 1 1 1 1 1 1 1 1 1 1 1 1 1 1 6 6 6 6 6 1 1 1 1 1 1 1 1 1 1 1 > > > > > > > > > > > > > > > > > > 1 > > > > > 1 1 1 1 1 1 1 1 1 1 1 1 1 1 1 1 1 1 1 1 1 1 1 1 1 1 1 1 1 1 1 1 1 1 1 1 3 3 1 1 1 > > 1 1 1 1 > > > > > 1 1 1 1 1 > 1 1 1 1 1 1 1 > > ; ; ; 8 k 3 3 1 1 1 3 1 1 1 1 1 1 1 > 1 3 1 > > 1 > > > > > , > 1 1 > 1 > > > > 1 1 > 1 > > > > > > > > > > > > ; > > > > ; > > > > ; ; ; & & & & & & & & & & & & & & & & & & & & & $ & & $ $ $ $ $ $ $ $ $ $ $ $ $ $ $ $ $ & & $ & & $ & & $ & & & & $ & * * * & * * * * * * * * * * & * * $ $ $ $ $ $ * * $ $ $ $ $ $ $ $ $ $ $ $ $ $ $ $ $ $ $ & $ * $ $ & $ $ $ $ $ $ $ & & $ $ $ $ $ $ $ $ $ & $ $ ",
"& & & & & & & & & & & & & & & & & & & > & > > > > > > > > > > > > 1 1 1 1 1 1 1 1 1 1 6 6 6 6 6 6 6 6 6 6 6 6 6 6 6 6 6 6 6 6 6 6 6 6 6 6 6 6 6 6 9 6 6 9 9 9 9 9 9 9 9 9 9 9 9 9 9 9 9 9 9 9 9 9 9 9 9 9 9 9 9 9 9 9 9 9 9 9 9 9 9 9 9 9 9 9 9 9 9 9 9 8 9 9 8 6 6 6 6 6 6 6 6 6 6 1 1 6 6 1 1 1 1 1 1 1 1 1 > > > > > > > > > > > > > > > ; ; ; > ; ; ; ; ; ; > ; ; ; ; ; > > ; ; > > ; ; 1 1 1 1 1 1 2 1 1 1 1 1 1 1 1 1 1 1 6 6 6 6 6 6 6 1 1 1 1 1 1 1 1 1 1 1 1 > 1 1 > > > > > > > > > > > > > > > > > 1 > 1 1 1 1 1 1 1 1 1 1 1 1 1 1 1 1 1 1 1 1 1 1 1 1 1 1 1 1 1 1 1 1 1 1 1 1 1 1 > 1 1 1 1 1 1 1 1 > > > > 1 1 1 1 1 1 1 1 1 1 1 1 1 1 > > 1 3 1 ; ; 1 1 1 1 1 1 1 1 1 1 1 1 1 1 1 1 1 1 1 1 1 1 1 > 1 1 1 1 1 > 1 > > 1 1 1 1 1 1 > > > > > > > > > > > > > > > > > > ; ; > > > > ; ; > > & & & & & > & & & & & & & & & & & & & $ $ & $ $ & $ $ $ $ $ $ $ $ $ $ $ $ $ & & & $ $ & & & & & & & * * * * * & & * * * * * * * * * * * * * & & * $ * * * * $ $ $ $ $ $ $ $ $ $ $ $ & & $ $ $ $ & & & * * & & $ $ $ $ $ & # N ^ $ $ $ $ $ $ $ $ & & $ $ ",
"& & & & & & & & & & & & & & & & & & & > > > > > > > > > > > > > > 1 1 1 1 1 1 1 1 6 6 6 6 6 6 6 6 6 6 6 6 6 6 6 8 8 6 8 6 6 6 6 6 6 9 M d 6 9 6 6 6 9 9 9 9 9 9 9 9 9 9 9 9 9 9 9 9 9 9 9 9 9 9 9 9 9 9 9 9 9 i i 9 9 i i 9 9 9 9 9 i i 9 8 8 9 9 9 9 9 9 9 8 8 8 8 6 6 6 6 6 6 6 6 1 1 6 1 1 1 1 1 1 1 1 1 1 1 1 > > > > > > > > > > > > ; r y > > > ; ; ; > ; > > > ; ; > > > > > > > ; 3 1 1 1 1 1 1 1 2 2 2 9 6 1 1 1 1 6 6 6 6 6 6 6 6 6 1 1 1 1 1 1 1 1 1 1 1 1 > > > 1 1 > > > > > > > > > > > > > > > 1 > 1 > 1 1 1 1 1 1 1 1 1 1 1 1 1 1 1 1 1 1 1 1 1 1 1 1 1 1 1 1 1 1 1 1 1 1 1 1 1 1 1 1 1 1 1 1 1 1 1 1 1 1 1 1 1 1 1 1 1 1 1 1 1 1 1 1 1 1 1 1 1 1 1 1 3 1 1 1 1 1 1 1 1 1 1 1 1 1 1 1 1 1 2 1 1 1 1 2 1 1 1 1 1 1 1 1 1 1 1 1 1 1 1 1 > > > > > > > > > > > > > > > > > > > > > ; > ; & & > & & & > & & & & & & & & & & & & & & & & & & & $ $ $ $ $ $ $ $ $ $ & $ & & & & & & & & & & & & & & * & & & * * * & * * * * * * * * * * * * * * * * * $ * * * $ $ $ $ * $ $ $ $ $ $ $ $ $ $ $ $ * * & & * * * $ $ $ $ & $ t B $ & & & $ $ $ $ & & $ $ ",
"& & & & & & & & & & & & & & & & & & > & > > > > > > > > > > > > 1 1 1 1 1 1 1 1 1 6 1 6 6 6 6 6 6 6 6 6 8 8 8 8 8 8 8 8 6 6 8 9 9 9 6 R c 6 9 9 9 9 9 9 9 9 9 9 9 9 9 9 9 9 9 9 9 9 9 9 9 9 9 9 9 i i i i i i i i i i i 9 i i i i i i i 8 8 8 9 9 8 9 8 9 8 8 8 8 8 8 6 6 6 6 6 6 6 6 1 6 6 1 1 1 1 1 1 1 1 1 > > 1 1 > > > > > > > > > > ; r y > > > ; ; ; > ; > > > > > > > > 1 1 1 1 > 1 1 1 1 1 1 2 1 1 1 2 6 6 1 6 6 1 1 6 6 6 6 6 6 6 6 1 1 1 1 1 1 1 1 1 1 1 1 1 1 1 1 1 > > > > > > > > > > > > > > > 1 > 1 1 1 1 1 1 1 1 1 1 1 1 1 1 1 1 1 1 1 1 1 1 1 1 1 1 1 1 1 1 1 1 1 1 1 1 1 1 1 1 1 1 1 1 1 1 1 1 1 1 1 1 1 1 1 1 1 1 1 1 1 1 1 1 1 1 1 3 1 1 1 1 1 1 1 1 1 1 1 1 1 1 1 1 1 1 1 1 1 1 1 1 1 1 1 1 1 2 1 1 1 1 1 > 1 1 1 1 1 1 1 1 1 > 1 > > > > > > > > > > > > > > > > > > > > > ; > r > & ; > > & & & & & & & & & & & & & & & & & & & & & $ $ $ $ $ $ $ $ $ & & & & & & & & & & & & & & & & * * * * * * * * * * * * * * * * * * * * * * * * * * * * * & $ $ * * & * $ $ $ $ $ $ & $ & $ * & * * * * * & $ $ $ & & $ $ $ & & $ $ $ & $ & & $ $ ",
"& & & & & & & & & & & & & & & & > > > > > > > > > > > > > > > > 1 1 1 1 1 1 1 1 6 6 6 6 6 6 6 6 6 6 6 6 8 8 8 8 8 8 6 8 8 8 6 6 8 8 6 8 8 6 9 9 6 9 9 9 9 9 9 9 9 9 9 9 9 9 9 9 9 9 9 9 9 9 9 9 9 i i i u u u i i i i i i i 9 i i i i i 9 9 9 8 9 8 9 8 8 8 8 8 8 8 8 6 6 6 6 6 6 6 6 1 1 6 1 1 1 1 1 1 1 1 1 1 1 > > > > > > > > > > > > > > > ; ; ; ; ; ; > > > > > ; > ; > > ; 3 3 1 3 1 3 1 1 1 1 1 1 2 1 1 1 1 6 6 1 6 6 6 6 6 6 1 6 6 6 1 1 1 1 1 1 1 1 1 1 1 1 1 1 1 1 1 1 > > > > > > > > > > > 1 > > > > > 1 1 1 1 1 1 1 1 1 1 1 1 1 1 1 1 1 1 1 1 1 1 1 1 1 1 1 1 1 1 3 3 1 1 1 1 1 1 1 1 1 1 1 1 1 1 1 1 1 1 1 1 1 1 1 1 1 1 1 1 1 1 1 1 1 1 1 1 1 1 1 1 1 1 1 1 1 1 1 1 1 1 1 1 1 1 1 1 1 1 1 1 1 1 1 1 1 1 1 1 1 1 1 1 1 1 1 1 1 1 1 1 1 1 > > 1 1 1 1 > > > > > > > > > > > > > > > & 1 B r & ; ; > ; & & & & & & & & & & & & & & & & & & & $ $ $ & & $ $ $ $ $ & & & & & & & & & & & & & & & & * * * * & * * * * * * * * * * * * * * * * * * * * * $ & & & & $ $ $ $ $ & $ $ $ $ $ & & & & & & & * & * * $ $ $ * $ $ $ & $ $ $ & & & $ $ $ $ $ $ ",
"& & & & & & & & & & & & & & & & > > > > > > > > > > > > > > > 1 1 1 1 1 1 1 1 6 6 6 6 6 6 6 6 6 6 6 6 6 8 8 8 8 8 8 8 9 8 8 8 9 8 8 8 6 9 8 9 9 9 9 9 9 9 9 9 9 9 9 9 9 9 9 9 9 9 9 9 9 9 9 9 i 9 i 9 i u i i i i i i i i i i i i i i i 9 i 8 8 8 8 i 8 8 8 8 8 8 8 8 6 6 6 6 6 6 6 6 6 6 1 6 1 1 1 1 1 1 1 1 1 1 1 1 > > > > > > > > > > > > > > ; ; > > > > ; > ; > > 1 > 1 1 > 1 1 1 1 1 3 1 1 1 1 1 1 1 1 1 1 6 6 6 6 6 6 6 1 6 6 6 6 6 1 6 6 1 1 1 1 1 1 1 1 1 1 1 1 1 1 1 1 1 > > > 1 1 > > 1 1 > > 1 1 > > > > 1 1 1 1 1 1 1 1 6 6 6 6 1 1 1 1 1 1 1 1 1 1 1 1 1 1 1 1 1 3 B / 6 1 1 1 1 1 1 1 1 1 1 1 1 1 1 1 1 1 1 1 1 1 1 1 1 1 1 1 1 1 1 1 1 1 1 1 1 1 1 1 1 1 1 1 1 1 1 1 1 1 1 1 2 1 1 1 1 1 1 1 1 1 1 1 1 1 1 1 1 1 1 1 1 1 1 1 1 1 1 1 1 1 1 1 1 1 1 1 1 > > > > > > > > > > > > > > > 1 ; > > ; > ; & & & & & & & & & & & & & & & & & & & & & $ & & & & $ & & & & & & & & & & & & & & & * * * * * * * * * * * * * * * * * * * * * * * * * * * * * * & * * & $ * & & & & * $ * * * * * & * & $ & * & & $ & * & $ 7 8 $ & & $ & & & & & & & $ $ & ",
"& & & & & & & & & & & & & & & > & > > > > > > > > > > > > > 1 1 1 1 1 1 1 1 6 6 6 6 6 6 6 6 6 6 6 6 6 8 8 8 8 8 8 8 8 8 9 8 9 9 9 9 9 9 9 9 9 9 9 9 9 9 9 9 9 9 9 9 9 9 9 9 9 9 9 9 9 i 9 9 i i 9 i i i i i i i i i i i i i i i i i i d 9 i i i i i i 8 8 8 8 8 8 8 8 8 8 6 6 6 6 6 6 6 6 1 1 1 1 1 1 1 1 1 1 1 1 1 1 1 1 1 > 1 1 1 > > > > > > > > ; > > > > ; > 1 1 1 1 1 1 1 1 1 1 ; ; 3 1 1 1 1 1 1 1 1 1 1 6 6 6 6 6 6 6 6 6 6 6 6 6 6 6 6 6 6 1 1 1 1 1 1 1 1 1 1 1 1 1 1 1 1 1 1 > 1 1 1 1 1 1 1 1 1 1 1 > 1 > 1 1 1 1 1 1 1 1 6 6 6 6 6 1 6 6 6 6 6 1 1 1 1 1 1 6 6 6 6 3 B / 6 1 1 1 1 1 1 1 1 1 1 1 1 1 1 1 1 1 1 1 1 1 1 1 1 1 1 1 1 1 1 1 1 1 1 1 1 1 6 6 1 1 1 1 1 1 1 1 1 1 1 1 1 1 1 1 6 1 1 1 1 1 1 1 1 1 1 1 1 1 1 1 1 1 1 1 1 1 1 1 1 1 1 1 1 1 1 1 1 1 1 1 1 1 > > 1 > 1 > > > > > ; > > > > > > > ; & & & & & & & & & & & & & & & & & & & $ & & & & & & & & & & & & & & & & & & & & * * & * * : * * * * * * * * * * * * * * * * * * * * * * * * & * * * * * & & & * * * & * * * * * & & & & & * & & * & & # V B $ & & $ $ & & & & & & & & & ",
"& & & & & & & > & & & > & & & > > > > > > > > > > > > > > > 1 1 1 1 1 1 1 1 1 6 6 6 6 6 6 6 6 6 8 8 8 8 8 8 8 8 8 8 8 8 8 8 8 9 9 9 9 9 9 9 9 9 9 9 9 9 9 9 9 9 9 9 9 9 9 9 9 9 9 9 9 i i i i i i i i i f i i i i i i i i i i i i i i d i i i i d d 8 8 i i 8 8 8 8 8 8 8 6 6 6 6 6 6 6 6 1 1 1 1 1 1 1 1 1 1 1 1 1 1 1 1 1 1 > 1 > > 1 > > > > > > > > 1 1 > 1 > 1 1 1 1 1 1 1 1 1 ; k / 6 3 1 1 1 1 1 1 1 6 6 6 6 6 6 6 6 6 6 6 6 6 6 6 y 6 6 6 6 6 1 1 1 1 1 1 1 1 1 1 1 1 1 1 1 1 1 1 1 1 1 1 1 1 1 1 1 1 1 1 1 1 1 1 1 1 1 1 1 1 6 6 6 6 1 1 1 6 6 6 6 1 1 1 1 6 6 6 6 6 6 6 1 1 3 1 1 1 1 1 1 1 1 1 1 1 1 1 1 1 1 1 1 1 1 6 1 6 6 1 1 1 1 2 9 2 1 1 2 6 6 1 6 6 6 1 6 6 9 1 1 1 1 1 1 1 1 1 1 9 9 6 6 1 2 1 1 1 2 1 1 1 1 1 1 1 1 1 1 1 1 1 1 1 1 1 1 1 1 1 1 1 1 1 1 1 1 1 1 1 1 > 1 1 > > > > > > > > > > > > > & > & & > & & & > & & & & & & & & & & $ & & & & & & & & & & & & & & & & & & & & ; & & * * * * * * * * : * * * * * * * * * * * * * * * * * * * * * * * * * * & * * * * * * * * * & & * * & * * & & & & $ & & $ & & & $ & $ $ & & & & & & ",
"& & & & & & & & > & & & & & > > > > > > > > > > > > > 1 1 1 1 1 1 1 1 1 1 1 6 6 6 6 6 6 6 6 8 8 8 8 y y 8 8 8 8 8 8 8 y 8 8 9 9 8 8 8 9 9 9 9 9 9 9 9 9 9 9 9 9 9 9 w 9 9 9 i 9 9 i i i i i i i i i i i i i i i i i i i i i i i i i i i i i i i i i i 8 d d i 8 8 8 8 8 8 6 6 6 6 6 6 6 6 1 1 1 1 1 1 1 1 1 1 1 1 1 1 1 1 1 1 1 1 > > 1 > > > > 1 1 1 1 1 1 1 1 1 1 1 1 1 1 1 1 1 2 ; :.oXd ; 1 1 1 1 1 1 6 6 6 6 6 6 6 6 6 6 6 6 6 6 6 y y 6 1 6 6 1 1 1 1 1 1 1 1 1 1 1 1 1 1 1 1 1 1 1 1 1 1 1 1 1 1 1 1 1 1 1 1 1 1 1 1 1 1 1 1 1 1 1 1 1 1 1 6 6 6 1 6 1 1 6 6 6 6 6 6 6 6 6 6 1 6 6 6 6 1 6 6 6 1 1 1 1 1 1 1 6 6 6 1 1 6 6 6 6 1 1 1 9 6 6 9 1 1 1 1 6 6 1 1 1 6 6 1 9 1 1 1 1 6 1 1 1 1 6 9 9 2 1 1 1 1 1 1 2 1 1 1 1 1 1 1 1 1 1 1 1 1 1 1 1 1 1 1 1 1 1 1 1 1 1 1 1 1 1 1 1 1 1 1 1 1 > > > > > > > > > > ; > > > > > & & & & & & & & & & & & & & & & & & & & & & $ & & & & & & & & & & & & & & * & * * * * * * : * : * * * * : * * : * * * * * * * * * * * * * * * * * * * * * * * * * * * * * * & & * * & & & & & $ $ $ $ & & & & $ $ & & & & & & & ",
"& & & & & & > & > > & > & & > > > > > > > > > > > > > > 1 1 1 1 1 1 1 1 1 6 6 6 6 6 6 6 6 6 y 8 8 8 y y 8 8 8 8 8 8 y y 8 8 8 9 8 8 8 9 9 9 9 9 9 9 9 9 9 9 9 9 9 9 w 9 9 9 i i u u u i i i u f u i i i i i i i i i i i i i i i i i i d i i i d d i 8 y 8 i y y 8 8 8 8 6 6 6 6 6 6 6 6 6 6 1 1 1 1 1 1 1 1 1 1 1 1 1 1 1 1 1 1 1 1 1 > 1 1 1 > 1 1 1 1 1 1 1 1 1 1 1 1 1 1 1 1 2 1 3 8 d 1 1 1 1 1 1 6 6 6 6 6 6 6 6 6 6 6 6 6 6 6 6 6 8 6 6 6 6 6 1 1 1 1 1 1 1 1 1 1 1 1 1 1 1 1 1 1 1 1 1 1 1 1 1 1 1 1 1 1 1 1 1 1 1 1 1 1 1 1 1 1 6 6 1 1 6 6 6 6 6 6 6 6 6 6 6 6 6 6 6 6 6 6 6 6 6 6 6 6 6 6 6 6 1 6 6 1 1 6 6 6 6 6 6 6 9 9 6 6 1 1 6 9 9 9 9 1 1 1 6 6 6 6 9 9 6 6 6 6 6 6 6 6 6 1 1 1 6 9 6 9 1 1 1 2 2 1 1 1 6 6 6 6 1 6 1 1 1 1 1 1 1 1 1 1 1 1 1 1 1 1 1 1 1 1 1 1 1 1 1 1 1 1 1 1 1 > 1 > > > > > > > > > > > > > > & > > & & & & & & & & & & & & & & & & & & & & & & & & & & & & & & > ; & & * * * * * * : : : : * : : : : : * : * * * * * * * * * * * * * * * * * * * * * * * * * * * * * * * * * * & & & & $ $ & & $ & & & & & $ $ & & $ & & $ ",
"& & > > & & & > > > > > & > > > > > > > > > > > > > > 1 1 1 1 1 1 1 1 1 6 6 6 6 6 6 6 6 6 6 8 8 8 8 8 8 8 8 8 8 8 8 8 8 8 8 8 9 8 8 9 9 9 9 9 9 9 9 9 9 9 9 9 9 9 i i w 9 i i i i i u u u i i i f f i i i f u f i i f f i f i i i d d d i i i d d 8 d d d d d 8 8 8 8 8 6 6 6 6 6 6 6 6 6 1 6 1 1 1 1 1 1 1 1 1 1 1 1 1 1 1 1 1 1 1 1 1 1 1 1 1 1 1 1 1 1 1 1 1 1 1 1 1 1 1 1 1 1 1 1 1 3 6 6 6 6 6 6 6 6 6 6 6 6 6 6 6 6 6 6 6 6 6 6 6 6 6 6 6 6 6 6 1 6 6 1 6 1 1 6 6 6 6 6 1 1 1 1 1 1 1 1 1 1 1 6 6 6 6 6 6 6 6 6 6 1 1 6 6 6 6 6 6 6 6 6 6 6 6 6 6 6 6 6 6 6 6 6 6 6 6 6 6 6 6 6 6 6 6 6 6 6 6 6 6 6 6 6 6 6 6 6 6 6 9 6 6 9 9 9 6 6 6 1 9 9 9 9 6 1 1 6 6 9 6 6 9 6 6 6 9 6 6 6 6 9 6 1 1 6 6 9 9 6 9 6 6 9 6 6 6 6 6 6 6 6 6 6 6 6 6 1 1 1 1 1 1 1 1 1 1 1 1 1 1 1 1 1 1 1 1 1 1 1 1 1 1 1 1 1 > > > > > > > > > > > > > > > > > & & & & & & & & & & & & & & & & & & & & & & & & & & & & & & ; & & : : : * : : * : : : : : : : : : : : : : * * * : * * * * * * * * * * * * * * * * * * * * * * * * * * * * * * & & & $ & & & & & $ & & & & & & & & & & & ",
"> & > > & > > > > > > > > > > > > > > > > > > > > > 1 1 > 1 1 1 1 1 1 1 1 6 6 6 6 6 6 r 6 6 8 6 8 8 y 8 8 8 8 8 8 8 8 8 8 8 8 8 8 8 9 9 9 9 9 9 9 9 9 9 9 i i 9 9 i 9 w 9 i i u u i u u i i i i f i i i i i i i i i f i i f f d d d d d i d d i d d d d d 8 8 8 y 8 y 8 6 6 6 6 6 6 6 6 6 1 6 6 6 1 1 1 1 1 1 1 1 1 1 1 1 6 y 1 1 1 1 1 1 1 1 1 1 1 1 1 1 1 1 1 1 1 1 1 1 1 1 1 9 6 6 6 6 6 6 6 6 6 6 6 6 6 6 6 6 6 6 6 6 6 6 6 6 6 6 6 6 6 6 6 6 6 6 6 6 6 6 6 6 6 6 6 6 6 6 6 6 6 6 6 6 6 6 6 6 6 6 6 6 6 6 6 6 6 6 6 6 6 6 6 6 6 6 6 6 6 6 6 6 6 6 6 6 6 6 6 6 6 6 6 6 6 6 6 6 6 6 6 6 6 6 6 6 6 6 6 6 9 6 6 6 6 6 6 6 6 6 9 9 9 9 9 6 6 9 9 9 6 6 6 6 6 6 6 6 9 9 6 6 6 6 9 6 9 9 6 6 6 6 6 6 6 9 9 6 9 6 6 9 6 6 6 6 6 6 6 6 6 6 6 6 6 1 1 6 6 1 1 1 1 1 1 1 1 1 1 1 1 1 1 1 1 1 1 1 1 1 1 1 1 1 1 > > > > > > > > > > ; > > > > > & & & & & & & & & & & & & & & & & & & & & & & & & & & > & & & * : : : : : : * : : : : : : : : : : : : : : : * * : : : : * * * : * * * * : * * : * * * * * * * * * : * * * * * * * * & & & & & & & & & & & $ $ & & & & & ",
"> & & > & > & & & & & > > > > > > > > > > > > > > > 1 1 1 1 1 1 1 1 1 6 6 6 6 6 6 6 6 6 8 8 y y 8 8 8 8 8 8 8 8 8 8 8 8 8 8 8 8 8 9 9 9 9 9 9 9 i f 9 i i 9 9 9 w w i i i u i i i i i i i i u f i i i i i i i f i f i f i i i i i i i i d d d d d d d 8 n W d 8 8 y 8 8 8 6 6 6 6 6 6 6 6 6 1 6 1 1 1 1 1 1 1 1 1 1 1 1 1 1 1 1 1 1 1 1 1 1 1 1 1 1 1 1 1 1 1 1 1 1 1 1 1 1 1 1 1 6 1 6 6 6 6 6 6 6 6 6 6 6 6 6 6 6 6 6 6 6 6 6 6 6 6 6 6 6 6 6 6 6 6 6 6 6 6 6 6 6 6 6 6 6 6 6 6 6 6 6 6 6 6 6 6 6 6 8 6 6 8 y 6 6 8 d y 6 6 6 6 6 6 6 6 6 6 6 6 6 6 6 6 6 6 6 6 6 6 6 6 6 6 6 6 6 6 6 6 6 6 6 9 6 6 6 6 6 6 6 6 6 9 9 6 6 6 6 6 6 6 6 6 9 9 6 6 6 6 9 6 6 6 6 6 6 6 6 6 6 6 6 9 9 6 6 6 6 6 6 9 6 6 6 6 6 6 6 6 6 6 6 6 6 6 6 6 6 6 6 6 6 6 6 6 6 1 1 1 6 6 1 1 1 1 6 1 1 1 1 1 1 1 1 1 1 1 1 1 1 1 1 1 1 > 1 > > > > > > > > > > > > > & & > & & & & & & & & & & & & & & & & & & & & & ; & & & ; ; ; ; , : : 8 : : : : : : : : : : : : : : : : : : : * : : : : * : : : : * : : * * * * : : : : * : : * * * * * * * * & * * & & & & * & & & & & & & & & & & & ",
"> > > & & & > > > > > > > > > > > > > > > > > > > > 1 1 1 1 1 1 1 1 1 6 6 6 6 6 6 6 6 6 y 8 8 y 8 8 y 8 y 8 8 8 8 y 8 y 8 8 8 8 9 9 9 9 i i 9 9 f f f i i i i i i u i f i i u i u i i i i h h i i f i i i i f f f f f i i i i f i d i i d d d d y d d 8 ;.).n 8 y 8 8 8 8 6 6 6 6 6 6 6 6 6 6 6 6 1 1 1 1 1 1 1 1 6 r 1 1 1 1 1 1 1 1 1 1 1 1 1 1 1 1 1 1 1 1 1 1 1 1 1 1 6 6 1 1 6 6 6 6 6 6 6 6 6 6 6 6 6 6 6 6 6 6 6 6 6 6 6 6 6 6 6 6 6 6 6 6 6 6 6 6 y 8 6 8 8 8 8 8 8 8 6 8 8 8 8 8 8 8 8 8 8 8 8 8 8 d k y 8 8 8 8 8 8 8 8 8 8 8 8 8 8 8 8 6 8 6 6 8 8 6 8 6 6 6 6 8 6 8 8 6 6 6 8 6 6 6 6 6 6 6 6 6 9 9 6 9 6 6 6 6 6 9 6 9 6 9 6 9 9 6 6 6 9 9 6 6 6 6 6 6 6 9 6 6 6 6 6 6 6 6 6 6 6 6 6 6 6 6 6 6 6 9 6 6 6 6 6 6 6 6 6 6 6 6 6 6 6 6 6 6 1 1 6 6 6 6 6 6 6 6 1 1 1 1 1 1 1 1 1 1 1 1 1 1 1 1 1 1 1 1 > 1 > > > > > > > > > > > > > > & & & & & & & & & & & & & & & & & & & ; & ; ; ; ; ; ; ; ; ; : : 2 : : : : : : : : : : : : : : : : : : : : : : : : : : : < : : : : : : : : : * : : : : : * * * * * * * * * & & * * & & & & & & & & & & & & & & & ",
"> > > & > > > > > > > > > > > > > > > > > > > > > > 1 1 1 1 1 1 1 1 1 1 6 6 6 6 6 6 6 8 y y 8 y 8 y y y 8 8 y y 8 8 8 8 8 i i 8 8 9 9 9 i i i i i f f i i i i i u u u f u u i u u i i i / J...i i f i i f f i i f f f i d c k i i d d d d d d d d d d 8 n ! g 8 y 8 8 8 8 6 6 6 6 6 6 6 6 6 6 1 6 1 1 1 1 1 1 1 1 1 6 1 1 1 1 1 1 1 1 1 1 1 1 1 1 1 1 1 1 1 1 1 6 6 1 6 6 6 6 6 6 6 6 6 6 6 6 6 6 6 6 6 6 6 6 6 6 6 6 6 8 6 8 8 6 6 8 8 8 8 8 8 8 8 8 y 8 8 8 8 8 y y 8 y y 8 8 8 8 8 8 8 8 y 8 y d y 8 8 8 y d 8 8 8 8 8 8 8 8 8 8 8 8 8 8 8 8 8 8 8 8 8 8 8 8 8 8 8 8 8 8 8 8 8 8 6 8 8 8 8 8 8 6 6 9 6 6 6 6 9 6 6 9 6 6 9 9 6 6 9 9 6 9 6 6 6 6 9 9 6 6 6 6 6 9 9 9 6 6 6 8 9 9 9 6 9 6 6 6 6 6 6 6 6 6 6 6 9 9 6 6 6 6 6 6 6 6 6 6 6 6 6 6 6 6 6 6 6 6 6 6 6 6 6 6 6 6 6 1 6 1 1 6 1 1 1 1 1 1 1 1 1 1 1 1 1 1 > > > > > > > > > > > > > > > > > > & & & & & & & & & & & & & & & & > ; > ; ; ; ; ; ; : : : : : : 2 2 : 2 : : < : : : : : : : < : < : : : < : : : < < < : : : : : : : : : : * : : : : : : : * * * * * * * * * * & $ & & & * & & & * & & & & ",
"> > > & > > > > > > > > > > > > > > > > > > 1 1 > > 1 1 1 1 1 1 1 1 1 6 6 6 6 6 6 6 6 6 8 y y y y 8 y y y 8 8 8 y d 8 8 d d 8 8 9 9 9 i i i i i i i f i i i i i u u u i u u u u i u i i / E.$.i f f f i f f i f f f f f d c g i d i d d d d d d d d d d 8 6 8 y 8 8 y 8 8 6 6 6 6 6 6 6 6 6 6 1 6 6 1 1 1 6 1 1 1 1 1 1 1 1 1 1 1 1 1 1 1 1 1 1 1 1 1 1 1 1 1 6 y r 6 6 6 6 6 6 6 6 6 6 6 6 6 6 6 6 6 8 6 8 8 6 8 8 6 8 8 8 8 8 y 8 8 8 8 8 8 8 8 8 y y y y i i y d y y y y d d d d d d d d d i d d d d i 8 8 d i d d d i i i 8 i i i i i i i i i 8 i 8 8 8 8 8 8 8 8 8 8 8 8 8 8 8 8 8 8 8 8 8 8 8 8 8 6 6 9 6 9 9 6 6 6 9 9 9 9 9 9 9 9 9 9 9 6 6 9 9 9 9 6 9 9 6 9 9 6 9 6 9 9 9 9 9 6 9 9 9 8 8 6 8 6 6 6 6 9 6 6 9 6 6 6 6 6 6 6 6 6 6 6 6 6 6 6 6 6 6 6 6 6 6 6 6 6 6 6 6 6 6 6 1 1 1 1 1 1 1 1 1 1 1 1 1 1 1 > > > > > > > > > > > > > > > > > > & & & & & & & & & & & & & & & & > ; ; ; ; ; ; ; : : : : : : : : 2 : : : : : : : : : : : : : : : : : : : : : : < < < : < : : : : : : : : : : : : : : * * * * * * * * * * * * * * & & & & & & & * * & & & ",
"> > > > > > > > > > > > > > > > > > > > > > > 1 1 1 1 1 1 1 1 1 1 1 6 6 6 6 6 6 6 6 6 8 6 6 y y y 8 y y y 8 8 y y y 8 y 8 8 8 9 f i 9 i 9 9 9 9 i i f f w u i i u u u u u u u u u u u i h A x i f f i i i i i f d i d d d i i d d d d d d i d d d y 8 y d d d d 8 8 y 8 8 6 6 6 6 6 6 6 6 6 6 6 1 1 1 1 1 1 1 1 1 1 1 1 1 6 1 1 1 1 1 1 1 1 6 6 6 6 6 6 6 6 6 6 6 6 6 6 6 6 6 6 6 6 6 6 6 6 6 6 6 6 8 8 8 8 8 8 8 8 8 8 y 8 8 8 y y y d 8 d i i d d d d d d d d d d d d d d g d d g d g d d g g g d d g d d d d d d i d d d d d i i i i d i i i i i i i i i i i i i i i i i 8 8 8 8 8 8 8 8 8 8 8 8 8 8 8 8 9 8 9 9 6 6 9 9 6 9 9 9 9 9 6 9 9 9 9 9 9 9 9 9 9 9 9 9 6 6 6 6 6 9 9 8 9 9 9 9 8 6 8 8 6 8 6 6 6 8 9 6 6 6 6 6 6 6 6 6 6 6 6 6 6 6 6 6 6 6 6 6 6 6 6 6 6 6 6 6 6 6 6 6 1 6 1 1 1 1 1 1 1 1 1 1 1 1 1 1 > > 1 1 > > > > > > > > > > > > > > & & & & & & & & & & > > & ; & ; > ; ; ; ; ; ; : ; ; ; , : : : : : 2 2 2 : : : : : : : : : : : : < < < < < < < < < < < < : : : : : : : : : : : : : : : * * * * * * * * & & * & & & & & & & & & * & & & & ",
"> > > > > > > > > > > > > > > > > > > > > > > 1 1 1 1 1 1 1 1 1 1 6 6 6 6 6 6 6 6 6 6 8 6 8 8 y y 8 y y 8 8 y 8 d 8 8 8 i i i 8 9 f 9 9 i 9 9 9 i i u i u u i i u u i i u u u u i u u u i i i i i i i i i i f i d d d d d d d i i d i d d d d d d y 8 8 8 d d 8 8 8 8 8 8 8 6 6 6 6 6 6 6 6 6 6 6 6 6 6 6 1 1 1 1 1 6 1 6 6 6 1 1 6 6 6 1 1 6 6 6 6 6 6 6 6 6 6 6 6 6 6 6 6 6 6 6 6 8 8 6 8 8 8 8 8 8 8 8 y y 8 8 y 8 i d d i i d d d d d d i i d g d g d g g g g g g g g g g g g g g g g g g g g g g g g g g g g g g g g g g g s s s s g g g g s g s s i i i i i i i i i i i i i i i i i i 8 8 8 8 8 8 8 8 8 8 8 9 9 9 9 8 8 9 9 9 9 9 8 8 9 9 9 9 9 9 9 9 9 9 9 9 6 9 8 6 9 9 8 9 9 9 9 9 8 8 8 8 8 8 6 6 6 8 8 8 6 6 6 8 8 6 6 8 8 8 6 6 6 6 8 6 6 6 6 6 6 6 6 6 6 6 6 6 r 6 6 6 6 6 1 1 1 1 1 1 1 1 1 1 1 1 1 1 1 1 1 1 > > > > > > > > > > > > > > > > & & & & & & & > > > & ; ; > ; ; > ; ; ; ; ; ; : ; , : : 2 y 2 : 2 2 : 2 : : : : : : < < < < < < < < < < < < < < < < : < < : : : : : : : : : : : : * : * * * * * * & * * & * & & & & * & * * & & & * ",
"> > > > > > > > > > > > > > > > > > > > > > > 1 1 1 1 1 1 1 1 1 1 1 6 6 6 6 6 6 6 6 6 8 8 8 8 8 8 8 8 8 y y 8 8 i i 8 d d i i i i i i f i i 9 i i i i i u u u i u i i u i i i i i i i f f i f i i f i i i f i f f f d d d d d i d d d d d d d d y y 8 8 8 d y y y 8 y 8 8 8 8 6 6 6 6 6 6 6 6 6 6 6 6 6 6 6 6 6 6 6 6 6 1 6 6 6 6 6 6 6 6 6 6 6 6 6 6 6 6 6 6 y 6 8 6 6 6 8 8 8 8 8 8 8 8 8 8 8 8 y y y d d d i d d d d d d d d d d g g g g g g g g g g g g g g g g g g z z z z z z z z z z z z z z z z z z z z z z z z z z z z z z z z z g g g g g g g s s s s s s g s s s s i s i i i i i i i i i 8 9 8 8 8 8 8 8 8 9 8 8 9 9 9 9 9 9 9 8 9 9 9 9 9 9 9 9 9 9 9 9 8 9 8 8 9 9 9 9 9 8 8 8 8 8 8 9 9 9 8 8 8 8 8 8 8 8 8 8 8 8 8 8 8 8 6 6 8 8 8 6 6 6 6 6 6 6 6 6 6 6 6 6 y 6 6 6 6 6 6 6 1 1 1 1 1 1 1 1 1 1 1 1 1 1 1 1 1 1 1 > > > > > 1 > > > > > > > > & & > & & & ; > > ; ; ; ; > > > > > > > , ; : : , : : y m 2 : 2 2 : e e e : < : : e e e e < < < < < < < < < < < < < e e < : : < : : : : : : : : : : : * * * * * * * & & & & & & * & & * * & & & * ",
"> > > > > > > > > > > > > > > > > > > > 1 > 1 > > 1 1 1 1 1 1 1 1 1 6 6 6 6 6 6 6 6 6 6 8 8 y 8 y 8 8 8 8 y 8 y d i 8 8 8 i i d d f f i f i i i i i i i i u u u u i i i i i i i u f f i i i i i i f i f f i f f f d d i i d d d d d d d d d d d 8 8 8 8 y y y 8 y 8 8 8 8 8 8 6 8 6 6 6 6 6 6 6 6 6 6 6 6 6 6 6 6 6 6 6 6 6 6 6 6 6 6 6 6 6 6 6 6 6 6 6 6 6 6 6 8 8 8 8 8 8 y y 8 8 y 8 8 8 y d d d d d d d d g g g g g g g g g g g g g g z z z z z z z z z z z z z z z z z z z z v v v v v v v v z v v v v v v v v z v v v z z z v z z z z z z z z z z z h z z h s z z g s s a a s s a s s a a i i i i i i i i i 8 8 8 i 8 9 9 9 9 9 9 8 9 9 8 9 9 9 9 9 9 9 9 9 9 9 8 8 9 9 9 9 9 8 9 9 8 8 8 8 9 9 9 8 8 8 8 8 8 8 8 8 8 8 8 8 8 8 8 8 8 8 8 8 8 6 6 6 6 6 6 6 6 6 6 6 6 6 6 6 6 6 6 6 6 6 6 6 6 1 1 1 1 1 1 1 1 1 1 1 1 1 1 1 1 > > > > > > > > > > > > > > > ; > > > > > > > > > > > > > ; > > > , : ; : 2 : : 2 9 2 2 2 2 2 e e e e 2 2 e e e e e e e e e e e < < < e < e e e e : < < e e : : : : : : : : : : * * * * * * & & & & & & & * & * & * & & * & ",
"> > > > > > > > > > > > > > > > 1 1 > 1 1 1 1 > 1 1 1 1 1 1 1 1 1 1 1 y k 6 6 6 6 8 6 8 8 8 8 y y y y 8 8 8 d y d i i i i 8 8 i i i i i i i i i i i i i u i f u u i i i i i u i u i a i i i i f f f i i f i f f i f d d d d d d i d d d d d d y y y y 8 y y y 8 y 8 8 y y 8 8 6 6 8 6 6 6 6 6 6 6 6 6 6 6 6 6 6 6 6 6 6 6 6 6 6 6 6 6 6 6 6 6 6 6 6 6 6 6 6 6 6 8 8 8 y 8 y d d 8 8 8 d d d d d d d g g g g g g g z g g z z z z z z z z z z z z z z z z v v v v v v v v v v v v v v v v v v v v v v v v v v v v v v v v v v v v v v v v v b b b b b b b x x x x x x x x x x x x x a a a a a a a a a a a i i i i i i i i i i i i i i 9 9 9 i 9 9 9 9 9 9 9 9 9 i 9 9 9 9 9 9 9 9 8 8 9 9 9 8 8 8 9 9 8 8 8 8 8 8 8 8 8 8 8 8 8 8 8 8 8 8 8 8 8 8 8 8 8 8 8 8 8 6 6 6 6 6 6 6 6 6 6 6 6 6 6 6 6 6 6 6 6 1 1 1 1 1 1 1 1 1 1 1 1 1 1 1 1 1 > > 1 1 > > > > > > > > > > > > > > > > > > > > > ; ; > ; ; ; > > ; : 2 2 2 2 2 2 2 2 2 2 e 2 e e 2 e 2 2 e e e e e e e e e e e e e e e e e e : < < < < : : : : : : : : : : : * * * * * * * * & & & * & & & & & * & * & ",
"> > > > > > > > > > > > > 1 1 1 1 > 1 1 1 1 1 1 1 1 1 1 1 1 1 1 1 6 1 d B 6 6 6 6 6 8 8 8 8 8 8 8 8 8 8 8 8 8 d i d y y i 8 d i i i i i i i i i i u i i i i i u u u i i u u u u u u i i f i i i i f f i f f d d i i d d d i d d d i d d d d d y y y y y y y 8 y 8 8 y y y 8 6 6 6 6 6 6 6 6 6 6 6 8 6 6 6 6 6 6 6 6 6 6 6 6 6 6 6 6 6 6 6 6 6 6 6 6 6 6 y 8 8 8 8 8 8 y 8 d d i d d d d g g g g g g g g g z z z z z z z z z z z z z z v v v v v v v v v v v v v v v v v v v v v v v z v v v v v v v v v v v v v v v v v v v v v Z b C C C C C C C C b C b b b b b b b b b b b x x x x x x x x b x a a a a a a a a i i i i i i i i i i i i i 9 9 i 9 i i 9 i 9 9 9 9 9 9 9 9 9 9 9 9 8 8 9 8 8 8 9 8 8 8 8 8 8 8 8 8 8 8 8 8 8 8 8 8 8 8 8 8 8 8 8 8 8 y 8 8 8 8 6 6 r 6 6 6 6 6 6 6 6 6 6 6 6 6 6 6 6 6 6 6 1 1 1 1 1 1 1 1 1 1 y 1 1 1 1 1 1 1 1 > > > > > > > > > > > > > > > > > > > > > > > > ; 3 3 > ; 2 2 2 2 2 2 2 2 2 2 2 e 2 2 e e e e e 2 e e e e e e e e e e e e e e e e < : < < e < < : : : : : : : : : : * * * * * * * * & & & * & & * & & & & * * ",
"> > > > > > > > > > > > > > > 1 1 1 1 1 1 1 1 1 1 1 1 1 1 1 1 1 1 6 6 6 6 6 6 6 8 6 8 8 8 8 8 8 8 8 y 8 8 y i i d d i i i i i i i i f f f f i f f i i i i i i u i u i u f u i u f f i i f f f f i f i i f f d d f d i i d g i d d d d d d y d y y y y y y y 8 8 y 8 y y y 8 8 8 8 8 6 6 6 6 6 6 y k 6 6 6 6 6 6 6 6 6 6 6 6 6 6 6 6 6 6 6 6 6 6 6 8 8 y y y y y y y d d d d d d d g g g g g g z z z z z z z z v v v v v v v v v v v v v v v v v v v v v v v v v v v v v v v Y Z v z z z z z v v v v z v v v v v v v v v v v v v v b C C C C C C C C C C C C C C C C C C C b b b b b b b b b b C x x x x x a a a a a a a a a a i i i i a i i i i i i i i i f i 9 9 9 9 i 9 9 i i 9 9 8 9 9 9 9 8 9 9 y 9 8 8 8 8 8 8 8 8 d y 9 8 8 8 8 y 8 8 8 8 8 8 y y 8 8 8 8 8 8 8 8 6 6 6 6 6 6 6 6 6 6 6 6 6 6 6 6 6 6 1 6 6 1 d 6 3 1 1 1 r 1 1 1 1 1 1 1 1 1 1 > > > > > > > > > > > > > > > > > > > > 1 > > 1 1 1 1 2 2 2 2 2 2 2 2 2 2 2 2 e 2 e e e e e e e e e e e e e e e e e e e e e e e e < e : < e e : : : : : : : : * * * * * * * * * * * & & * * * & * * * * & ",
"> > > > > > > > > > > > > 1 > 1 1 1 1 1 1 1 1 1 1 1 1 1 1 1 1 6 6 6 6 6 6 6 6 6 6 6 6 8 8 8 8 8 8 y 8 8 y 8 i i y d i i i i i d d f f f f f i i f i i i i i u u i i u u u u u u f u i i f f f f i f f f f i d d h d i 8 ^ :.i 8 d d d d d y y y y 8 y y 8 8 y y y 8 8 y y y 6 6 8 8 8 6 6 8 8 6 6 8 6 6 6 6 6 6 6 6 6 6 6 6 6 6 6 6 8 8 6 8 6 8 8 8 8 y y y y d d d d g g g c g g g g z z z z z z z z v v v v v v v v n v v v v v v v v v v v v v v v v v v v v z v v z z v Z n z z z z z z z z z z z z z z z v v v v v v v v v v v b b b C C C C C C C C C C C C G C C C C C C C C M M M M M M b b b M x x x x x x x x a a a a a a a a i i i i i i i i i i i 9 i i i i 9 9 i i 8 9 9 9 i i i i 9 i f i i 8 8 8 8 i 8 8 8 8 8 / B 8 8 8 8 8 8 8 y 8 8 8 8 8 8 8 8 y 8 8 8 6 8 6 8 6 6 6 6 6 6 6 6 6 6 6 6 6 6 6 6 6 d d k d 1 1 1 1 1 1 1 1 1 1 1 1 1 1 1 1 1 > > > > > > > > > > > > > 1 > 1 > 1 1 1 1 1 1 2 2 2 2 2 2 2 2 2 2 2 2 e e e e e e e e e e e e e e e e e e e e e e e e e e e : : : e < : : : : : : : : : * * * * * * * * * * * * * * * * * * & * * ",
"> > > > > > > > > > > > > 1 > > 1 1 1 1 1 1 1 1 1 1 1 1 1 1 1 6 6 1 6 y y 6 6 6 6 8 8 8 8 8 y y 8 y y 8 y 8 y 8 8 i d d d i i i y f 9 i i i i i i i i i i i i i i i u u f f u u i f f i i i f f f i f f d f d f d i d 8 Y W i d d i d d d y y y y y 8 y y y y y y 8 y y y 8 6 8 8 8 6 6 8 8 8 6 6 6 6 6 6 6 6 6 6 6 6 6 6 6 6 6 6 8 8 8 8 8 8 8 y 8 8 y y d d d d d g g g g z g g z z z z z v v v v v v v v v v n v v v v v v v v v v v v v v v z z z z z z z z z z z z z z z z z z z z z z z z z z z z z z z z z z z v v b b v x b b b b b b b b C C C C C C C F G G G G G G G C C C C C C C P P M M M M M M M b b b x x x a a a a a a a a a i i i a i i i i i i i i i i i i i i i 9 i i i i i 9 i i 9 8 i i i i i i i 8 8 8 B c 8 8 8 8 8 y 8 8 y 8 8 8 8 8 y 8 8 8 8 8 6 6 6 y y 6 6 6 8 6 6 6 6 6 6 6 6 6 6 6 6 1 d B d 1 1 6 6 1 1 1 1 1 1 1 1 1 1 1 1 1 1 > > 1 1 > 1 > 1 1 1 1 1 1 1 1 1 1 1 1 1 1 2 2 2 2 2 2 2 2 2 2 2 2 2 9 e e e e e e e e e e e e e e e e e e e e e e e e e e : < < e < : : : : : : : : : * * * : * * * * * * * * * * * * & & & & * ",
"> > > > 1 1 1 1 1 1 > > > 1 > > 1 1 1 1 > 1 1 1 1 1 1 1 1 1 1 6 6 6 6 8 6 6 6 8 6 6 8 8 8 8 8 8 8 y 8 8 8 8 8 8 8 8 d d d d 8 8 i i 9 f i i i i i i i i f f i f i i i i u u u f u i i i i i f f f i f f f f i f d i d d 8 8 d d d d d d d i y y d y y y y y y y y y y y y 8 y y 8 8 y 8 y 6 8 8 6 6 6 6 6 6 6 6 8 6 6 6 6 6 6 8 y y y y 8 8 y y y y d d d d d g g g g g z z z z z z v v v v v v v v v v v v Z n n n v v v v v v v v v z v z z z z z z z z z z z z g z g g g g g g g g g g g g g g g g z g g z z z z z z z z z z z z z z v b b b b b C C C C C C C C C G G G G G G G G G G G G C P P P P C P C C M M M M x x x x x x x a a a a x a a a i i i i i i i i i i i i i i i i i i i i i i i i i i i i i i i i i i i 8 8 8 8 8 8 y 8 8 8 8 8 8 8 8 y y 8 8 y 8 y y 6 6 y y 6 8 8 8 8 6 6 6 6 6 6 6 6 6 6 6 6 6 6 6 1 1 6 6 6 6 1 1 1 1 1 1 1 1 1 1 1 1 1 1 > 1 1 1 1 > 1 1 1 1 1 1 1 1 1 1 1 1 1 1 1 2 2 2 2 2 2 9 9 2 9 2 9 9 e e e e e e e e e e e e e e e e e e e e e e e 2 e e : : < e e < : : : : : : : : * * * * * * * * * * * * * & * * & * & & & ",
"> > 1 > 1 1 1 1 1 1 > > 1 1 1 1 1 1 1 1 1 1 1 1 1 1 1 6 1 1 1 1 6 6 6 6 6 6 6 6 6 8 8 8 8 8 8 8 8 8 8 8 8 8 8 8 8 8 y i d d i i f 9 i f i i i i f f f i i i i i i i i u u u i i u u i f i f i i f f f i d i i y d d i d d d d y d d d d y y y y y y y d y y y y y y y 8 8 8 y y 8 8 8 8 8 8 y 8 y r y 8 6 6 6 6 6 y 8 8 8 y 8 y y y y y y y d d d d d d g g g g g z z z z z v v v v v v v v n n n Z Z v v n v v v v v v v v v z z z z z z z z z z g g g g g g g g g g g g g g g g g g g g g g g g g g g g g g g g g g g z z z z z z z z z x z x b b b b b C C C C C C C C G G G G G G G G G G G G G G G G G C P C P M M M M M b x x x x x x x x x a a a a a a a a a i i i i i i i i i i i i i i i i i i i i i i d i i i i i i i 8 i i i i d d i 8 i 8 8 8 y y 8 y y y y y y 8 8 8 y 8 y y 6 6 6 6 y 6 6 6 6 6 6 6 6 6 6 6 6 6 6 6 6 6 6 1 6 1 1 1 1 1 1 1 1 6 1 1 1 1 1 1 1 1 1 1 1 1 1 1 1 1 1 1 1 1 1 1 1 2 9 2 2 2 9 2 9 9 9 9 9 e e w u w e e e e e e e e e e e e e e e e e e e e e e : < e e : < : : : : : : : : : * : * * * * * * * * * * * * * * & & & & ",
"1 > 1 1 1 1 1 1 1 1 1 1 1 1 1 1 1 1 1 k k 1 1 1 1 1 1 1 1 1 6 6 6 6 6 6 6 6 6 8 6 6 8 8 8 8 8 8 8 8 8 8 8 y 8 8 y i y 8 8 8 d i i 9 i i i i f f f i f i i i f i i u i u u i i i u u i i i i i f f f f f f f f d d d d d d d d d y d d y y y y y y y y y y y y y y y y 8 y y y 8 y 8 8 8 y 8 8 8 8 y y y y 8 8 8 8 y y y 8 y y y y y y d d d d d d d g g g g z z z z z v v v v v v v v v n Z Z Z Z n v v v v v v v v z z z z z z z z g g g g g g g g g g g g g g g g d d d g g g g d g g g g d d d g g d d d g g g g g g g g g g g g g z z z z z z x b b b b b b C C C C C C C G G G G G L L L L L L L L G G G G G C P P P P M M M b b b x x b b x x x a a a a a a a a a i i i a a i i i i i i i i i i i i i f i i i i i i i d d d i i d i i i i d d y y y y y y y y y y y y y 8 8 y y 8 8 8 8 6 8 y 6 6 6 6 6 6 6 6 r 6 6 6 6 6 6 6 6 6 6 6 1 1 6 1 1 1 1 1 1 1 1 1 1 1 1 1 1 1 1 1 1 6 1 1 1 1 1 1 1 1 1 9 9 9 2 9 9 9 9 9 9 9 9 e e e e w w e e e e e e e e e e e e e e e e e e e e e e e e e e < e < : : : : : : : : : * * * * * : * * * * * * * * * * & * * ",
"1 1 1 1 1 1 > > 1 1 1 1 1 1 1 1 1 1 1 y r 1 1 1 1 1 1 1 1 6 1 1 6 6 6 6 6 y 8 d 6 6 6 8 8 8 8 8 8 8 8 8 8 8 8 8 8 8 i i 8 i d i i i y 9 i f f f i i i i f i i i i i i u u u u i i i i i f f f f f f f f i d f f d i d d d d d d d 8 y d y y y y y y y y y y y 8 y y y y 8 y 8 8 8 8 8 8 8 8 y 8 8 y 6 8 8 6 8 8 y y y y 8 8 y y y y d d d d d d g g g g z z z z z n v v v v v v n n n v v v n v v v v v v z v z z z z g g g g g g g g g g g g g d d d d d d d d d d d d d d d d d d d d d d d g g d d d d d d d d d g g g g g g g g g g g g g g z x z x x x x b b b b C C C C C C G G G G G G J G L L L L L L G G G G G G G P P P M M M b M b b x x x x x x a a a a a a a i i a a i i i i i i i f f i i i i d d i i i i i i d d d d d d i i d d d d y d d y y 8 y y y y y 8 8 y y 8 8 8 8 8 8 6 8 8 6 6 6 6 6 6 6 6 6 6 6 6 6 6 6 6 6 6 6 6 6 6 6 6 6 6 1 1 1 1 1 1 1 1 1 1 1 1 1 1 1 1 1 1 1 6 1 6 6 6 6 1 9 9 9 9 2 9 9 9 9 9 9 e e e e e e e e e e e w e e e e e e e e e e e e 2 e e e e e 2 e e < : e 2 : , , : : : : : : * * : * * * * * * * * * : : * * * ",
"> 1 1 1 1 1 1 1 1 1 1 1 1 1 1 1 1 1 1 1 1 1 1 1 1 1 1 6 1 1 1 1 6 6 1 6 6 6 6 6 6 6 6 8 8 8 8 8 8 8 8 8 8 8 8 8 8 8 i i i 8 d i 8 i i i i i i i i i i f f i f f f i i i u i i i i i f f f f f f f f f f f d d d d d d d d d d d d d d y y y d d y y y y y y y y y y y y 8 y y 8 8 8 8 y y 8 y y 8 y 8 8 8 8 8 y y y y y y y y y d d d d d g g g g g z z z z z n n n v v v v v v v n n n v v v v v z z z z z z z z g g g g g g g g g g g d d d d d d d d d d d d d d d d d d d d d d d d d d d d d d d d d d d d d d d d d g g g g g g g g g g s g g z z x z x x b b b b b b C C P G G G G G G G L L L L L L L L L G G G G G G G G P P P M M M M M M x b M M x x a a a h h a a a a a a h a a a h f f h f i d d d i i i i d d i d d d d d i d d i d d d d d i y y y y y y y y y y 8 y 8 y y y 8 y 8 8 8 8 6 6 6 6 6 6 8 y 8 6 6 6 6 6 6 6 6 6 6 6 6 6 6 6 6 6 6 6 6 1 1 6 1 6 1 6 1 1 1 6 6 6 6 6 6 6 6 6 6 6 9 9 9 9 9 9 9 9 9 9 9 e e w e w w e e e e e e e e e e e e e e e e e e e e e e e e e < : < : 2 : : : : : : : : : : : * * : & * : * * * * * * * * * : ",
"> 1 1 1 > > > 1 1 1 1 1 1 1 1 1 1 1 1 1 1 1 1 1 1 1 1 1 1 1 1 6 1 6 6 6 6 6 6 6 6 6 6 8 8 8 8 8 8 8 8 8 8 8 8 8 8 8 i i 8 8 d i 8 d i i i i f f i i f f f f f u f i i u f f u i f i i i f f f f f f f d d d y d y d d y y y d d k d d d d d d y y y y y y 8 y y y y 8 8 y y y y 8 y y y y y 8 8 y y y y y y y y y y y y d d d d d d d g g g g z z z z z v v n n n n v v n v v v n v n v z z z z z z z z z g g g g g g g g d d d d d d d d d d d d d d d d d d d d d d d d d g c d d d d d d d d d d d d d d d d d d d d d g g g d d d g g g g g g g g g g g z x x x b b b b b C C C C G G G G G G L L L L L L L L L L L L L G G G G G G C P P P P M M M M b x x x x x a a a a m x a a a h a a h a a h a a f d i i i i i f d d d d d d d i d i d d i d d d d d y y y y y y 8 y y y y y y y y y y y 8 y 8 y y y 8 8 8 y y y y 6 6 6 6 6 6 6 6 6 6 6 6 6 6 6 6 6 6 6 1 6 6 6 6 6 6 1 6 6 6 6 6 6 6 6 6 6 6 6 6 9 9 9 9 9 9 9 9 9 9 w e w e e w w w w e e e e e e e e e e e e e e e e e e e e e 2 e e 2 : : : 2 M f : : : : : : : : : : * * * * * * * * * : * * & & ",
"1 1 1 1 1 1 > > 1 1 > 1 1 1 1 1 1 1 1 1 1 1 1 1 1 1 1 1 1 6 6 1 1 6 6 6 6 6 6 6 6 6 6 6 8 8 8 8 8 y 8 8 8 8 8 8 8 8 i 8 8 8 i i i i i f i i i f i f i i f f f i i i i f f f f i i f i 9 f f i i f f f y i d d y y y y y y d d d d d d d d y y y y y y y y y y y 8 y y 8 y y y y y y y y y y y y y y y y y y y y y d d d d d d d g g g g g z z z z z v v n v n n v n n v v n n v z n z z z z z z z g g g g g g g g g d d d d d d d d d d d d d d d d d d d d d d d d d d d d d d d d d d d d d 8 d d d d d d d d d d d d d d d g d d d d g g d d g g g g g g g x x x m m b b b b b C C C C G G G G G J L L L L L L L L L L L L L L L L L G G G C P P P P M M M b x b x x x x x m b a a a a h a a a h a h h h h g i i s d d d f d d d d d d d d d d d d d d d d d d y y y y y y y y y y y y y y y y y y y 8 y 8 8 y y y y y y y y 8 8 r r r 6 6 6 6 6 6 6 6 6 6 6 6 6 6 6 6 6 6 6 6 6 6 6 6 6 6 6 6 6 6 6 9 9 9 9 9 9 9 9 9 9 9 9 w w w w w w w w w w e e e e e e 9 e e e e e 9 e e e e e e 2 e e 2 2 : : : 9 J./ : : : : : : : : * : : * * * * * * * * * , , ; : ",
"1 1 1 > 1 1 1 1 1 1 1 1 1 1 1 1 1 1 1 1 1 1 1 1 1 1 1 1 1 6 6 6 6 6 6 6 6 6 6 6 6 6 6 8 8 8 8 8 8 8 8 d c d 8 8 8 i i 8 8 8 i i i i i f f i f f f f i i i f f f i u i f i i i f f i f f i i f i f f d d d d f y d y d d y y y y y d d y y y y y y y y y y y y y y y y y d d y y y y y y y 8 8 y y y d d y y y y d d d d d g g g g g z z z z z v z v v n v n n n n v n n c v z z z z z z g g g g g g g g g g g g g g d d d d d d d d d d d d d d d d d d d d d d d d d d d d d d c d d d d d R >.c d d d d d g g d d d d d d d d d d d d d d d d d d g g g g g g g g g z x x x b C C b C C C G G G G J J J L L L L L L L L L L L L L L L L G G G G P P C P M M M b b x x x x x x x x a x a a a a a a h g h h a h g d d g h h d d d i d d d d d d d d d d d d d d d d d y d y y y y y y y y y y y y y y y y y 8 y y 8 y 8 y y y y 8 8 8 y 8 6 6 r r 6 6 6 6 r y 6 6 r 6 6 6 6 6 6 6 6 6 6 6 6 6 6 6 6 6 6 9 9 9 9 9 9 9 9 9 9 9 9 9 w w w w w w w w 9 e e e e 9 e 9 9 e e e e 2 e 2 2 2 e e 2 e e 2 2 : 2 : 2 B f : : : : : : : : : * * * : * * * * : * * * : & & ",
"> 1 > > 1 1 1 1 1 1 1 1 1 1 1 1 1 1 1 1 1 1 1 6 1 1 1 1 1 6 1 1 6 6 6 8 y 6 6 6 6 6 8 8 6 8 8 8 8 8 8 c ..g 6 8 8 8 8 8 8 8 8 8 f f i f f i f f i i i i i f i i f f f f f i f f i i f f f i i f y f y y f d y y y d y y y y y y y d d y y y y y y y y y y 8 y y 8 y y d d d y y y 8 y 8 y y y y y y d d d d d d d d d g g g g z z z z z z v v v v n n n n n n c n z z z z z z g g g g g g g g g g g g g d d d d g d d d d d d d d d d d d d d d d d d d d d d d d d d d d d 8 ^ :.z d d g i ^ IXn g g g g d g d d g g d d d d d d d d d d d d d d d d d g g g g g g g g g z h ..oXD b b b C C C C G G G G G L J J L L L L L L L L L L L L L L L L G G G P P P P M M M b x x x x x x x x x a x x a h h h h h a a g g g h h h g g g d d d d d d d d d d d d d d d d d d d d d d d y y y y d y y y y y y y y 8 8 y y 8 y y y y y y y y y y y y 8 8 y 6 6 8 6 y y y 6 6 6 8 6 6 6 6 6 6 6 6 6 6 6 6 6 6 6 8 6 9 9 9 9 9 9 9 9 9 9 e 9 9 w w w e w w 9 9 9 e e e 9 e e 9 e e e e 2 2 2 2 2 2 e e 2 e e 2 : 2 : : : : : : : : : : : : : : : * : * * * * * : : * * & & ",
"1 1 1 1 1 1 1 1 1 1 1 1 1 1 1 1 1 1 1 1 1 1 1 6 6 6 6 6 1 1 6 1 1 6 6 6 6 6 6 6 6 6 6 8 6 6 6 8 8 8 8 8 d 8 8 8 8 8 y 8 8 y 9 9 i 9 9 i i i f i i i f h f i i i i i f i f i i i i f y 9 f f y f y y y 8 y d y y y y d d d y y y y d k d y y y y y y y y y y y y y y y y y y y y y y y y y d y y d y y d d d d d d g g g g z z z z z z n v v v n v v n v c z z c z z z z g g g g g g g g g g g g g g d d d d d d d d d d d d d d d d d d d d d d d d g g d d d d g g g g g g d B R g g g g g g g d g g g g g g g g d d g g g d d g d d d d d d d d d g d d d g g g g g g g g g / :.v x b b b b b C C C P C G G G G G L L L L L L L I I I L L L L L L L L G G P P C P M M b b b b b x x x x x x x x x h h h h h h h g h h h h g d g g g g d d d d d d d d d d d d d d d d d d d d d d d d d d y d y y y y d y y 8 y y y y y y y y y y y y y y y y y y y y 8 8 y y y 8 6 6 6 8 6 6 8 6 6 6 6 6 6 6 6 8 8 8 6 9 9 9 9 9 9 9 9 9 9 9 9 9 9 w w w w w w w 9 e 9 9 9 e e e e e e e e e e e e 2 2 e e 2 e e 2 2 : : 2 : : : : : : : : : : : : * : : : : : * : , , ; & ; ",
"1 1 1 1 1 1 1 1 1 1 1 1 1 1 1 1 1 1 1 1 1 1 1 6 6 1 1 6 6 1 6 6 1 6 6 6 6 6 6 6 6 6 6 8 8 8 8 8 8 8 8 8 8 8 8 8 8 8 8 8 8 8 8 9 8 9 9 9 9 9 9 f f i m / c 9 f f i i f f i i i i i 9 9 9 f y y y y y y y 9 y y y y y y d y y y y d d d d y y y y y y y d y y y y y y y y y d y y y y y y y d d d d d d d d d g g g g g z z z z z z c v v n n n v z z z z z z z z g g g g g g g d d d d d d d d g d d d d d d d d g d d d d d g g g g g d d d g g g g g g k c g g g g g g g g g g i g g g g g g g g g g g g g g g g g g g g g g g g g g g d g d d d g g d d d g g g g g z z g g g s a x x x b b b b b C C C C G G G G L L L L L L L I I I L L L I L L L L L L G G G C C C C M b b b b b b x x x x x x x x h h h h h h h a h g g g g g g g g g d g g d d d g d d d d d d d d d d d d d d d d d d d y y y y d y y y y d y y y y y y y y y y y y y y y y y y y 8 8 y y 8 8 g y 6 8 8 8 8 6 6 6 8 8 6 8 8 6 8 8 8 9 9 9 9 9 9 9 9 9 9 9 9 9 w w w w e 9 9 9 9 e e 9 e e 9 e 9 e e e e 2 e 2 e e e e e 2 2 2 2 2 2 2 : : : : : : : : : : : : : : : : : * * & : ; ; ; ; ",
"1 1 1 1 1 1 1 1 1 1 1 1 1 1 1 1 1 1 1 6 1 1 1 1 1 1 1 6 6 6 1 6 1 6 6 6 6 6 6 6 6 6 6 6 6 8 8 8 6 8 8 8 8 8 8 8 8 8 8 8 8 8 8 8 y d y 8 9 i i f i i h m f 9 f 9 i i i i f f i f 9 g :.R 9 9 9 y y f y 8 8 8 y y y y y d y y y y d y d d y y y y d y y y y y y y y 8 y y d d d y y y y y y d d d d g g g g g z g z z z z z z z z n n n n n n v n z z z z z c g g g g g g g d d d d d d d d d d d d d d d d g g g g g g g g g g g g g g g g g g g g g g g g c g g g g g g g g g g g g g g g g g g g g g g g g g g g g g g g g g g g g g g g g g g g g g g g g g g g d g g g g g g g z z x x x x b b b b b b M C C C G G G L L L L L L L L L I I I I I I I L L L L L G G G P P M M M b b b b x x x x x x x z x z g g g g g g g g g g g g g g g g g g d d d d d d d d d d d d d d d d d d d d d d d d d d d d d y y d d d d y d d y d d y y y y y y y 8 8 y y y y y y 8 g W c 6 8 8 8 8 8 8 8 8 6 8 8 8 8 8 8 8 8 9 9 9 9 9 9 9 9 9 9 9 9 w 9 9 w 9 9 9 9 9 e e e e 9 9 e e e e e e e e 2 2 2 2 e e 2 2 2 2 2 2 2 2 : : : : : : : : : : : : : : * * * * : : , ; ; ; ",
"1 1 1 1 1 1 1 1 1 1 1 1 1 1 1 1 1 1 1 1 1 1 1 6 1 1 1 6 6 6 6 6 6 6 6 6 6 6 6 6 6 6 6 8 8 6 6 8 6 8 8 8 8 8 8 8 8 8 9 9 8 9 9 8 8 8 8 9 9 i 9 i i i y 9 9 i i i i i f 9 i f f f 9 h :.R 9 y y f y y 9 8 y y y y y 8 8 y y y y y y y k k 8 y d d y y y y y y y y y y d d y y d d y d d d d d d d g g g g g z z z z z z z z z v n c z z z c z Y J.Y g g g g g g g g g g g g d d d d d d d d d d d d d d d d g g g k g g g g g g g g g g g g g g g g g g g g g g g g z z g z z z z z z z z c z c c c z z z c z c z z c z z z z z z c g g g g g g g g g g g g g g g g g g g g g g g g g g g z x x x x x b b b b b C C C G G G G J L L L L L L ` ` ` I L L I L I L L L L G G G G P P P C b b b b b b b b z z x x x z z z g g g g g g g g g g g g g g g g g g g d d d d d d d d d d d d d d d d d d d d d d d d d d d d d d d d d d d y y y y y d y y y y y y 8 y y y y y d g y 8 y y 8 8 8 8 8 8 8 8 8 8 8 8 8 8 8 9 9 9 9 9 9 9 9 9 9 9 9 w w 9 9 9 9 9 9 9 e 9 9 e 9 9 9 e e e 2 e e e 2 2 2 2 e e e 2 2 2 2 2 : : : : : : : : : : : : : : : : & * : : & : ; ; ; ; ",
"1 1 1 1 1 1 1 1 1 1 1 1 1 1 1 1 1 1 1 1 1 1 1 1 1 6 1 1 6 6 1 1 6 6 6 6 6 6 6 6 6 6 6 6 6 6 8 8 8 6 8 8 8 8 8 8 9 9 9 9 9 9 8 9 9 9 9 9 9 9 9 i 9 i i i 9 i i f i 9 y 9 9 y f f f i 8 8 9 9 f f y y y 8 8 8 y y y 8 y 8 y y 8 y y y y y y y y d y y y d y d y y d d d d d y d d d d d d d d d d g g z g T D.{ z v v v z z v v z z z z z z z n ^ B g g g g g g g g g d d d d d g d d d d d d d d d g g g d g g g g g g g g g g g g g g g g g g g g z g z z z z c c c z c c c c c c c c z z c c c c c c c c c c c c c c c c c z c n z z z z z z z g g g g g g g g g g g g g g g g g g g g g x z x x x x x x b b b b M C C G G G G G L L L L L L I L L ` I I I I I I L L L L G G G G C P C P b b b b b b z x x x x x x z z x g z x h g g g g g g g g g g g g g g c z d d d d d d d d d d d d d d d d d d d d d d d d d d d d d d d d d d d d d d d y y y y y y y y y d y 8 8 d y y 8 8 8 8 y 8 8 8 8 8 8 8 8 8 9 8 9 9 9 9 9 9 9 9 9 9 9 9 9 9 9 9 9 9 9 9 9 e 9 9 9 9 2 2 2 2 2 e e e 2 e 2 2 e e 2 2 2 2 2 2 : : : : , : : : : : : : : : : : : : : : : ; ; ; ; ; ",
"1 3 1 1 1 1 1 1 1 1 1 1 1 1 1 1 1 1 1 1 1 1 1 1 1 1 1 6 6 6 1 1 6 6 6 6 6 6 6 6 6 6 6 6 6 8 8 8 8 8 8 8 8 9 8 8 8 9 9 9 9 9 9 9 9 9 9 9 9 9 9 9 f 9 9 i i i f f 9 9 9 9 9 y i f f f 9 f M y y 9 9 y y y y y y 8 y y 8 y y y y k d y y y y d y y y y d d y d y y y d d d d d d d d d d d d g g g z z z z  .[.3.z n n v v z z c c z z n c z z z g g g g d g g d d d d d d g d d d d d d d d d d d d d d g g g g g k g k z g z k z z c z z c c c z c c c c c c c c c c c n n n n n n n n c c n n n n n n n n n n n n n n n n n c c c c c c c c z z c c n c z z z g z z g g g g g g g g g g g g g z g g z x x b b b b b b C C C G G G G J L L L L L L I ` ` ` ` ` I I I L L L L L L G G G C C C C C b b b b b b z x x x x x x z x h g g g g g g g g g g g g g g z c g d d d g g d d d d d d d d d d g d d d d d d d d d d d d d d d d d d d d d d d d d d d d y y d d d d d d d y y d y y y y 8 8 y 8 8 8 8 8 i i 9 8 9 9 9 9 9 9 9 9 9 9 9 9 9 9 9 9 9 9 9 9 9 9 9 9 9 2 2 9 2 2 2 e e 2 e 2 2 2 e e 2 2 2 2 2 : : : , : : : , , : : : : : : : : ; : ; ; ; > ; ; ; ",
"1 1 1 1 1 1 1 1 1 1 1 1 1 1 1 1 1 1 1 1 1 1 1 1 1 6 6 6 6 1 1 1 1 1 1 6 6 9 6 9 6 6 6 6 6 6 6 6 9 8 8 8 8 9 8 8 8 8 9 9 9 9 9 9 9 9 9 9 9 9 9 i f 9 y 9 f f f f i 9 9 y 9 f f 9 y f 9 M R d 9 9 y y y y y y y y y y y y y y y d y y d y y y y d y y d y d d y y d d d d d d d d d d d g g g g z z z z v T [ S v n n Y z z z z z z z c c g g g g g g g d g d d d d d d g g d d d d g d d d d g g d g g g g g g g g g z z z z c c z c c z c c c c c n n n n n n n n n n n n n n n n n n n n n n Z Z Z Z Z Z Z Z n n Z n n n n n n n n n n n n n c n n n c c z z z z z z z g g g g g g g g g g g g g g z z z z z x x x b b b C C C C G G G G L L L L ) ` ` ` ` ` ` ` ` I L L L L L L G G G G G C C C C b b b b b b b x z z z z x z z z g g g g g g g g g g g g g g g g g g g d d d d d d g g g d d g d g d g g g g d g g d d d d d d d d d d d d d d d d d d d d d d d d d d d d d y y y 8 8 8 8 8 8 8 8 8 8 8 9 9 8 9 9 9 9 9 9 9 9 9 9 9 9 9 9 9 9 9 9 9 9 9 9 9 9 e e e 2 2 2 2 2 2 e e e e 2 e 2 2 2 2 2 2 2 : : 2 : : : : : : : ; : : : : : ; ; ; ; ; ; & ; ; ",
"1 1 1 1 1 1 1 1 1 1 1 1 1 1 1 1 1 1 1 1 1 1 1 1 1 6 6 6 1 6 1 1 1 1 6 6 9 9 9 9 6 6 6 6 6 6 6 6 9 9 9 9 8 9 9 9 9 8 9 9 9 9 9 9 9 y y 9 9 i i 9 9 i 9 i i f 9 y 9 9 9 f 9 9 9 9 y y f f i 9 y 9 y y y y y 8 y y y y y y y y y 8 y d d y y y y y y y y d d d d d d d d d d d d d g g g g z z z z z z n n n z z z v v n z z z z z g g g g g g g g g g d g g d d d d d g g d d d d d g g g g d g g g g g k g g g z z z z c c c c c c c n n n n n n n n n n n n Z Z Z Z Z Z Z Z Z Y T Z Z Z Z Z Z Z Z Z Z Z Z Z Z Z Z Z Z Z Z Z Z Z Z Z n n n Z n n n n n n n n c c c z z z z z z z z z z z g g g g g g z g g z z z z x x b b b b C C C C G G G L L L L L ` ` ` ` ` ` ` ` ` I I L L L L J J G G G G C C C C b C C b b b v v z z x z z z z z z g g g g g g g g g g g g g g g g g d g g g g g g g g g g g g g g g g g g g g g g g d d d d d d d d d d d d d d d d d d d d d d d d d d d d d 8 8 y 8 8 8 8 8 8 8 8 8 9 9 8 8 9 9 9 9 9 9 9 f 9 9 9 9 9 9 9 9 9 9 9 9 9 9 9 e 9 2 2 2 2 2 2 2 2 2 2 2 e 2 2 2 2 2 2 2 : 2 2 : : : : : , : ; > : : ; ; : ; ; > ; ; ; ; ; ",
"1 1 1 1 1 1 2 1 1 1 2 1 1 2 1 1 1 1 1 1 1 1 1 6 6 1 6 6 6 1 9 9 1 9 6 6 9 9 9 9 9 9 9 9 9 9 9 9 9 9 9 9 9 9 9 y 9 9 9 9 9 9 9 9 9 9 9 9 9 9 9 9 f f 9 9 i f f i 9 9 y 9 y y 9 9 9 y f f 9 y 9 9 y 9 y y 8 y y y y y 8 y y y y y N c y d y y y y d d y d d d d d d d d d d d g g g g g z z z v n n n n n v n v z z z z z z z c c g g g g g g d g g d d d d d g g g g g g g g d d g g g g g g g g g k g g g g c c c c c c n n n n n n n n n n Z Z Z Z Z Z Z Z Z Z Z Z S S S T T T T T T T T T T T T T T T T T T T T Y Y Y Z Z Z Z Z Y Z Z Y Y Z Z Z Z Z n n n n n n n n v c z z z z z z z z z z z z z z z z z z z z z x x x b b b b C C C C C G G L L L L L ` ` ` ` ` ` ` ` ` ` L I L L L L L J G F G F C C C C b b b v v v v z z z z z z z z g z g g g g g g z v g g g g g g g g g g g g g g g g g g g g g g g g g g g g g g g g g g d d d d d d d d d d d d d d d d d d d d d d d d d d d 8 d d y d y d d y 8 8 y i 8 8 9 8 9 i 9 9 9 9 9 9 9 9 9 9 9 9 9 2 2 9 9 9 9 9 2 2 2 2 2 2 2 2 2 2 2 2 2 2 2 2 2 2 2 2 : 2 , , : : : : ; : : : : : ; > ; ; ; ; ; ; ; ; ",
"1 1 1 1 1 1 1 1 1 1 1 2 2 2 1 2 2 2 2 2 2 2 2 2 2 2 2 9 9 9 9 2 9 9 9 9 9 9 9 9 9 9 9 9 9 9 9 9 9 9 9 9 9 9 9 9 9 9 9 9 9 9 9 9 9 9 9 9 9 9 9 9 9 f 9 9 9 9 f 9 y 9 y 9 9 9 9 9 9 9 9 9 y y 9 f y 9 8 y 8 8 y y y 8 y y y y y y k d y y y y y y d d d d d d d d d d d d g g g g z z z z v v v n v v n v v v z z z z z z g g c k g g g g d d d d d d d d g g g g g g g g g g g d g g g g g g k k c c c c c c c c c c n n n n n Z Z Z Z Z Z Z Z Z S S S T T T T T T T T T E E E E E E E E E E E E E E T T E T T T T T E T T T T T T E T T T T T S T W T Z Z Z Z Z Z Z n n n n n n n z z z z z z z z z c z z z z z z z z z x z b b b b b M C C C G G L L L L L L ` ` ` ` ` ` ` ` ` ` ` L L L L J J J G F F F F C C C C Z v v v v v v z z z z z z z z z g g g s W ..z g g g g g g g g g g g g g g g g g g g g g g k g g g g g g g g g g g g g g g g g g d d d d g g d d d d d d d d d d d d d d d d i d d d d d 8 i 8 i 8 8 8 y i 9 9 9 9 9 9 9 9 9 9 9 9 9 9 f 9 2 9 9 9 2 2 9 2 2 2 2 2 2 2 2 2 2 2 2 2 2 2 2 2 2 : , , , , : : : ; , : , , , ; ; > ; ; ; > ; ; > ",
"2 1 ; 1 1 1 1 1 1 1 1 1 1 2 2 2 2 1 1 2 2 2 9 9 9 9 2 2 6 9 2 2 9 9 9 9 9 9 9 9 9 9 9 9 9 9 9 9 9 9 9 9 9 9 9 9 9 9 9 9 9 9 9 9 9 9 y 9 9 9 9 9 9 9 9 f y 9 9 9 9 y f y 9 9 y y 9 9 9 y y y 9 y y 9 y y 9 8 y y 8 8 y y y y y y 8 8 y y y y y d d d d d d d d d d g g g g g g z z z c n n v v n n v n n z z z z z z g g k g g g g g g d d g d d d g g d d g g g g g g g g g g g g g g g g g g z c c c c c c c n n n n n n Z Z Z Z Z Z Z T S S T T T T T E E E E E E E E Q Q Q Q Q Q Q Q Q Q Q Q Q Q Q E E E E Q Q E E E E E E E E E E E E E T T T W E T T T Y T Z Z Z Z Z Z n n n n n n n n c c z z z c z z z z z z z z z z z z v b b b b C C C G G G L L L L L ) ` ` ` ` ` ` ` ` ` ` ) L L L L J J G G J K F F F C C C C v v v v v v z z z z z z z z z g g z n z g g g g g g g g g g g g g g g g g g g g g g g g g g g g g g g g g g g g g g g g g d d d g g g d d d d d d d d d g k d d d d d d d d y 8 i 8 8 8 8 8 9 8 9 9 9 9 9 9 9 9 9 9 9 9 9 9 2 9 :.c 2 9 2 2 2 2 2 2 2 2 2 2 2 2 2 2 2 2 2 2 2 2 2 2 : : : , : : , , : ; ; : : : ; > ; ; ; ; ; ; ; ; ; ",
", 2 2 2 1 1 2 2 1 1 1 1 2 2 2 2 2 2 2 2 2 2 y y 9 9 2 2 9 9 9 9 9 2 9 9 9 9 9 9 9 9 9 9 9 9 9 9 9 9 9 9 9 9 9 9 9 9 9 9 9 9 9 9 9 9 9 9 9 9 9 9 9 9 9 9 9 9 9 9 9 y 9 y 9 y y y 9 9 9 y 9 y y 8 9 y y 8 y y y y y y y y y y y y y y y y d y d d d d d d d d d d g g g g g z z z z n n v v v v n n n z c z z z g g g g g g g g g g g g g g g g g d d d d g g g g g g g g g g g g g g c z z z z z c c c n n n n n n Z Z Z Z Z Z S S S S S T E T E E E E E E E E Q Q Q Q Q Q [ [ [ [ [ [ [ [ [ [ [ [ [ [ [ [ [ [ [ [ [ Q Q ! Q Q Q Q Q Q Q Q E E E E E E E E T T T T T T S S Z Z Z Z n n Z n n n n n n n n z z z c z z z z z z z z v v b b b b C C C G G G L L L L L L ` ` ` ` ` ` ` ` ` ` ) ) L L L J J J J J F F F F C C C Z Z v v v v v v z z z z z z z z z g g g g g g g g g g g g g g g g g g g g g z z z g g z z g g g g z k g g g g g g g g g g g g g g g g g d d d d d d d d d d d d d d d d d d d d d i 8 8 8 i 8 8 8 9 9 9 9 9 9 9 9 9 9 9 9 9 9 9 f 9 2 2 2 2 2 2 2 2 2 2 2 2 2 2 2 2 2 2 2 2 2 2 2 2 : : , , , : : : : > ; : ; > ; , ; ; ; ; ; ; ; ; ; ",
", , 2 2 2 2 2 2 2 2 1 2 2 2 2 2 2 2 2 2 2 2 9 9 9 9 2 2 9 9 9 9 9 9 9 9 9 9 9 9 9 9 9 9 9 9 9 9 9 9 9 9 9 9 9 9 9 9 9 9 9 9 9 9 f R f 9 9 9 9 9 9 9 9 9 9 9 9 9 9 9 9 y y 9 y 9 9 y 9 9 9 y y y 9 y y 8 y y y y y y y y y y y y y y y y d d d d d d d d d d d g g g g z z z z v n n v v v z n n n z z z z g g g g g g g g g g g g g g g g g g k d d d g g g g g g g g g g g z c c c c c c c c c c n n n n n n n Z Z Z Z Z T T T T T T T E E E E E E E Q Q Q Q Q ] ] ] [ [ [ { { { X.{ { { { { { { { { { { { { { { { { { { { [ [ [ [ [ ! ! ! ! ! ! ! ! Q E E Q E E E E E T T S T T Z Z Z Z Z Z Z n Z Z n n n n n v z c z z z z z z z v b b b b C C C C G G G L L L L L ` ` ` ` ` ` ` ` ` ` ` ` ) L L L L J J J J J F F F F C C C Z v v v v v z z z z z z z z z z z z g g g g g g g g g g g g g g g g z z z c k g z c z z c c c c z g g g g g g g g g g g g g g g g g d g d d g g d d d d d d d d d d d d d d d i 8 8 8 8 8 8 9 8 8 9 9 9 9 9 9 9 9 9 9 9 9 2 2 9 9 9 2 2 2 2 2 2 2 2 2 2 2 2 2 2 2 2 2 2 2 2 2 : 2 : , , : : , > > ; > ; > ; ; > ; ; ; ; ; > ; ; ",
"2 2 2 2 2 2 2 1 1 1 2 2 2 2 2 2 2 2 2 2 2 2 2 2 9 9 9 9 2 9 9 9 9 9 9 9 9 9 9 9 9 9 9 9 9 9 9 9 9 9 9 9 9 9 9 9 9 9 9 9 9 9 9 9 f R f 9 9 9 9 9 9 9 9 9 9 9 9 9 9 9 9 y 9 y 9 9 y 9 y 9 9 y 9 y y 8 8 8 8 8 y d d 8 y y y y y y y y y y y d d d d d d d d d g g g z z z n n n n n v v v v z z z c c z z g g g g g g g g g g g d g g g d g g g g g g g g g g g g g g g g z c c c c c c c c c n n n n n n Z Z Z Z Z Z Z S S T T T T E E E E E E E Q Q Q Q Q ] [ { [ [ [ [ { { { { { X.X.X.X.X.X.X.X.X.X.X.X.X.X.X.X.X.X.X.X.X.X.X.{ { { { [ [ [ [ [ [ [ [ [ [ ! Q Q Q E E E E E E ! E E T S S Z Z Z Z Z Z Z n v n v n n n v v v z z z z v b m m m C C C C C G L L L L L L ) ` ` ` ` ` ` ` ` ` ` ` ) ) L L L L J J J J J F F F F F C Z Z Z Z v v v v z z z z z z z z z g g z z z g g g g g g g g g g g z z c c c c z z g z c c c c c z c z z z g g g g g g g g c g g g g g g g g g d g d d d d d d d d d d d d d d i 8 d d i 8 8 8 8 8 8 9 8 9 9 9 9 9 9 9 9 9 9 9 9 2 9 2 2 2 2 2 2 2 2 2 2 2 2 2 2 2 2 2 2 2 2 2 2 2 , ; : : > > ; ; > ; ; > ; ; > ; > ; > > ; ; ",
"1 2 2 2 2 2 2 2 2 2 2 2 2 2 2 2 2 2 2 2 2 2 9 0 9 9 9 e 2 9 9 9 9 9 9 9 9 9 9 9 9 9 9 9 9 9 9 9 9 9 9 9 9 9 9 9 9 9 9 9 9 9 9 9 9 9 9 9 9 9 9 w 9 9 w y w 9 9 9 9 9 9 y 9 y 9 9 9 9 9 9 9 9 y 9 y 8 8 8 8 y 8 y y y y y y y y y y y y y y d d d d d d g g g g z z z z v n n n n v v z z z z z z z z g g k g g g g g g g g g g d g g g d g g g k g g g g g g g g c g z z c c c c n c n n n n n n n Z Z Z Z Z Z T S S S T T T E E E E E E E E E Q Q Q Q ! ! [ [ [ [ [ [ { [ { { { { { { X.X.X.X.X.X.X.X.X.o.#.#.#.o.o.#.#.#.#.#.#.#.#.#.@.@.X.{ { X.{ { { { [ [ [ [ [ ! Q ! ! Q Q Q E E E E E T T S S S Z S J.;.Z n n n n v v n n z z z v v n v v A A b A C C L L L L L L L ` ` ` ` ` ` ` ` ` ` ` ` ` ) ) L L L L L J J J J F F F F F Z Z Z Z v v v v z z z z z z z z z z z z z g z z z g g z g g g z z z c c c c g c Y c c c c z c z c z z z z z g g g g g g k g g g g g g g g g g g d d d d d d d d d d d d d d d i d d 8 8 8 8 f 8 8 9 6 8 6 6 6 9 9 9 9 9 9 9 9 2 2 2 2 2 2 2 2 2 2 2 2 2 2 2 2 , 2 2 2 2 2 2 2 : ; > > ; > > , ; > > > > > ; > ; ; ; ; > ; ; ",
"2 2 2 2 2 2 2 2 2 2 2 2 2 2 2 2 2 2 9 2 2 2 9 9 9 9 9 e e 2 9 2 2 9 e 9 9 9 9 9 9 9 9 9 9 9 9 9 9 9 9 9 9 9 9 9 9 9 9 9 9 9 9 9 w 9 9 9 9 w w w 9 w w w 9 9 9 9 9 9 9 9 9 9 9 y 9 9 9 9 9 9 y 9 8 y y y y y 8 y y y y y y y y y d d d y y d d d d d g g g g z z z c n n n n n v v z z z z z c z g g g g k g g g g g g g g g g g g g g g k k g c g g g k g z g z c z z c c n n n n n n n n n n Z Z Z Z Z Z S S T S S T T T T E E E E E E E E E Q Q Q Q ! ! [ [ [ [ [ [ [ [ [ [ [ [ { { { { { X.X.X.X.X.X.o.X.#.#.#.o.#.#.#.#.#.2.2.2.2.2.2.2.#.#.#.o.#.@.X.X.{ { { { { [ [ [ [ [ Q Q Q Q Q Q E E E E T S H {.{.T Z Z Z n n n n n z z n z z v z v m m m m G C G G G G L L L L ` ` ` ` ` ` ` ` ` ` ` ` ` ` ) ) L L L L L J J J J J F F F F Z Z Z v v v v v v z z z z z z z z z z z z z z z z z z z z z z z c c c c g E J.Z z c c c c c c z c z z z g g g g g g g g g g g g g g g g g d d d d d g d d d d d d d d d d i 8 y 8 8 8 8 8 8 9 9 6 6 6 6 6 6 9 9 9 9 9 9 9 2 2 2 2 2 2 2 2 2 2 2 2 2 2 2 2 2 2 2 2 2 2 2 2 , > > : ; ; > ; , ; > > > ; > ; ; ; ; ; ; > ; ",
"2 2 2 2 2 2 2 2 2 2 2 2 2 2 2 2 9 9 9 9 2 e e e 9 9 e e e e e 9 e e 9 9 9 9 9 9 9 9 9 9 9 9 9 e e 9 9 9 9 9 9 9 9 9 9 9 w 9 9 w w 9 9 9 9 9 w w 9 w 9 w f y 9 9 9 9 9 9 9 y 9 9 9 9 9 9 y y y y y y y y y y 8 y y y y 8 y y y d d d d d d d d d g g g g z z z c n n n n n n n z z z z z z z n c g g g g g g g g g g g g g g g g k g g g c c g g g g g k g c c c c c c n n n n n n n n n Z n Z Z Z Z Z Z T T T T T E E T T T E E E E E E E E E E E Q Q ! ! ! ! [ ! ! [ [ [ [ [ [ [ [ [ [ { { { { { { X.X.X.X.X.#.o.#.#.#.#.2.2.#.2.2.2.2.2.2.2.2.2.2.2.2.2.2.#.@.X.@.{ { { { { [ [ [ [ [ ! ! ! Q Q E E E E  .$.T T T Z Z Z Z n n n n n z z v v v n n n m b A A G C G G L J L L L ) ) ` ` ` ` ` ` ` ` ` ` ) ) ) ) L L L L K J K K J J F F F F F Z Z v v v v v v v z z z z z z z z z z z z z z c z z z z z c c c c z Y ! n c c c c c n n c c c c z z z c z z g g g g g g g g g g g g g g g d d d g z g d d d d d d d d d i i 8 y 8 8 8 8 8 8 6 6 6 6 6 6 1 9 9 9 9 2 2 2 2 1 1 2 2 2 1 2 2 2 2 2 2 , : , 2 2 2 , 2 2 2 1 ; : > > > > , , , > > > > > > ; ; ; > ; ; ",
"2 2 2 2 2 2 2 2 2 2 2 2 2 9 2 2 9 9 9 9 2 e e e e e e e e e e e h u e 9 e 9 e e 9 9 9 9 e 9 9 e e w w w 9 9 9 9 9 9 9 9 9 9 9 9 9 9 w w w w 9 9 w 9 w w f 9 9 9 9 9 9 9 9 9 y 9 9 9 9 9 y y y y y y y y y 8 y y y 8 d d y d d d y d d d d d d g g g z z z c z n n n n n n n z z z z z z z z c g g g g g g g g k g g g g g g g g k g k k c g g k g c g c z c c c c n n n n n n n n n Z Z Z Z Z Z Z Z S T T T T T T T T T T T T T T E E E E E E E E ! W ! ! ! Q ! ! ! ! ! ! ! ! ! ! [ [ [ [ [ [ { { { { { { { X.X.X.X.@.#.#.3.3.#.2.2.2.2.2.2.2.2.4.4.4.4.4.4.2.2.2.#.#.#.@.@.X.{ { { { [ [ [ [ [ ! ! Q Q Q E T E E T T T S Z Z Z Z n n n n n v v v n n n m A A A C C G G G J L L L L ) ) ` ` ` ` *.*.*.` ` ) ) ) ) ) ) ) L K K K J J J J J F F F Z Z Z Z v v v v v v z z z z z z z z z c z c c c c c z c z c c c n c z n n n n n c n n c c c c c c c z z c z z g g g g g g g g g g g g g g d g W $.T g d d d d d d d i d d d y 8 8 8 8 8 9 6 6 6 6 6 6 6 1 1 9 2 1 2 1 1 1 1 1 2 1 1 2 2 2 2 2 2 2 , 2 2 2 2 , , > > > ; , > > ; > ; ; , > ; > > > > ; > > > > ; ",
"2 2 2 2 2 2 2 2 2 2 2 2 2 2 2 2 2 2 9 e 9 e e e e e e e e e w e f w e e e e e w 9 9 9 e e e e w 9 9 e e 9 9 9 9 9 9 9 9 9 9 9 w w w w w w w 9 9 9 9 9 9 9 9 9 9 9 9 9 9 9 9 9 y y 9 9 y y y 9 9 8 8 y 8 8 y y y y 6 >.oXi d d d d d d d d g g g g z z z c z n n n n n n v z z z z z z z z z g g g k g g g g g g g g k g g g g g g g g k g g g g g z z c c c c c n n n n n n n Z Z Z Z Z Z Z Z Y Z T T T T T T T T T T T T T T T E E E E E E E E E W ! ! ! ! Q ! ! ! Q ! ! ! ! ! ! ! ! [ [ [ [ [ [ [ [ { {  .X.{ X.X.X.X.X.@.#.#.#.#.#.#.2.2.2.2.4.4.4.5.4.4.4.4.4.4.2.2.2.#.#.#.@.X.X.{ { { { [ [ [ [ [ ! ! ! Q E E E T T T S S Z Z Z n n n n v v v v n n n m A C C A G G G L L L L L L ` ` ` ` *.` *.*.` ` ` ) ) ) ) ) ) L K K K K K J J J F F F Z Z Z Z v v v v v v z z z z z z z z z z z c c c c c c c c c c c c n c n n n n c n n c c c c c c c c z z z c z z g g g g g g g g g g g g d g ;.I. .g d d d d d d d d 8 d d y 8 8 8 8 8 8 6 6 6 6 6 6 6 6 9 1 1 2 2 1 1 1 2 2 2 1 2 2 2 2 2 , 2 : : 2 2 2 2 : : : : : : > > > > ; > ; > ; ; ; > > ; > ; ; ; > > ",
"2 2 2 2 2 2 2 2 2 2 2 2 2 2 2 2 2 9 e e 9 e e e e e e e e e w e e e e e e e w w e e w e e w w w e e e e 9 9 9 9 9 9 9 w 9 9 w w w w w w w w w 9 9 9 9 9 9 9 9 9 9 9 9 9 9 9 9 9 9 9 y y 9 8 9 y 8 8 8 y y y y y y 8 R ^ y y d d d d d d g g g z z z z c n n n n n n v z z z z z z z c z g k g g g g g g g g g g g k g g g g g g g g g g g g z c c c c c c c n n n n n n n n Z Z Z Z Z T Z Z T T T T T T T T T T T T E E E E E E E E E E W W ! ! ! ! ! ! ! ! ! ! ! Q ! ! ! ! ! ! ! [ ! [ [ ! [ [ [ [ [ [ [ [ { { { {  .$.{ { { X.X.X.@.o.#.#.#.2.2.2.4.4.4.4.q.q.4.q.4.4.4.4.4.2.2.#.#.@.@.@. .{ { { { [ [ [ [ ! Q Q Q E E E T T W T Z Z Z Z n n n n v n n v n n m C A A C G G G L L L L L ) ` ` ` ` *.*.*.*.` ` ) ) ) ) ) ) L L K K K K K J J J F F F Z Z Z Z v v v v z v n z z z z z c z z c c c c c c c c c c n n n n n n n n n n n n n n c c c c c z g z c c c z g g g g g g g g g g g d g Y  .T g g d d d d d d d d d 8 8 8 8 8 8 8 8 8 6 6 6 6 6 9 6 6 1 1 1 1 1 1 1 1 2 2 1 1 2 2 2 2 2 , , : 2 , 2 1 : ; : ; : , > > > > > > ; ; > > > > > ; ; > > > > > ",
"2 2 2 2 2 2 2 2 2 2 2 2 2 2 2 2 9 9 e e e e e e e e e e e e e e e e e e e e w w w e e e e w w e w w w w 9 9 9 9 e 9 w w w w w w w w w w w w w 9 w w 9 9 9 9 9 9 9 9 9 9 9 9 9 9 9 y 9 y 8 8 8 y 8 y y 8 y y y y y y 8 8 y d d d d d d g g g z z z c n n n n n n n n z z z z z z g g g g g g g g g g g g k g g g g k g g g g g g g g z c c z c c c c c c n n n n n n n Z Z Z Z Z Z Z T T T T T T T T T T T T T T E E E E E E E Q ! ! ! ! ! ! ! ! ! ! ! ! ! ! ! ! Q Q Q ! ! ! ! ! [ ! ! ! ! ! ! ! [ [ ! [ [ [ [ [ [ [ D.E. .[ { { { { X.X.X.#.#.X.#.#.2.2.2.2.4.4.q.q.q.q.q.q.q.4.4.4.2.2.2.#.#.#.@.@.@.@.{ { [ [ [ ! ! Q Q Q E E ..W S S Z Z Z R T Z n n n n n n m m A A A A G G G L L L L L ) ` ` *.*.*.*.*.` ` ` ` ) ) ) ) ) ) ) ( K K K K K J H J F F F Z Z Z Z v n v n n n z v n c c c c c c c c n c c n n n n n n n n n n n n n n n n n n c c c c c c g c c c g g g g g g g g g g g g g g d g g g d d d d d d d i d y 8 y y 8 8 8 8 8 8 6 6 6 6 6 6 6 6 6 6 6 1 1 1 1 1 2 2 1 1 2 2 1 1 1 1 2 , > : 1 > > ; 1 2 ; > , ; > ; > > ; > > > > ; > > ; ; > > ; ; ",
"2 2 2 2 2 2 2 2 2 2 2 2 2 2 2 e e 9 e e e e e e e e e e e e e e e e e e e e e w e e e e w w w w w w e w 9 w w w e e w w 9 9 w w 9 w w w w w w 9 9 w 9 9 9 9 9 9 9 9 9 9 9 9 9 9 9 y y y 8 y 8 y 8 8 y y y y y y y y d y d d d d d d g g g z z z c n n n n n n z z z z z z z g g g g g g g g g g g g g g g g g g g g g g k g k k g z c c c c c c c n n n n n n n n n Z Y Y Y Z Y Y T T T T T T T T T E E E E E E E Q ! ! Q ! ! ! [ [ [ [ [ [ [ [ [ [ [ [ [ [ [ [ [ [ [ [ [ [ [ [ [ [ ] [ [ [ [ [ [ [ [ [ [ ! [ [ [ [  .@.[ [ [ [ [ {  .{ { @. .{ @.#.#.#.#.2.2.2.4.4.4.4.q.q.q.q.q.q.4.4.4.4.2.#.#.#.@.@.@.@. .{ { [ [ [ ..[ ! E Q E E T T S S W T Z Z n n n n n n v n A A A A G G G G L L L L ) ` ` ` *.*.*.*.*.*.` ) ) ) ) ) ) ) ) ( ( ( ( ( K K J H H F S F Z Z Z Z n n v n n v n c n c c c n c c c n n n n n n n n n n n n n n n n n n n n n n c c c c c c c c c k g g g g g g g g g g g g g g g d g d d d d d d d d y y 8 8 8 8 8 8 8 6 6 6 6 6 6 6 6 6 6 6 6 1 1 6 6 1 1 2 1 1 1 2 1 > > > , ; > , > > 1 > > 1 > ; > > > > > > ; > ; > > > > > ; ; ; > > > ",
"1 2 2 2 2 2 2 2 2 2 2 2 9 9 2 e e e e e e e e e e e e e e e e e e e e e w w e e e e e e e w e w w w w w w w w w w e 9 w w w w w 9 w w w w 9 9 w 9 9 9 9 9 9 9 9 9 9 9 9 9 9 9 9 y 9 9 9 8 y y 8 y y y y y y y y y y d d d d d d g g g g z z z n n n n v v v z z z c c z z g g g g g g g g g g g g g k g g g g g g g g g k z c c c c c c c c n c n n n n n n n n n Z Z Y Z Y Y Y Y T T T T T T T E E E E E E Q Q ! ! [ [ [ [ [ [ [  . . .{ { [ { { [ [ { [ [ [ [ [ [ [ [ [ [ [ [ [ [ [ [ [ [ [ [ [ [ [ [ [ [ [ [ [ [ [ [ [ [ [ [ [ {  .{ { { { { { X.X.X.@.#.#.#.2.2.2.4.4.q.q.q.q.q.q.q.q.q.4.4.4.3.2.#.#.#.@.@.@.@.{ { { [ [ ! Q Q E E E T T S Z Z Z Z Z Z Z n n n n v Z A A A A G G G L L L L ) ) ) ` ` *.*.*.*.*.*.` ) ) ) _ ) ) ( ( ( ( ( ( K K K H H H S F Z Z Z Z Z n n n n n n n n n n n n n n n n n n n n n n n n n n n n n n n n n n n n n c c c c c c c c z g g g g g g g g g g g d g g g g g d d d d d d y 8 8 y y y 8 8 8 8 6 6 6 6 6 6 6 6 6 1 1 1 1 1 1 1 1 1 1 1 1 1 1 1 > 1 1 2 2 2 ; > , 2 > > ; 1 > ; ; > > > ; ; ; > > > > ; > ; > ; ; ; ; ; ",
"1 2 2 2 2 2 2 2 2 2 2 2 9 e e e e e e e e e e e e e e e e e e e e e e w w e e e w w w w w w w w w w w w w w w w w w w w 9 9 w w w w w w 9 w w 9 w 9 9 9 9 9 9 9 9 9 9 9 9 9 y y 9 9 9 9 y y 8 8 y y y y y y y y y y d d d d g g g g g z z c n n n n n v z z z z z z z z g k g g g g g g g g g g g k g g g g g g g g k c g c c c c c c n n n Y n n n n n n n Z Y Z Z Y Y Y Y Y T T T T E E E E E Q Q Q ] [ [ ! [ [ { #.#.X.{ { X.@.@.@.X.{ X.X.X.X.X.{ { { X.X.X.{ { X.X.X.X.{ X.X.{ { { { { { { { { { { [ [ [ [ [ [ [ [ [ [  .[ [ [ [ [ [ [ [ { { { { { { X.X.@.#.#.#.2.2.4.4.q.q.q.q.8.8.8.8.8.e.q.5.5.3.3.2.#.@.@.@.@.{ { { [ [ ] Q Q Q E E S S S Z Z Z Z Z n Z n n n n Z A A A A G G G L L L L L ) ) ) ` *.*.*.*.*.*.*.) ) ) ) _ ) ) ( ( ( ( ( ( K K H H H S F Z Z Z Z Z n n n n n n n n n n n n n n n n n n n n n n n n n Z n Z Z Z n n n n n n n n c c c c c z c g g g g g g g g g g g g d d d d d d d d d d 8 d d d 8 y 8 8 8 y 8 6 6 6 6 6 6 6 6 1 6 1 1 6 6 1 1 1 1 1 1 1 1 1 1 1 1 2 , > 2 1 1 > > > 1 > ; ; ; ; > > ; > > > > > ; > ; ; ; ; ; ; ; ; > ",
"1 2 2 2 2 2 2 2 2 2 2 9 2 e e e 2 e e e e e e e e e e e e e e e e e w w w e e w w w w w e e e w w w w w w e w w w w w w w w w w w w w 9 w w w 9 9 9 9 9 9 9 9 9 9 9 9 9 9 9 y 9 9 y 9 8 9 y 8 8 8 y y 8 y y y y d d d d d g g g g z z z c n n n n n v z z z z z z z g g g g g g g g k g g g g g g g g k k k g g g g k k c c c c c c n n n n Z T n n n Z n n Y T Y Y Y T T T T T E E E E Q Q Q Q [ [ [ { { { { { { 3.L.5.o.#.#.#.#.#.#.#.2.#.#.#.#.#.#.#.#.2.#.#.#.#.#.#.#.#.#.#.#.#.#.#.#.o.#.#.@.X.@.X.{ { { { { { { [ [ [ [ [ [ [ [ [ [ [ [ [ { [ { { { { { { X.X.X.o.#.2.2.2.4.4.q.q.q.8.e.e.e.e.e.e.e.5.5.3.3.#.#.#.@.@.X.{ { { [ [ Q Q Q E E T T S S Z Z Z Z Z n Z n n Z Z A A A A G G L L L L L ) ) ) ` *.*.*.*.*.*.*.*._ ) ) _ _ _ ( ( } ( ( ( ( K K K H H S S Z Z Z Z Z n n n n n n n n n n n n n n n n n n n n n n n Z Z Z n n n n n n n n n n c c c c c c z z g g g g g g g g g g g g d d d d d d d d d y d c d y y y 8 y 8 8 6 6 6 6 6 6 6 6 6 6 1 1 6 1 1 1 1 1 1 1 2 1 1 1 2 1 1 : 1 2 2 1 ; > 2 1 2 2 > > > > > : > > > ; > > ; ; ; > ; ; ; ; > ; ",
"1 2 2 2 2 2 2 2 2 2 2 2 9 2 2 e e e e e e e e e e e e e e e e e w w w w w e e e w w w w w w w w w w w w f f e w w w w w w w w w w w w w w w 9 9 9 9 9 9 9 9 9 9 9 9 9 9 9 9 9 9 9 9 9 8 8 9 y y 8 y y 8 y y d d d d d d g g g z z z c c n n n n n v z z z z g g z k k g g g g g g g k g g g k g k g g k k g g g g g k c c c c c c c n n n n Z T Z n Z Z Z Z Z T Y T T T T T E E E Q Q Q Q [ [ [ { { { X.X.X.#.o.o.4.F.2.2.2.2.2.4.4.4.q.5.4.4.4.4.4.4.4.4.4.4.4.4.4.4.5.4.4.4.4.4.4.2.2.2.2.5.3.#.#.#.#.#.#.@.@.@.{ { { { { [ [ [ [ { { [ [ [ [ [ [ [ [ [ { { { { { X.X.X.@.#.2.2.2.4.4.q.q.e.e.e.e.e.e.e.e.e.5.5.3.3.#.#.#.@.@.@.X.{ { [ [ Q Q Q Q E S T S S Z Z Z Z Z Z Z Z Z n A A A A G G G L L L L L ) ) ` ` *.*.*.*.*.*.*.) ) ) _ _ ( } O.( ( ( ( ( ( K K H H H S S Z Z Z Z Z Z n n n n n n n n n n n n n n n n n Z n Z Z Z Z Z Z n Z n n n n n n c c c c c c c k k g g g g g g g g g g g d d d d d d d d d d d d 8 8 y 8 8 y y 6 6 6 6 6 6 6 6 6 6 1 1 1 1 1 1 1 1 1 1 1 1 1 1 1 1 1 1 2 2 2 2 , > > 1 1 2 , > > 1 > > > ; ; ; ; > > ; ; ; ; ; ; ; ; > ; ",
"2 2 2 2 2 2 2 2 2 2 2 2 2 2 2 e 9 e e e e e e e e e e e e e e e e e w w e e w w w w w w w w w w w w w e >.>.0 w w w 9 w w w w w w w w w w 9 w w w 9 9 9 9 9 9 9 9 9 9 9 9 9 9 9 9 8 8 8 8 y y y y y y y y y d d d d d g g g z z z z c n n n n n n z z z c g g g g g g g g g g g g g g g g g g k g g g g g c k k c c k c c c c c n n n n n Z n n n Z T T S T T T T T T E E E Q ! [ Q ] [ [ { { { X.X.o.#.#.2.2.2.2.4.4.4.5.q.q.q.q.q.w.F.w.q.q.q.q.q.q.q.q.q.q.q.q.q.q.q.5.q.5.5.q.4.4.5.4.4.4.4.2.2.2.2.2.2.#.#.#.#.@.@.X.X.{ { { { { { { [ { { { { { [ [ [ { { { { { { { X.X.X.o.o.2.2.4.4.4.q.w.e.e.e.e.e.e.e.e.e.5.5.3.3.2.#.#.@.@.{ { { { [ [ Q Q E E E T S S Z Z Z Z Z n n n Z Z A A A A G G G L L L ) ) ) ) ) &.&.*.*.*.*.*._ ) _ _ _ _ _ ( ( ( ( ( ( ( K K K H H S S S Z Z Z Z Z Z n n n n n n n n n n n n n n Z n Z Z Z Z Z Z Z n n n n n n Z n n n n n c c k g g g g g g g g g g g g g g g g d d d d d d d d d d 8 8 8 8 y y 6 8 8 6 6 6 6 6 6 1 1 1 1 1 1 1 1 1 1 1 1 1 1 1 1 1 1 1 1 > 2 1 , > 1 ; ; > 1 2 1 1 1 > > ; ; > > > > > ; ; ; ; ; ; ; ; ; ",
"2 2 2 2 2 2 2 2 2 2 2 2 2 2 e 2 9 e e e e e e e e e e e e e w u w w w e w w w w e w w w w w w w w w w e m M e w w w w w w w w w w w w w w 9 9 9 9 9 9 9 9 9 9 9 9 9 9 9 9 9 9 9 9 9 9 y y y y y y y y y y y d d d g g g g z z z c n n n n n c c z z z z k g g g g g g g g g g g g g g g g g k g g g g g c c c c c c c c c c c n n n n n Z Z Z  .E Z T T E T T T E E E E Q ! [ [ { { { { X.X.X.#.#.2.2.4.4.4.q.q.q.q.w.w.w.w.w.w.w.w.w.w.L.F.w.w.w.w.w.w.w.w.q.q.q.q.q.q.q.q.q.q.q.q.4.4.4.4.4.4.4.4.4.2.4.4.2.2.2.#.#.#.#.#.@.X.X.X.{ { { { { {  .{ { { { { [ [ { { { { {  .{ { X.X.#.#.2.2.4.4.q.q.w.e.e.e.e.r.e.e.e.e.6.5.5.3.3.#.#.@.@.@.X.{ { [ ] Q Q E E E S S Z Z Z Z Z Z Z Z Z Z Z A A A D G G L L L ) ) ) ) &.&.*.*.*.*.*.*._ _ _ _ _ _ _ ( ( ( ( ( ( ( ( K K H H S S S S Z Z Z Z Z n n n n n n n n n n n Z Z Z n Z Z Z Z Z Z n n T ..Z n n n n n n n c c c c c k g g k k g g g g g g d g g g g d d d d d d 8 d c d 8 8 y 8 8 8 6 8 6 6 6 6 6 6 6 6 1 1 1 1 1 1 1 1 1 1 1 1 1 1 3 1 1 1 1 1 1 1 3 1 , : > 2 3 > > > 2 2 1 2 ; : ; > > > ; ; : ; > ; ; ; ",
"2 2 2 2 2 2 2 2 2 2 2 2 2 2 2 e e e e e e e e e e e e e e e w u w e w w w w e w w w w w w w w w w w w w 0 e w w w w w w w w w w w w w w w e w w 9 9 9 9 9 9 y 9 9 9 9 9 9 9 9 9 9 6 y y y y y 8 y y y d d d d d g g g g z c c c n n n n c c z z z z c z g k g g g g g g g g g g k g g g g k c c k g g c c c c c c c c c n n n n n n n Z Z Z E I.D.S T E E E E E Q Q Q Q ] { { { { X.X.#.#.#.2.2.4.5.q.q.q.q.w.w.L.s.s.s.s.s.s.s.s.s.s.s.L.L.L.L.w.w.w.w.w.w.q.q.q.q.q.q.q.q.q.q.q.4.4.q.q.4.4.5.4.4.4.4.4.4.2.2.2.2.2.2.#.#.#.#.@.@.X.X.X.{ { X.{ { { { { { { { { { { { {  . .{ { X.X.@.@.#.2.2.4.4.q.q.w.w.e.d.d.r.r.r.r.e.6.5.3.3.$.#.#.#.@.@.X.{ { [ ] Q Q Q E E S S S S Z Z Z Z Z Z Z Z A A A G G L L L L ) ) ) ) ` ` ` *.*.*.*.*.*._ _ _ _ _ ( ( ( ( ( ( ( ( ( ( K K H H S S S S Z Z Z Z Z Z Z n n n n n n Z n Z Z n n Z Z T $.W n T T ! T n n n n n n n c c c c c z g g g g g g g g g g d g g g d d d d d d y g c d d d y 8 8 8 8 6 6 6 6 6 6 6 6 6 6 6 1 1 1 1 1 1 1 1 1 1 1 1 1 1 1 > 1 > , 1 1 1 > ; ; > 1 1 ; > > > ; 2 2 1 > ; > ; ; ; ; ; ; ; ; ; > ",
"2 2 2 2 2 2 2 2 2 2 2 2 2 2 2 2 e e e e e e e e e e e e e e e w e e e w w w w w w w w w w w w e w w w w w w w w w w w w w w w w w 9 w w w w 9 9 9 9 9 9 9 9 9 9 9 9 9 9 9 9 9 9 9 6 y y 8 8 y 8 y y y d d d g g g g z z c c n n n n n c c c z z z z g k k k k g g g g g g g g k k k g k g g k c k c c c c c c c c c n n n n n n Z Z Z Z Z T E @.[ E E E E E Q [ [ ] [ { { X.X.X.X.#.2.2.4.4.5.q.q.w.w.w.s.s.s.L.L.s.s.s.s.s.s.s.s.s.s.w.s.L.L.s.w.w.q.q.q.q.q.q.q.q.4.4.4.4.4.4.4.4.4.5.5.4.4.4.4.4.4.4.4.4.4.4.2.2.2.2.2.2.#.#.#.#.#.@.@.X.@.@.X.X.X.X.{ { { { { { { { { { { { { {  .@. .@.@.#.2.2.4.4.q.q.0.w.e.e.r.r.r.r.r.r.6.5.3.3.3.2.#.#.#.@.X.{ { [ ] Q Q Q E E T T S S Z Z Z Z Z Z Z Z A A G G L L L | L ) ) ) ) ` *.*.*.*.*.*._ _ _ _ _ _ ( ( O.( ( ( ( ( ( ( K K H H H S S S Z Z Z Z Z Z n n n n n n n n n Z Z n Z Z Y ! E Y ! Y n Z Z n n n n n n n n c c c c z g g g g g g g g d d g g d d d d d d d 8 g c 8 y d y 8 8 8 8 6 6 6 6 6 6 6 6 6 6 6 6 1 6 6 1 1 1 1 1 1 1 1 1 1 1 > > 3 1 3 > > ; ; > 2 > 1 2 > 1 1 ; ; 1 y 8 2 , > ; ; ; & ; ; : > ; ",
"2 2 2 2 2 2 2 2 2 2 2 2 2 2 2 e e e e e e e e e e e e e e e w w w w w w e w w w w w e w w w w e w w w w w w w w w w w w w w w w w 9 w w w w 9 9 9 9 9 9 9 9 9 9 9 9 9 9 9 9 9 6 8 8 8 y 8 y y y y y y d d d g g g z c c c n n n n n z z z z z z g g g k g g g g g g g g g g g k g g g g k g g c c c z c c c c c c n n n n n Z Z Z Z Z Y T T T S E E E Q Q Q ] [ { { { X.X.X.o.#.2.4.4.q.q.w.w.w.L.L.L.s.s.s.s.s.s.s.s.s.s.s.s.w.w.w.w.w.w.w.w.q.q.q.q.q.q.q.4.4.4.4.4.2.4.4.4.4.2.4.4.4.2.2.2.2.2.4.4.2.5.5.4.2.2.2.2.2.2.2.2.#.2.3.#.#.#.#.@.X.@.@.@.X.X.{ { { { { { {  .{ [ { { [ { { { {  .X.@.@.#.2.4.q.q.q.0.e.s.e.r.r.r.r.r.r.7.6.5.3.2.2.#.#.@.X.X.{ [ [ ] Q Q E E E T T S Z n Z S Z Z Z Z A D G G G L L L L L ) ) ` ` ` *.*.*.*.*.*._ _ _ _ _ ( _ _ ( ( ( ( ( ( ( K K H H H S S S Z Z Z Z Z n n n n n n n n n Z n n Z Z Z Z Z Y Y Z Z Z Z n n n n n n n c c c c c c g g g g g g g g g d g g d d d d d d d d y y y 8 y y 8 8 8 6 6 6 6 6 6 6 6 6 6 6 6 1 6 1 6 1 1 1 1 1 1 1 1 1 1 1 1 1 1 > 1 1 > > 1 1 > : > > 1 2 2 : : , 2 2 ; > > > , : : ; ; ; ; ; ",
"1 2 2 2 2 2 2 2 2 2 2 2 2 2 2 e e e e e e e e e e e e e e e w w w w w w u u w w w w w w w w w w w w w w w w w w w w w w w w w w w w w w w w 9 9 9 9 9 9 9 9 9 9 9 9 9 9 9 9 9 8 8 8 8 8 8 y y y d d d d d d g g z c c n n n c n c c c z c z g g g g g g g g g g g c k g g g g k g g k c k c z c c c c c c c c c n n n n Z Z Z Z Z S S T T T E E E Q Q Q ] [ { { X.X.o.#.2.2.4.4.q.q.w.w.s.L.L.L.s.s.s.s.s.s.s.s.s.s.s.w.w.w.w.w.w.w.w.q.q.q.q.5.4.4.4.4.4.4.4.4.4.4.2.2.2.2.4.2.2.2.2.2.2.4.2.2.2.2.2.2.4.4.2.2.2.2.2.2.2.2.2.2.2.2.#.#.#.#.o.#.#.#.@.X.X.X.X.X.{  .{ {  .{ { { { { { [ { { { { { @.@.#.2.2.D.G.q.q.0.0.e.s.r.r.r.r.r.r.7.6.3.3.2.2.#.#.@.@.{ { { [ [ Q Q E E E E H oXCXE Z Z Z Z Z A D D G G L L L L L ) ) ) ` ) *.*.*.*.*._ _ _ _ _ _ _ _ _ _ ( ( ( ( ( ( ( K K H H S S S S Z Z Z Z Z n n Z Z Z n Z Z n n Z Z Z Z Z Z Z Z Z Z Z n n n n n n c c c c c c c k g g g g g g g g g g d d d d d d d d d d d y y y y 8 8 6 6 6 6 6 6 6 6 6 6 6 6 6 6 1 1 1 1 1 1 1 1 1 1 1 1 1 1 1 3 1 3 1 1 > > 1 1 2 3 : : 1 2 : , : : , : , : , ; : , : ; ; ; & & ",
"2 2 2 2 2 2 2 2 2 2 2 2 2 2 2 2 2 e e e e e e e e e e e e e w w w w e e u w e w w w w w w w w w w w w e w w w w w w w w w w w w w w w w e e e 9 9 9 9 9 9 9 9 9 9 9 9 9 9 9 9 6 8 8 8 8 8 8 y y y d d d d g z z c c n n n n c c c z z z c k k g g g g g g g g g g c k g k g g g g g c c c c c c c c c c c n n n n n Z Z Z Z Z Y T T T E E E Q Q Q ] ] [ { X.X.o.2.2.2.4.5.q.q.w.w.w.s.s.L.L.L.s.s.s.s.s.s.s.w.w.w.w.w.w.w.w.q.q.q.q.q.5.4.4.4.4.4.2.2.2.4.2.2.4.4.2.2.2.2.2.2.2.4.4.2.2.4.5.4.4.2.2.2.4.2.2.2.2.2.2.2.2.2.2.2.2.2.2.2.2.#.#.#.#.#.#.#.@.X.X.X.X.{  .{ {  . .{  .{ { { { { { [ { {  .@.@.$.D.2.D.q.q.q.q.q.w.e.r.r.r.r.r.r.7.6.5.3.3.3.3.#.#.@.X.X.{ { { [ Q Q Q E E oXCXT Z S Z Z Z Z Z D D D G L L L L L ) ) ) ) ) _ *.*.*.*._ _ _ _ +._ _ _ _ _ ( ( ( ( ( ( ( K K H H H S S Z Z Z Z Z Z Z Z Z Z Z Z Z n n Z Z Z Z Z Z Z Z Z Z Z n n n n n n c c c c c c c g g g g g g g g g g d d d d d d d d k k d d y y y 8 8 8 8 8 6 6 6 6 6 6 6 6 6 6 6 1 1 1 1 1 1 1 1 1 1 1 1 1 1 1 1 3 1 1 1 2 2 2 > 2 2 , : : , 2 , , : 1 2 : : : ; ; : : : : : & ; ; ",
"2 2 2 2 2 2 2 2 2 2 2 2 2 2 2 e 2 2 e e e e e e e e e e w e e e w e e w w w w w w w w w w w w w w w w w w w w w w w w w w w w w w w 9 9 e e 9 e 9 9 9 9 9 9 9 9 9 9 9 9 9 9 6 6 6 6 8 y y y y y d d d g g g c c c n n n n c c c c z z g k g g g g g g g g g g g g g d g g g g g g g g c c c c c c c c c n n n n n Z Z Z Y S T T T E E E Q Q ] [ [ { X.X.o.#.2.2.4.4.q.q.w.w.w.L.s.s.s.s.s.s.s.s.s.s.s.w.w.w.w.w.w.q.q.q.q.5.4.5.5.4.2.2.2.2.2.2.2.2.2.2.2.2.2.2.2.2.2.2.4.4.2.2.2.4.5.4.4.4.2.4.4.4.4.2.4.2.2.2.2.2.2.2.2.2.2.2.2.2.2.#.#.#.#.o.#.#.#.@.X.X.X.X.X.{ { @.{ { { { { { { { { { { { {  .$.X.@.3.o.2.2.4.q.q.q.q.q.e.e.r.r.r.r.r.r.7.6.5.5.3.3.2.#.#.@.@.@.{ { [ [ Q E W E E T T T Z Z Z Z Z Z D D D G L L L L L L ) ) ) ) _ *.*.&._ _ _ +.+.+.+.+._ _ _ ( ( ( ( ( ( ( ( K K H H H S Z Z S T n Z Z Z Z Z Z Z n Z Z Z Z Z Z Z Z Z Z Z Z Z n n n n n c c c c c c c k g k g g k g g g g d d d d d d d d g g d y y d y 8 y 8 8 6 6 6 6 6 6 6 6 6 6 6 1 1 1 1 1 1 1 1 1 1 1 1 1 1 1 1 2 2 > > , 2 2 2 > > 2 , : , 2 2 2 : > , , 2 : : : : : : : : ; ; & : ",
"2 2 2 2 2 2 2 2 2 2 2 2 2 2 2 2 2 e 2 e e e e e e e e e e e e e w w w w w w w w w e e w w w w w w w w w w w w w w w w w w w w w w 9 9 e w e 9 9 9 9 9 9 9 9 9 9 9 9 9 9 9 9 6 6 6 8 y y y y d d d d d g g z c c c n n n n z c c g g g g g k g g g g g g g g g g g g g g g g g z c c g k c c c c c c n n n Y Y Z Z Z Z T T T T E E E Q Q ] [ { { X.X.o.#.2.4.4.4.q.w.w.w.s.s.L.s.s.s.s.s.s.s.s.w.w.w.q.q.q.q.q.q.q.5.5.2.4.2.2.2.2.2.2.#.2.2.2.2.2.2.2.5.2.2.2.2.2.2.4.4.2.4.4.2.2.2.5.2.4.2.2.4.4.4.4.4.2.2.2.2.2.2.2.2.2.2.2.2.2.2.2.#.2.#.#.#.#.#.#.#.o.X.X.X.X.X.{ X.{ X.X.{ { { { { { { { { {  .{ { @.@.@.#.#.2.2.5.6.q.q.q.e.e.r.r.r.G.G.G.G.7.6.5.3.3.3.$.#.#.@.X.{ { [ [ ! ! Q E T T S S S Z Z S Z Z D D D G L L L L L L ) ) ) ) ) *.&.&.*._ _ _ +.+.+._ _ _ O.} ( ( ( ( ] ( ( K K H H S S Z  .J.Z n Z Z Z Z Z Z n n Z Z Z Z Z Z Z Z Z Z Z Z n n n n n c c c c c c z k g k g g k g g g d d g d d d d d d d d d d y y y y y y 8 6 6 6 6 6 6 6 6 6 6 1 1 6 6 6 1 1 1 1 1 1 1 3 1 1 1 2 1 2 > > 1 2 2 2 1 > 2 ; , , 2 , , , ; : : , : : : : : : : & & & : : ",
"2 2 2 2 2 2 2 2 2 2 2 2 2 2 2 2 2 e 2 e e e e e e e e e e e e e w e e e w w w w w w w w w w w w w w w w w w w w w w w w w w w w w w w 9 w 9 w 9 9 9 9 9 9 9 9 9 9 9 9 9 9 6 8 8 y 8 y y y d d d d d g g c z c n n n n c c z z c g g g g g g g g g g g g g d g g g g g g g g k c c c c c c c c c c n n n n Y Y Z Z S T E E E Q Q Q ] ] [ { { X.o.o.2.2.4.4.q.q.w.w.s.s.s.s.s.s.s.s.s.s.s.w.w.w.w.q.q.5.5.5.5.5.2.2.2.2.2.2.#.#.#.#.#.#.#.#.2.2.2.2.2.2.2.2.5.5.2.2.2.2.2.2.2.2.2.2.2.2.2.2.2.2.2.2.2.2.2.2.2.2.2.2.2.2.2.2.2.2.2.3.2.2.2.2.2.#.#.2.#.#.#.o.o.X.X.X.X.X.{ { X.{ { {  .{ { { { { [ { { { { { { @.@.@.#.#.2.6.6.6.q.q.w.e.e.r.r.r.G.G.r.G.G.6.5.3.3.3.2.#.@.@.X.{ { [ ! Q E E E T T S S T T S Z S D D D G L L L L L L ) ) ) ) ) *.*.&.*._ _ +.+.+.+.6.O._ O.O.O.( ( ( ] ] ] K K Q Q S Z ! $.Z Z Z Z n Z Z Z Z Z Z Z n n Z Z Z Z Z Z Z Z n n n n n c c c c c c c g g k g k k g g d d d d d d d d d d d d d d y y y y y y 8 8 6 6 6 6 6 6 6 6 6 1 1 1 6 1 1 1 1 1 1 1 1 1 1 1 1 3 1 1 > 1 > 2 2 2 1 2 , 2 2 , 2 2 , , > : , : : : : : : : : : & & : & ",
": , 2 2 : 2 2 2 2 2 2 2 2 2 2 2 2 2 e 9 e e e e e e e e e e e e u w e e e w w w w w w w w w w w w w w w w w w w w w w w w w w w w 9 9 9 9 9 9 9 9 9 9 9 9 9 9 9 9 9 9 9 9 6 y 8 y y y y y d d d g k g c c c n n n n c z c c z z g g g g g g d g g g d g d d g g g g k g g k c z c c c c c c c c n n n n Z Z Z Z T T E E Q Q Q [ [ { { X.X.#.#.2.2.4.4.q.q.w.w.s.s.s.s.s.s.s.w.w.w.w.w.w.q.q.q.q.5.5.4.2.3.2.#.#.#.#.#.#.#.#.#.#.#.#.#.#.#.#.#.#.#.#.#.#.#.5.5.2.2.2.2.2.2.2.2.2.2.2.2.2.2.2.2.2.2.2.2.2.2.2.2.2.2.2.2.2.2.2.2.2.2.2.2.2.2.2.2.2.2.#.#.#.#.#.o.o.X.X.X.X.X.{ { { { { { { { { { { { { { { { { { { { X.@.#.#.6.6.4.5.q.q.e.e.r.r.r.p.p.r.r.r.G.5.5.3.3.3.#.#.@.@.X.{ [ [ Q Q E E E T S T T T Z Z Z A D D L L L L L L L L ) ) ) ) *.*.*.&.&.+.+.+.+.G.G._ _ O.O.( ( ( { { ( ] K  .:.S S Z Z Z Z Z Z Z Z Z Z n n Z Z Z n n Z Z Z Z Z n Z n n n n n c c c c c c c k g k g g k g g g d g d d g d d d d d d d d y y y y y y 8 6 8 8 6 6 6 6 6 6 6 6 6 1 6 6 1 1 1 1 1 1 1 1 1 1 2 2 2 2 1 1 1 1 2 , 2 2 2 2 2 , , 2 : : , , : : : : : , : : : : : * * * ",
"2 : 2 2 2 2 2 2 2 2 2 2 2 2 2 e 2 e e e e e e e e e e e e e w w w w e e e w e w w w w w w w w w w w w e w w w w w w w w w w e w w w e 9 e 9 9 9 9 9 9 9 9 9 9 9 9 9 9 9 9 6 8 8 8 y y y y d d d g c c c c c n n c n c z z g k g g g k g g g d g g g d g d d d g g g g g g k c c c c c c c c c n n n Z Z Y T T T E E E Q ] [ [ { { X.o.#.,.2.4.4.q.q.w.w.w.w.s.s.s.s.s.s.w.w.w.w.w.q.q.q.5.4.4.2.2.2.#.#.#.#.@.@.@.@.@.@.@.@.#.@.@.#.#.#.@.o.#.#.#.#.#.#.#.#.2.#.#.#.#.#.#.2.2.#.#.#.#.2.2.#.#.2.#.#.#.#.2.2.2.2.2.2.2.2.2.2.2.2.2.2.2.2.2.2.2.2.2.2.2.2.#.#.o.o.#.#.X.X.X.X.X.X.X.{ { { { { { { { { { { { { { { { { X.@.#.#.#.6.2.5.q.q.e.e.e.r.r.r.p.p.r.G.G.6.5.5.3.3.3.#.#.@.@.{ { [ ] Q Q E E E S S S Z Z Z Z Z D T T L L L L L L L ) ) ) ) _ &.&.&._ +.+.+.O.O.+._ O.O._ } _ ( ( ( ] ] Q Q H S Z Z Z Z Z Z Z Z Z Y Z Z n n n Z n n Z Z Z Z Z Z n n n n n n c c c c c c k g c g g k k k c g d d d d d d d d d d d d y y y y y y 8 6 8 8 6 6 6 6 6 6 6 6 6 6 6 6 1 1 1 1 1 1 1 1 1 1 2 2 2 2 1 > 1 1 2 2 2 2 2 2 2 2 2 , : : , , : : : : : , : : : * : : * * ",
", : : , : : 2 2 2 2 2 2 2 2 9 9 2 2 e 2 e e e e e e e e e e w e e e e e w w e w w w e e w w w w w w e w w w w w w w w w w w w w e e e e 9 9 9 9 9 9 9 9 9 9 9 9 9 6 9 r 8 8 8 y y y y y d d d d g c c c c c c c c c c z c k k k k g k g g d d d d d d d d d g k g g g k g k z c c z c c c n n n n Z Z S T T E E E Q Q ] [ { { X.X.o.#.2.4.4.q.q.w.w.s.s.w.w.w.w.0.0.w.w.w.q.q.q.5.5.5.2.2.2.#.#.#.#.@.@.@.@.@.@.@.@.@.@.@.@.@.@.@.#.@.o.o.o.#.#.#.#.#.#.#.#.#.#.#.#.#.#.#.#.#.#.#.2.#.o.o.o.#.#.o.o.o.o.o.o.o.o.o.o.o.o.o.o.2.2.#.#.2.,.2.2.2.2.2.2.2.2.2.,.2.2.2.o.o.o.o.X.X.X.X.X.X.X.X.{ { X.@.{ { { {  . .{ { { { @.@.@.#.#.2.6.8.8.e.e.e.e.e.r.r.K.K.K.p.r.7.D.D.5.3.3.2.#.@.@.X.{ [ [ [ Q E E E S S T S S Z Z S D T T G L L L L L L ) ) ) ) _ *.&.&.&._ _ _ _ _ _ O._ _ _ { { { { ( ( K K E H S S Z Z Z Z Z Z Z Z Z Z Z Z n n n n n Z n n Z Z n n n n n n n c c c c c c g c g g g g g k d d d d d d d d d d d d d y y y 8 y 8 y 8 8 8 y 8 6 6 6 6 6 6 6 6 6 1 1 1 1 1 1 1 1 1 1 1 2 2 2 2 1 2 1 2 2 2 2 2 2 2 2 2 2 : , , , : , , : : : : : , : * * * * & ",
", : ; 2 : 3 , : 2 2 2 2 2 : / / 2 e e e e e e e e e e e e e e e e e e e w w e w e e e w e e w w w e w w w e w w w w w w w w w w e e e 9 9 9 9 9 9 9 9 9 9 9 9 9 6 6 6 r 6 8 8 8 y y y d d d g g z c c c c c c c z z g g g k g g g g d d d d d d d d d d d d g g g g k g g c c c c c c c c n n Z Y Z T T E E Q Q Q ] [ { { X.X.o.o.2.4.4.q.q.w.w.s.s.s.s.w.w.w.0.0.0.q.q.q.4.4.4.2.2.#.#.#.@.@.@.X.X.X. .{ { { {  .{  .@.@.@.@.@.@.@.@.@.X.H.{.#.X.#.#.o.#.#.#.#.o.#.#.#.#.#.#.o.o.o.o.o.o.o.o.o.X.X.o.o.o.o.o.o.o.o.o.o.o.o.o.o.o.o.o.o.2.2.2.2.2.,.2.2.2.2.2.2.2.o.o.#.#.#.o.o.X.X.X.X.X.X.X.X.{ { { { { { { { { { { { { X.X.@.#.#.6.6.8.8.6.e.e.e.r.r.r.K.p.K.G.G.D.5.3.3.3.2.#.#.@.X.{ { [ ] Q E E E S T T S Z Z S Z A D D G L L L L L L ) ) ) _ _ *.&.&.&._ _ _ _ _ O._ O._ _ } } { ( ( ( ( Q H H S Z Z Z Z Z Z Z Z Z n n Z n n Z Z n n n Z Z Z n n n n n n c c c c c c c c z g g g g g d d d d d d d d d d d d d d y y y y y y y 8 8 8 8 8 6 6 6 6 6 6 6 6 6 6 1 1 1 1 1 1 1 1 1 1 1 2 2 2 2 2 2 2 2 2 2 2 2 2 , , 2 : , , , : : , : : : : : , : : * * * * ",
": : ; : : 2 2 2 : : , 2 2 2 h M 2 2 2 e e 2 e e e e e e e e e e e e e e e e w e e e w w e e e e e e w w w e w w w w w w w e w w e e e 9 e 9 9 9 9 9 9 9 9 9 9 9 9 y r 6 6 8 8 8 y y d d d d g g c c c c c c c c z g g g g g d d d d d d d d d d d d g d d g g g g k g k k z z c c c c n n n n Y W T E Q Q ] ] ] ] { { X.X.o.o.2.4.q.q.w.w.w.w.s.s.s.w.w.w.w.w.q.q.q.4.4.2.2.#.#.#.@.@.@.@.{ { { {  .{ { { { {  .{  .{  .@.@.@.@.@.X.X.@.X.D.H.o.X.X.X.X.X.@.@.X.X.X.X.X.X.X.X.X.X.X.X.X.X.X.X.X.X.X.X.X.X.X.X.X.X.o.X.X.o.o.o.o.o.o.o.o.o.o.,.,.,.,.2.2.2.2.2.2.2.2.2.2.2.2.2.#.o.o.o.o.X.X.X.X.{ { { { @.@.{ { { { { { { { { X.@.@.#.#.6.6.6.6.e.e.e.e.r.r.G.K.K.p.G.G.5.5.5.3.3.3.#.#.@.X.{ [ ] Q E E T T T S S S S Z Z D D D D L L L L L L ) ) ) ) _ *.&.&._ _ _ +.+._ O._ _ _ } } { O.( ( ( ] Q H S S Z Z Z Z Z Z Z Z n Y Y n n n Z n n n Z Z Z Z n n n n n n c c c c c c c k k g g g g g g d d d d d d d d d d d y y y y y y y y 8 y 6 8 6 6 6 6 6 6 6 6 6 6 1 1 1 1 1 1 2 2 2 1 1 2 1 2 2 2 2 2 2 2 2 2 2 2 2 , , , , , , , : : : : : : : : : , : * * : : ",
": 2 ; 1 > : 2 2 : , , 2 2 2 : : e e 2 2 2 2 e e e e e e e e e e e e e e e e e e e e e e e e e e e e e e w w w w e e e e w e w e e e e 9 9 9 9 9 9 9 9 9 9 9 9 y 9 y 8 6 6 8 y y y y d d d g g c c c c c c c c z g g d d d d d d d d d d d d d d d d g d d g g g g k k k k k c c c n n n n Z Z T E E Q Q ] [ { { { X.X.o.o.,.4.4.q.w.w.w.w.w.w.w.0.0.0.0.w.w.q.q.4.4.2.2.#.#.@.@.@.{ { { { { [ [ [ [ [ [ { { { { { { { {  .@.X.X.@.X.{ X.X.X.X.X.X.X.X.X.X.#.X.X.X.X.X.X.X.X.X.X.X.X.X.X.X.X.X.X.X.X.X.X.X.X.X.X.X.X.X.X.X.X.X.X.X.X.X.X.o.o.o.o.o.,.,.,.,.,.,.,.,.,.,.2.2.2.2.2.,.o.o.o.#.o.X.o.X.X.{ { X.X.{ { { { { { { { { { @.@.O.O.#.#.6.6.4.5.q.e.e.e.r.r.p.K.p.K.G.D.D.5.5.3.3.#.#.@.X.{ [ [ [ E E E T T S S S Z Z Z D D D G L L L L L L ) ) ) ) _ &.&.&._ +.+.+.+.O._ _ _ _ } } _ { { ( ] Q Q E S S Z Z Z Z n n n n Y Z n n n n n n Z Z Z n Z n n n n n n c c c c c c k k g g g g g g g g d d d d d d d d d d d y y y y y y y 8 y 8 8 6 6 6 6 6 6 6 6 6 6 6 1 1 1 1 2 2 1 2 1 2 2 2 2 2 2 2 2 2 2 2 2 2 2 2 , , 2 , , : , : : : : : : : : : , : : * * : ",
": , : : ; 2 2 2 , 2 2 2 2 2 2 2 2 2 2 e e e e e e e e e e e e e e e e e e e e e e e e e e e e e e e e w w e e e w w w w e w e e w w 9 9 9 9 9 9 9 9 9 9 9 9 9 9 6 6 y y y y y y y d d d g g g c c c c c c c g g g g d d d d d d d d d d d d d d d d d d d g g k g B Y g c c c c n n n Y Z T T E E Q Q ] { { { X.X.o.o.2.4.4.q.q.w.w.0.0.0.0.0.0.0.0.q.q.q.q.4.2.2.#.#.@.X.{ { { { [ [ [ [ [ [ [ [ [ [ [ [ { { { { { { { { { { { { { { { { { X.X.{ X.X.X.X.X.X.X.X.X.X.X.X.X.{ X.X.X.X.o.X.X.X.o.X.X.X.X.X.X.X.X.X.#.o.O.o.O.O.O.X.X.X.X.X.X.o.o.o.o.o.o.o.o.,.,.,.,.,.2.<.4.4.<.2.2.,.2.2.,.o.o.X.X.X.X.X.X.X.X.{ { { { { { { { { { { @.O.#.#.2.2.8.4.e.q.e.r.G.r.p.K.K.G.G.G.D.5.5.3.3.2.#.#.@.{ $.[ Q Q E E T T S S S Z Z Z S D D D G L L L ) L ) ) ) ) +.*.&.&.+._ _ +.+.+.O.O.O._ _ } { { { ] ( Q E H S T T Z Z Z Z Z n n n n n n n n n Z Z Z Z Z Z n n n n n n c c c c c k c g k k g g g g g d d d d d d d d d d y y 8 d d 8 y 8 8 8 8 8 6 6 6 6 6 6 6 6 6 6 6 6 6 2 1 1 1 2 2 2 2 2 2 2 2 2 2 2 2 2 2 2 2 2 2 2 , , : : : : : : , : : : : : : : : : : : : ",
"2 ; ; 2 , : 2 : , 2 2 2 2 2 2 2 e 2 2 2 e e e e e e e e e e e e e e e e e e e e e e e e e e e e e e e e w e e w e w w w w e w w w 9 9 9 9 9 9 9 9 9 9 9 9 9 6 9 6 6 y y d d y y d d d g g k c c c c c c z g g g g d d d d d d d d d d d d d d d d d g g g g g g g c n c c c c c n n Z T T T E Q Q ] { { X.X.o.o.o.#.2.4.q.q.w.0.0.0.0.0.q.q.0.q.q.q.q.4.2.2.2.#.@.X.{ { { [ [ [ [ [ [ [ [ [ [ [ [ [ [ [ [ { { { [ [ [ { { { { { { { { { { { { { { X.X.X.X.X.X.o.X.X.X.o.X.X.#.X.o.o.X.o.o.o.o.o.o.6.o.o.o.o.o.o.O.o.o.o.o.o.O.O.o.O.O.O.O.o.o.o.o.o.o.o.o.o.o.,.o.,.,.,.,.,.4.4.4.4.<.<.4.2.,.o.o.o.X.X.X.X.X.X.X.X.X.{ { { { { { { { { @.@.O.#.#.6.2.4.4.q.e.r.r.r.G.K.K.K.G.G.D.5.5.5.3.2.#.#.@.X.{ [ Q Q E E E T S S Z Z Z Z Z D D D G L L L L L L ) ) | +.*.&.&._ _ _ +.+.+.O.O.O.O.{ { { { { ] ] K H S E E Z Z Z Z Z Z n n n n n n n n Z Z n n n n n n n n n n c c c c z c k g k k g g g g d d g g d d d d d d d y y y y y y y y y y 8 8 6 6 6 6 6 6 6 6 6 6 6 6 6 1 1 2 2 2 2 1 2 2 2 2 2 2 2 2 2 2 2 2 2 2 2 2 , : : 2 , : , : , : : : : : : : : : * : : ",
": > ; 2 2 , : 2 : 2 2 2 2 2 2 2 e e 2 2 e e e e e e e e e e e e e e e e e e e e e e e e e e e e e e e e e e e e e e e e e e w w 9 9 9 9 9 9 9 9 9 9 9 9 9 6 6 6 6 y y 8 y y y y d d g g g c c c c c c z g g g d d d d d d d d d d d d d d d d d d d c g g g g g g g z c c c c n Y Y Z T T E E Q ] { X.X.X.o.,.2.2.4.4.q.q.0.0.q.q.q.q.q.q.q.q.q.4.4.2.2.#.#.@.@.{ { { [ [ [ [ [ [ [ [ [ [ [ [ [ [ [ [ [ [ [ { { [ [ { [ { { { { { { { { { X.X.X.X.X.X.X.X.#.o.o.o.o.o.o.o.6.G.o.o.o.o.,.o.<.<.o.6.6.o.o.o.o.o.o.o.o.o.O.<.1.O.O.O.O.o.O.O.O.O.o.o.o.o.o.o.o.o.o.o.o.o.o.,.,.2.4.,.,.<.,.2.,.,.,.,.o.o.o.o.X.X.X.X.X.X.X.{ X.{ { { { { { X.@.O.@.#.#.#.2.2.5.q.e.e.r.r.G.K.p.K.G.G.G.D.5.5.3.3.2.#.@.#.@.[ ] Q E E E T S T T S Z Z Z D D D G L L K L L ) ) | | +.*.&.&.+.+.+.+.+.+.O.O.O._ _ { { { { ] ( K H H S S Z Z Z n n n Z n n n n Z n Z Y n n n n n n n n n n n c c c c k g g g g g g g g d g g d d d d d d d y y y y y y y y 8 8 8 8 6 6 6 6 6 6 6 6 6 6 6 6 1 1 2 2 2 9 9 2 2 2 2 2 2 2 2 2 2 2 2 2 2 2 2 2 , : : : : : , : : : : : : : : : : : : * * : ",
", > , : 2 : 2 2 : 2 2 2 : 2 2 2 2 2 2 e e 2 2 e e e e 2 e e e e e e e e e e e e e e e e e e e e e e e e e e e e e e e w e e e e w 9 9 9 9 9 9 9 9 9 9 9 9 9 6 6 6 d d 6 8 y y d d g g k k c c c c c z g g d d d d d d d d d d d d d d d d d d d d d g g g g g c c c c c c n n Z T T S E E Q Q { J.D.o.o.o.,.2.4.4.q.q.q.q.q.q.q.q.q.4.4.4.4.4.4.2.#.#.#.@.{ { { [ [ [ [ [ [ [ [ [ [ [ [ [ [ [ [ [ [ [ [ [ [ { [ [ ] { { { { { { { { X.X.X.X.X.o.o.o.o.o.o.,.o.o.o.,.,.,.,.,.<.<.,.,.<.,.<.<.<.<.<.<.<.<.<.<.<.<.<.<.<.<.1.1.<.1.O.O.O.O.<.O.+.O.O.+.+.+.+.o.O.o.o.o.o.o.o.,.,.,.,.,.,.,.,.,.,.,.,.,.o.o.o.o.o.X.X.X.X.X.X.X.{ X.{ { { { { { @.@.@.O.#.#.#.2.4.q.e.e.r.r.r.r.K.p.K.G.G.D.5.5.3.3.3.#.#.#.{ [ ] Q Q E E T T T S S Z Z Z D T T T K D K L ) | | ) | +.&.+.&.&.+.+.+.+.O.O.O.O.O.{ { { { { ( ] K H S S S Z Z Z n n n n n n n n n n Z n n n n n n n n n n n c c c c k k g g g g g g g d d d d d d d d d d y y y y y y d y 8 8 y 8 6 6 6 6 6 6 6 6 6 6 6 6 6 1 9 2 2 2 9 2 2 2 2 2 2 2 2 2 2 2 2 2 2 2 2 2 , , 2 2 : : : : : : : : : : : : : : , * : * ",
", : > 2 , : 2 ; : : 2 2 2 2 2 2 2 2 2 2 2 2 e e 2 e e e e e e 2 9 e e e e e e e e e e e e e e e e e e e e e e e e e e e w w 9 e e e 9 9 e 9 9 9 9 9 9 9 6 9 6 6 6 y y 8 y y d d d g k c c c c c c g g g d d d d d d d d d d d d d d d d d d d d d d d g g g g Y B z c c n n n Z S T E E Q ] ] J.PXCX,.2.2.4.4.4.4.q.q.q.q.q.q.q.4.4.4.4.2.2.2.#.2.3.@.{ { { [ [ [ [ [ ! [ [ [ [ [ [ ! [ [ [ [ [ [ [ [ [ [ [ ] { { { J.J.X.X.X.X.X.X.o.o.o.o.o.,.o.o.,.,.,.,.,.,.,.<.,.<.<.<.<.<.<.<.<.<.<.<.<.<.1.1.<.1.<.1.<.1.1.<.1.1.1.1.1.1.1.1.1.1.1.<.1.1.1.1.1.1.1.1.O.+.+.+.+.+.o.o.o.<.<.<.,.,.,.,.,.,.<.,.,.,.o.o.o.o.o.o.X.X.X.X.X.X.X.{ { { { X.X.X.@.X.@.#.#.6.6.8.5.q.e.e.r.r.G.K.K.K.G.G.D.5.5.5.3.2.#.#.@.{ [ [ Q Q E E T T T S T S Z Z S D D D D ~ L L ) L | | +._ +.&.&._ +.+.+._ _ O.O.O.{ { O.{ } { ( K K H S S S Y Z Y Y n n n n n n n n n n n n n n n Z n n n n n c c k g k g g k g g g d d d d d d d d d d d d y y y y y k d 8 8 8 8 6 6 6 6 6 6 6 6 6 6 6 1 1 2 9 1 2 2 2 2 2 2 2 2 2 2 2 2 2 2 2 2 2 2 2 2 2 2 2 2 2 2 , : : : : : : : : : : : : : * * ",
"; : : : : : , 2 : : : : 2 2 2 2 2 2 2 2 2 e 2 2 2 2 2 e e e 2 2 e 2 e e e e e e e e e e e e e e e e e e e e e e e e e e e e e 9 e 9 e 9 9 9 9 9 9 9 9 9 6 6 6 6 6 y y y y y d d g k c c c c c z g g g d d d d d d y d d d d d d d d d d d d d d d d g g g g g c c c n n n Z Z T T E Q ] ] { { D.bXoX,.4.4.4.4.q.q.q.q.4.q.q.4.4.2.2.2.2.#.#.@.X.@.$.{ [ [ [ [ [ [ ! ! ! [ [ ! ! ! ! [ [ [ [ [ [ [ [ [ [ { { { { X.X.D.F.o.o.o.o.o.o.,.,.,.,.,.<.<.<.<.<.<.<.<.<.8.8.8.8.8.8.G.r.8.9.9.9.9.9.9.9.9.9.9.9.1.1.1.r.1.1.1.1.1.1.1.1.1.1.1.1.1.1.1.1.1.1.t.t.1.t.1.1.1.1.1.+.<.<.<.<.o.<.<.<.,.,.<.<.<.<.<.<.,.,.o.o.o.o.o.X.X.X.X.X.X.X.X.{ { X.{ X.X.X.@.@.@.#.2.6.5.4.q.e.e.r.r.G.K.K.K.G.G.G.5.5.5.5.2.2.#.@.{ { [ Q Q E E T T T S S S Z Z S D D D T K L L L | | ) _ _ &._ +.+.+._ +.O.O.O.O.O.{ { O.( ( { ] K K H S T T Z Y Y n n B n n n n n n n n n Z n n ;.;.c n n n c c k g k k g g k k d d d d d d d d d d d d d y y y y y y y 8 8 8 8 6 6 6 6 6 6 6 6 6 6 6 6 1 1 1 2 2 2 2 2 2 2 2 2 2 2 2 2 2 2 2 2 2 2 2 2 2 : 2 2 2 2 , : : : : : : : : : : * : : ; * ",
": ; ; : : , : , : , : 2 2 2 2 2 2 2 2 2 2 2 2 2 2 e 2 2 2 2 e 2 2 2 2 2 e e e e 2 e e e e e e e e e e e e e e e e e e e e 9 9 e e e 9 9 9 9 9 9 9 9 9 9 6 6 6 6 8 8 8 y y d d g g g c c c c k g g g d d d y y y y y y y d d d d d d d d d d d d d d d g g g k c c c n Z Z S T E E Q ] ] { X.X.o.,.,.4.q.q.q.4.q.4.4.4.4.<.4.2.,.2.#.#.#.@.X.{  .[ [ [ [ ! ! ! ! ! ! ! ! ! ! ! ! ! [ [ [ [ [ [ [ { { { { X.X.X.o.o.,.,.,.,.,.,.,.,.<.<.<.<.8.8.8.8.8.8.8.8.8.8.8.8.8.8.9.9.e.AXXX8.r.9.9.9.9.9.9.9.9.9.9.9.9.9.9.9.9.9.9.u.u.u.u.u.u.u.u.t.t.t.u.u.t.t.t.t.t.t.t.t.t.t.t.t.1.1.1.<.<.<.<.1.<.<.<.<.<.<.<.<.,.,.,.,.,.o.o.o.X.X.X.X.X.X.X.{ X.X.X.X.X.X.@.@.@.#.#.6.2.4.5.q.e.r.P.r.G.K.K.G.G.G.D.5.5.5.2.#.#.@.X.{ [ Q Q Q E T T T T T Z Z Z S S D T ~ ~ K L L L ) ) _ _ _ &.&.+._ 1.G.O._ _ O.O.O.O.{ ( { { ( K E S S S Z Z n n n n n n n n B n n n n Z n n ..^ n n n c c c k k g k g g g g g d d d d d d d d d d y y y y d d d y y y y 8 y y 6 6 8 6 6 6 6 6 6 6 6 6 6 6 9 2 2 2 2 2 2 2 2 2 2 2 2 2 2 2 2 2 2 2 2 2 2 2 , , 2 , : : : : : : : : : : * : : : * ",
"> ; : : , , 2 2 > ; : : : : : : 2 2 2 2 2 2 2 2 2 2 e 2 2 2 2 2 2 2 2 2 2 e 2 e 2 2 9 0 e e e e e e e e e e e e e e e e e 9 9 9 9 9 9 9 9 9 9 9 9 9 9 9 6 6 r y y 8 y y d d d g k c c c c c g g d d d d d d y y y y y y y y y y d d d d d d d d d d g g k k g c c n n Z Z T E E Q ] ] { X.o.o.,.<.4.4.4.4.q.q.4.4.4.2.,.,.,.2.o.#.X.X.{ { { [ [ [ ! ! ! ! Q ! ! ! ! ! Q Q Q ! ! [ [ [ [ [ { { { X.X.X.o.o.o.o.,.<.<.<.<.<.<.<.8.<.8.8.8.8.8.8.8.8.8.8.8.8.8.8.9.8.8.9.9.9.9.r.r.9.9.9.9.r.r.9.9.9.9.9.9.9.9.9.9.9.r.9.u.u.u.u.u.u.u.u.u.u.u.u.u.u.u.a.u.u.u.u.t.u.t.t.t.t.t.t.t.t.1.1.1.1.1.<.<.<.<.<.<.<.<.<.<.,.,.,.,.o.o.o.X.X.X.X.X.X.X.X.X.X.X.X.@.O.@.@.@.#.2.6.4.5.e.e.r.r.r.r.K.K.K.G.G.D.5.5.5.2.#.#.@.X.{ [ ] Q E E T T T T T Z Z T T T T T ~ L K L ) ) | ) _ _ _ &.&._ +.+.O.+._ O.O.O.O.{ } { { { ] Q H S S Z Z Z n n n n n n n n n n n n n n n n c n n n c c c k k g k k g g g d d d d d d d d d d d d y y y y d d 8 y y y 8 y y 6 8 y 6 6 6 9 6 9 9 6 6 9 9 9 2 2 2 2 2 2 2 2 2 2 2 2 2 2 9 9 2 2 2 : 2 : : , : : , : : : : : : : * : * : * * : : ",
", : , : , , , : 3 : : 2 2 2 2 2 2 2 2 2 2 2 2 2 2 2 2 2 2 2 2 2 2 2 2 2 2 2 2 2 2 2 2 e 2 2 e 0 e e e e e e e e e 9 e e e e 9 9 e 9 9 9 9 9 9 9 9 9 6 6 6 6 6 y y y y y d d g k c z k g c g g g d d d d y y y y y y y d d d d d d d d d d d d d d g g g g c c c n n Z Z S E E Q ] { { X.X.o.2.2.4.4.4.4.4.q.q.4.<.,.2.2.#.#.#.X.X.X.{ [ [ [ [ ! ! Q ! ! Q Q Q Q Q Q Q Q Q ! [ [ [ { { { X.$.#.o.o.o.o.o.,.,.<.<.8.8.<.8.8.8.8.8.8.8.8.8.8.8.8.8.8.8.8.8.8.8.9.9.9.9.9.9.9.9.9.9.9.9.1.9.r.r.9.9.9.9.9.9.9.9.9.9.9.9.9.9.9.9.9.u.u.u.u.u.u.u.u.u.u.u.k.u.u.u.u.u.u.u.u.u.u.u.u.t.t.t.t.t.t.1.1.1.<.<.<.<.<.<.<.<.<.<.<.,.,.,.o.o.X.o.X.X.X.X.X.X.X.X.X.X.X.X.@.@.#.#.#.2.4.8.e.e.e.r.r.r.K.K.K.G.G.F.5.5.3.3.#.#.@.@.{ [ ! Q E E E S T Z S S Y Z Z D D T ~ T K ~ L ) ) | +.+.&.&.&.+._ +.+.O.O.O.O.O.{ { ( } } ] Q E H D S Z Z n n n n n n n n n n n n n n n n n n n n c c c c k g g g g g g g d d d d d d d d d d y y y y y d y y y y y 8 y 8 8 6 6 6 6 6 6 9 9 6 6 9 9 9 9 2 2 2 2 2 2 2 2 2 2 2 2 2 2 f 8 : 2 : , 2 : : : : : : : : : : : : : * : : : , : : * ",
": ; ; : : : : , : : : 2 2 2 : 2 2 2 2 2 2 2 2 2 2 2 2 2 2 2 2 2 2 2 2 2 2 2 2 2 2 2 2 2 2 2 2 2 2 0 0 2 e 9 9 9 9 9 9 e e e 9 9 9 9 9 9 9 9 9 9 9 9 6 6 6 6 6 8 y y y d d d g k c g g g g g d d d d d d y y y y y y y d k d d d d d d d d d d d d g g g c c c n n Z Z T E E Q ] ] { X.o.o.,.,.2.2.4.4.4.4.4.2.2.,.o.o.o.X.X.X.{ { { [ [ [ [ ! ! ! Q ! Q Q Q Q ! Q Q Q [ [ [ [ { { X.X.X.o.o.,.,.,.e.G.<.<.<.8.8.8.8.e.8.8.8.8.8.8.8.8.8.9.8.9.8.9.9.9.9.9.1.1.1.9.1.1.1.1.9.9.9.1.1.9.9.9.9.9.9.9.9.9.9.9.9.9.9.9.9.9.9.9.9.9.9.9.9.u.u.u.u.u.u.u.u.u.u.u.i.u.u.i.i.i.i.i.i.i.i.i.i.u.t.t.t.t.1.1.1.1.1.1.<.<.<.<.<.<.<.,.,.,.,.o.o.o.o.X.X.X.X.X.X.X.X.X.X.X.o.#.#.#.#.6.8.8.6.e.e.e.r.G.K.W.K.K.G.D.D.5.5.3.#.#.@.X.{ [ Q Q E E E T T S T T Z S S T T T D D K L L ) ) | | +.+.+.+.+.+.+.+.} O.O.O.O.{ O.( ( ] ] Q Q ~ S S Z Z n n n n c c n c n n n n n n n n n n n n c c g k g g g g g d d g d d d d d d d d d y y y y y d d 8 y 8 8 8 y 8 8 6 8 6 6 6 9 9 6 6 6 9 9 9 2 2 2 2 2 2 2 2 2 2 2 2 2 2 2 2 2 2 2 2 2 , : : : : : , : : : : : : : * * : : , : : & ",
": > ; : > ; : : : 2 : : : 2 2 2 2 2 2 2 2 2 2 2 2 2 2 2 2 2 2 2 2 2 2 2 2 2 2 2 2 2 2 2 2 2 2 2 2 2 2 2 9 9 2 9 e e 0 e 0 9 9 9 9 9 9 9 9 9 9 9 9 6 6 6 6 6 r y y y y d d g g g g g g g g d d d d d y y y y y y y y y d d y d d d d d d d d d g g g k c c c n n Z S T E E Q ] { { X.o.o.,.2.,.2.2.2.2.4.2.2.2.#.o.o.X.X.{ { { [ [ { { ! ! ! ! Q Q Q Q Q Q Q Q Q [ [ [ [ [ { { X.X.o.o.,.,.<.4.8.<.e.P.8.8.8.8.8.e.e.e.9.9.9.8.8.8.8.9.9.9.9.9.9.9.1.1.1.1.1.1.1.1.1.1.9.9.9.9.9.9.9.9.9.9.9.9.9.9.9.9.9.9.9.9.u.9.9.9.9.9.9.9.9.9.9.9.9.u.u.u.u.u.u.u.u.u.u.u.u.i.i.i.i.i.i.i.i.i.i.i.i.i.i.u.t.t.t.1.1.1.1.1.7.1.8.<.<.<.,.,.,.,.o.o.o.o.o.o.X.X.X.X.X.X.X.X.#.X.O.#.#.6.6.6.8.e.q.e.e.r.G.W.W.K.G.G.G.D.5.5.2.2.#.@.X.{ [ Q Q E E T T T T S Z T Z Z T T D D D L ) L ) | | | +.*.&.+.+.+.+.( O.O._ O.} O.} { { } ] Q E ~ T T Z Z n n n n c n c c n n n n n n n n n n n c c c g k g g g g d d d d d d d d d d d y y y y d d y 8 8 8 8 8 y y 8 8 6 8 8 9 9 6 9 9 9 2 2 2 2 2 2 2 2 2 2 2 2 2 2 2 2 2 2 2 , 2 2 2 2 2 : : : : : , , : : : : : : : : : : : : * : : ",
", ; > > > : : : : : 2 2 : : 2 2 2 2 2 2 2 2 2 2 2 2 2 : 2 2 2 2 2 2 2 ; 2 2 2 2 2 2 2 2 2 2 2 2 2 2 2 2 2 2 2 2 9 e 2 9 9 9 9 2 9 2 9 9 9 9 9 9 9 6 6 6 6 6 8 y y y d d g g g g g g g g d d d y y y y y d y y y y y y d d y y d d d d d d g g g g g c c c n Z Z S T E Q Q ] { X.X.o.o.,.2.,.,.,.2.2.2.,.,.o.o.#.#.X.X.{ { [ [ [ [ [ [ ! ! Q Q Q Q Q Q Q Q Q ] ] [ [ { { X.X.X.o.,.,.<.<.8.8.8.8.8.8.8.9.9.9.r.r.9.9.9.9.9.9.9.9.9.9.9.9.9.9.9.9.9.9.9.9.9.9.9.9.9.9.9.9.9.9.9.9.9.9.9.9.u.u.u.u.u.9.9.9.9.u.u.u.u.u.u.u.u.u.u.u.9.9.9.9.9.9.u.u.u.u.u.u.u.u.u.u.i.i.i.i.i.i.n.n.n.n.j.j.i.i.i.i.i.u.u.u.t.1.1.1.1.1.1.<.<.<.<.<.,.,.,.,.,.o.o.o.o.o.o.X.X.X.o.X.X.X.O.#.#.6.6.6.8.6.e.e.r.r.r.K.W.W.K.G.G.D.5.5.3.2.#.#.X.{ [ ! Q E E T S T Z Z Z Z Z T T T D D ~ K L L ) | | | _ &.*.+.+.+.+.| ( } O.O.O.} ( ( } ] Q K E S S Z Z Y Y n n n c c c c n n n n n n n n n n c c c g c g g g d g d d d d d d d d d d d d y y d d y 8 y 8 y y 8 y 8 6 6 6 6 9 6 9 9 9 2 2 2 f / 8 2 2 9 2 2 2 2 2 2 2 2 2 2 2 2 2 2 2 2 : : , , : : : : : : : : : : : : : : * : : : : ",
", ; : : : : , , : : > 2 : : : : 2 2 2 2 2 2 2 2 2 2 2 : 2 2 2 2 2 : d :.B ; 2 2 2 2 2 2 2 2 2 2 2 2 2 2 2 2 0 2 9 9 2 9 9 9 9 9 9 2 2 9 9 9 9 6 6 6 6 6 6 y y y y d d d d g g g g g g d d d y y y y y y y y y y y y y d d y y y d d d d d g g g k c c c n n Z Z T E E Q ] { X.X.o.o.,.,.2.2.2.2.2.,.o.o.o.X.@.@.@. .{ [ [ [ ! ! ! ! Q Q Q Q Q E Q Q Q [ ] [ [ { { { { X.X.o.,.<.,.<.8.8.8.8.9.8.g.g.9.9.9.9.9.9.9.9.9.9.9.9.9.9.9.9.9.9.9.9.9.9.9.u.u.u.u.u.u.u.u.u.u.u.u.u.u.u.u.u.u.h.h.h.h.h.u.u.u.u.u.h.h.h.h.h.h.u.u.u.u.h.p.u.9.9.9.9.9.9.u.u.u.u.u.u.u.u.u.i.i.i.i.j.n.n.n.j.3X=Xn.n.n.i.i.i.i.u.u.u.u.9.1.1.1.1.1.1.<.<.<.<.,.,.,.o.o.o.o.o.o.o.o.o.o.o.o.X.o.#.#.#.#.6.6.6.6.e.e.e.r.G.K.XXW.K.G.G.5.5.3.2.2.3.@.{ { [ Q Q E E T T T S Z Z Z Z T T D D ~ ~ K L L L | | ) _ &.&.+.+.+.| ( } ( } { { } ( } ] ] K Q H D D T ..T c n n c c c c n n n n n n n n n c c c c c k g g d d d d d d d d d d d d y d d y y y y y 8 8 8 y y 6 8 6 6 6 6 6 6 9 9 9 2 9 2 : B :.f 2 9 2 2 2 2 2 2 2 2 2 2 2 2 2 2 2 , 2 2 2 , , 2 , : : : : : : : : : * : * * : ; : : ",
"; ; , : ; , , > ; ; ; ; : : : : : 2 2 2 : 2 2 2 : : : : 2 2 2 3 1 : k oXR ; 2 2 2 2 2 2 2 2 2 2 2 2 2 2 2 2 2 9 9 2 2 2 9 9 9 9 2 2 9 9 9 9 9 6 6 6 6 6 6 y y y d d d g g g g g g d d d d y y y y y y y y y y y y y y y y y d d k d d d g g g g c c c n n Z T S E Q Q ] { X.X.o.o.o.o.,.2.2.o.#.o.o.o.X.@.@.{ { { [ [ [ ! [ ! Q Q E E E Q Q Q ! ! ! [ [ [ { { { { X.X.o.,.<.<.<.8.8.8.9.9.9.9.9.9.g.g.9.9.9.9.9.9.9.9.9.9.9.9.9.9.9.9.u.u.u.u.u.u.u.u.u.u.u.u.u.u.h.h.h.h.h.j.j.j.j.j.j.j.j.j.j.j.j.j.j.j.j.j.j.h.h.h.h.h.h.h.h.h.h.h.h.9.9.9.9.u.u.u.u.9.9.u.u.u.u.u.j.j.j.j.j.n.j.SX3Xn.C.n.n.n.j.i.i.i.i.u.u.u.t.1.1.9.9.<.1.<.<.<.<.,.,.,.,.o.o.o.o.o.o.o.o.o.o.o.#.#.#.#.6.6.6.6.e.e.e.e.r.r.K.K.K.K.G.G.D.5.5.2.2.#.@.{ { [ ] Q Q E T T S T Z Z Y S S T S ~ ~ ~ K K ) | | ) ) +.+.+.+.+.| | } } ( { { { { } } ] Q Q H H S S T n n n n c c c c c c c c n c c n n n c c c k k k g g g d d d d d d d d d y y y y y y y y 8 8 8 8 8 6 6 6 6 6 6 6 6 6 9 9 9 9 9 9 2 1 9 2 2 2 2 2 2 2 2 2 2 2 2 2 2 2 2 2 2 : 2 2 : , , : : : : : : : : : : : : : : : : * : & ",
"; ; , : : ; ; ; ; ; 1 ; ; : ; ; : : : 2 ; ; 2 2 : 2 : : 2 : 3 3 3 3 3 6 3 3 3 ; : 2 2 2 2 2 2 2 2 2 2 2 2 2 2 2 2 2 2 2 2 9 9 9 9 9 9 9 9 9 9 9 9 6 6 6 8 8 8 d d d d g g g g g d g d d y y y y y y y y y y y y y y d d d d k d k d d g g k c k c n n Z Z T E E Q ] ] { X.X.X.o.o.o.o.,.2.o.o.o.o.X.X.{  . .{ [ [ [ ! ! ! ! ! Q E E Q Q Q Q ! [ [ [ [ { { { X.X.o.o.,.<.<.<.8.9.9.9.9.r.9.9.9.9.g.g.9.9.9.9.9.9.h.9.9.9.p.u.h.h.u.u.u.u.u.u.u.u.u.h.h.h.h.j.j.j.j.j.j.j.j.l.l.l.l.l.l.l.m.m.l.l.l.l.l.m.l.l.l.l.l.l.j.j.j.j.j.h.h.h.h.h.h.h.h.h.h.h.h.h.h.u.h.u.u.h.u.u.h.j.j.j.j.n.n.n.C.C.C.C.C.C.n.n.n.i.i.i.u.u.u.u.1.1.1.9.9.9.<.<.<.,.,.,.,.,.o.o.o.o.o.o.,.6.2.#.o.#.#.6.6.6.6.8.6.e.e.G.r.r.G.W.W.K.G.G.D.5.5.3.2.3.#.X.{ { ] [ Q E E T T T T Y Z S Z S T T T K K L L L ) ) ) +.+.&.+.| +.+.} ( } } { { } } ] ] Q Q E S S Z n n n m c c c c c c c c n c c n n n n c c k k g g g g d d d d d d d d y y y y y y y y y y y 8 y 8 8 r 6 9 9 6 6 6 6 9 9 9 9 9 9 9 2 2 2 2 2 2 2 2 2 2 2 2 2 2 2 2 2 2 2 2 2 2 2 2 : : 2 : : , : : : : : : : : : : * * * * * ",
"; : ; : ; : ; ; ; ; ; > ; ; ; ; ; ; ; ; ; 3 : : 2 2 : ; 3 1 3 ; ; ; : ; ; 3 1 3 ; ; 2 2 2 : 2 2 2 2 2 2 2 2 2 2 2 2 2 2 2 9 9 9 2 2 9 9 9 9 9 9 6 6 8 6 8 8 y d d g g g g g g d d d y y y y y y y y y y y y y y y d d d d d d d d d g g g g c c n n Z Z S E Q Q Q ] { X.X.X.o.o.o.o.o.o.o.#.o.X.X.X.{ { [ [ [ [ [ ! ! Q E E E E E Q Q Q ! [ [ [ { { { X.X.X.o.o.<.<.<.<.8.9.9.9.9.9.9.9.9.9.9.9.9.9.9.9.9.9.9.9.u.u.h.h.h.h.h.h.h.h.h.h.h.j.j.j.j.j.j.l.l.l.l.l.m.m.m.m.m.m.N.N.N.N.N.N.N.N.N.N.N.N.N.N.N.N.N.N.N.N.N.m.l.l.l.l.l.l.x.l.h.h.h.h.h.h.h.h.h.h.h.u.u.h.h.u.h.h.j.j.j.l.n.m.n.C.C.C.C.C.C.C.C.m.n.j.i.i.u.u.u.u.9.9.9.9.9.<.<.<.<.<.,.,.,.,.o.o.o.o.2.4.2.o.o.o.o.#.6.6.6.6.6.8.e.e.e.r.r.K.W.K.K.G.G.D.5.5.3.3.3.#.X.{ { [ Q E E E T T T Z Z Y Z Z Z S T T ~ L L L L ) ) | +.&.&.| +.| ( } } } } { { } } ] } K H H S S A n m m n n c c c c c c c n c n n n c c c c k g g g d d d d d d d d d y y y y y y 8 y y y y y 8 8 8 8 6 9 9 9 9 6 6 9 9 9 9 9 9 2 9 9 9 2 2 2 2 2 2 2 2 2 2 2 2 2 2 2 2 2 2 2 2 2 : : : : : : : : * : : : : : * : ; : * * * ",
"> ; ; : > ; : : ; : ; : ; 3 ; ; : : 2 : ; : ; : 3 3 ; ; ; ; 3 ; ; ; > 1 1 2 1 2 3 3 : ; : : 2 2 2 2 2 2 2 2 2 2 2 2 2 9 2 2 2 2 2 2 9 9 9 9 9 6 6 6 6 6 8 8 y d d g g g g g d d d y y y y y y y 8 y y y y y y y y y y d d d d d d g g g k c c n n Z Z S T E Q ] [ { { X.X.X.X.o.o.o.o.o.X.X.X.{ { { { [ [ ! ! ! ! Q E E E E E E Q Q Q Q ] ] { { { X.X.X.o.o.,.<.<.<.8.9.r.r.r.r.9.9.9.9.g.9.9.9.9.9.h.h.h.h.h.h.h.h.h.h.h.h.h.j.j.j.j.j.j.l.l.m.m.m.m.N.m.m.N.N.N.N.B.B.V.V.V.V.V.Z.Z.Z.Z.Z.Z.Z.V.Z.V.V.V.V.V.V.V.V.V.V.B.B.N.N.M.N.N.x.l.l.l.l.l.h.h.h.h.h.h.h.h.u.u.u.u.u.h.h.j.j.j.j.n.m.m.C.C.C.C.C.C.C.C.n.n.n.i.i.i.u.u.u.1.9.9.9.9.<.<.<.<.<.,.,.,.,.o.,.,.,.o.,.2.,.,.,.#.2.6.6.6.8.8.e.w.e.r.d.P.W.K.K.G.G.F.5.5.3.2.#.#.X.{ ] ] Q E E T T S S Z Z Z Z S D T T T ~ K L L ) ) ) | +.+.+.+.+._ ( } } } { { } } } } K H H S S Z A n n m m c c c c c c c c c n n n n c c c k g g d d d d d d d d d y y y y y y y y 8 8 y y 8 8 8 6 6 6 6 6 6 6 6 9 9 9 2 9 9 2 2 9 2 2 2 2 2 2 2 2 2 2 2 2 2 2 2 2 2 2 : : : : , : : : , : : : ; 1 2 : : : ; : : : * & : : ",
"; ; ; , > ; , ; ; ; ; ; ; ; ; : ; 3 2 ; ; ; 3 3 1 3 ; ; ; ; ; ; ; ; ; 3 1 1 3 3 : 3 1 > 2 3 : 2 2 2 2 2 2 2 2 2 2 2 2 2 2 2 2 2 2 2 2 2 6 6 6 6 6 6 6 8 8 y d d d g d d d d d d d y y y y y y 8 y y y y y y y y y y d d d d d d d g g g c c c n n Z S T E Q ] [ { { { X.X.X.X.X.X.X.#.X.X.{ { { [ [ [ ! ! ! ! Q E E E E E E Q Q Q [ [ [ { { { X.X.X.o.o.<.<.<.<.9.9.9.d.P.g.9.9.9.9.9.9.g.h.h.h.h.h.h.h.h.h.h.j.j.j.j.j.j.j.j.j.j.l.l.m.m.m.N.N.N.N.N.C.N.B.B.V.V.V.V.Z.Z.Z.Z.Z.Z.Z.Z.;XA.;X;X;X;X;X;X;X;X;X;X-X-XZ.Z.Z.Z.Z.V.V.V.V.V.N.M.M.M.N.x.l.l.l.j.j.l.h.h.h.h.h.h.h.h.u.u.u.j.j.j.j.m.m.C.C.C.V.C.C.C.C.C.n.n.n.i.i.i.u.u.u.9.9.9.9.1.<.<.<.<.<.,.,.,.,.,.,.,.,.2.2.2.2.2.2.6.6.6.6.6.6.q.w.e.s.r.K.W.K.K.G.G.D.5.5.3.2.#.o.X.{ [ [ Q E E H T T Z Z Z Z Y T D S T T ~ L L L ) ) | | +.+.+._ | ( } ( ] { { { } } ] ( K H H S S R Z n n c c c c c c c c c c c n n n c c c k g g d g g d d d d d y y y y y y y 8 y 8 8 8 8 8 8 8 8 r 6 6 6 6 6 9 6 9 9 9 9 2 2 2 2 2 2 2 2 2 2 2 2 2 2 2 2 2 : 2 2 2 , : : : : , 2 , 2 , : : : ; N y & : : : ; : : * * : : ",
"; > ; 2 > ; ; ; : ; ; ; ; ; 1 ; ; ; > ; ; ; : 2 1 3 ; ; ; ; ; ; ; ; ; ; ; ; ; ; ; ; 2 9 2 : ; 2 2 2 2 2 2 2 2 2 2 2 2 2 2 2 2 2 2 1 1 1 6 1 6 6 6 6 6 8 8 y d d d d d d d d d y y y y y y y y y y y y y y y y y y d d d d d d d g g k c c c n Z Z S T E Q [ [ { { { X.X.X.X.X.X.X.@.@.{ { { [ [ [ [ ! ! Q Q E E E E E E E Q Q Q Q [ { { { X.X.o.o.<.<.<.<.<.9.9.9.9.9.g.g.g.9.9.g.h.h.h.h.h.h.h.h.h.h.h.h.j.j.j.j.j.j.l.l.l.m.m.m.m.m.m.N.N.N.N.N.C.C.B.B.V.B.V.V.V.Z.Z.Z.Z.Z.Z.Z.Z.-X-X-X-X-X;X;X;X;X;X;X;X;X;X;X;X;X;X;X;X;X-XZ.Z.Z.V.V.V.V.V.M.M.M.N.l.l.x.l.h.h.h.h.h.h.h.h.u.u.u.h.h.j.j.l.m.C.C.C.V.V.V.V.V.C.C.C.n.j.i.i.i.u.u.u.9.9.9.9.9.<.8.8.<.<.<.<.,.,.,.,.<.2.2.4.4.6.6.6.6.6.6.8.e.e.e.G.e.r.W.W.W.K.G.G.D.5.5.3.2.#.o.X.{ [ ] Q Q E E T T T T T Z T T T D D D K L L L L ) ) | +.+.) _ _ _ ( } ( ] } ] { } ( K K H H S Z Z n m n c c c c c c c c c c n n n n c c k g g d g g d d d d d d y y y y y 8 y 8 8 8 8 8 8 8 9 9 9 9 9 9 9 9 9 9 9 9 9 9 2 2 2 2 2 2 2 2 2 2 2 2 2 2 2 2 2 2 2 2 2 2 : : : , 2 2 : 2 , : : : : 9 > * : : : : * * * * : : ",
"; ; ; > ; ; ; ; : ; ; ; ; ; 3 ; 1 2 ; ; ; ; ; : ; ; ; ; ; ; ; ; ; > ; ; ; ; ; ; ; ; 2 2 ; : ; ; 2 3 2 3 ; 3 2 2 2 2 2 2 2 2 2 2 1 1 1 1 1 6 6 6 6 6 8 8 y d d d d d d d d d y y y y y y y y y y y y y y y y y y y d d d d d g g g k c c c n Z Z S T E Q [ [ { { { X.X.X.X.X.X.X.X.X.{ { [ [ [ ! ! ! Q Q E W E E E E E E Q ! Q [ [ { { X.X.o.o.o.<.<.<.<.8.9.9.9.9.9.g.g.g.g.g.h.h.h.h.h.h.h.h.h.h.h.j.j.j.j.j.l.l.l.l.l.m.m.N.m.m.m.m.N.N.N.N.N.N.N.N.B.V.V.V.V.V.V.V.V.V.V.%X-X-X-X-X-X-X-X-X-X-X-X-X-X;X;X;X;X;X;X;X;X;X0X;X;X;X;X;X-X-XZ.Z.V.V.V.V.M.M.N.M.l.l.l.j.h.h.h.h.h.h.u.u.u.u.h.h.j.j.m.m.C.C.C.V.V.Z.V.C.C.C.C.n.n.i.i.i.u.u.u.9.9.9.9.9.r.9.<.<.<.<.,.,.<.<.6.4.4.4.4.5.2.2.6.6.8.7.e.e.e.e.e.P.W.W.K.K.K.G.5.5.5.3.2.#.#.X.{ ] Q Q [ E E T S Y Z Z Z Y S S D D / K L L L ) ) | | ) ) _ _ _ } ( ( } ] } { } } ] K H H S S Z m m m c c c c c c c c c c c c c c c c k g g g g d d d d d d y y 8 8 y y 8 y y 8 9 8 8 8 8 9 9 9 9 9 9 6 9 9 9 9 2 2 2 9 9 9 2 2 2 9 2 2 2 2 2 2 2 2 2 2 2 2 2 2 : : : : , , : : : : : : : : * * : : : * : : * * : : * ",
"; ; > ; ; ; ; ; ; ; > ; ; ; ; > 1 1 ; ; ; ; ; ; 3 ; ; ; ; 1 ; ; ; ; ; 1 > ; ; ; ; ; ; ; ; ; ; ; ; : 3 3 3 3 ; : 2 2 2 2 2 2 2 2 9 y 1 1 1 6 6 6 6 6 8 y d d d d d d d d d y y y y y y y 6 6 y y y y y y y y y y y d d d d g g g g c c c n Z Z S S E Q ! [ { { { { X.X.X.X.X.X.{ { {  .{ [ [ ! ! ! E E E E E E E E E E E ! Q [ [ { X.X.o.o.o.<.<.<.<.9.9.9.9.9.g.g.g.h.h.h.h.h.h.h.h.h.h.h.h.j.j.j.j.l.l.l.l.l.l.m.m.m.m.m.m.m.m.m.m.m.m.m.m.m.m.N.N.N.N.M.M.V.V.V.V.V.V.V.#X#X#X#X%X%X%X%X%X%X%X%X%X%X-X-X-X-X-X-X;X;X;X;X;X;X0X;X;X0X0X;X;X;X-X-XZ.V.V.V.V.V.M.N.M.l.l.l.h.h.h.h.h.h.h.h.h.h.h.h.j.l.m.m.C.%XV.Z.Z.C.C.C.C.C.C.n.m.j.i.i.u.u.u.9.9.9.9.9.8.8.<.<.<.<.<.<.<.4.<.4.4.4.4.4.2.6.6.8.6.6.e.e.e.e.G.k.K.K.K.K.G.5.5.5.2.2.#.o.X.{ [ [ ! E E T T T Z Z Z Z Z S D D D ~ K L L L ) | | ) | ) _ ) ) ( ( ( ] ] ] } } ] Q Q H H S Z A A m c c c c k c c c c c c c c c c c c g g g d d d d d d y y y 8 8 8 y 8 8 y 6 8 8 8 8 6 6 6 9 9 9 9 9 9 9 9 9 2 2 2 9 9 2 9 2 9 2 2 2 2 2 2 2 2 2 2 2 2 2 , : 2 2 2 2 , , : : : : : : : : : : : : : : : * : * * * * ",
"; ; ; ; ; ; > ; ; > ; ; ; ; ; ; > > ; ; ; ; ; ; ; ; ; ; ; > ; ; ; ; > ; ; ; ; ; > ; ; ; ; ; ; ; ; 1 3 3 ; 3 3 3 2 1 2 2 1 2 2 2 9 y 9 1 1 1 6 6 8 8 8 d d d d d d d d y y y y y y y y r r r r 8 y y y y y y y y d d d d d g g g g c c n n Z S T E Q Q [ [ { { { { { { { { { { { [ [ [ [ ! ! ! E E E E E E E E E E E E Q Q ] [ { X.X.o.,.<.<.<.8.9.9.9.9.g.g.h.h.k.h.h.h.z.z.z.c.c.c.l.l.l.c.c.l.l.l.l.m.m.m.m.m.m.m.m.m.m.m.m.m.m.m.m.N.m.N.N.N.N.N.N.M.M.M.M.M.M.M.V.#XM.$X$X#X#X#X#X#X#X#X#X#X#X#X$X%X#X%X%X%X-X-X-X-X-X-X;X;X;X;X;XwX0X;X;X;X;X;X;X-X-XZ.V.V.V.M.N.N.l.l.l.j.h.h.h.h.h.h.h.h.h.h.h.j.l.m.B.C.C.V.C.Z.V.V.V.C.C.n.n.i.i.i.u.u.u.9.9.9.9.9.9.8.8.<.<.<.<.<.<.8.8.4.4.4.4.4.2.8.6.6.6.6.e.e.e.G.r.p.K.K.K.G.G.5.5.5.2.2.#.X.{ { [ Q Q E T T T S Z Z Z Z Z D T T ~ D K L L L | | | | ) | _ ) | ( ( ( ] { ] ] ] ] Q Q E S S Z m m c c c c c k c c c c c c c c c c c k g g d d d d d d y y y 8 8 8 y y 8 y 9 8 9 9 6 8 y 6 9 9 9 9 9 9 9 9 9 9 9 9 2 9 2 9 2 2 2 2 2 2 2 2 2 2 2 2 2 2 2 2 2 2 2 , 2 2 2 : : : , : : : : : : : : * : : * * * * * * ",
"; ; ; ; ; > > ; > > ; ; ; ; > > ; ; > ; ; ; ; ; ; ; > ; ; ; ; ; ; ; ; ; ; ; ; ; > ; ; ; ; ; ; ; ; 1 1 ; ; ; ; 3 2 1 1 1 2 1 3 1 1 1 1 1 6 6 6 6 6 8 8 d d d d d y y y y y y y y y y r 6 r r y y y y y y y y y y d d d d g g g z c c n n Z S T E E Q [ ] ] { { { { { { { { { [ [ [ ! ! ! ! W E E E E E E E E Q Q Q Q Q ] [ { { X.o.,.,.<.<.8.9.9.9.9.9.g.k.z.z.z.h.h.h.h.c.c.c.l.l.l.l.l.l.l.x.l.m.m.m.m.m.m.m.m.m.m.N.N.m.m.m.m.m.m.m.m.N.N.N.N.N.M.M.M.M.M.M.M.M.OXOXOXOXOXOXOXOXOXOXOXOXOXOXOXOXOXOX#XOXOX#X#X#X%X%X%X%X-X-X-X-X:X>X>X>X>X;X;X;X;X;X;X;X;X-XZ.Z.V.V.M.N.N.l.l.l.j.h.h.h.h.h.h.h.h.h.h.j.j.l.m.N.C.V.V.V.V.V.C.C.C.C.n.n.j.i.i.u.u.u.9.9.9.9.9.9.9.<.<.<.<.<.<.8.8.8.8.4.4.4.4.6.8.6.6.6.e.e.e.r.r.W.W.K.K.G.G.D.5.5.4.2.#.X.{ { [ Q Q E T T T Z Y Z Z Z Z Y T T D T K L L L | | ) ) ) | | ) } ( ( ( ( } ] ] ] } Q Q H S T A m m c c c c c c c c c c c c c c c c z g g d d d d d y y y 8 8 9 9 9 9 9 y y 9 9 9 6 9 9 9 6 9 9 9 9 9 9 9 9 9 9 9 2 9 9 2 2 2 2 2 2 2 2 2 2 2 2 2 2 2 2 2 2 , 2 : : : , : : : : , , , : : : : : : : : : : * : * * ",
"; ; ; ; > ; ; > > ; ; ; ; ; ; > ; ; > > ; ; ; ; > 1 > ; > > ; ; ; ; ; ; ; ; > > ; ; ; > ; > 1 ; ; ; 3 > 1 3 ; ; 1 1 1 1 1 3 3 1 2 1 6 6 6 6 6 8 8 8 y y d d d d y y 8 y y y 8 8 y y r 8 r y 8 y y y y y y y d y d d d g g g c c c n n Z Z T E Q Q [ ] ] ] { { { { { { { { [ [ [ ! ! ! E E E E E E E E E E E Q Q Q Q ] [ { X.o.o.,.<.<.9.9.9.9.g.g.g.h.k.z.z.z.h.h.h.c.c.c.l.l.l.l.l.l.l.m.m.m.m.m.m.m.m.m.m.m.m.m.m.m.m.m.m.N.N.N.m.m.N.N.N.M.M.N.M.M.M.M.M.M.M.M.OXOX@XM.M.M.M.M.M.@X@X@X@X@X@X@X@X@X@X@X@XOXOXOXOX$X$X$X$X$X%X%X-X-X-X-X;X-X;X;X;X;X;X;X;X;X;X;X-X-XV.V.V.N.N.N.l.l.j.h.h.h.h.h.h.h.h.h.h.j.l.m.N.N.C.V.V.V.V.V.V.C.C.C.n.n.i.i.i.u.u.u.9.9.9.9.9.9.8.<.<.<.<.<.<.8.8.8.q.4.4.8.8.6.8.6.6.e.e.e.r.G.W.W.K.K.G.G.D.5.5.3.2.#.@.X.{ ] Q Q E T T E T Z Y Z Y Y Y T T T ~ K L L L | | ) ) +.| ) ) ( ( K ( ] } ] ] } Q Q H E S T A m c c c c c k c c z c c c c c c c c k g g d d d d f d y 8 y 9 y 9 9 9 9 9 9 9 9 9 9 9 9 9 9 9 9 9 9 9 9 9 9 2 2 2 e e 2 9 9 2 2 2 2 2 2 2 2 2 2 2 2 2 2 , , : 2 : , , : : , : : , : : : : : : : : : : : * : : * ",
"; ; ; > ; ; ; > ; ; > > > ; > ; ; ; ; ; > ; > ; > 1 > > ; ; ; ; ; ; ; ; ; > ; > ; ; > > ; ; 1 1 ; ; > > 3 3 ; > 1 2 3 3 3 3 1 1 1 1 1 1 6 6 6 6 8 8 8 y y d d y y y y y y y r y 8 8 y y y y y y y y y y y d d d d d d g g g c c c n Z Z T E E Q [ [ ] [ [ [ { { { [ [ [ [ ! ! ! ! E E E E E E E E E E E E E Q [ [ [ { { X.o.o.,.<.8.9.9.9.9.g.g.k.k.z.k.z.z.z.c.c.c.l.l.l.l.x.x.l.l.m.m.m.m.m.m.m.m.m.m.m.m.m.m.m.m.m.m.m.N.N.N.m.m.N.N.N.N.M.M.M.M.M.M.M.M.M.M.@X@X@X@XM.M.@X@X@X@X@X@X@X@X@X@X@X@X@X@X@X@X@X@X@X@XOXOXOXOX#X#X#X#X%X%X%X-X-X-X-X-X;X;X;X;X;X;X;X;X;X;X-XZ.V.V.V.M.N.l.l.j.h.h.h.h.h.h.h.h.h.j.l.l.m.C.N.C.V.V.V.V.V.C.C.C.n.n.j.j.i.u.u.u.9.9.9.9.9.9.9.9.<.8.8.8.8.8.q.q.q.8.8.8.6.6.6.6.6.e.e.e.r.P.W.W.K.K.G.G.5.5.5.2.2.#.X.{ [ Q ! E E T E T Z Y Z Z Z Z T T T D D L L L | | ) ) | | ) ) ( ( K } ] ] ] ] ] } Q K H H S A n n c c c c M c c c c c c c c c c c g g g g d f f f y 9 y y 9 9 9 9 9 9 9 9 9 9 9 9 9 9 9 9 9 9 9 9 9 9 9 2 9 2 2 2 2 2 2 2 2 2 2 2 2 2 2 2 2 2 2 2 2 2 2 , : : : : , , : : , , , , : : , : : : * : : : : : * * ",
"; ; ; ; ; ; ; ; ; ; > > ; ; > > ; ; ; ; > > > 1 ; 1 > ; ; ; ; > > ; ; ; ; ; > > ; ; ; ; ; ; ; ; ; 1 1 > > 1 3 1 1 2 2 3 1 1 1 3 1 1 1 1 6 6 6 6 y d 8 d y d y y 8 y 8 y y y 6 r y y r y y 8 y y y y y y y d d d d d g g k z c n n Z Z T E E Q Q ] ] ] ] [ [ [ { ] ] ] Q Q Q ! W W E E E T E E E E E E Q Q Q [ { [ { X.o.,.,.<.<.8.9.9.g.g.g.z.z.z.k.z.z.z.c.c.c.x.x.l.l.l.l.x.N.m.m.m.m.m.m.m.m.m.m.m.m.m.m.m.m.m.m.N.N.N.N.N.N.N.N.N.M.M.M.M.M.M.M.M.M.M.M.M.M.x.x.M.M.M.@XM.@X@X@X@X@X@X@X@X@XOXOXOXOXOXOXOXOX+XOXOX$X$X#X#X#X#X#X$X$X%X%X%X%X-X-X-X-X;X;X;X;X;X;X;X;X;X;X-X-XZ.V.V.M.N.l.l.l.l.h.h.h.h.h.h.h.j.j.l.m.m.N.C.C.V.V.V.C.C.C.C.C.n.n.j.j.i.u.u.u.9.9.9.9.9.9.9.9.8.8.8.8.8.8.8.8.8.8.8.8.6.6.8.6.e.e.r.P.P.W.K.K.K.G.D.5.5.5.2.2.#.X.{ [ [ Q E T T T Z Z Z Z Z Z T T T T D L L L L | ) | | ) ) ) ) K K ~ K ] ] ] ] } K K K H S Z Z n c c c c c c g c c c c c c c c c z g g g d d d y y y y y 9 9 9 9 9 9 9 9 9 9 9 9 9 9 9 9 9 9 9 9 9 2 9 9 2 2 2 2 2 2 2 2 2 2 2 2 2 2 2 2 2 2 2 2 : : 2 2 , , : : , : : : , , : : : : : : : * * * * : : : : : ",
"; ; ; ; ; ; > ; ; > ; ; ; ; ; > > ; ; ; ; ; ; ; ; 1 > > ; ; > > ; ; ; ; ; ; ; ; ; ; > ; ; > ; ; 3 1 1 1 ; ; 1 3 2 2 2 1 1 1 1 3 1 1 1 6 6 6 6 8 d d 8 8 y y 8 y 8 8 y y 8 6 r 6 6 y 8 8 y 8 8 y y y y y y d d d d g g k c c c n n Z T E E Q Q ] ] ] ] ] [ ] ] [ Q Q Q Q E E E E E E E E T E E E E E Q Q Q ] [ { X.X.o.o.<.<.8.8.9.g.g.g.k.z.z.z.z.z.z.z.c.c.l.x.x.l.l.l.l.m.N.m.m.m.m.m.m.m.m.m.m.m.m.m.m.m.m.m.N.N.N.N.N.N.N.N.N.N.M.M.M.M.M.M.M.M.M.M.M.M.x.x.x.x.x.x.M.@X@XM.@X@X@XOXOXOXOXOX$X$X$X$X$X$X$X%X$X$X$X%X$X%X%X%X%X%X%X%X%X%X%X%X-X-X-X-X-X-X-X;X;X;X;X;X;X;X;X;X;X-XZ.V.V.N.N.x.l.l.j.h.h.h.h.h.h.j.j.j.l.m.N.C.C.V.V.Z.Z.V.C.C.C.C.n.n.j.i.u.u.u.9.9.9.9.9.9.9.9.9.8.8.8.8.e.e.8.8.8.8.8.6.6.6.7.e.e.r.d.P.W.K.K.K.G.5.5.5.2.2.2.#.X.{ [ Q E E T T T Z Y Y Z Z Z Z D D D D G L L L | ) ) ) ) ) ) L K K K K ~ ] ] ] ] K Q H S S Z n c c c c c x g M c c c c c c n n c z g g d f d y y 9 y y 9 y 9 9 9 9 9 9 9 9 9 9 9 9 9 9 9 9 9 2 9 2 9 9 9 9 9 2 2 2 2 2 2 2 2 2 2 2 2 2 2 2 2 2 , 2 2 2 : 2 : : : : : : : : : : : : : : : : : : : * * : : * ",
"; ; ; ; ; ; ; ; ; ; ; ; ; ; ; ; ; ; ; ; ; ; ; ; ; ; ; ; ; > ; > > ; ; ; ; ; ; ; ; > ; > > ; ; ; ; > ; > 1 3 2 3 ; 3 1 1 1 3 1 3 6 d 1 1 6 8 8 8 8 d y 8 y y y y y 8 d y 6 6 y y 6 6 y y y y y y y y y y d d d d k k g c c n n n Z S E E Q Q Q Q Q ] ] ] ] Q Q Q Q E E E E E E E E E E E E E E E ! Q Q Q ] { { X.o.o.,.<.<.8.9.9.g.g.f.z.z.z.z.z.z.z.c.x.x.x.x.x.l.l.l.m.m.m.N.N.C.C.C.C.m.m.m.m.m.m.m.m.m.m.N.N.N.N.N.N.N.N.N.N.M.M.M.M.M.M.M.M.M.M.M.x.x.x.x.x.x.x.x.M.x.@X@X@XOXOXOXOX#X#X$X$X%X%X%X%X-X-X-X-X:X:X:X:X-X-X-X:X-X-X-X-X-X-X-X-X%X-X-X-X-X-X-X-X-X-X;X;X;X;X;X;X;X;X;X-XZ.V.V.N.N.N.l.j.h.h.h.h.h.h.h.h.j.l.m.N.N.C.V.Z.Z.Z.Z.V.C.C.C.C.n.j.j.j.u.u.u.9.9.9.9.9.9.r.r.9.8.8.e.e.8.8.8.8.8.8.6.6.7.7.e.e.r.P.W.W.K.K.K.G.q.5.5.5.2.#.o.X.{ [ Q E E T T Y Z Y Y Z Z Z Z D D D D G L L L ) | ) ) ) ) L K K K K ~ Q ] ] ] ] Q Q H S Z Z n n c c M x h h g k c c c c n n c z g g d f f y y 9 9 9 y 9 y 9 9 9 9 9 9 9 9 9 9 9 9 9 9 9 9 2 9 2 9 e 9 e 9 9 2 2 e 9 2 2 2 2 2 2 2 2 2 2 2 2 2 2 2 2 : : , : : : : , : : : : : , : : : : * * : : : : : * ",
"; ; ; ; ; ; ; ; > > ; ; ; ; ; > ; ; ; ; > ; ; ; ; ; > > ; ; ; ; ; ; ; ; ; 1 ; ; > ; ; ; ; ; ; > ; ; ; > 1 ; 2 1 ; 3 1 3 1 1 1 3 8 d 1 1 6 8 8 8 8 8 y 8 y y y y 6 y y 6 y y d y 6 6 y y y y y y y y y y d d d d g g c c n n Z Z T T E Q Q Q Q Q Q Q ] Q Q ! Q E E E E E E T T T T T E E E E E E ! Q [ [ { { X.o.o.,.<.8.8.9.g.g.f.z.z.z.z.z.z.c.c.x.x.x.x.l.l.l.m.m.m.m.m.C.N.N.C.C.m.m.m.m.m.m.m.m.N.N.N.N.N.N.N.N.N.N.N.N.M.M.M.M.M.M.M.M.M.M.x.x.x.x.x.x.x.x.x.M.M.M.@X@XOXOX#X#X%X%X%X%X-X-X-X:X:X>X>X>X>X>X>X>X>X>X>X>X>X>X>X>X>X>X:X:X:X:X:X-X-X-X-X-X-X-X-X-X-X-X;X;X;X;X;X;X;X;X;X;X-XV.V.M.M.N.l.l.l.h.h.h.h.h.h.j.j.l.m.C.C.C.C.V.V.V.Z.V.C.C.C.n.n.j.i.u.u.u.u.9.9.9.9.9.9.9.e.8.8.e.e.8.8.8.8.8.6.8.8.6.6.e.e.r.P.W.W.K.K.K.G.5.5.5.2.2.#.X.{ [ Q Q E E T T T Y Y T Z Z Z A A D D D D L L L | ) ) ) ) ) ) K K K K K Q ] ] ] K Q H H S Z n n c c c c c M k c k c c c c n c z g g d d d y y y 9 9 9 9 9 1 9 9 9 9 9 9 9 9 9 9 9 9 9 9 9 2 2 9 2 9 9 9 9 9 2 2 2 2 2 2 2 2 2 2 2 2 2 2 : 2 2 2 , : : : 2 , : : : : : : : : : : : : : : : : * : : : * * ",
"; ; ; > > ; > > ; ; > > > > ; > ; ; ; ; ; ; ; ; ; > 1 > ; ; ; > > > ; ; ; > > > ; ; ; ; ; > ; > > > > > > ; ; 3 > 1 1 1 3 6 6 1 1 3 6 6 6 8 8 8 8 8 8 8 8 8 y 8 6 6 r r 6 y y y 6 y y y y y 8 8 y y y y d k d d g g c c n Z Z S T E Q Q Q Q Q Q Q Q Q Q E E E E T E E E T T T T T T E T E E E Q ! [ [ { X.X.o.,.,.<.8.r.g.g.g.z.z.z.z.z.z.z.z.x.x.x.x.x.x.x.m.m.m.m.m.C.N.C.C.C.m.m.m.m.m.m.m.m.m.N.N.N.N.N.N.N.N.N.N.N.N.N.N.M.M.M.M.M.M.M.x.x.x.x.x.x.x.M.M.@X@XOXOXOXOX#X#X%X-X-X-X:X:X>X>XwXwXeXeXeXeXeXeXeXeXeXeXeXeXeXeXeXeXeXeXwX>X>X>X>X>X>X>X>X>X:X-X-X-X-X-X-X-X-X-X;X;X;X;X;X;X;X;X;X-XV.V.M.N.x.l.c.h.h.h.h.h.h.h.j.l.m.m.N.C.C.V.Z.Z.Z.Z.V.C.C.C.n.j.j.i.u.u.9.9.9.9.9.9.9.r.r.8.r.r.e.8.8.8.8.8.8.8.8.6.6.e.G.G.P.W.W.K.K.G.F.5.5.5.2.2.#.X.{ [ Q Q E T T T Y Z Y Y Z Z Z Z D T D D G L L =.) ) ) ) ) L K K K K K K K ] Q Q Q H H S Z Z n n c c c c M k k c c c c c n n z z g d f d d y y 9 9 9 9 f >.k 9 9 9 9 9 9 9 9 9 9 9 9 9 9 2 9 9 2 2 9 2 9 9 e e 2 2 2 2 2 2 2 2 2 2 2 2 2 : 2 2 2 : 2 2 2 : : : : : : : : : : : : : : : * * & : : : : * ",
"; ; ; ; ; ; ; > > ; > 1 > > ; ; > > ; ; > > ; ; ; > > ; ; ; ; ; ; ; > ; ; ; > ; ; ; ; ; ; > ; ; > > ; 1 ; ; ; 1 1 1 1 1 1 6 r 1 1 1 6 6 6 8 8 8 8 8 8 8 8 8 6 8 6 6 r 6 6 6 r y 6 y y y y y y y y y y d d d g g g z c n n Z S T E E Q Q Q Q Q Q Q Q E E E E T T T T T T T T T T T T T E E E Q Q [ { { X.X.o.,.<.8.8.r.g.g.z.Q.Q.z.z.z.z.z.x.x.x.x.x.x.l.x.m.m.m.m.m.N.N.N.N.m.m.m.m.m.m.m.m.m.m.m.N.N.N.N.N.N.N.M.M.N.M.M.N.N.M.x.x.x.x.x.x.x.x.x.x.!.@X@XOXOXOX#X#X#X%X%X%X-X-X:X>X>X>X>X>XwXeXeXeXeXuXuXuXpXpXpXpXpXpXpXpXpXpXpXpXuXuXuXeXuXeXeXeXwXwXwX>X>X>X>X>X;X;X-X-X-X-X-X-X;X;X;X;X;X;X;X-XZ.V.V.M.N.x.l.c.h.h.h.h.h.h.j.l.m.N.N.C.C.Z.Z.Z.Z.Z.Z.C.C.C.m.n.j.j.h.h.h.9.9.9.9.9.r.r.r.r.g.r.e.e.8.e.8.8.8.6.8.7.r.r.r.P.P.W.W.K.K.G.q.5.5.5.2.#.X.X.[ Q Q E E T T Y Z Z Z Z Y Z Z T T D D D L L =.| ) ) ) ) | | K K K K K K Q Q K Q K H H S Z Z n z z c x h h c c c c c c c c z z g g f f f y 9 y 9 9 9 k >.M 9 9 9 9 9 9 9 9 9 9 9 2 9 9 9 9 9 2 2 2 2 e 2 2 e e 2 2 2 2 2 2 2 2 2 2 2 2 2 : : : : , : : , , , : : : : : : : : : * * : : & : : : : * : ",
"> ; ; ; > ; ; ; > ; ; > ; ; > ; > > ; > ; > > ; ; ; ; > > ; ; ; ; 1 6 ; ; > ; ; ; ; ; > > ; > > ; ; ; > > > > 3 ; 3 1 1 1 1 1 1 1 1 6 6 6 8 8 8 8 8 8 8 8 8 6 8 6 6 6 6 6 6 r y 6 y y y y 8 y y y d d d d d g g c c n n Z S T E E Q Q Q Q Q E E E E E T T T T T T T T T T T T T T T E E E Q Q ] { X.X.o.,.,.<.8.e.g.g.f.z.Q.z.z.z.z.z.x.!.!.x.x.x.x.l.l.N.N.N.N.N.N.N.C.C.m.m.m.m.m.m.m.m.m.m.m.m.N.N.N.N.N.N.N.N.N.x.x.x.x.x.x.x.x.x.x.x.!.!.@X@X@X@X@XOX+X+X$X$X%X-X:X:X:X:X:X>X>X>X>X>XwXwXuXuXuXuXuXuXuXuXpXpXpXpXpXpXpXpXpXpXpXpXpXpXpXpXpXpXpXuXeXeXeXwXwXwX>X>X>X>X>X>X;X-X-X-X;X;X;X;X;X;X;X;X-XZ.V.V.N.N.x.l.h.h.h.h.h.h.j.j.l.m.N.C.V.Z.Z.Z.Z.Z.Z.V.C.C.C.m.j.j.h.h.h.9.h.g.9.9.9.g.g.g.r.g.r.r.8.8.8.8.7.7.7.7.r.r.r.P.P.W.W.K.K.G.D.5.5.2.2.#.#.{ [ Q Q E T T T Z Z Y Z Z Z Z A A A D D D L L =.L L L L | | L K K H K K K K Q K K H H S S Z n n c c M h h k k c c c c c c c c g g d f f f 9 9 9 9 9 9 9 9 9 9 9 9 9 9 9 9 9 2 2 2 9 9 9 9 9 2 e 2 2 9 e 9 e 2 2 2 2 2 2 2 2 2 2 2 2 2 2 : : : : : : : : , , : : : : : : : : : * : & : : : : * * : * ",
"> ; ; > ; ; ; ; > ; ; > , : & ; > > ; > ; ; ; ; > > ; > ; ; ; > > > > > ; ; ; ; > ; ; > > ; > > ; ; ; > > ; ; 1 1 3 ; 1 1 1 1 1 6 6 6 6 6 8 8 8 8 8 8 8 6 6 r r 6 6 6 6 6 y d y 8 8 8 y y y y y y y d d d g g g c n n Z Z S E E E Q E E Q E E E E E T T T T T T T T T T T T T T T T E E Q [ [ { X.o.o.,.,.<.8.8.g.g.f.Q.Q.z.z.z.z.z.!.!.!.x.x.x.x.x.x.N.N.N.N.N.N.N.C.C.m.m.m.m.l.l.l.x.x.m.m.x.x.m.N.x.x.x.x.x.x.x.x.x.x.x.x.x.!.!.!.!.!.!.@X@X+X+X+X$X$X%X%X%X:X:X:X:X:X:X:X:X:X:X:X:X:X5X5X5X5X5X5XyXyXyXyXyXyXyXuXuXpXpXpXpXpXpXpXpXpXpXpXpXpXpXpXpXpXuXeXeXeXeXwXwX>X>X>X>X>X>X-X;X;X;X;X;X;X;X;X;X;XZ.V.V.M.N.x.l.l.h.h.h.h.h.h.j.j.x.m.N.B.V.Z.Z.Z.Z.Z.V.C.C.C.C.n.j.i.u.u.h.h.9.9.9.g.g.g.g.g.g.r.r.9.8.8.8.7.7.7.r.r.e.r.P.P.W.W.K.K.G.D.5.2.2.#.#.X.{ [ Q E E E T S Y Z Z Y Z Z Z Z A A D D L L =.L L L L L ) L L K K H K Q K K K K E H H S Z Z n n c k h h h k c c c c c c c c c c d d f y y 9 9 9 9 9 9 9 9 9 9 9 9 9 9 9 2 9 9 9 9 9 9 2 e 9 9 9 9 9 9 e e e 2 2 2 e e 2 2 2 2 : , : 2 : 2 2 : 2 : : : : : : : : : : : : : : : : : : : : : * * * : ",
"> > > ; ; ; ; ; ; ; ; ; ; 3 6 ; ; > ; > > > ; ; ; ; ; ; ; ; > > > ; ; > > ; ; ; ; > ; > > ; > > > ; ; > ; > > 1 1 3 1 1 1 1 1 1 6 6 6 6 6 8 8 8 y 8 8 6 6 6 6 6 6 6 6 6 r y y y y y y y y y y y y d d d d g g z c n Z Z S T E E E E E E E E E E T T T T T W T T T T T T T T T T T E E Q ] [ { X.o.o.,.<.<.8.9.g.d.Q.Q.Q.z.z.z.Q.!.!.!.!.x.x.x.x.x.N.N.N.N.N.N.N.N.C.C.m.m.m.l.l.l.l.l.l.x.x.x.l.x.l.l.l.l.x.x.x.x.x.x.x.x.x.x.x.!.@X@X@X@X@X+X+X$X$X$X%X%X:X:X:X*X*X*X<X*X*X<X*X*X*X<X<X<X<X4X4X4X4X4X4X5X5X5X5X5X5XyXyXyXyXyXyXyXuXpXpXpXpXpXpXpXpXpXpXpXpXpXpXuXeXeXeXeXwXwX>X>X>X>X>X>X;X;X;X;X;X;X;X;X;X-XV.V.V.N.N.l.l.l.l.h.h.h.h.h.j.x.m.N.B.V.Z.Z.Z.Z.Z.V.C.C.C.C.m.j.j.u.h.h.h.9.9.g.g.g.g.g.g.g.g.r.8.8.8.7.7.7.7.r.e.e.P.P.W.W.W.K.K.G.5.5.2.2.#.@.{ [ [ Q E E T T T Z Z Y Z Z Z Z A A A A D L L L L L L L =.L L K K H H K Q K K K H H H S Z Z n n c k g h h g c c c c c c c z c c g d f y y y 9 9 9 9 9 9 9 9 9 9 9 9 9 9 9 9 9 9 2 9 e e e 9 9 9 2 e 2 e e e 2 2 2 e e 2 2 2 2 2 2 2 2 : 2 : : : : : : , , , : : : : : : : : : : : : : : : * * * * ",
"& ; > > ; > ; ; ; > ; ; & B oX6 ; ; > > > > ; ; ; ; > ; ; ; > ; ; ; ; > > > > ; ; ; ; ; ; ; > > > > > ; ; > 1 1 1 1 1 1 1 1 1 1 6 8 6 6 8 8 8 8 y 8 8 y 6 6 6 6 6 6 6 6 y r r y 6 y y y y y y y y d d d g g c c n n Z S S E E E E E E E E T T E W T T Y T R T Y T T Y T T E E T E E Q ] { { X.o.,.<.<.8.9.9.g.f.Q.Q.Q.f.z.z.Q.!.!.!.x.x.x.x.x.N.N.N.N.N.N.N.C.C.C.m.m.m.l.l.l.l.l.l.l.l.l.l.j.x.l.l.l.l.l.x.x.x.x.x.x.x.!.!.!.@X@X@X@X+X+X$X$X$X*X*X*X*X*X*X<X<X<X<X<X<X<X<X<X<X<X<X<X<X<X<X<X<X<X<X<X<X4X<X6X4X4X6X4X5X5X5X5XyXyXyXyXuXyXuXuXpXpXpXpXpXpXpXpXpXpXpXpXuXeXeXeXeXwXwX>X>X>X>X>X;X;X-X;X;X;X;X;X;XZ.V.V.V.N.x.l.l.c.h.h.h.h.h.j.x.m.C.C.V.V.Z.Z.Z.Z.V.V.C.C.C.m.j.j.h.h.h.h.9.9.9.g.g.g.g.g.g.r.r.9.8.8.7.7.7.7.r.r.G.G.P.W.W.K.K.G.F.5.5.4.2.#.X.{ [ Q E E E E T Z Z Y Z Z Z Z Z A A A T G L L L L L L L L L L K K H H K K Q K K H H H S Z Z n c c c h h M h c c c c c c c z g g d f f y y 9 9 9 9 9 9 9 9 9 9 e 9 9 9 9 9 9 9 e 9 e e e 9 9 9 9 2 2 u f e 2 2 e 2 2 e 2 e 2 2 2 2 2 : : 2 : : 2 : : 2 : , : : : : : : : : : : : : : : : : * : : ",
"& ; & ; ; ; ; ; ; ; ; > & r V ; ; ; ; > > > ; ; ; ; ; > > ; ; ; > ; ; ; ; > ; ; > > ; ; ; ; ; ; > > ; ; ; ; 1 1 > 1 1 1 1 1 1 1 6 6 6 6 8 8 8 8 6 6 y d 8 6 6 6 6 6 6 6 r r 6 6 r y 8 y y y y y d d d g g z c n n Z S S E E E E E E E T T E T Y T T Y Y T T Z Z Y T T T T T E E E Q [ { { X.o.,.<.8.8.e.g.d.f.Q.Q.z.z.z.Q.!.!.!.!.x.x.x.x.x.N.N.N.N.N.N.C.C.C.m.m.m.m.m.l.l.l.l.l.j.j.j.j.j.j.l.l.l.l.l.x.x.x.x.x.x.x.!.@X@X@X+X+X&X&X$X$X*X*X*X<X<X<X<X<X<X<X<X,X,X,X,X,X,X,X,X,X,X,X,X1X1X1X1X1X1X1X2X2X2X2X2X2X2X2X6X6X6X6X4X4X5X5X5X5XyXyXyXuXuXyXuXuXpXpXpXpXpXpXpXpXpXuXuXeXwXwXwXwXwX>X>X>X>X;X;X;X;X;X;X;X-XZ.V.V.N.N.x.l.c.h.h.h.h.h.j.j.l.m.C.B.V.Z.Z.Z.V.V.V.C.C.C.C.j.j.h.h.h.h.9.9.9.g.g.g.g.g.g.g.r.9.9.7.7.7.7.r.r.r.G.G.P.W.W.W.K.G.F.5.5.2.2.X.X.{ [ Q E E E T T Y Y T Y Z Z Z A A R T D L L L L L L L L L L K K K H K K K K K H H H S Z Z n c c k h h h h k c c c c c c c g h g d f y y 9 9 9 9 9 9 9 9 9 9 e 9 9 2 9 e 9 9 e 9 9 e e e 9 e 2 9 / y 2 e e 2 e e e e e 2 2 2 2 2 : 2 2 : : : 2 : : : : : , : : : : : : : : : : : , : : : * : * ",
"; ; ; & ; > > ; ; ; > ; > ; & ; > ; ; > > ; ; > > > > > > > > > > > > > ; ; ; ; ; ; ; > ; > ; ; > > ; > > ; > 1 > 1 1 1 1 1 1 1 6 6 6 6 6 8 8 8 6 6 6 6 6 6 6 6 r 6 6 y y 8 6 r r y y 8 d k y y d d g k c c n n Z Z T T E E E E H H E T T T T Y Y Z Y Y Y Y Y Y Y Y Y T T T T E Q [ X.X.X.o.,.<.8.8.9.g.d.Q.Q.Q.f.z.Q.!.!.!.!.x.x.x.x.x.x.N.N.N.N.N.N.C.C.C.m.m.m.l.l.l.l.l.j.j.j.j.h.h.h.h.h.c.c.c.x.x.x.x.x.x.x.!.@X@X@X+X&X&X$X*X*X*X*X<X<X<X<X<X,X,X,X,X,X,X,X,X,X,X,X,X1X1X.X.X.X.X.X.X.X.X.X.X.X.X1X1X.X1X1X1X1X1X1X2X2X2X<X4X4X4X4X4X5X5X5X5XyXyXuXuXuXuXuXpXpXpXpXpXpXpXuXeXeXeXwXwXwXwX>X>X>X;X;X;X;X;X;X;X-XZ.V.V.N.N.x.l.c.h.h.h.h.h.h.j.x.m.N.B.V.Z.Z.Z.Z.Z.Z.C.C.C.m.j.j.j.h.h.h.9.9.9.g.g.g.g.g.g.r.r.9.9.7.7.7.7.r.e.e.G.P.W.W.W.K.K.G.5.5.5.2.#.@.{ [ ! Q E T T T T T T Y Z n Z Z Z A A D G G L L L L L L L L K K ~ H K K K Q Q H H H S S Z n n c c M M g h g k z c c c c c g g g f f y y 9 9 9 9 9 9 9 9 9 e e e 9 2 e 9 9 9 9 9 e e e 9 9 e e y / 9 e e e e e e e e 2 e 2 2 2 2 2 : : : : : 2 : : : : : : , : : : : : : : : : : : & & : : : ; ",
"; & ; & ; ; > ; ; ; ; > > > > > > > > ; ; ; ; > > > > > ; ; ; ; > > > > > > ; ; ; ; > > > ; ; ; > ; ; > > ; > > ; > 1 1 1 1 1 1 6 6 6 6 8 8 8 8 6 6 6 6 6 6 6 6 r 6 6 6 6 6 6 6 r y y y d d y y d g g k c c n Z Z S S T E E E E T S S S T T Y Y Y Z Y Y Y Z Y Y Y Y T T T E E Q ] { X.X.o.,.<.8.e.g.g.f.Q.Q.f.f.z.Q.!.!.!.!.x.x.x.x.x.N.N.m.N.N.N.N.N.C.C.m.m.m.l.l.l.j.j.j.j.h.h.h.h.h.h.c.c.c.z.z.x.x.x.x.!.!.@X+X+X&X&X&X*X*X*X*X&X&X,X,X,X,X,X,X,X,X,X,X,X,X,X,X.X|..X.X.X.X.X.X.X.X X X X X X X X X X.X X.X.X.X.X.X.X.X1X1X1X,X2X<X<X<X4X4X4X4X5X5X5X5XyXuXuXuXuXuXpXpXpXpXpXpXpXeXeXeXeXwXwX>X>X>X>X;X;X;X;X;X;X;X-XZ.V.B.N.x.l.c.h.h.h.h.h.h.j.l.x.m.B.V.Z.Z.Z.Z.Z.Z.C.C.C.C.m.j.j.h.h.h.h.9.9.g.g.h.g.g.g.g.r.r.9.7.7.7.7.r.r.G.P.P.W.W.W.K.G.G.5.5.4.2.#.X.{ [ ! E E T T T T Y Z Z n n Z Z Z A D G G L L L L L L L L L D K H H K Q K E H H H S S Z n n c c c h h h M k z z c c c c z h g d f y y 9 9 9 9 9 9 9 9 9 9 e 9 9 2 2 9 9 e 9 e e e e e e e e 9 2 e e e e e 2 e e 2 2 e 2 2 2 2 2 : : : : : 2 : : : 2 , : : : , : : : : : : : * & ; & : : & ; ",
"> & & & ; ; ; ; ; ; ; ; ; > > ; ; > ; ; ; ; ; > ; > > ; ; ; ; ; ; ; > > ; > ; > > > > ; > ; ; ; > > > > > ; ; > 1 1 1 1 1 1 6 6 6 6 6 6 6 6 6 6 6 6 6 6 6 6 6 6 6 6 6 y r 6 6 y r y y y y y d d d g k c c n n Z S T S E T E T T T T S Z Y Z Y Z n B B n B Y Y Y Y T T T E E Q ] { X.o.,.<.8.e.e.g.d.Y.Q.Q.f.z.Q.Q.!.!.!.!.x.x.x.x.x.N.N.N.N.N.N.N.N.C.m.m.m.l.l.l.j.j.j.h.h.h.h.h.h.h.c.c.c.z.z.x.x.x.!.!.!.@X+X&X$X&X&X&X&X&X&X&X&X,X,X,X,X,X,X,X,X,X,X,X1X1X.X.X.X.X.X.X.X X X X X X X X X X X X X X X X X X X X X X}. X.X.X.X.X.X.X1X,X,X<X<X<X<X4X4X4X4X5X5X5XyXuXuXuXuXuXpXpXpXpXpXuXuXeXeXeXwX>X>X>X>X>X;X;X;X;X;X;X;XZ.V.V.N.N.l.l.h.h.h.h.h.h.h.j.x.m.N.V.Z.Z.Z.Z.Z.Z.Z.V.C.C.n.j.l.j.h.h.h.h.g.g.h.h.h.g.g.g.r.r.9.7.7.7.9.r.r.r.P.P.W./.K.K.G.D.5.5.2.2.o.{ { [ Q E E T T T Y Z Z n n n n n A T G G G L L L L L L L L G D K H H K K H H H H S S S Z n c c c c h g g g g c c c c c z g g d f f y 9 9 9 9 9 9 9 9 9 9 9 e e 2 2 9 9 e e e e e e e e e e e e e e e e e e e e 2 2 e e 2 2 2 2 2 : : : 2 2 : 2 : 2 : : : : : : : : : : : : : : * ; : : * * ",
"& & ; ; ; ; ; > > ; ; ; ; > ; ; > ; ; ; > ; ; ; > > > > ; > > > ; > > > > > ; > > ; > > > > ; > ; > ; > ; ; ; 1 1 1 1 1 1 1 6 6 6 6 6 6 6 6 6 6 6 6 6 6 6 6 6 6 6 6 r y r 6 y y y y y y y d d d d g c c n n Z Z S T T S T T T S S Z Y Z Z Z n n n B n Z Z Y Y Y T T W E E Q ] { X.o.2.<.8.e.e.g.f.Y.Q.Q.f.z.Q.Q.!.!.!.x.x.x.x.x.x.N.N.N.N.N.N.N.N.m.m.m.l.l.l.j.j.j.h.h.h.h.h.h.h.h.z.c.c.z.x.x.x.!.!.@X@X@X&X&X&X&X&X&X&X&X&X,X,X,X,X,X,X,X,X,X,X1X.X.X1X.X.X.X.X.X X XcXcXcXcXcXcXcXcXcXcXjXcXjXjXjXjXjXjX[.[.[. X X X X X}.}.}. X.X.X|.|.,X,X,X,X<X<X<X<X4X4X4X5X5X5XyXyXuXuXuXuXuXpXpXpXeXeXuXeXuXwXwXwX>X>X;X;X;X;X;X;X;XZ.Z.V.N.N.x.l.c.h.h.h.h.h.h.j.x.m.N.B.Z.Z.Z.Z.Z.Z.Z.V.C.C.N.m.j.j.h.h.h.h.h.g.h.h.g.g.g.r.r.9.9.7.7.9.r.r.r.G.P.W.W.W.K.K.G.D.5.5.2.#.X.{ [ ! E E E T T Y Z Y Y n n n n Z A D A G L L L L L L L L L D K K H K K K H H H H S S Z n n c c c g g g g M x c c n c z z g g f f y 9 9 9 9 9 9 9 9 9 9 9 e e e e 9 9 e e e e e e e e e e e e e e e e e e e e 2 2 2 2 2 2 2 e 2 : : : : 2 2 2 : : : : : : : : : : : : : : : : * * : * * : ",
"; & & > ; ; > ; > ; ; ; ; ; ; > > ; ; > ; ; ; > 1 > ; > ; > > > > ; ; ; ; > > > > ; ; ; > > > ; > ; > > > ; ; 1 1 1 1 1 1 6 6 6 6 6 6 6 6 6 6 6 6 6 6 6 6 6 6 6 6 6 r r 8 y y y y y y y y d d d g g c n n Z S S S E T S S T S Z Z Z Z n n n n n n B Y Z Y Z Y T E E ! ! Q [ ] X.o.o.<.8.8.e.g.d.Q.Q.Y.f.Q.Q.!.!.!.!.!.x.x.x.x.x.N.N.N.C.N.N.N.C.m.m.l.l.j.j.j.j.h.h.h.h.h.h.h.h.h.h.c.z.z.z.x.!.!.@X@X&X+X@X@X&X&X&X&X&X&X&X&X,X,X,X,X,X,X,X|.|..X.X.X.X.X.X.XcXvXvXvXvXbXbXbXbXbXbXbXbXbXbXxXxXxXxXxXxXxXxXxXxXjXjX X[.[.[. X X X}.}.}..X.X.X|.|.|.,X,X,X,X<X<X<X4X4X4X5X5X5XyXuXuXuXuXuXpXpXuXuXuXuXyXwXwX>X>X>X;X;X;X;X;X;X;X-XZ.V.M.N.l.l.l.c.h.h.h.h.h.j.l.m.C.B.V.Z.Z.Z.Z.Z.Z.V.C.C.m.m.l.j.h.h.h.9.g.g.h.g.h.g.g.9.r.9.9.r.7.7.r.r.r.G.P.W.W./.K.G.F.5.5.5.2.#.X.{ [ Q E E T T T T Y Z n n Z Z Z A A A G G L L L L L L L L L D S H H H H H H H H H S Z Z n c n n g g g g g g z c c n c z g g f f y 9 9 9 9 9 9 9 9 9 9 9 9 9 9 e e e e e 9 9 e e e e e e e e e e e e e e 2 e e e e 2 2 : 2 2 : : : : : : : : : : 8 1 : : : : : : : : ; : * ; & : : * * * ",
"& & & & > ; > > ; ; ; ; ; ; ; > > ; ; ; > > > > > > > ; > ; ; > > ; > > ; ; ; > > > ; ; > > > ; > > > > > > > 1 > 1 1 1 1 1 1 6 6 6 6 6 6 6 6 6 6 6 6 6 6 6 6 6 6 r r r y y y 8 y y y y d d d g g z c n n Z E D. .S S S S S Z Z Z n n n n n B n n n Y Y Y Y T T E E ! [ [ { X.o.o.<.8.0.e.g.d.Y.Q.Y.Y.Q.Q.!.!.!.Q.Q.x.x.x.x.M.M.N.N.N.C.C.N.C.m.m.l.l.j.j.j.h.h.h.h.h.h.h.h.h.z.z.z.z.z.x.!.!.!.@X@X@X@X@X&X&X&X&X&X&X&X,X,X,X,X,X,X,X,X,X,X.X.X.X.XvXvXvXvXvXvXvXvXvXvXbXvXcXcXcXcXcXcXjXjXjXjXcXcXjXjXjXxXxXMXxXjXjXcXjXjX X X X X X}.}.}..X.X.X.X.X|.|.|.,X,X<X<X<X<X4X4X5X5X5XyXyXeXuXuXuXpXuXuXuXeXeXwXwXwX>X>X>X;X>X;X;X;X;X-XZ.V.V.N.x.l.c.c.c.h.h.h.h.h.l.m.C.V.V.Z.Z.Z.Z.Z.Z.C.C.C.C.m.j.h.k./.h.h.h.h.h.k.k.g.d.g.r.9.9.r.7.7.r.r.G.P.P.W./.W.K.G.F.5.5.3.#.#.X.{ [ Q E E T T T Y Z n Y Y n Z Z Z A D G G L L L L L L G L D K H H H H H H H H H S S Z n n n n c k k g g g c c c c c z z g g f f 9 9 9 9 9 9 9 9 9 9 9 9 9 9 9 2 e e e 9 9 e e e e e e e e e e e e e e e 2 e e e 2 : : 2 : : : : : : : : : : : 2 > : : : : : : ; ; ; : : & : : : * ; : ",
"& & ; & & ; > ; > ; ; ; > ; ; ; > > ; ; > > ; ; > ; ; ; ; > > ; > 1 > ; > ; ; > ; > > > > > > > ; ; ; > 1 1 1 1 1 1 1 1 1 1 6 6 6 6 6 6 6 6 6 6 6 6 6 6 6 6 6 r 6 6 6 8 y y y y y y y y d d d g z c n n n Z E $.[ T Z Z Z Z Z n n n n n n n n n Y Y Z Y Y T T E E E Q [ { X.o.,.<.8.0.e.s.P.Q.Q.Y.Q.Q.Q.Q.Q.Q.Q.Q.x.x.x.x.M.M.N.N.C.N.N.N.C.m.m.l.j.j.j.h.h.h.h.h.h.h.h.h.h.z.z.z.z.z.x.!.!.@X@X@X@X@X&X&X&X&X&X&X&X&X,X,X,X,X,X,X,X1X1X1X1XZXZXZXZXZXZXZXZXvXvXcXcX.X.X.X X X X X X X X X X[.[. X[.[.[.[.[.[.[.jXjXjXcXcX X X X X X X X X X}..X}.}.|.|.|.|.|.|.,X,X,X<X<X4X4X4X4X5X5X5XyXyXuXuXuXuXuXuXeXeXwXwXwX>XwX>X>X>X;X;X;X;X;X-XV.V.N.N.l.l.c.c.h.h.h.h.j.x.l.N.B.V.Z.A.A.A.Z.Z.V.C.C.N.N.j.j.h.h.h.h.h.h.z.k.k.k.g.9.r.r.r.r.r.7.r.G.G.P.W.W./.K.K.G.q.5.5.2.#.X.{ [ ! Q E T T T Y Y n Z n n Y Z n A A A G G L L L L L G L G D K H H H H H H H H S S Z n n n c c k k g g k c c c c c z z g g f d y 9 9 9 9 9 9 9 9 9 9 9 9 9 9 e 9 e e e e e e e e e e e e e e e e e e 2 2 2 2 e 2 : : 2 : : : 2 : : : : : : : : : , : : : : : : : : : : : : : : : : : ",
"; ; & & & ; > ; ; ; > ; > ; ; ; ; ; > > ; > > ; ; > > > ; > > ; ; 1 1 > > > > > ; ; > > ; > > ; > > ; > > 1 1 1 1 1 1 1 1 1 6 6 6 6 6 6 6 6 6 6 6 6 6 6 6 6 6 6 6 y y y y y y y y y y d d d g g c n n n Z Z S Z Z Z Z Z Z Z n n n n n n n B n n Y R Z Y T T E E E Q [ { X.o.,.4.q.q.e.s.P.Y.Q.Q.Q.Q.Q.!.Q.Q.Q.x.x.x.x.M.M.M.N.B.C.C.C.C.m.m.j.l.j.j.h.h.h.h.h.h.h.h.h.h.h.z.z.z.z.z.!.!.!.@X@X!.!.&X&X&X&X&X&X&X,X,X,X,X,X,X,X,X1X1X1X1XZXZXZXZXZXZXZX.X.X.X.X.X.X.X.X.X.X}.}.}.}.}.}.}.}.}.}._.}._._._.}._._._. XcX[.[. X X X X X X XcXcX X X X X}.}.|.|.|.|.|.|.|.,X,X<X<X<X4X4X4X4X5X5X5X5XwXuXuXuXuXuXuXeXwXwXwXwX>XwXwX>X>X;X;X;X;X-XZ.V.N.N.l.l.l.c.h.h.h.h.j.j.l.m.B.V.Z.A.A.A.Z.Z.V.B.=XN.l.j.j.j.h.h.h.h.h.h.h.k.k.g.9.r.r.r.r.7.r.G.G.P.P.W.W.W.K.G.G.q.5.5.2.#.X.{ [ Q E E Z :.CXY n n n n Y Z n A A A G G L L L L L L L G D D D H H H H H H H H S Z Z n n n c g g g g k c c c c c z c z g d d y 9 9 9 9 9 9 9 9 9 e 9 9 9 9 e e e e e e e e e e e e e e e e e e e e 2 2 2 2 e e 2 2 2 2 : : : 2 : : : : : : : , : : : : : : : : ; : : ; : : ; ; ; ; ",
"& ; > ; & > & & ; ; ; ; > ; ; ; > > ; > ; ; ; ; ; > > > ; > > ; > > 1 > > > ; ; ; > > ; ; > > > > ; > > 1 > > > 1 1 1 1 1 1 6 6 6 6 6 6 6 6 6 6 6 6 6 6 6 6 6 6 6 6 6 r 6 y y y y y d d d g g z z n n Z Z Z S Z Z Z Z Z Z n n n n n n n n n n n n Y Y T W E E E ! [ { X.o.2.4.q.q.0.d.P.Q.Y.Y.Q.Q.Q.Q.!.Q.Q.z.x.x.x.M.M.N.N.B.C.N.N.C.m.m.l.j.j.h.h.h.h.h.h.9.h.g.g.g.h.h.z.z.z.z.!.!.!.@X@X&X&X&X&X&X&X&X&X,X,X,X,X,X,X,X,X1X1X1X1XZXZXZX1X1X1X.X.X|.|.|.|.|..X.X.X.X.X|.}.}.}.}.}.}.}.}.}.}._._.R._._.R._._._._._._._.}._._.}.}.}.}.}.}. X X X X.X.X.X.X|.|.|.|.|.|.|.,X<X<X4X4X4X4X4X4X5X>X>X>XyXuXuXuXuXuXeXwXwXwX>X>X>XwXwX>X;X;X;X;X-XZ.V.N.N.x.l.c.c.c.h.h.h.c.c.l.N.B.V.Z.Z.A.A.A.-X-XC.N.N.m.l.j.j.h.h.h.h.h.h.k.k.d.d.r.r.9.9.7.r.r.r.r.P.P.W./.K.K.G.F.q.5.2.#.@.X.{ [ Q E S ^ oXT n n n n n n Y n n m G G G L L L L L L G D D D H H H H H H H H S S Z n n c c g g g g k c c c c c c c z g d d d 9 9 9 9 9 9 9 9 9 e 9 9 9 9 9 9 9 e e e e e e e e e e e e e e e e e e e e 2 e e 2 : 2 2 : : , 2 : : : : : : ; : : : : : : : : : : : : : : ; * : ; ; ",
"& & ; & & ; & & ; & ; ; ; ; ; ; ; ; ; ; > ; > ; > > ; > ; ; > > > > > ; > > > ; > ; > > ; > ; > > > > > 1 1 > 1 1 1 1 1 1 6 6 6 6 6 6 6 6 6 6 6 r 6 6 6 6 6 6 6 r y 6 6 8 y y d y d d d g g g c n n Z Z Z Z S Z Z Z Z Y n n n n n n c c c n n B n Z T T W E E ! [ { { o.2.2.q.0.0.s.Y.Y.Y.Y.Q.Q.Q.Q.Q.Q.Q.z.x.x.x.M.M.N.N.B.C.C.N.m.m.n.j.j.j.h.h.h.h.h.9.9.g.g.g.g.g.z.z.z.z.z.!.!.@X&X@X@X&X&X&X&X&X,X,X,X,X,X,X,X,X1X1X1X1XAXAX1X1X1X1X,X|.|.|.|.|.|.|.|.|.|.|.|.|.|.}.}.~.~.~.~.~.~.}.}.~.~.R.R.R.R.R.R._.R._._._._._._._._._._.}.}.}.}.}.}.}. X.X.X.X.X|.|.|.|.^.^.|.|.,X,X<X<X4X4X4X4X:X:X>X>XwXuXuXuXuXuXuXeXwXwX>X>XwXwXwX>X;X0X;X;X-XZ.V.V.N.x.l.c.c.c.h.h.h.h.c.l.N.B.V.Z.Z.A.A.Z.Z.C.C.C.N.m.l.j.h.h.h.h.h.h.h.h.h.k.p.r.r.9.r.r.r.r.r.P.P.W.W.W.K.K.G.F.5.5.2.#.X.@.{ Q E E Y n Z n n n n n Z Z n n m b G G L L L L G G G G D D D H H H H H H H S S Z Z n n c z c k g g g c c c c z z z g g d d y 9 9 9 9 9 9 9 9 9 9 9 9 9 9 u u 9 e e e e e e e e e e e e e e e e e e e 2 e 2 2 : 2 : : : : : : : : : : : ; : : : : : : : : : : : : : : : ; ; ; : ",
"& & & & ; ; ; ; & ; ; ; ; > ; ; > ; ; ; > > > > > > > > ; ; > > > ; > > ; ; > ; > ; 1 > > ; > > > > 1 > ; > 1 1 1 1 1 1 1 1 6 6 6 6 6 6 6 6 6 6 6 6 6 6 6 6 6 6 y y 6 8 8 y y y d d d d g g c n n Z Z Z S Z Z Z Z n Y Y n n n n c c c c n n n Y Y Y T T E E ! [ { X.o.2.2.q.w.s.d.P.Y.Y.Y.Q.Q.Q.Q.Q.Q.z.z.z.x.x.M.M.N.B.B.C.N.N.m.m.j.j.j.h.h.h.h.h.9.9.g.g.g.g.g.g.f.z.z.z.!.!.!.!.^.&X&X&X&X&X&X&X,X,X,X,X,X,X,X1X2X2X2X2X2X1X1X1X,X,X,X|.|.|.|.|.|.|.|.|.|.|.|.^.1X,X~.~.~.~.~.~.~.~.R.R.R.R.R.R.R.R.R.R.R.R.R.R.R.R.R.R.R.R.R._.}.}.}.}.}.}.}.}.}.}.}..X.X|.|.|.^.^.^.^.|.|.,X,X<X<X4X4X4X:X4X:X>X>XyXuXuXuXuXuXeXwXwXwX>X>XwXwX>X;X;X;X;X-X-XZ.V.M.N.l.c.c.h.c.h.h.h.l.l.N.B.V.Z.Z.A.A.A.Z.Z.V.C.N.m.l.j.j.h.h.h.h.h.k.k.k.k.9.r.r.r.r.r.r.r.G.P.P.W.W.W.K.G.F.q.5.5.2.#.@.{ [ ! E T Y n Z n n n n Y n n n m m m G L L L L G G G G G D D D H H Q H H H S S S Z n n c z k g g g g g c c c z z z g g d d y 9 9 9 9 9 9 9 9 e 9 9 9 e e e e e e e e e e e e e e e e e e e e e e e e e e 2 2 : 2 : , : : : : : : : : ; : : : : : : : ; ; ; ; ; : : : : ; ; : : ",
"& & & & & > ; & ; ; ; ; ; ; ; > > ; > > > ; ; > > > > > > > > > ; > 1 ; > > > ; > 1 > ; > > > > > 1 > > 1 1 1 1 1 1 1 1 1 1 6 6 6 6 6 6 6 6 6 6 6 6 6 6 6 6 6 y 6 6 6 8 y y y y y d d g g z c n n Z Z Z Z Z Z Z n n n n n c n n c c c c n n n Z Y T T E E Q [ { X.#.#.2.4.0.w.P.P.Y.Y.Y.Q.Q.Q.Q.Q.Q.z.z.z.x.x.N.N.N.B.B.C.N.C.m.m.l.j.j.u.h.u.h.h.9.9.g.g.g.g.f.f.f.z.z.z.!.!.!.!.!.^.&X&X&X&X&X,X,X,X,X,X,X2X2X2X2X2X2X2X1X1X,X,X,X,X,X,X,X,X,X,X|.|.|.|.|.|.|.^.^.|.|.~.~.~.~.~.~.~.~.~.~.~.~.~.~.~.R.~.~.R.R.R.R.R.R.R.R.R.R.R.R.}.~.R._.}.}.}.}.}.}.}.}.|.|.|.|.^.^.^.^.^.^.^.^.&X,X<X<X4X4X4X4X4X5X>X>XwXeXuXuXuXeXeXeXwX>X>X>X>X>X>X>X;X;X;X-XZ.V.N.N.l.c.c.c.c.c.h.h.l.l.m.B.V.Z.A.A.A.A.A.Z.V.C.N.m.l.l.j.h.h.h.h.h.h.h.h.k.r.r.r.r.r.r.r.G.P.P.W.W./.W.K.G.F.q.5.2.#.@.X.{ ! Q E T Y Y Z n B n Y Y n n m m m G G G L L L L G G G D D D S H H H H H S S S Z Z n c c c k g g g g c c z c c z z g g d y y 9 9 9 9 9 9 2 9 9 9 e 9 e e e e e e e e e w e e e e e e e e e e e e e e e e 2 : 2 2 2 : : , : : : : : : : ; : ; : : : : & ; & ; : : : : ; ; : : ",
"& & & & & & & & & ; ; ; ; ; ; > ; > > > ; ; > > > > > > ; ; > > ; R ^ ; ; ; > > ; ; ; > > ; > > > > > > 1 1 1 1 1 1 1 1 1 1 1 6 6 6 6 6 6 6 6 r 6 6 6 6 6 6 6 y y 6 8 6 y y y y y d g g z c c n n Z Z Z :.oXS Z Z n n n c c c c c c c n n n Y Y Y T T E ! [ [ { X.#.2.q.q.w.P.P.Y.Y.Y.Q.Q.Q.Q.Q.Q.z.z.x.x.x.M.M.N.B.B.C.N.C.m.n.l.j.h.h.h.h.h.9.9.g.g.g.g.g.f.z.z.z.z.Q.!.!.!.!.!.!.&X&X&X&X&X,X,X<X<X2X2X2X2X2X2X2X2X1X,X,X,X,X,X,X,X,X,X,X,X,X|.|.|.^.^.|.^.^.~.~.~.~.~.~.~.~.~.~.~.~.R.R.R.R.}.}.}.}.R.R.}.}.}.}.~.~.R.R.R.R.R.R._.}.}.~.~.~.~.~.}.~.~.}.~.|.^.|.|.|.^.^.^.^.^.^.^.&X,X,X<X<X4X4X4X:X>X>X>XwXyXuXuXuXuXuXwXwX>X>X>X>X>X>X;X;X;X;X-XZ.V.V.N.l.c.c.c.c.c.h.c.l.x.m.N.V.Z.A.A.A.A.Z.Z.V.C.C.C.m.l.j.h.h.h.h.h.h.h.k.h.p.r.r.r.r.r.r.r.P.P.W./.W.K.G.F.q.5.5.2.#.@.{ [ ! E T Y Y Z Z n n T R n n n m m C G G L G G G L G G G D D S H H H H H S S S S Z n c c c g g g g g z z z c v n z g g d y y 9 9 9 9 9 9 9 9 e 9 e e e e e e e e e e e e e e e e e e e e e e e e 2 2 e 2 2 : 2 2 2 : : , : : : : : : : : : ; : : : : : : : ; : : : : : : * * ",
"& & & & & ; ; & ; ; ; ; ; ; > > > > > > ; > ; ; > > > > ; ; > > ; y k ; ; ; 1 > > > > > > ; 3 1 > > > 1 1 1 1 1 1 6 1 1 1 1 1 6 6 6 6 6 6 6 6 6 6 6 6 6 6 6 r y r 6 y y y y y y d d g g z n n n n Z n Z oXCXT n n n c c B c c c c c n n B Y Y T T T E ! ! [ { X.#.2.4.q.w.P.P.P.Y.Y.Y.Q.Q.Q.Q.Q.Q.z.x.x.x.M.M.N.B.B.C.N.C.m.j.j.j.h.h.h.h.9.9.9.9.g.g.g.g.f.z.z.z.z.Q.!.!.!.!.!.!.&X&X&X&X&X,X<X<X2X2X2X2X2XAX2X2X2X2X,X<X<X<X,X,X,X,X,X,X,X|.^.^.^.^.~.~.~.~.~.}.}.}.~.~.~.~.~.R.R.R.R.R.R.R.R._.}._._.R.R.R._._._.R.R.~.}.~.}.R.R.R.}.}.~.~.~.~.~.}.~.~.~.~.}.^.|.|.^.^.^.^.^.^.^.^.^.&X&X,X<X<X<X4X4X4X>X>X>X>XwXuXuXuXuXeXwX>X>X>X>X>X>X>X;X;X;X;X-XZ.V.V.N.x.c.c.h.h.h.c.c.c.x.N.N.V.Z.A.A.A.A.Z.Z.Z.V.C.N.m.l.j.h.h.h.h.h.k.h.h.p.p.r.r.r.r.r.r.G.P.W.W./.W.K.G.F.q.5.2.#.@.{  ...Q E T Y Z Z Z n Z Z n n Z n m C G L L G G G G G G G D D D S H H H H H S S S Z n n c z c k g g g g g z c z v z z g g f y 9 9 9 9 9 9 9 e 9 9 e e e e e e e e e e e e e e e e e e e e e e e e 2 2 e 2 : : 2 : : : : : : : : : : : : ; ; ; : ; : : : ; : ; : : : : : & * ; ",
"& & & & & ; > ; > > > ; ; ; ; ; ; > ; & & ; ; ; > > > > > > > 1 > ; ; > > > 1 ; 1 1 > > 1 1 1 1 > 1 1 1 1 1 1 1 1 6 1 1 1 1 1 1 1 6 6 6 6 r 6 6 6 6 6 6 6 6 r r r y y y y y y d d g g z c n n n n n n n Z T Z n n n c c c c c c c B B n n Y T T T E ! [ [ { X.2.2.q.q.w.P.P.P.Y.Y.Y.Q.Q.Q.Q.Q.z.z.x.x.x.M.M.N.B.B.N.N.m.m.j.j.j.h.h.u.u.9.9.9.9.g.g.f.f.f.f.z.z.z.Q.!.!.!.!.!.!.&X&X&X&X,X<X<X<X2X2X2XAXAX2X2X2X<X<X<X<X<X<X,X,X,X,X|.|.^.^.^.^.^.~.^.~.}.~.~.~.~.~.~.~.~.}.~.}.~.~.R.R.R.R.R.R.R._._.R.R.R.R.R.R.R.R.R.R.R.R.R.R.R.R.R._.}.}.~.}.}.}.}.~.~.~.~.~.~.}.|.|.|.^.^.^.^.^.^.^.^.&X&X,X<X4X4X4X4X:X>X>X>X>XeXuXuXuXeXwXwX>X>X>X>X>X>X;X;X;X;X;XZ.Z.V.N.x.c.c.c.c.c.c.c.c.l.N.B.V.Z.A.A.A.A.Z.Z.Z.V.C.C.m.l.j.h.h.h.h.h.k.h.p.p.p.r.r.r.r.r.G.P.P.W./.W.W.G.F.F.5.5.2.#.X.{  .Q E E T Y Z Z n Z Y n n n n m b G G G L L G G G G G G D D D H H H H H S S S Z Z n n c c g g g g g g z z z v z z g g d y 8 9 9 9 9 9 9 9 9 9 9 e e e e e e e e e e e e e e e e e e e e e e e 2 2 e e 2 2 : : : : : : : : : : : : : ; ; : : : ; : & ; : : ; : ; & & : & ; ",
"& & & & & > > > > > ; > ; ; ; ; ; > ; 6 r ; ; > > > > > 1 > > 1 > > > > > > 1 > 1 1 > > 1 1 1 1 1 1 1 1 1 1 1 1 1 1 1 1 1 1 6 6 1 1 1 6 6 6 6 6 6 6 6 6 6 r r 6 6 r 8 y y y d d d g g c c n n n n n n n n n n n c n c c c c c c n n n n Z T T T E ! [ { { X.#.4.5.q.F.P.P.Y.P.Y.Y.Q.Q.Q.Q.Q.z.z.x.x.x.M.M.M.B.B.N.C.m.j.j.j.u.u.h.u.9.9.9.g.9.9.g.g.f.f.f.z.z.z.Q.!.!.!.!.!.!.&X&X&X&X<X<X<X2X6XSX6X2X2X2X2X2X<X<X<X,X,X,X,X,X,X|.^.^.|.^.^.^.^.^.^.}.|.|.}.}.}.}.}.}.}.}.}.}.}.}.}.}.}._._._._._._._._._._.R._._.R.R.R.R.R.R.R.R.R.R.R._._._._.}.}.}.}.~.}.}.~.~.~.}.}.}.|.|.^.|.^.^.^.^.^.^.&X&X,X<X*X4X4X4X5X>X>X>X>XwXuXuXuXeXeXwX>X>X>X>XwX>X;X;X;X;X;XZ.V.V.N.x.c.c.c.c.c.c.h.c.l.m.B.Z.Z.A.A.A.A.A.Z.V.C.C.C.m.l.j.h.h.h.h.h.h.h.p.p.p.r.r.r.r.G.P.P.W.W./.W.K.G.F.q.5.2.#.X.{ [ Q Q E T Y Z Z Z n n n n n v b b b C C G L G G G C G G D D D S H H H H S S S S Z n n c c g g g g g g z z z c v z z g d d y 8 9 9 9 9 9 9 9 9 e e e 2 e e e e e e e e e e e e e e e e e e e e 2 e e 2 2 2 : 2 : : : , 2 2 : : : : : : ; ; : : ; : ; : ; : ; : : ; & ; ; ; ",
"& & & > & ; > > ; ; ; > ; ; ; ; > > & B N ; > > > > 1 1 1 > > > > > 1 > 1 > > > > > > > > 1 1 ; > 1 1 1 1 1 1 1 1 1 1 1 1 1 6 6 1 6 6 6 6 6 6 6 6 6 6 6 6 r r r 8 8 y y y y d g g g c c c n n n n n n n n c c c c c c c c c c n n n n Y Y T T E E ! [ { @.#.2.5.q.w.P.P.P.Y.Y.Y.Q.Q.Q.Q.Q.Q.z.z.x.x.M.M.M.B.C.C.N.m.l.j.j.u.u.u.u.9.9.9.g.g.g.g.g.f.z.z.z.z.Q.Q.!.!.!.!.!.!.&X&X&X*X<X<X<X6X6XSX6X6X2X2X2X2X<X<X<X,X,X,X,X&X&X|.^.|.|.^.|.|.|.|.|.|.|..X.X.X.X.X.X}..X.X X X X}. X X X X X[. X X}._._._._._._._._._._._._._.R.R.R.R.R.R.R.R.R.R._.R.~.}.}.}.}.~.~.~.~.~.~.~.^.^.|.|.^.^.^.^.^.^.^.&X&X<X<X4X4X4X5X5X>X>X>XwXuXuXuXuXeXwX>X>X>XwX>X>X;X;X;X;X-XZ.V.V.N.x.l.c.c.c.c.c.h.c.x.N.B.Z.Z.A.A.A.A.A.Z.Z.V.C.C.m.l.h.h.h.h.h.k.k.k.p.p.p.r.r.r.G.P.P.P.W././.W.K.G.q.5.5.#.X.{ { [ ! E T T T Z Z n n n n n n n b b M C G L G G G G C G G F D S H H H H H S S S Z Z n c c c k g g g g g z z n n z z g d d 8 9 9 9 9 9 9 9 e 9 9 e f / u e e e e e e e e e e e e e e e e e e e e e 2 2 2 2 2 : : : : : 2 : : : : : : : : : : : : : : ; * : ; ; : * & & & ; ",
"& ; & > & > > > > ; ; ; ; ; > > > > ; 1 1 ; > > ; > > 1 > > > > > > 1 > > > > > 1 > 1 > 1 1 1 1 y r 1 1 1 1 1 1 1 1 1 1 1 6 6 6 1 6 6 6 6 6 6 6 6 6 6 6 6 6 r r y y y y y d d d g g c c n n n n v c n c c c c c c c c c c c n n n n Y Y Y T E ! [ [ { @.#.2.5.q.w.P.P.P.P.Y.Y.Q.Q.Q.Q.Q.Q.z.z.x.x.M.M.M.B.B.N.m.m.l.j.j.u.u.u.9.9.9.9.9.g.g.g.g.f.z.z.z.z.z.Q.!.!.!.!.!.!.&X&X*X<X<X<X6X6X6X6X6X6X2X2X<X<X<X<X<X,X,X,X&X,X^.|.|.|.|.|.|.|.|.|.|.|.|.|..X.X.X.X.X.X.X.X X X X X XcX X X X X X X X X X X[.[.[.[.[._._._._._._._._._._._.R.R.R.R.R.R.R.R.R.}.}.}.}.}.}.}.~.~.~.}.}.|.|.|.|.^.^.^.^.^.^.&X&X<X<X<X4X4X5X>X>X>X>X>XyXuXuXuXuXwX>X>X>X>X>X>X;X;X;X;X-XZ.V.V.N.x.l.c.c.c.c.h.c.c.l.N.B.Z.Z.A.A.A.A.A.Z.Z.V.C.C.m.j.h.h.h.h.h.k.k.k.p.p.p.p.r.r.G.P.P.W.W./.W.K.G.F.q.5.2.#.@. .[ Q E E T T Z Z n n n n n n n v m b M G G G G G C G C G F F S S H H H H S S S Z Z n c c c g g g g g g z z z n n z z g d y 8 9 9 9 9 9 9 9 e e e h >.h e e e e e e e e e e e e e e e e e e e e e e 2 2 : 2 2 : : : : : : : : : : ; : : : * : : : ; ; ; : ; : * ; , & ; ; ",
"> > > > & & > > > ; > ; > > > > > ; ; ; ; > > > > > 1 1 > > > > > > 1 1 > > > 1 1 > 1 1 1 1 1 1 k y 1 1 1 1 1 1 1 1 1 1 1 6 6 6 6 6 6 6 6 6 6 6 6 6 6 6 6 6 r r y y y y d d d g g z c z n n z n z c c z c c k c c c k c c c n n n n Y T T E ! .. .X.@.#.2.5.q.w.G.P.P.Y.Y.Y.Y.Q.Q.Q.Q.z.z.z.x.x.M.M.M.V.C.N.m.m.j.j.j.u.u.u.9.9.9.g.g.g.g.g.g.f.z.z.z.z.Q.!.!.!.!.!.!.&X&X&X*X<X<X6X6X6X6X6X6X6X6X<X<X<X<X<X<X,X,X,X,X,X,X|.|.|.|.|.,X,X,X1X1X1X.X.X.X.XvXvXvXcXcXcXbXbXxXxXxXxXcXjXjXjXjXjXjXjXjXjXjX[.[.[.[.[.[.[.[.[.[.[._._._._._._._._.R.R.R.R.R.R.R._._._.}.}.}.}.~.~.}.}.~.}.|.|.|.|.^.^.^.^.^.&X&X*X<X<X<X4X4X4X:X>X>X>X5XyXuXuXuXwXwX>X>X>XwX>X;X;X;X;X;XZ.Z.V.N.x.l.c.c.c.h.c.c.c.x.N.B.Z.A.A.9X9XA.A.Z.Z.V.C.C.l.j.h.h.h.h.h.h.k.p.p.p.p.r.r.r.P.P.W.W././.W.K.G.F.q.5.2.#.X. .[ Q E T S T Y n n n n n n n n m m M C G G G G G C C G F F D S H H H H H S S Z Z n v z c g g g k g g z z z v v z z g d d 8 9 9 9 9 9 9 9 e e e e w e e e e e e e e e e e e e e e e e e e e e 2 2 2 2 : : 2 : : : : : : : : : , ; : ; ; ; : : ; ; ; ; ; ; ; : ; : ; : : ",
"; > > > & ; > > > > ; > > > > > > > > > 1 > > > > 1 1 1 > > > > 1 1 1 1 1 > 1 1 > 1 > 1 1 1 1 1 1 1 1 1 1 1 1 1 1 1 1 1 1 6 6 6 6 6 6 6 6 6 6 6 6 6 6 6 6 6 y y y y y y d d g g z c c c c c c c z c c c c B c k k c c c c c c n n Z Y T E E [  . .@.#.2.5.q.q.P.P.P.P.Y.Y.Y.Q.Q.Q.z.z.z.z.x.x.M.M.M.B.C.N.C.m.j.i.u.u.u.u.9.g.g.g.g.g.g.g.g.f.z.z.z.z.x.!.!.!.!.!.@X&X&X*X*X<X4X6X6X6X6X6X6X6X4X<X<X<X<X<X<X,X,X,X,X,X,X,X,X,X,X,X,X,X1X1X1X1XvX.XvXvXvXbXbXbXbXbXbXbXbXxXxXxXxXxXxXxXxXxXxXxXjXhXjXhXjXjXjXhXjXhX].[.[.[.[.[.[.[.[.[._._._._._._.R.R.R.R.R.R.R._.}.}.}.}.~.~.}.}.}.}.|.|.|.|.|.|.^.^.&X&X&X&X*X*X*X4X4X4X4X>X>X>X>XyXuXuXuXwXwXwX>X>XwXwX>X0X;X;X;XZ.Z.V.N.x.c.c.c.c.h.h.c.c.l.N.V.Z.A.A.9XA.A.A.Z.Z.C.C.m.l.j.h.h.h.h.h.h.a.a.p.p.p.r.r.G.P.P.P.W././.W.G.F.q.5.2.#.@.@.[ Q E E T E T Z n n n n n n n m m m G C L G G G C G C C F D S S H H H H H S S Z Z n c c g g g g k g h z z z v z z g d d y 9 9 9 9 9 9 e e e e w e e w w e e e e e e e e e e e e e e e e e e e e 2 2 : 2 2 : : : : : : : : : 2 ; ; > ; ; : : ; ; ; : : ; ; ; ; : : : : ",
"& & & & & & > > > > ; ; > > > > > > > > > > > > > > > > 1 1 1 1 1 1 1 1 1 1 1 1 > 1 > 1 1 1 1 1 1 1 1 1 1 1 1 1 1 1 1 1 1 1 6 6 6 6 6 6 6 6 6 r 6 6 6 6 6 6 y y y y y d d d g g z c c c c c v c c c c c c B c g k k c c c c n B R T T E ! ! [ { @.#.2.5.5.q.G.P.P.P.Y.Y.Y.Q.Q.Q.Q.z.z.z.x.x.M.M.N.C.C.C.C.m.j.j.u.u.u.u.9.9.9.g.g.g.g.g.g.f.z.z.z.z.Q.!.!.!.!.@X@X&X$X*X<X4X6X6X6X6X6X6X6X6X<X<X<X<X<X<X<X,X,X,X,X,X,X,X,X,X,X1X1X1X1X1XZXZXvXvXvXvXbXbXbXbXbXcXjXjXjXjXjXjXjXjXhXhXhXhXhXhXzXzXhXzXzXhXhXhXhXhXhXhXhXhXhX].[.[.[.[.[.[.[._._._._._._._._.R.R.R.R._._.}.}._.}.}.}.}.}.}.}.|.|.|.|.|.,X&X^.&X&X&X&X*X*X4X4X4X5X>X:X>X>X5XyXuXuXyXwX>X>XwXwXeXwX0X0X;X;XZ.Z.V.N.x.l.c.c.c.c.c.c.l.m.N.V.Z.A.A.9XA.A.A.Z.Z.C.C.m.l.j.h.h.h.h.h.u.a.p.p.p.p.r.r.P.P.P.W./././.K.G.F.5.5.#.@.@.[ Q E E T T Y Z Z n n n n n z v b b C C G G G G G G C C D D D S H H H H H S S S Z n c c g g g g g g g g z z n v z g g d 8 9 9 9 9 9 9 9 e e e w w e e e e e e e e e e e e e e e e u e e e e e 2 2 e : 2 2 : : : : : : : ; 1 6 1 ; : : : : : ; ; > : : ; & ; ; ; ; ; ; ",
"> ; > > & > > > > > > > > > > > > ; > > 1 > > > > > 1 > > 1 1 1 1 1 1 1 1 1 1 1 1 1 1 1 1 1 1 1 1 1 1 1 1 1 1 1 1 1 1 1 1 1 6 6 6 6 6 6 6 6 r 6 6 6 6 6 r y y y y y y d d g g z z z c c z c c c c c k k g g g g k c c c c n n Z W W E E ! [ { @.#.2.4.5.F.G.P.P.P.P.Y.Y.Y.Q.Q.Q.z.z.z.x.x.N.M.M.C.C.C.m.n.j.j.u.u.u.9.9.9.g.g.g.g.g.g.g.g.z.z.z.z.!.!.!.!.@X@X+X&X*X*X4X4X4X6X6X6X6X6X6X4X<X<X<X<X<X<X<X,X,X,X,X,X,X<X<X2X2X2X2X2X1XZXZXZXvXvXvXvXcXcXcXcX X[.[.[.[.jXjXhXhX].hXhXhXhXhXhXhXhXhXgXgXgXkXgXgXgXhXgXgXgXgXgXgXhXhXhX].].].[.[.[.[.[._._._._._.R.R.R.R.R.R._._._.}.}.}.}.}.}.}.}.|.|.|.|.,X^.&X&X&X&X&X*X*X<X4X5X5X4X:X>X>XyXyXuXuXwXwXwX>XwXeXwX0X0X0X;X;X-XV.V.N.l.c.c.c.c.c.h.l.x.m.N.V.Z.A.9X9XA.A.A.Z.V.C.C.m.j.j.h.h.h.h.u.a.a.p.p.p.p.r.G.P.P.P.W././.W.G.F.q.5.2.#.@.{ [ Q E E S Z Z Z n n n n n n v b b b C G G G G G G C C G D F S S H H H H H S S Z n n c c g g g g g g g z z n n z z g d y 9 9 9 9 9 9 e e e e e e e e e w e w w e e e e e e e e e 9 e e e e e e e e 2 2 : : : : : : : : ; 1 1 1 ; : : ; : : ; ; ; : ; ; ; ; ; ; ; ; : ",
"> ; > > & > > > > > > > > > > > 1 > > > > > > 1 1 1 1 1 1 > 1 1 1 1 1 1 1 1 1 1 1 1 1 1 1 1 1 1 1 1 1 1 1 1 1 1 1 1 1 1 6 6 6 6 6 6 6 6 6 6 6 6 6 6 6 y r y y y y y d d d g g z c c c c c z c c k z k g g g g k k c c c c n n Y T T E ! [ { @.#.3.5.5.q.G.P.P.P.P.Y.Y.Y.Q.Q.f.z.z.z.z.x.M.M.B.C.C.C.m.m.j.i.u.u.u.9.9.9.9.9.g.g.g.g.g.g.z.z.z.z.!.!.!.!.@X@X+X$X*X*X4X4X5X5X6X6X6X4X4X4X<X<X<X<X<X<X<X<X<X<X<X<X<X<X2X2X2X2X2X1XZXZXvXvXcXcXcXcXcX X X[.[.[.[.[.[.jXjXjXhXhXhXhXhXjXhXhXhXhXhXhXhXhXgXgXgXgXkXkXkXkXkXkXkXkXgXgXgXgXgXgXhXhXhX].[.[.[.[._._._._._.R.R.R.R.R._._._._._._.}.}.}.}.|.|.|.|.|.^.&X&X&X&X&X<X*X*X4X4X5X5X>X>X>X>XwXeXuXwXwX>X>X>XwXwX0X0X0X;X;X-XV.V.N.x.l.c.c.c.c.c.c.x.m.N.Z.Z.A.9X9XA.A.A.Z.V.C.C.l.j.h.h.h.h.h.u.a.p.p.p.p.p.r.P.P.W.W././.W.W.G.F.q.2.#.#.X.[ ] Q E T S Z Z Z n n n n n n v b b M C G G G G C C G C A D D S H H H H H S S Z Z n n c g c g g g g g z z v n z z g d d 9 9 9 9 9 e e e e e e e e e w w w w e e e e e e e e e e e e e e e e e 2 2 2 2 : : : : : : : ; ; ; ; ; : ; : : ; ; ; ; ; ; ; & ; ; ; : : ; & ",
"> > > > > > > > > > > > > > > > 1 1 > > 1 1 > 1 1 1 1 1 1 1 1 1 1 1 1 1 1 1 1 1 1 1 1 1 1 1 1 1 1 1 1 1 1 1 1 1 1 6 1 1 6 6 6 6 6 6 6 6 6 6 6 6 6 6 6 y y y y y d d d g g g g z n n z c z z c c g g k k k k c k c c c c n n Z T T E ! [ { @.#.2.5.5.F.G.P.P.P.P.Y.Y.Y.Q.Y.f.z.z.z.z.x.N.N.N.C.C.C.m.m.j.j.u.u.u.9.9.9.9.9.g.g.g.g.g.f.z.z.z.x.!.!.!.@X@X+X+X$X*X:X4X5X7X4X4X6X6X4X4X<X<X<X<X<X<X<X<X<X<X<X<X<X2X2X2X2X2X2X2X1X1X.XvX.X.X X X X X X X X[.[.[.jXjX[.jXjXjXhXhXhXhXhXhXhXhXhXhXhXhXzXzXzXzXzXzXkXkXkXkXkXlXlXkXkXkXkXkXkXkXgXgXgXhXhX].].[.[.[._._._._.R.R.R.R.R._._._._._._.}.}.}.}..X.X|.|.|.,X&X|.&X&X&X&X*X*X4X4X5X>X>X>X>X>XwXuXuXwXwXwX>XwXwXwX0X0X0X;X;X-XV.M.x.x.l.c.c.c.c.c.c.x.N.B.Z.A.9X9X9XA.A.A.Z.C.C.m.l.j.h.u.u.u.j.u.a.p.p.p.p.r.G.P.P.W.W././.W.G.F.q.5.2.#.X.{ ] Q E T S Z Z Z n Z n n n n n b b b M C G G G G C C C C C D S S H H H H H S S Z n n c z k g g g g g z z z n v z g d d 8 9 9 9 9 9 9 e e e e e w w e e w w w e e e e e e e e e e e e e e e e e 2 2 : : : : : : ; ; : ; ; : ; ; ; : : : : ; ; ; ; ; ; ; ; ; ; ; ; ; ",
"; ; > > > > > > > > > > > > > > > > > > 1 1 1 > 1 1 1 1 1 1 1 1 1 1 1 1 1 1 1 1 1 1 1 1 1 1 1 1 1 1 1 1 1 1 1 1 1 1 6 6 6 1 6 6 6 6 6 6 6 6 6 6 6 6 r r y y y y y d d g g g z z z z z z g k k k g g g g k k k c c c c n n Y Y T E Q ! { @.@.#.3.5.F.G.P.P.P.W.P.Y.Y.Y.Y.Y.f.z.z.z.x.x.N.N.C.C.C.C.m.j.i.j.u.u.9.9.9.9.9.g.g.g.g.g.f.z.z.z.z.!.!.!.@X@X+X$X$X*X4X4X5X5X4X4X4X4X4X<X<X<X<X<X<X<X<X<X<X<X<X4X6X6X6X6X2X2X2X1X1X1X1X.X.X.X X X X X X X X[.[.[.[.jXjXjXjXjXjXjXjXjXhXhXhXhXhXhXhXzXzXzXzXzXzXzXzXzXlXlXlXlXnXnXnXnXlXlXlXlXlXlXlXkXkXgXhXhXhX].].[.[.[._._._._.R.R.R._._._._._._._._.}.}.}..X|.|.,X,X,X^.&X&X&X&X,X*X4X4X5X5X>X>X>X>XyXuXeXwXwXwX>XwXwX0X0X0X0X;X;XZ.V.M.x.l.c.c.c.c.c.c.x.x.C.V.Z.A.9X9X9XA.A.A.Z.C.C.m.j.j.h.h.h.u.u.a.p.p.p.p.p.K.P.P.W.W././.W.P.G.F.q.5.#.X.{ ] ] E H S S Z Z Z Z n n n n v v b b M C G G G G G C C C C D S S H H H H H H S Z n n c k g g g g g g z z z n v z g d d 8 9 9 9 9 9 9 e e e e e e w e e e e w e w w w e e e e e e e e e e e e e e 2 2 : : : : : : ; ; ; : ; ; ; ; ; ; ; ; ; : ; ; ; ; ; ; ; ; ; ; ; ",
"> > > > > > > > > > > 1 > > > > > > 1 1 1 1 1 > 1 1 1 1 1 1 1 1 1 1 1 1 1 1 1 1 1 1 1 1 1 1 1 1 1 1 1 1 1 1 1 1 6 6 6 6 6 6 6 6 6 6 6 6 6 6 6 6 6 6 r y y y y y d d g g g z z z z z z z g k k k g g g g g g k c c c n n Y T T E E ! [ @.@.#.3.5.q.F.G.P.P.P.P.P.Y.Y.Y.Y.f.f.z.z.x.x.N.N.C.C.C.m.m.j.i.i.u.u.9.9.9.9.9.g.g.g.g.g.g.z.z.z.x.!.!.!.@X@X+X$X%X*X4X5X5X5X4X4X6X4X4X<X<X<X<X<X<X<X<X<X<X<X4X6X6X6X6X6X2X2X2X1X1X1X1X.X.X.X.X.X X X X X X X[.[.[.[.jXjXjXjXjXjXjXjXjXjXjXjXxXxXxXxXxXxXxXxXxXzXzXzXmXmXmXmXnXnXnXnXnXmXmXnXnXmXnXnXnXlXlXkXkXgXgXhXhX].[.[.[.[._._._.R._._._._._._._._._.}.}.}..X|.|.,X,X,X&X^.^.&X&X&X*X*X4X5X5X5X>X>X>XyXyXwXwXwXwXwXwXwX0X0X0X0X;X-XZ.V.N.x.l.c.c.c.c.c.c.x.m.N.Z.A.A.9X9X9X9XA.A.Z.C.C.l.j.j.h.u.u.i.i.u.p.p.p.p.p.W.P.P.W.W././.W.G.F.q.5.2.#.X.{ ] Q H S S S T Y Z n n n n n n b b M M C G G G C C C C C D S S H H H H H H S Z n n c c g g g g g g g z z v v z z g d d 9 9 9 9 9 9 e 9 e e e e e e w e w w e w w w e e e e e e e e e e e e 2 2 2 2 : : : : : : ; : ; ; ; ; ; ; ; ; ; ; ; ; ; ; ; ; ; ; ; ; ; ; ; ",
"> > > > > > > > > > > > > > > 1 > > 1 1 1 1 1 1 1 1 1 1 1 1 1 1 1 1 1 1 1 1 1 1 1 1 1 1 1 1 1 1 1 1 1 1 1 1 1 1 1 6 6 6 1 1 6 6 6 6 6 6 6 6 6 6 6 r y y y y y d d d g g g z z c c c c k k k k g g g g g k k c c c c n Z Y T E E ! [ { #.#.3.5.q.F.G.P.P.P.P.P.Y.Y.Y.Y.f.z.z.z.l.x.N.N.C.C.C.m.m.i.i.i.u.u.9.9.9.9.9.9.g.g.g.g.g.z.z.z.x.!.!.@X@XOX$X$X%X:X4X5X5X4X4X4X6X6X<X<X<X<X<X<X<X<X<X<X4X4X4X7X7X6X6X2X2X2X2X1X1X1X.X.X.X.X.X.X X X X X X X X X[. X[.jXcXcXcXcXcXcXcXcXcXcXxXxXxXbXbXbXxXxXxXMXMXMXMXMXMXMXMXmXmXmXnXnXmXmXmXmXmXmXmXmXmXmXnXnXlXkXkXgXhXhXhX].].].[._._._._._._._._._._._._.}.}.}..X.X|.|.|.|.|.|.&X&X&X&X&X*X:X5X5X5X>X>X>XyXyXwXwXwXwXwXwXwX0X0X0X0X;X-XZ.V.N.x.c.c.c.c.c.c.c.x.N.B.Z.A.9X9X9X9X9XA.A.Z.C.C.l.j.j.u.u.i.i.a.a.p.p.p.p.W.W.P.W.W././.W.W.G.F.q.4.2.X.{ { Q H H S T S T Z n n n n n n v b b M G G G G G G C C C A D S S H H H H H S S Z n n c g g g g g c g z z z v v z g d d 9 9 9 9 9 w e e e e w w w w w w w e w w w e e e e e e e e e e e e 2 2 2 2 : : : : : : : : : ; ; ; ; ; ; ; ; ; ; : : ; ; ; ; ; ; ; ; ; ; ; ",
"> > > > > > > > > 1 > > > 1 1 1 1 1 1 1 1 1 1 1 1 1 1 1 1 1 1 1 1 1 1 1 1 1 1 1 1 1 1 1 1 1 1 1 1 6 6 1 1 1 1 1 1 1 1 6 6 6 6 6 6 6 6 6 6 6 6 6 6 6 y y y y y d d g g g g g g g g g g g g g d k g g g g k k c c c n B Y T T E ! [ { @.#.3.5.q.F.G.P.P.P.P.P.Y.Y.Y.Y.f.z.z.z.l.l.N.N.C.C.C.n.j.i.i.i.u.u.9.9.9.9.g.g.r.g.g.g.g.z.z.z.x.!.!.@X@XOX$X%X%X:X4X5X5X4X4X4X4X4X<X<X<X<X<X<X<X<X<X4X4X5X7X7X7X6X6X2X2X2X2X1X1X1X.X.X.X.X.X.X X X X X X X X X X X XcXcXcXcXcXcXcXcXcXjXjXjXjXxXzXzXzXzXzXzXzXxXMXxXMXMXMXMXMXMXMXBXMXMXmXmXmXmXmXmXmXmXmXmXmXmXmXmXlXlXkXkXgXhXhX].].[.[._._._._._.cX X_._._._.}.}.}..X.X|.|.,X,X|.|.,X&X&X&X&X*X4X5X5X>X>X>X>X5XyXwXwXwXwXwXwXwXwX0X0X0X;X-XV.M.N.x.c.c.l.c.l.c.x.N.N.V.Z.A.9X9X9X9X9XA.Z.V.C.m.l.j.h.u.u.u.a.a.p.p.p.p.W.W.P.P.W./././.W.G.F.q.4.2.o.{ { } ~ K S S S Z Z n n n n n v v b b M M G G G G G C C C D D S S H H H H H H S Z n n c c k g g g g z z z z v v z g g d 9 9 9 9 9 e e e e e e w w w w w w w w w w e e e e e e e e e e e e 2 2 2 2 : : : : : : : : : ; ; ; ; ; ; ; ; ; ; ; : ; ; ; ; ; ; ; ; ; ; : ",
"> > > > > > > > > > > 1 1 1 1 1 1 1 1 1 1 1 1 1 1 1 1 1 1 1 1 1 1 1 1 1 1 1 1 6 6 6 1 1 1 1 1 1 1 6 1 1 1 1 1 1 1 1 1 6 6 6 6 6 6 6 6 6 6 r r r 6 r y y y y d d d g g g g g g g g k k g g g d d g g g g k c c c c B Y Y T E ! [ [ @.#.3.5.q.F.G.P.P.P.P.P.Y.Y.Y.Y.f.f.z.z.z.l.N.N.N.C.C.m.n.i.i.i.u.u.u.9.9.9.g.g.g.g.g.g.g.z.z.z.x.!.!.@X@X+X$X$X%X:X4X5X4X4X4X4X4X4X<X<X<X<X<X4X<X4X4X4X5X7XiX7X6X6X6X2X2X2X2X1X1X1X.X.X.X.X.X.X.X.X X X.X.X.X.X.XcXcXcXvXcXcXcXjXjXjXjXjXhXhXgXkXkXkXgXgXgXgXkXkXkXkXkXlXlXlXlXmXmXmXMXBXBXBXBXBXmXmXmXmXNXNXNXNXNXNXmXmXmXnXlXkXkXgXhXhXhX[.[._._._._.[._._._._.[.[.}.}.}.}..X.X|.|.|.,X,X,X&X&X&X&X*X4X5X5X>X>X>X>XyXuXwXwXwXwXeXeXwX0X0X0X0X;X-XV.M.N.l.l.l.c.c.c.l.x.N.B.Z.A.9X9X9X9X9X9XA.Z.V.C.m.j.j.j.i.i.u.u.a.p.p.a.p.W.P.P.W.W././.W.W.G.F.5.4.o.{ { } ~ K D D S Z Z Z n n n n v v b b b M G G G G G C C C C F D S H H H H H H S Z Z n c c k g g g g g z z z v n v z g d i 9 9 9 9 9 9 9 e e w w w w w w w w w w w w w e e e e e e e 0 e e 2 2 2 2 2 2 : : : : ; : ; ; ; ; ; ; ; ; ; ; ; ; ; ; ; ; ; ; ; ; ; ; ; ; ",
"> > > > > > > > > > 1 1 1 1 1 1 1 1 1 1 1 1 1 1 1 1 1 1 1 1 1 1 1 1 1 1 1 1 6 6 6 6 1 1 6 6 1 1 1 1 6 6 1 1 1 1 6 6 6 6 6 6 6 6 6 6 6 6 r 6 r r y y y y y d d g g g g g g g g g k k k g g g g g g g g k k c c n n B Y T E ! [  . .@.#.5.D.F.G.P.P.P.P.P.Y.Y.Y.Y.f.z.z.z.c.l.x.N.N.C.n.m.n.i.i.i.u.u.9.9.9.9.g.g.g.g.g.g.g.k.z.z.x.x.!.@X@X+X$X$X%X:X5X5X4X4X4X4X4X4X<X<X<X<X4X4X4X4X4X5X7XiXiX7X6X6X2X2X2X2X1X1X,X1X1X.X.X.X.X.X.X.X.X.X.X.X.X.XvXvXvXvXcXcXcXjXhXhXhXhXhXgXgXkXkXkXkXkXkXkXkXkXkXkXkXkXkXkXkXkXkXkXkXlXlXnXmXMXBXBXBXBXBXBXNXNXGXGXGXGXGXGXNXmXmXnXnXlXkXgXhXhXhX].[._._._._._._._. X X[.}.}.}.}.}..X|.|.,X,X,X,X&X&X&X&X*X:X4X5X5X>X>X>XwXyXwXwXwXeXeXwXwX0X0X0X0X;X-XV.M.x.l.l.z.c.c.l.x.x.N.V.Z.A.9X9X9X9X9X9XA.Z.C.C.l.j.j.j.i.u.u.u.a.p.a.p.K.W.P.W.Q././.W.W.P.F.q.4.2.X.{ ] ~ K D S S Z Z Z n n n n v v b b b M G G G G G C C C C C D D H H H H H H S Z Z n c z c g g g g g g z z v v v z g d i 9 9 9 9 9 9 e e e u w w w w w w w w w w w w e e e e e e e e 2 2 e 2 2 2 2 : : : : ; ; ; ; ; ; ; ; ; ; ; ; ; ; ; ; ; ; ; ; ; ; : > ; ; : ",
"> > > > > > > > > > 1 1 > 1 1 1 1 1 1 1 1 1 1 1 1 1 1 1 1 6 6 6 1 1 1 6 1 6 6 6 6 6 6 1 6 1 1 1 1 1 1 6 6 1 1 1 6 6 6 6 6 6 6 6 6 6 6 6 r r r y 6 r y y y d d g g g g g g g g g g g g g d d d g g g k k k c c n Y Y T E ! ! [ @.@.#.3.5.F.G.P.P.P.P.P.P.Y.Y.Y.Y.f.z.z.c.l.l.N.N.C.C.m.j.i.i.i.u.u.9.9.9.9.r.g.g.g.g.g.h.k.k.z.x.x.!.@XOXOX$X%X:X:X>X>X:X:X:X4X4X4X4X<X4X4X4X4X4X4X5X5XiXiX7X6X6X6X2X2X2X2X1X1X1X1X1X.X.X|..X.X.X.X.X.X1X1XZXZXvXvXvXcXcXjXjXjXhXzXkXkXkXkXkXkXlXlXlXlXlXlXlXkXkXkXkXkXkXkXkXlXkXkXkXkXkXkXkXkXlXnXnXmXmXBXBXBXNXGXGXGXHXHXHXGXGXNXNXmXmXnXkXkXgXgXhXhX[.[._._._._._._.[._._._.}.}.}.}.}.|.|.|.,X,X,X&X&X&X*X*X:X4X5X>X>X>X>XyXwXwXeXeXwXwXwXwX0X0X0X;X;XZ.V.M.x.x.c.c.x.x.l.x.N.N.Z.A.9X9X9X9X9X9XA.A.Z.C.m.j.j.j.u.u.u.a.a.p.p.p.p.W.P.P.Q./././.W.W.G.q.4.2.o.X.} ~ ~ ~ D D A Z Z n n n n v v n b b M C G G G G G C C C C D D S H H H H J.;.Z Z n n z c g g g g g g z z v v v z g d i 9 9 9 9 w e e e e w 9 w w w w w w w w w w e e e e e e e e e 0 2 2 2 2 : : : : : : ; : ; ; ; ; ; ; ; ; ; ; ; ; ; ; ; ; ; ; ; ; ; , ; ; : ",
"> > > > > > > 1 1 1 1 1 1 1 1 1 1 1 1 1 1 1 1 6 1 6 6 6 6 6 6 6 6 6 1 6 6 6 6 6 1 6 6 6 1 1 1 1 6 6 1 6 1 1 1 1 1 6 6 6 6 6 6 6 6 6 6 r 6 6 r y r y y y d d d g g g c k g g g k c g g d d k d g g g g c c c n n Z T E ! [ [  .@.#.3.5.F.G.G.P.P.P.P.P.Y.Y.Y.f.f.z.z.c.l.l.m.N.C.C.m.j.i.i.i.u.u.9.9.9.9.9.r.g.g.g.g.h.k.k.z.x.x.!.@XOXOX$X%X:X:X>X:X:X:X:X:X4X4X4X4X4X4X4X4X:X5X5XyXiXiX7X6X2X2X2X2X2X2X,X,X1X1X,X,X,X1X.X.X1X1X1X1XZXZXZXvXvXcXcXcXxXxXzXzXkXlXlXlXlXlXnXnXnXnXnXnXnXnXnXnXlXnXlXlXlXlXlXlXlXlXlXkXkXkXkXkXkXkXlXlXlXlXnXmXBXBXBXHXHXHXHXHXHXHXGXGXGXNXmXmXlXlXkXgXhXhX[.[._._._._._._._._._.}.}.}.}.}..X.X|.,X,X,X,X,X&X&X*X*X:X4X5X>X>X>X>XwXeXeXwXwXwXeXwXwX0X0X0X;X-XZ.V.N.x.c.z.x.x.x.c.x.N.B.Z.A.9X9X9X9X9X9XA.Z.C.C.l.j.j.i.u.u.a.a.a.p.p.K.W.W.W.W.W././.W.W.P.F.q.4.o.X.} } ~ ~ K D A Z Z n n n n n v n m b M M G G G G G C G C C G D S H H H H ;.@.S Z Z n c c k g g g g g z z v v v z g g i i 9 9 9 9 9 w e e e w w w w w w w w w w w w 0 e e e e e e e 0 2 2 2 2 2 : : : : : : ; : : ; ; ; ; ; ; ; ; ; ; ; ; ; ; ; > ; ; ; ; ; ; ; ",
"> > > > > > 1 1 1 1 1 1 1 1 1 1 1 1 1 1 1 1 6 6 6 1 6 6 6 6 6 6 6 6 6 6 6 6 6 6 1 6 1 6 1 1 6 1 1 1 1 1 6 6 6 6 6 6 6 6 r r 6 6 6 6 6 6 r r r r y y y y d d g g g g g k g k g g c k g d d d g k g g k c c n n B T E E ! [ { @.#.3.5.D.G.G.P.P.P.P.P.P.Y.Y.f.Y.z.z.z.l.l.m.m.C.C.n.j.i.i.u.u.u.u.9.9.9.r.r.g.g.g.g.g.k.k.z.x.x.!.!.@XOX$X%X%X:X>X:X:X:X:X:X4X4X4X4X4X4X4X4X4X5XyXiXiXiX6X6X6X<X<X2X2X<X<X,X1X1X1X,X,X,X1X1X1X1X1X1XZXZXvXvXbXxXxXxXzXzXzXzXzXnXnXmXnXmXmXmXmXmXmXmXmXNXNXmXmXmXmXmXmXmXmXmXmXmXnXnXnXlXlXlXkXkXkXkXkXkXkXkXlXlXnXmXBXNXHXHXHXJXJXKXJXHXGXGXNXmXmXnXlXkXgXhX].[.[._._._._._._._._._.}.}.}.}.}..X|.|.|.,X,X,X&X&X*X*X:X:X5X:X>X>X>XwXwXwXeXwXwXwXwXwX0X0X0X;X-XV.M.N.x.c.z.z.x.x.x.N.N.Z.A.9X9X9X9X9X9X9XA.Z.V.m.j.j.j.i.i.a.a.p.p.a.k.k.W.W.P.Q./././.W.P.F.q.4.2.o.X.} ~ K K D A Z Z n n n n v v n b b b M C G G G G G G C G F D S H H H H S S S S Z n c z g g g g g g z z v v v z z g i i 9 9 9 9 9 9 e e e w w w w w w w w w w w e e e e 9 e e e e e e 2 2 2 2 2 : : : : : ; : ; ; ; ; > ; ; ; ; ; ; ; ; ; ; ; ; ; ; ; ; ; ; ; ",
"> > > > > 1 1 1 1 1 1 1 1 1 1 1 1 1 1 1 6 1 6 6 1 1 6 6 6 6 6 6 6 6 6 6 6 6 6 6 6 6 6 6 6 6 1 1 6 1 1 1 6 6 6 6 6 6 6 6 r 6 6 6 6 6 6 6 6 r r y y y y d d d g g g g g g g g g g d g g d d d g k k k c c c n B T  .! ! [ { @.#.$.3.D.F.G.P.P.P.P.P.P.Y.Y.Y.f.z.z.z.h.l.N.m.C.m.m.j.i.i.i.j.u.9.9.9.9.r.r.r.g.g.d.g.h.k.z.x.x.x.!.@XOX#X%X%X:X:X:X:X:X:X:X4X4X4X4X5X5X5X5X5X5XyXiXiXiX6X4X6X2X2X2X<X<X<X<X,X,X,X,X,X,X2X2X2X2X2XZXZXvXvXbXxXbXxXxXxXmXmXMXmXmXmXmXmXNXNXNXNXGXGXGXGXHXHXHXGXGXGXGXGXGXGXGXGXGXGXNXNXmXmXmXmXnXnXlXlXlXkXkXkXkXkXkXlXnXmXmXNXGXHXJXJXJXJXJXHXGXGXNXmXnXlXkXgXhXhX[.[.[._._._._._._.}._._.}.}.}.}..X|.|.|.,X,X,X,X&X*X*X:X4X>X>X>X>X>XwXeXwXwXeXwXwXwX0X0X0X0X;X-XV.M.x.x.x.z.l.x.x.N.N.B.Z.A.9X9X0X9X9X9XA.A.Z.C.m.j.j.i.i.a.a.a.p.u.a.k.W.W.P.Q./././.W.P.G.F.5.2.o.O.} } K K D D A Z Z n n n n v n v b b M C G G G G G G C C C F S H H Q H H H S S Z n z z g g g g g g g z v v v z z g d i 9 9 9 9 9 9 e e e e w w w w w w w w w 9 e e e e e e e e e e e 2 2 2 2 2 2 : : : : ; ; ; ; ; ; ; ; ; ; ; ; ; ; ; ; ; ; ; ; ; > ; ; ; ; ",
"> > > > 1 1 1 1 1 1 1 1 1 1 1 1 1 1 6 6 6 6 6 6 6 6 6 6 6 6 6 6 6 6 6 6 6 6 6 6 6 6 1 6 6 1 1 6 6 6 6 6 6 6 6 6 6 6 6 6 6 6 6 6 6 6 6 r r r r y y y y d d g g g k k g g g g g d d d d d d g g k k c c c n B Y T ! ! [  . .#.$.3.D.F.G.P.P.P.P.P.P.P.Y.f.f.f.z.z.c.l.l.m.C.m.m.j.i.i.u.u.u.u.9.9.9.9.r.9.r.r.g.d.d.k.k.x.x.x.x.@XOX#X$X%X:X:X:X:X:X:X:X:X4X4X4X4X5X5X5X5XyXyXiXiX7X6X4X<X2X2X2X<X<X<X<X<X,X,X,X<X2X2X2X2X2X1X1XvXvXcXxXbXMXMXMXMXMXMXBXBXBXBXNXBXHXHXHXHXJXJXJXLXLXLXJXJXJXJXJXHXHXHXGXGXGXGXGXGXGXGXGXNXNXNXmXmXmXnXnXlXlXkXkXkXkXkXlXlXmXmXNXGXHXHXHXHXJXJXHXGXGXmXmXnXlXkXgXhXjX[.[._._._._._._._._._.}.}.}.}..X|.|.|.,X,X,X&X&X*X*X:X:X>X:X>X>X>XwXwXwXwXwXeXwXwX0X0X0X0X;XZ.V.M.x.x.x.z.x.x.x.N.N.V.A.A.9X9X9X9X9X9XA.Z.C.C.l.j.i.i.i.a.a.a.u.a.a.W.W.P.W./././.W.W.G.F.q.4.,.X.} } ) K K D D A Z n n n n v n v b x b C G G G G G C G G C F S H H H E H H S S Z n n c g g g g g g g z z v v v z g d i 9 9 9 u w 9 e e e e w w w w w w 9 w w w e e e e e e 9 e e e e e 2 2 2 2 2 : : : : ; ; ; ; ; ; ; ; ; ; ; ; ; ; ; ; ; ; ; ; ; ; > > ; ; ",
"; ; > 1 1 1 1 1 1 1 1 1 1 1 1 1 6 6 6 6 6 6 6 6 6 6 6 6 6 6 6 6 6 6 6 6 6 6 6 y 6 6 6 6 6 6 6 6 r 6 1 6 6 6 6 6 6 6 6 6 6 6 6 6 6 6 6 6 r r y y y y d d g g g k c c g g g g d d d d d d d g k k c c c n n Y T T W [ {  .@.$.3.5.F.G.P.P.P.P.P.P.P.Y.Y.f.f.z.z.z.j.l.m.C.m.m.j.i.i.i.u.u.9.9.9.9.9.r.9.9.r.r.g.d.k.k.z.x.x.!.@X@XOX$X%X:X:X:X:X:X:X:X:X5X5X4X5X5X5X5X5XuXyXuXiX7X4X4X4X<X2X2X<X<X,X,X,X,X,X<X2X2X6X6X2X2X1XZXZXvXbXbXbXbXbXVXVXVXVXVXVXBXJXJXJXJXJXLXLXLXLXLXLXLXJXJXHXHXHXHXGXGXGXGXGXGXGXGXGXGXGXGXGXGXGXGXGXGXNXmXmXmXnXnXlXkXkXgXgXgXlXlXmXBXGXGXGXHXHXHXJXJXHXGXGXmXmXnXkXgXhXhX[.[.[.[._._._._.}._._.}.}.}..X.X|.|.|.,X,X,X&X&X*X*X:X:X:X>X:X>X>XwXwXwXwXeXeXeXeX0X0XwX;X-XZ.V.N.x.x.x.x.x.x.x.N.B.Z.A.9X9XqX9X9X9X9XA.Z.C.m.l.j.i.i.i.p.i.u.u.a.W.W.W.P.W./././.W.P.G.q.5.2.o.O.} ) K K D D Z Z n n n Z n n v n :.D C C G G G G G G G C G D S H Q E H H H S S Z n c z g g g g g g z z v v v z g g i 9 9 9 u 9 9 9 e 9 w w w w w w 9 9 9 w w w w e e e 0 0 2 2 e e e 2 2 2 2 : : : 2 : ; ; ; ; ; ; ; ; ; ; ; ; ; ; ; ; ; ; ; ; ; ; > ; ; > ",
"k B 1 1 1 1 1 1 1 1 1 1 1 1 1 6 6 6 6 6 6 6 6 6 6 6 6 6 6 6 6 6 6 6 6 6 6 6 6 y 6 6 6 6 6 6 6 6 6 6 6 6 6 6 6 6 6 6 6 6 6 6 6 6 6 6 6 r 6 6 y y y y d d g g g g g g g g g g k d d d d d g g k k c c c n Y Y T E ! [  .@.#.3.5.D.G.G.P.P.P.P.P.P.P.P.f.f.k.k.h.j.l.m.m.m.m.j.i.i.i.u.u.u.9.1.9.9.r.g.g.r.g.g.d.d.k.z.x.x.x.@X@XOXOX%X:X:X:X:X:X:X:X4X4X5X5X5X5X5X5X5XyXyXiXiX7X4X4X6X2X2X<X<X<X,X,X,X,X,X<X6X6X6X6X2X2X1XZXZXvXvXbXbXVXVXVXVXVXVXVXJXJXJXJXLXLXLXLXLXLXJXJXHXHXGXGXGXGXGXGXGXGXGXGXGXGXGXGXGXGXGXGXGXGXGXGXGXGXGXGXGXNXmXmXmXnXlXlXkXkXkXkXkXlXnXmXmXGXGXHXHXHXHXKXJXHXGXGXmXmXlXkXgXhX[.[.[._._._.}.}.}.}.}.}.}.}.}..X|.|.,X,X,X,X&X*X*X*X*X:X:X>X>X>XwXwXeXwXeXeXeXeXwX0X0X0X;X-XV.M.x.x.x.x.x.x.x.N.N.V.Z.A.9X9XqXqX9X9XA.Z.C.C.m.j.j.j.i.i.i.a.a.a.k.W.W.W.W./.^./.W.P.G.F.q.4.o.O.} } ) K D D Z Z n n n T v n v W {.^ M G G G G G G G G C C F S H H H H H H S Z Z n c c g g g d g g z z z n v z z g d 9 9 9 9 9 e e e e e w w w w w 9 w w w w w e e e e e e e 2 e e e 2 2 2 2 : : : : : ; ; ; ; ; ; ; ; ; ; ; ; ; ; ; ; ; ; ; ; > ; ; ; ; > ",
"B ^ 1 > 1 1 1 1 1 1 1 1 1 1 6 6 6 6 6 6 6 6 6 6 6 6 6 6 6 6 8 r 6 6 6 6 6 6 6 6 6 6 6 6 6 6 6 6 6 6 6 6 6 6 6 6 6 6 6 6 6 6 6 r 6 r r r 6 y y y d d d g g g g g g g g d d k k d d d g g k k k c c n n Y Y T E ! [ { @.#.3.3.D.G.G.P.P.P.P.P.P.P.P.f.f.f.k.k.j.j.l.m.m.m.j.i.i.i.u.u.u.9.9.9.9.r.g.d.g.d.g.g.d.k.z.x.x.x.@X@XOXOX$X:X:X:X:X:X:X:X:X:X>X>X5X5X5X5XyXyXyXiX5X4X4X4X6X6X2X<X<X<X<X<X,X,X2X2X6X6X6X6X2X2X1XZXZXAXAXbXbXVXVXVXVXVXVXJXJXLXLXLXLXJXJXJXJXJXHXGXNXNXNXNXNXmXmXmXmXmXmXmXmXmXmXmXmXmXmXmXmXNXNXGXGXGXGXGXGXGXGXGXNXmXmXmXnXlXlXkXkXkXkXkXlXnXmXNXGXGXHXHXHXJXHXHXHXGXNXmXlXkXgXhX].[.[.[._.}.}.}.}.}.}.}.}.}.}..X|.|.,X,X,X,X,X*X*X*X*X:X:X>X>X>XwXwXwXeXwXeXeXwX0X0XwX0X;X-XV.M.x.x.x.x.x.x.N.M.B.Z.A.A.9X9XqXqX9X9XA.Z.C.C.l.j.j.i.i.i.a.a.a.k.W.W.W.W./.!././.W.P.F.q.4.,.O.O.} ) ) K D Z Z n n Z Z v v b Z T m M C G G G G G G G G C D K H H H H H H S S Z n c z g g g g d g g z z v v z z g d i 9 9 9 w w 9 e e e e w 9 9 w 9 w 9 w w w w e e e e e e 2 e 2 2 2 2 2 2 2 : : : ; ; ; ; ; ; ; ; ; ; ; ; ; ; ; ; ; ; ; > ; ; ; ; ; ; > ",
"1 1 > 1 1 1 1 1 1 1 1 1 1 6 6 6 6 6 6 6 6 6 6 6 6 6 6 6 8 6 8 y 6 6 6 6 6 6 6 6 6 6 6 6 6 r 6 6 6 6 6 6 6 6 6 6 6 6 6 6 6 6 6 6 6 6 6 r r y y y y d d g g g g g g g d d d d d d d d k k k c c c c n Y Y T E ! [ { @.#.#.3.D.F.G.G.P.P.P.P.P.P.P.f.f.f.k.h.h.j.l.m.m.m.j.i.i.i.u.u.u.9.9.9.9.r.r.d.d.g.d.d.g.k.k.x.x.x.M.@XOX#X$X%X%X:X:X:X:X:X>X>X>X>X5X>X>X5XyXyXyXyX5X4X4X4X4X<X<X<X<X<X<X<X<X2X2X6X6X6X6X6X2X2XAXAXAXAXAXDXDXDXDXDXDXDXDXJXLXLXLXLXJXJXBXBXNXNXmXmXmXmXmXmXnXnXnXlXlXlXkXkXkXkXkXkXkXkXkXkXkXlXlXlXnXnXmXmXmXNXGXGXGXGXGXNXNXmXmXnXlXlXkXkXkXkXkXlXnXmXNXGXGXHXHXHXHXHXHXGXGXmXnXlXgXhXhX[.[.[. X X X}.}.}.}.}.}.}.}..X.X|.,X,X&X&X*X*X*X*X*X:X:X:X>X>XwXeXeXwXeXeXeXwX0X0XwX;X-X%X#XM.x.x.x.x.x.x.N.N.V.Z.A.9X9XqXqX9X9XA.Z.V.C.m.j.j.j.i.i.i.a.a.a.k.W.W.W././././.W.P.G.w.q.4.o.O.} | ) K D D Z Z Z n n v n b b b M M G G G G G G G G G G L ^ H H H H H H H S Z Z n c z g g d g g g z z v v v z g d i 9 9 9 9 9 9 e e e e w w w 9 w w w w w w w e 9 e e e 0 2 2 2 2 2 2 2 2 : 2 2 : : ; ; : ; ; 1 ; ; ; ; ; ; ; > ; ; ; ; ; > > ; ; > > ; ",
"> > > 1 1 1 1 1 1 1 1 6 1 6 6 6 6 6 6 6 6 6 6 6 6 6 6 6 6 6 6 8 8 8 6 6 6 6 8 6 6 6 6 6 r r 6 6 6 r 6 6 6 6 6 6 6 6 6 6 6 6 r 6 6 r r r r 8 y y d d d g g g g d g d d d k d d d d d g k k c c n n Y Y T E W ! [  .@.#.3.5.F.G.G.P.P.P.P.P.P.P.f.f.f.k.h.h.j.l.m.m.m.j.i.i.i.u.u.u.9.1.9.9.r.r.g.d.r.r.d.d.k.k.z.x.x.M.@XOXOX$X%X%X%X:X:X:X:X>X>X>X>X5X5X>X5XuXyXyXyX5X4X4X4X4X4X<X<X<X<X<X<X<X<X6X6X6X6X2X2XAXAXAXAXAXFXAXDXDXDXDXDXDXJXLXLXLXJXVXVXBXBXBXmXmXmXmXmXnXlXlXkXkXgXgXgXhXhXhXhX'.'.'.'.'.'.'.'.'.'.hXhXhXhXgXgXkXkXlXnXmXmXNXNXGXGXGXNXmXmXnXlXlXkXkXkXkXkXlXmXmXNXGXGXHXHXHXHXGXGXGXmXmXlXkXhXhX[.[.[. X X X X X X}.}. X}.}..X|.|.|.,X&X&X<X*X*X*X*X:X:X:X>X>XwXeXwXwXwXwXeXwX0X0XwX;X-X#XM.x.x.x.x.x.x.N.N.B.Z.Z.A.9X9XqXqX9X9XA.Z.C.C.m.j.j.i.i.i.a.a.k.k.k.W.W.Q./././.W.P.P.F.q.4.o.O.| | L L K D Z Z Z n n n n n b b b M G G G G G G G G G G G D S S H H H H H S Z Z n c z g g d d g g z z v v v z g g i 9 9 9 9 9 9 9 9 e e 9 9 w 9 9 9 w w 9 w w 9 9 e e e 9 0 2 2 2 2 2 2 2 2 : 2 3 : 3 3 ; ; ; 1 ; ; ; ; > > ; ; ; ; ; ; ; ; ; > ; ; ; ; ",
"1 1 1 1 1 1 1 1 1 1 1 6 6 6 6 6 6 6 6 6 6 6 6 6 6 6 6 6 8 6 8 8 r 6 6 y 8 6 6 6 6 6 6 6 6 6 6 6 y r 6 6 6 6 6 6 6 6 6 6 6 6 6 6 r 6 r r y y y y d d g g g g g d d d d d d d d d d d g k c c n n n Y Y T W ! [  .@.#.$.5.D.G.G.G.P.P.P.P.P.P.f.f.f.f.k.k.j.l.l.m.m.j.i.i.i.u.u.u.9.9.9.9.9.r.g.d.r.r.9.d.d.k.z.x.x.x.M.OXOX$X$X%X$X%X:X:X:X>X>X>X>X>X>XyXyXuXyXyXyX5X4X4X4X4X4X<X<X<X<X<X<X<X4X7X7X6X6X6X2XSXSXSXSXFXFXFXDXDXDXDXDXDXDXDXVXVXVXBXMXmXmXnXnXlXlXkXkXkXgXgXhXhX'.'.'.].].].`.`.`.`.).).(.(.(.(.(.(.(.(.).).`.`.`.'.'.hXgXgXkXlXmXmXmXNXNXNXmXnXlXkXkXkXgXgXkXkXnXmXmXNXGXGXHXHXHXHXGXGXNXmXlXkXhX].[.[.[. X X X X X X X X}.}.}..X.X|.,X&X&X<X<X*X*X*X*X:X:X>X>XwXeXwXwXwXeXwXwXwX;X;X;X-X%XV.M.x.x.x.x.x.x.N.N.V.Z.A.9X9XqXqXqX9X9XZ.V.C.m.l.j.i.i.i.a.a.k.k.k.W.W.Q././././.W.P.G.q.6.G.o.| | | L K D Z Z Z n n n n n n b b C G G G G G G G G G G G D D H H H H H H H S Z n c z g g g g g g g z z v v z g g i i 9 9 9 9 9 9 9 e 9 9 9 9 w 9 9 w w 9 9 9 9 9 e e e e e 9 0 2 2 2 2 2 2 : 2 3 2 3 3 ; ; ; ; ; ; ; ; ; ; ; > ; ; ; ; 1 y 1 ; > > > > ",
"> 1 1 1 1 1 1 1 1 1 1 6 6 6 6 6 6 6 6 6 6 6 6 6 6 6 6 6 8 y 8 8 6 6 g c y y 6 6 6 6 6 6 6 6 6 6 6 6 6 6 6 6 6 6 r r 6 6 6 6 6 6 r 6 r y y y y d d d g k g g g d d d d d d d d d d d g c c c n n B Y T E ! [  .@.@.$.3.D.F.G.G.P.P.P.P.P.P.P.f.f.f.h.h.h.j.l.m.m.j.i.i.i.u.u.u.9.9.9.9.9.r.g.d.g.r.r.d.d.k.k.x.x.x.M.OXOX#X$X$X%X%X%X:X:X>X>X>X>X>X>XyXyXuXyXyX5X5X4X4X4X4X4X<X<X<X<X<X<X4X6X7X7X6X6X6XAXSXSXSXSXFXFXFXFXDXDXDXDXDXDXVXVXVXBXMXnXnXlXlXlXkXkXgXhXhX'.].].].].].].].).).).).).I.I.I.I.I.H.H.H.H.H.H.H.I.I.(.(.(.).).).`.`.'.hXgXkXlXnXmXmXmXmXnXlXlXkXkXgXgXkXkXlXnXmXNXGXGXHXHXHXHXHXGXGXmXnXkXgXhX[.[. X X X X X X X X}.}.}.}..X|.|.&X&X,X<X*X*X*X*X*X:X:X>X>XwXeXwXwXwXwXeXwX;X;X;X;X-X%XM.x.x.x.x.x.x.N.N.B.Z.A.A.9X0XqXtX9X9XA.Z.V.N.m.j.j.i.i.i.a.a.k.k.W.Q.Q././././.W.P.G.e.e.6.o.O.| | L K D A Z Z Z n n n n v b b G G G G G G G G G G G G D D H H H H H H S S Z n n z g g g g g g g z z v v z z g i i 9 9 9 9 9 9 9 9 9 9 9 9 9 9 9 w w 9 9 9 9 9 9 0 0 e 0 2 2 2 2 2 2 2 2 2 2 2 3 3 3 ; ; ; ; ; ; 1 ; ; ; ; ; > > > ; 1 B r ; ; > ; > ",
"1 1 1 1 1 1 1 1 1 1 6 6 6 6 6 6 6 6 6 6 6 8 6 8 8 6 8 y 8 8 y y 6 k c d 8 y y 8 6 6 6 6 6 6 6 6 6 6 6 6 6 6 6 6 6 r 6 6 6 6 6 r 6 r r y y y y d d g g g g g d d d d d d d d d d d d g c c c n Y Y T E ! ! { @.@.$.3.5.F.G.G.P.W.P.P.P.P.P.f.f.f.h.h.h.j.l.l.m.m.j.i.u.u.u.u.9.9.9.9.9.r.g.d.g.r.r.r.d.k.k.z.x.x.M.@XOX#X$X$X$X%X%X:X:X>X>X>X>X>X>XwXuXuXyXyX5X5X4X4X4X4X<X<X<X<X<X<X<X<X5X7X7X7X6X6XSXSXSXSXSXSXFXFXDXDXDXDXDXDXDXVXVXMXmXnXlXkXkXkXkXgXgXhXhX].].].].]._.).).).).).I.I.I.I.H.H.H.H.F.F.F.F.H.H.H.H.H.H.I.I.I.I.(.(.).).(.).`.'.hXgXkXlXnXnXnXnXlXkXkXkXkXkXkXkXkXlXmXmXNXGXHXHXHXKXHXGXGXmXnXkXhXhX[.[. X X X X X X X X X}. X}..X|.|.,X,X,X*X*X*X*X*X*X:X:X>X>XwXeXeXwXwXeXwX0X;X;X;X-X-XV.M.x.x.x.x.x.x.N.N.V.Z.A.A.9XqXtXqX9XA.A.Z.C.N.l.j.i.i.i.i.i.k.k.W.Q.Q.Q./././.W.W.P.G.8.<.o.+.| | L L K D Z Z Z Z n n n n b b M C G G G G G G G G G G G K K H H H H H S S Z Z n z g g g d g g g z z v v v z g d i 9 9 9 9 9 9 9 9 9 9 9 9 9 9 9 9 9 w 9 9 9 e 9 9 9 e e 2 2 2 2 2 2 2 2 ; ; 3 1 3 3 ; ; ; ; ; ; ; ; > ; ; ; ; ; 1 > ; 1 3 1 ; ; > > ",
"1 1 1 1 1 1 1 1 6 6 6 6 6 6 6 6 6 6 6 6 y y y y 8 y 8 8 y y y y 8 d d 8 6 y y 6 6 6 6 6 6 6 6 6 6 6 6 6 6 6 6 6 6 r 6 6 6 6 r r r r y y y y d d d g g g g g d d d d d d d d d d d g k c c n T T T T W ! [ { @.$.3.5.D.G.G.G.P.P.P.P.P.P.d.f.f.g.h.h.h.j.l.m.m.j.i.i.u.u.t.9.9.9.9.9.r.g.d.d.r.r.r.g.k.k.z.x.x.x.M.@XOX$X$X$X%X%X:X:X>X>X>X>X>X>XwXuXuXuXyX5X5X5X4X4X4X4X<X<X<X<X<X<X<X6XiX7X7X6X6XSXSXSXSXSXFXFXFXFXDXDXDXDXDXVXVXMXmXnXlXkXkXkXkXgXgXhX].].].].].).).).).).T.I.I.I.H.H.F.F.D.D.D.D.D.D.D.D.D.D.D.D.D.F.F.H.I.I.I.I.).).).).(.(.).`.'.hXgXkXlXlXlXlXkXkXkXkXkXgXgXkXkXnXmXmXGXGXHXKXKXHXGXGXmXnXkXgX].[.[. X X X X X X X X X X}.}..X|.,X,X,X&X*X<X*X*X*X%X%X:X>XwXwXwXwXwXwXeXwX;X;X;X;X-X%XM.x.x.x.x.x.x.x.N.B.Z.Z.A.0X0XqXtXqX9XA.Z.V.C.m.l.j.j.i.i.i.k.k.k.W.Q.Q./.!././.W.P.e.8.8.<.O.| | L L K D A Z Z Z n n n n b b M C G G G G G G G G G L L K K H H H H H S S Z Z n z z g g g d g g z z v v v z g g i 9 9 9 9 9 9 9 9 9 9 9 9 9 9 w 9 9 w 9 9 9 9 9 9 e 0 0 2 2 2 2 2 2 2 3 ^ >.3 3 3 1 3 3 ; ; 1 > ; ; ; ; ; > > > > > 1 1 3 1 > 1 1 1 ",
"1 1 1 1 1 1 1 6 1 6 6 6 6 6 6 6 6 6 6 6 6 8 8 y 8 8 6 8 8 8 8 y 8 6 6 8 6 6 6 6 r 6 6 6 6 6 6 r 6 6 6 6 6 6 6 6 6 6 6 6 6 6 6 r r r y y y y d d g g g g d d d d d d d d d d d g g k k n Y n ^ W T W ! [ .. .#.3.3.D.F.G.G.P.P.P.P.P.d.d.d.f.f.k.k.h.j.j.j.j.i.i.i.u.u.u.1.9.9.9.9.r.g.d.d.d.r.r.r.g.k.k.x.x.x.@X@XOX$X$X$X$X%X:X:X>X>X>X>X>X>XwXuXuXyXyX5X5X5X4X4X4X<X<X<X<X<X<X<X4X7XiX7X7X6X6XSXSXSXSXSXSXFXFXFXFXDXDXDXDXVXMXmXlXlXkXkXkXkXgXhXhX].].[.].).).).).T.I.I.I.I.H.H.F.D.D.D.D.D.3.$.$.$.$.$.$.$.$.$.$.$.$.$.D.D.D.D.D.F.H.I.I.I.(.(.(.(.).`.'.hXgXgXkXkXgXgXgXgXgXgXgXgXgXkXnXmXNXGXGXHXKXHXGXGXmXnXlXgXhX[.[. X X X X X X X X X X X}..X|.|.,X&X&X<X*X*X$X$X*X:X:X>XwXwXeXeXwXwXwXwX;X;X;X-X-X#XM.x.x.x.x.x.x.N.N.V.Z.A.9X9XqXqXqX9XA.A.Z.V.C.l.j.j.i.i.i.i.k.k.W.Q.Q.Q.!././.W.P.e.e.8.7.O.+.| ) L K D A Z Z Z n Z n v n m b C C G G G G G G G G L G L K H H H H H S S Z Z n z z g g g g g g g z v v v z g s i i 9 9 9 9 9 9 9 9 9 9 9 9 9 9 9 9 9 9 9 e 0 0 0 0 2 2 2 2 2 2 2 2 : y DXCX6 ; 1 1 1 ; ; ; ; ; > > ; ; > ; ; > > ; 1 1 1 3 ; 1 1 1 ",
"1 1 1 1 1 1 6 6 1 6 6 6 6 r 6 6 r 6 r r 6 8 8 8 y y r 8 y y y y 8 8 y y 8 8 6 6 6 y 6 6 6 6 6 6 6 6 6 6 r 6 6 6 6 6 6 6 6 6 r r r y y y y d d g g g g g d d d d d d d d d d d g k c c n T n Y T T W !  . .@.$.3.D.F.G.G.G.P.P.P.P.d.d.f.f.d.f.h.h.j.j.j.j.i.i.i.u.u.u.u.1.9.9.9.r.r.d.d.d.r.r.r.d.k.k.z.x.x.M.@X@XOX$X$X$X%X:X:X:X>X>X>X>X>XwXuXuXyX5X5X5X5X5X4X4X<X<X<X<X<X<X<X4X7XiX7X7X6X6XSXSXSXSXSXSXFXFXFXDXDXDXDXbXMXmXlXlXkXkXkXkXgXhXhX].].[.].).).).T.I.I.I.H.H.F.D.D.D.D.D.$.$.$.$.$.$.$.$.$.@.@. . . . .@.$.$.$.$.$.$.$.;.D.D.D.D.H.H.H.H.I.(.).`.`.'.hXgXgXgXgXgXgXgXgXgXgXgXkXlXmXmXGXGXHXJXJXHXGXNXnXkXgXhX[.[. X X X XcX X X X X X X.X.X|.|.,X&X,X<X*X*X$X*X*X:X>X>XwXwXeXwXwXwXwX>X;X;X-X-X#XM.x.x.x.x.x.x.x.N.B.Z.Z.A.9X0XqXtX9X9XA.Z.V.V.m.l.j.j.i.i.i.k./.W.W.W.Q.Q./././.W.P.e.8.7.<.O.| | L L D D A Z Z n n n v v m b C C G G G G G G U U G J G D S E Q H H H S S Z n n z g g g g g g z z v v v z g g i i 9 9 9 9 9 9 9 9 9 9 9 9 9 9 9 w 9 9 9 0 0 9 9 0 0 2 2 2 2 2 2 2 2 6 ^ ^ 6 ; , > ; ; ; > ; ; ; > > 1 > > ; 3 > > > > > > 1 1 1 1 ",
"1 1 1 1 1 1 1 6 6 6 6 6 6 6 6 r 6 r y y y y 8 8 y y y y y y y y y y y 8 8 y y 8 8 y r r 6 r r 6 r 6 6 6 6 6 6 r 6 6 r 6 r r r r r r y y y d d g g g g d d d d d d d d d d d d k c c c n n Y T T W ! [  .@.$.3.5.D.G.G.G.G.P.P.P.d.d.d.f.f.d.h.h.h.j.j.j.i.i.i.u.u.u.u.9.1.9.9.9.r.g.d.d.r.r.r.r.g.k.k.x.x.M.@X@XOX$X$X$X%X:X:X>X>X>X>X>X>XwXuXuXyX5X5X5X5X4X4X4X4X<X<X<X<X<X<X4XiXiX7X7X7XSXSXSXSXSXSXSXFXFXFXDXDXDXbXMXMXlXlXkXkXkXkXgXhXhX].].].].).`.).I.I.I.H.H.F.F.D.D.D.3.$.$.$.$.@.@. . .@.@. . . . . ......... . . . . .$.$.$.$.$.$.D.D.D.D.F.H.H.H.I.(.).`.`.hXgXgXgXgXgXgXgXgXgXgXgXkXnXmXGXGXHXJXJXHXGXNXnXkXhXhX[. X X X XcXcX X X X X X.X.X.X|.|.,X,X<X<X*X&X&X&X*X:X>XwXwXeXeXwXwXeXwX;X-X-X-X%XOXx.x.x.x.x.x.x.N.N.V.Z.A.9X0XqXtXqX9X9XZ.Z.V.N.m.j.j.i.i.i.k.k./.W./././.!././.W.P.e.q.<.<.O.| | L L K D S Z Z Z Z Z n v m b C C G G G G U U U U L L G D K E K H E E S S Z Z n n c c g g g g g z v v v v z g i i 9 9 9 9 9 9 9 9 9 9 9 9 9 9 9 w w w 9 9 9 9 9 9 0 0 2 2 2 2 2 2 2 3 3 3 2 2 ; > ; ; ; > ; ; 1 1 > > ; ; 1 1 > 1 1 1 1 > 1 1 1 1 ",
"1 1 1 1 1 6 1 1 6 6 6 6 6 6 r r 6 6 6 y y 8 8 y y 8 y d y y y 8 y y y y 8 8 y 8 8 y y 6 6 8 r r r 6 6 6 r 6 6 6 6 6 r r 6 6 r r r y y y d d g g g g d d d d d d d k d d d d k k k c n Y Y Y T W ! ! .. .@.3.3.D.F.G.G.G.P.P.P.s.d.d.f.d.d.h.h.h.j.j.j.j.i.i.u.u.u.u.9.1.9.1.9.r.g.d.d.r.r.r.r.d.h.k.z.x.!.@X@XOX+X$X$X%X-X:X>X>X>X>X>XwXwXeXuXyXyX5X5X5X4X4X4X<X<X<X<X4X4X4X5X7XiX7X7X7XSXSXSXSXSXSXSXFXFXFXDXDXAXbXxXzXkXkXkXkXkXgXhXhX].].].).).`.).I.I.I.H.H.F.D.D.D.D.$.$.$.$.$.$.@. . . .[ [ [ [ ! ! ! ! ! ! ! ! ! ! ! ...... . . .@.$.$.$.$.D.D.D.D.F.H.H.H.I.(.).`.hXhXhXhXhXgXgXgXgXhXgXkXnXmXGXGXHXJXKXKXGXmXnXkXhX[.[. X X XcXcXcXcX X X X.X.X.X|.|.|.,X,X<X<X<X&X&X*X%X:X>XwXeXeXwXeXeXwX;X-X-X-X%XOX@Xx.x.x.x.x.x.x.N.B.Z.A.A.0XqXqXtX9X9XA.Z.V.C.m.l.j.j.j.i.k.k./.W.W././.!.^./.W.P.e.8.8.<.+.+.| L L K D D Z Z Z Z Z n v m b b C G G G G U U U U L L L K D H H H E E H S Z Z n c z g g g g g g z v v v z z g i i 8 9 9 9 9 9 9 9 9 9 9 9 9 w 9 9 9 9 9 0 9 9 9 9 0 2 2 2 2 2 2 2 2 2 2 2 3 3 : ; 3 1 ; 1 ; 3 3 1 > ; > ; 1 1 > 1 1 1 1 > > 1 1 1 ",
"1 1 1 1 1 1 1 1 6 6 6 6 6 6 6 r r y 6 y y 8 8 y y 8 y y y d k d 8 y y y y y y y y y y 6 6 6 6 6 r r r 6 6 6 6 6 6 6 6 r 6 6 r r r y y d d g g g g d d d d d d d d d d d d d k k c c n Y Y T E ! ! [  .@.$.3.5.F.G.G.G.P.P.P.s.d.P.d.d.g.g.h.h.j.i.i.i.i.i.u.u.u.u.9.9.9.9.9.9.r.d.d.d.r.r.r.d.k.k.k.x.x.@X@X@XOX#X$X$X%X:X>X>X>X>X>X>XwXwXwXwX>XwX5X5X5X4X4X4X<X<X<X4X4X4X5XiXiXiX7X7XSXiXUXSXSXSXSXSXFXFXFXAXbXbXxXkXkXkXkXkXhXhXhX].[.].].).).).I.I.L.H.H.F.F.D.D.3.$.$.$.$.@. . . .....[ ! W W E T T T T T T T T T T T T T W W ! ! .... . .$.$.$.$.D.D.D.D.F.F.H.H.I.(.`.'.hXhXhXhXhXhXgXgXhXgXkXlXmXNXGXGXKXLXKXGXmXlXhXjX[.[.[. X XcXcXcXcX X X X X.X.X.X|.|.,X,X<X<X&X&X&X$X*X:X>XwXeXeXeXeXeX>X-X-X-X-XV.M.x.x.x.x.x.x.x.N.N.V.Z.A.9X9XqXtXtX9XA.A.Z.B.C.m.l.j.j.j.j.k.k.W.W.W./././.!.W.P.P.e.8.<.O.+.| ) L K D D Z Z Z Z Z v v v b C C C G G G U U U U U L G K K H H H H H S S Z Z n c z g g g g g g z v v v v z g d i 8 9 9 9 9 9 9 9 9 9 9 9 9 9 w 9 9 u w 9 0 0 9 9 9 0 2 2 2 2 2 2 3 3 2 3 3 3 ; 1 ; 3 1 1 1 ; ; 1 1 > > 1 > > > > > 1 1 1 1 1 1 1 ",
"1 1 1 1 1 6 6 6 6 6 6 r 6 6 r 6 r y 8 y y y y y y y y y 8 y B c 8 8 y y y y 8 y y 8 6 6 6 6 6 r 6 6 6 6 6 r r 6 r 6 6 6 6 6 6 r y y y d d g k g g d d d d d d k d d d d d d k c c c B Y T E E ! [  .@.#.3.3.D.G.G.G.P.P.P.P.s.d.d.d.g.g.h.h.h.i.i.i.i.i.i.u.u.u.9.1.9.9.9.9.r.d.d.d.r.r.r.r.d.k.k.x.x.x.@X@X@XOX$X$X%X:X:X>X>X>X>XwXwXeXwX>X>X>X>X>X5X4X4X4X<X<X<X4X4X5X5XiXiXiX7X7XSXiXUXUXSXSXSXFXFXFXAXAXbXxXzXkXkXkXkXkXgXhXhX].[.].).).T.I.I.L.H.F.F.F.D.D.3.$.$.@.@. . .....[ ! ! W W T T Y Y B B n n n n n n n n n n n B Y Y T T W ! ! .... .$.$.$.D.D.D.F.H.H.H.H.I.).`.'.hXhXhXhXhXgXgXhXgXkXlXnXNXGXGXKXLXKXGXmXlXhXhX[.[.[. XcXcXcXcXcX X X X.X.X.X|.|.|.,X,X<X&X&X&X&X$X:X>X>XwXeXeXeXeXwX;X-X-X-X%XM.x.x.x.x.x.x.x.N.N.V.Z.A.9X9X0XqXtXqX9XA.Z.V.C.m.l.j.j.j.j.k.k.!.W.W.Q./.^././.W.P.e.e.8.<.+.| | L K D D D Z Z Z Z v v A b C C C G G G U U U U U U L L K H H H E H S S S Z n c c z g g g g c z z v v v z g g i 8 8 9 9 9 9 9 0 9 9 9 9 9 9 u 9 9 w w 9 0 0 9 9 9 0 9 2 2 2 2 2 2 1 3 3 3 ; 3 ; ; 3 1 > ; 3 > ; 1 1 > 1 > > > 1 1 1 1 1 1 1 1 1 ",
"1 1 1 1 1 6 6 6 6 6 6 r 6 6 6 6 y y 8 y y 8 y y y y y y y 8 d k y y y y y y y 6 y y y 6 6 6 r r r r r r r r r r y r r 6 6 6 6 y y y d d d k g g d d d d d d k d y d d d d d k c n n Y Y R ! ! [ {  .@.$.3.D.F.G.G.P.P.P.P.s.d.d.d.d.g.g.h.u.i.i.i.i.i.i.u.u.u.u.9.9.9.9.9.r.g.d.d.r.r.r.r.d.h.k.z.x.x.!.@X@XOX#X#X%X-X>X>X>X>XwX>XwXeXuXwX>X>X>X>X>X:X4X4X<X<X<X4X4X5XiXuXpXiX7X7XSXiXUXSXSXSXSXAXAXAXAXbXbXxXkXkXkXkXkXhXhXhX].].].).).).T.I.L.H.H.F.D.D.5.3.$.$.@.@. . ...^ ! ! W W T T T T Y Y n n c c c c c c c c c c k c c c c c n n Y Y T W ! ^ .. .@.$.$.D.H.H.H.H.H.H.(.`.'.hXhX'.'.hXgXhXhXgXkXkXnXmXGXHXKXLXKXNXmXkXhXhX[.[. X XcXjXcXcXcX X X X X.X.X|.|.,X,X<X<X&X&X&X&X*X:X5XwXeXeXeXeXwX>X;X-X-X%X@Xx.x.x.x.x.x.x.x.N.B.Z.A.A.9X9XqXtXtX9X9XA.Z.B.N.m.j.j.j.j.l.k./.W./.Q././././.W.P.s.e.8.<.+.| | ) L L D D Z Z Z Z n v A b b C C G G G U U U U U U L L K K H H Q H H S S Z n c c g g g g g g z v v v v z g g i i 8 9 9 9 9 9 9 9 9 9 9 9 9 9 9 9 9 9 9 0 0 0 0 0 0 2 2 2 2 2 2 3 3 1 1 1 ; ; 3 1 1 ; 3 ; > ; ; 1 1 1 1 1 > > 3 1 1 1 1 1 1 1 1 ",
"1 1 1 6 1 6 6 6 6 6 6 r r r 6 r y r 8 y y y y y y y y y y y y y y y y y y y y 8 y 8 8 6 6 6 y 6 6 r 6 r r 6 6 6 6 6 6 r r r 6 y y y d d g g g g d d d d d d d d d d d d d k k c R R Y T T W [ [  .@.#.3.D.D.G.G.G.P.P.s.s.d.d.d.g.g.g.p.u.i.i.i.i.i.i.u.u.u.u.9.9.9.8.8.r.g.d.d.r.r.r.r.9.d.k.z.x.x.x.@X@XOXOX#X%X-X:X>X>X>XwXwXwXeXuXwX>X>X>X>X:X:X4X4X<X*X<X<X4X5XiXpXpXiXiX7XSXiXUXSXSXSXSXAXAXAXAXbXbXzXkXkXkXkXgXhXhX].].].).).).T.I.I.L.H.F.F.D.D.3.$.@.@.@. . . .[ ! W W W T T T T T Y Y B B n n c c c c c c c k k k k k k k k k k c c c B Y T R W ! .. .$.;.D.H.H.H.F.H.(.`.'.'.hX'.'.hXhXhXhXhXgXkXnXmXGXHXKXLXHXmXnXkXhX[.[.[. X XjXxXxXcXcX X X X.X.X|.|.|.,X,X<X<X&X&X&X&X*X:X>XeXeXeXeXeXwX;X-X-X-XOXx.x.x.z.x.x.x.x.N.M.V.Z.A.A.0XqXrXtXqX9XA.Z.V.N.m.l.j.j.j.a.l.l.!.W./././.^./.W.P.P.e.8.<.+.+.| | L K K D Z Z Z n Z Z v b C C G G G U U U U U U I L L K K H H Q H S S S Z n n c g g g g g g z z v v v z g g i i 8 8 9 9 9 9 9 9 9 9 9 9 9 9 9 9 9 9 9 9 0 9 0 9 9 2 2 2 2 3 3 3 3 1 3 1 1 ; 1 1 1 ; 1 1 1 1 1 1 1 1 1 > 1 1 > 1 1 1 1 1 1 1 2 ",
"1 1 1 1 6 6 6 6 6 6 6 r r r 6 r y r r 8 8 y y y y y y y y y y y y 8 y 8 y y 8 y y y r 6 8 6 6 r 6 6 r r r 6 6 6 6 6 6 r r y y y y d d d g k g d d d d d d d y d d d d d d k k c B Y Y T E W [  . .@.$.3.D.G.G.G.G.G.P.s.s.d.d.d.g.g.h.u.u.i.i.i.i.i.u.u.u.t.1.9.9.9.r.r.g.d.d.r.r.r.r.9.g.k.k.x.x.x.!.@X@XOX$X%X-X:X>X;X>XwXwXeXeXeXwX>X>X>X>X:X:X4X4X<X<X<X<X4X5XyXpXpXiXiXiX7XiXUXSXSXSXSXAXAXZXAXbXxXxXzXkXgXgXhXhX].].].).`.).T.T.I.L.H.H.F.D.D.D.$.$.$.$.@. . ...! ! ! W W W E R T T T Y Y Y Y Y B B n c c c k k k k g g d k k k g k k k k k k c B Y Y R W ! ..$.D.F.H.H.H.H.(.).`.'.'.'.'.'.'.hXhXhXgXkXnXmXGXHXKXLXHXmXlXkXhX[.[. X[.jXxXxXxXcXcX X.X.X.X.X|.|.|.,X,X<X&X&X&X&X$X:X>XeXeXeXeXeXeX>X-X-X-X#XM.x.x.x.x.x.x.x.x.M.V.Z.A.A.0XqXrXtXtX9X9XA.Z.C.m.m.j.j.l.a.l././.W.W.!.^././.W.P.P.e.8.<.<.+.| ) L L K D D Z Z Z Z Z n b b C G G G U U U U U U I I L L K H H K H H S S Z Z n c g g g g c n z z v Z v z z g d i 8 9 9 9 9 9 9 9 9 9 9 9 9 9 9 9 9 9 9 9 9 9 0 9 9 2 2 3 3 1 3 3 3 3 3 > 1 ; ; > > > ; > 1 > > > > > > 1 1 1 1 1 1 1 1 1 1 1 2 ",
"1 1 6 6 6 6 r r 6 6 r r r r r y r y y y y y y y y y y y y y y y y y y y y y 8 8 y 8 8 6 r y 6 r 6 6 6 6 r 6 6 6 6 6 r 6 r r y y y d d g g k g d d d d d y y y d d d d g g k c n n Y T W W ! [  .@.$.3.D.D.G.G.G.G.P.P.s.d.d.d.d.g.p.p.u.i.i.i.i.i.i.u.u.u.t.1.9.9.9.e.r.d.f.d.r.r.r.9.9.h.k.z.x.x.x.!.@XOX+X$X-X-X;X;X>XwXwXwXeXwX>X>X>X>X>X:X:X4X4X*X*X<X<X4X5XyXpXpXiXiXiX7XiXSXSXSXSXAXAXAXAXvXbXxXzXhXjXjXjXhXhX].].].`.).T.T.I.I.H.H.F.F.D.D.3.$.$.$.$. . . ...[ ! ! ! ! [ [ [ ! ! ! W W T Y B B n c c k k k k k d d d d y k d d d d d k d d k k k k c n Y T R !  .$.D.H.I.H.H.I.).`.'.'.'.`.'.'.'.hXhXgXkXnXmXGXHXKXLXGXmXlXgX[.[.[. X[.jXxXxXxXcXcX X.X.X.X|.|.|.|.,X,X,X&X^.&X&X*X:XwXeXeXeXeXeXwX;X-X-X$X@Xx.x.z.x.x.x.x.x.N.V.V.Z.A.0X0XqXrXrXqX9XA.Z.V.N.m.l.j.l.l.l.m./././.!.!.^.^./.W.P.e.e.8.<.+.+.| L L L K D Z Z Z Z Z n b b C G G G U U U U I U I I L L K H H K H H S S S Z n n z g g g n ^ n z v Z v v z g i i 8 8 9 9 9 9 9 9 9 9 9 9 9 i 9 9 9 9 9 9 0 9 0 9 0 2 2 2 3 3 3 1 1 3 3 1 1 1 3 ; ; ; 1 1 1 > > > 1 > > 1 1 1 1 1 1 1 1 1 1 1 2 ",
"1 1 6 6 6 r 6 6 6 r r 6 r r r y r y y y y y y y y y y y y y y y y y y y y y y y y r 8 6 r y r r r 6 6 6 r r r 6 6 6 r r y y y y y d d g k g d d d d d d y y d d d d d k k k c n B Y T W ! [  .@.#.3.3.D.G.G.G.G.G.P.P.P.d.d.g.g.9.p.p.u.i.i.i.i.i.u.t.u.t.1.9.1.9.r.r.g.f.d.r.r.r.9.9.h.k.z.x.x.x.!.@XOXOX%X%X-X;X;X>XwXwXwXwXeXwX>X>X>X>X:X:X:X:X*X*X*X<X4X5XyXpXpXiXiXiX7XiXiXSXSXSXAXAXAXAXvXbXxXzXzXxXxXjXjX].].].`.`.).T.I.I.I.H.H.F.D.D.D.3.$.$.$.$. . . . . . . .$.$.$.$. ...^ W Y B c k k d y y y y y r r y r r y r r r r r r r r r r y y y y y d k k c n B Y R !  .;.H.I.H.H.H.(.`.'.'.`.`.`.'.'.'.hXgXkXnXmXGXHXKXKXGXnXkXhX[.[. X X[.jXzXMXxXcX X X.X.X.X|.|.|.,X,X<X,X&X^.&X*X:X>XuXuXeXeXeXeX>X-X-X%XOXx.x.x.x.x.x.x.x.N.M.V.Z.A.;X0XqXrXtXtX9XA.Z.Z.B.m.l.j.j.j.l.l./././././.^.^./.W.P.s.e.8.<.+.+.| L L L K D Z Z Z Z Z n b b C C G G U U I I I I I I L L K K H H H H H S T T n c c g g g g n z z b Z v v z g g d 8 8 9 6 9 9 9 9 9 9 9 9 9 9 9 9 9 9 9 9 9 9 9 9 2 2 2 2 3 3 3 1 3 3 3 1 3 3 3 ; ; 1 1 1 1 ; > > > > 1 1 1 1 1 1 1 1 1 1 1 1 1 ",
"1 1 6 r 6 r r r 6 r 6 r r r r r y y 8 y y y y y y y y y y y y y y y y y y 8 8 y y y 8 8 y r 6 6 r r y r r r r 6 6 r r r y y y y d d g g g g d d d d y y y y y d d d k k k c c n Y T E ! ! ..@.#.$.3.5.F.G.G.G.G.P.s.s.d.d.d.g.9.p.p.u.i.i.i.i.i.u.u.t.t.1.1.9.9.8.r.g.d.f.d.r.r.r.9.g.h.k.x.x.x.x.!.@XOX#X%X-X;X;X>XwXwXwXwXwXwX>X>X>X>X:X:X:X:X*X*X*X<X4X5XyXpXpXpXiXiXiXiXSXSXSXSXAXAXAXAXvXbXjXhXhXxXxXjXhX].'.`.`.).).T.I.I.I.H.F.F.D.D.3.$.$.$.$.$.@. .$.$.$.$.D.$.$.$. .! R Y c k k y y y r r r r r r 5 5 5 5 5 5 5 5 5 5 5 5 5 5 5 1 1 5 5 r r r r y y k k k c B Y R ! $.D.H.H.H.H.(.`.'.'.`.`.`.`.'.'.hXgXkXnXNXGXHXKXKXmXlXkXhX[.[. X XjXjXzXMXxXcX X.X.X.X|.|.|.|.,X,X<X&X^.&X&X*X:XyXuXuXeXeXeXeX;X-X%XOX@Xx.x.z.z.x.x.x.x.N.V.Z.Z.;X0X0XqXtXtXqX9XA.Z.V.N.l.l.j.j.l.l././.!./.!./.^./.W.P.d.e.8.<.+.+.| L L L K D Z Z Z Z Z Z v m C C G G U U U I I U I I L L L K H H E H H S S Z n c c g g g g g z z v v v v z g d d 8 8 8 6 6 6 9 9 9 9 9 9 9 9 9 i 9 9 9 9 9 9 9 9 2 3 2 3 3 1 3 3 3 1 1 1 1 1 1 1 1 1 1 1 1 1 1 > 1 > 1 1 1 1 1 1 1 1 1 1 1 1 1 ",
"1 1 1 6 6 6 6 r 6 6 6 r r r 6 r y y y y y y 8 y y y y y 8 y y y y y y 8 y y y y y y r r y 6 y y r 6 y r r 6 r r 6 6 r r y y y y d d g g g g d d d d d y d d d d d d k k c c n Y Y T W ! [  .@.$.3.5.D.G.G.G.G.G.w.s.s.s.d.g.9.9.p.u.u.i.i.i.i.i.u.u.t.t.1.1.9.9.e.e.d.d.d.d.r.r.9.g.h.h.z.x.x.x.!.@XOX#X%X-X;X;X>XwXwXwXwXwXwX>X>X:X>X:X:X:X:X*X*X*X*X4X4XyXuXpXpXiXiXiXiXSXSXSXSXAXAXAXZXvXcXjXhXhXjXjXjXhX'.].].`.).T.T.I.I.H.H.F.F.D.D.D.3.$.$.$.$.$.$.3.D.D.D.;.$. .! R B c k k y y t y r r r 5 5 1 5 5 1 > > > > > > > 5 > > > 5 5 5 5 > > 1 5 5 5 5 r r y y k k k c B Y W ..;.H.H.H.H.(.`.'.`.`.).).`.'.'.hXgXkXnXmXGXHXKXGXmXkXgX[.[.[. X[.jXzXmXMXjX X X.X.X.X|.|.|.,X,X,X,X&X^.&X*X:X5XuXuXeXeXeXeX>X-X%X#XM.x.x.z.z.x.x.x.x.N.V.V.Z.;X9X0XqXtXtXtX9XA.Z.V.B.m.l.j.j.j.m.l./.!./.!./.^./.W.P.P.e.8.<.+.+.+.| L L L D D Z Z Z Z Z b C C C G G U U I I I ' ' I L L L K H H H H S S Z Z n n c g g g g g z z b b v v z g g i 8 8 8 8 9 6 9 9 9 9 9 9 9 i i 9 9 9 9 0 0 9 9 9 9 9 2 1 1 3 1 3 3 1 3 1 3 1 1 1 1 1 1 1 ; 1 1 > > 1 > 1 1 1 1 1 1 1 1 1 1 1 1 ",
"1 6 6 6 r r 6 6 r r r r r r r y y y y y y y y y y y y y y y y y y y y y y y y y y y 6 6 y r r y r r r 6 r r r 6 r 6 6 y y y d d d g g d g d d d d y y d d d d d d g k k c n Y Y T T W ! [  .$.$.3.D.F.G.G.G.G.P.s.s.s.d.r.r.9.9.p.u.u.i.i.i.i.t.t.t.t.1.1.1.9.r.e.d.d.d.g.r.9.9.g.h.k.z.x.x.x.x.M.OXOX%X-X;X;X;XwXwXwXwXwXwX>X>X:X:X:X:X:X:X*X*X*X*X4X5X5XuXpXpXiXiXiXiXiXSXSXAXAXAXAXZXvXcXjXhXhXjXjXhXhX'.].].).).T.I.I.I.H.H.F.F.D.D.D.D.3.$.3.D.D.D.D.D.$.$. .^ W Y B c k k t y y r r r 5 5 > > > > > > > & & & & & & & & & & & & & > > > > > > > 1 5 5 5 r r y y d k k c B T W $.D.H.F.H.(.`.'.`.).).).`.`.'.hXgXkXnXNXGXHXKXGXnXkXjX[.[.[.[.jXjXnXmXxXcXcX.X.X.X.X.X|.|.,X,X,X,X^.^.&X*X>XyXuXuXeXeXeXwX-X%X#X@Xx.x.z.z.x.!.x.x.x.M.V.Z.;XA.0XqXtXtXtX9XA.A.Z.B.N.l.l.m.m.l.l./.!.!.!.!.^.^./.P.P.e.8.1.1.+.+.) L L L D D A Z Z Z n b b C C G G U U I U I I I I I L L K H E H H H S Z Z n n c z g g g g z z v v Z v z g d i 8 8 8 6 9 9 9 9 9 9 9 9 9 i 9 9 9 9 9 0 0 9 9 9 9 9 2 2 2 3 3 3 1 1 1 3 3 3 1 1 1 1 1 1 1 1 1 1 > 1 1 1 1 1 1 1 1 1 1 1 1 1 1 ",
"6 6 6 6 6 r 6 r r r 6 y y y r y y y y y y y y y y y 8 y y y y y y y y y y y y y y y 6 6 r 6 r 6 6 6 r 6 6 r 6 r r r r r y y y d d d g g g d d d d y y y y d d d d g k c c B Y T T E ! [  .@.$.3.D.D.G.G.G.G.G.G.s.s.s.g.r.9.r.p.u.u.i.i.i.i.t.t.t.t.1.1.1.<.8.e.r.d.d.d.r.r.9.9.k.k.k.x.x.x.x.!.M.OX#X-X;X;X;X;XwXwXwXwXwX>X>X:X:X:X:X:X:X*X*X*X*X*X4X5XyXpXpXiXiXiXiXSX7XSXAXAXAXAXZXvXcXcXjXhXjXjXhXhX'.].).).).T.I.I.I.H.H.H.D.D.D.3.D.D.D.D.D.D.D.D.$.$. .! W Y Y B k k y y y r 5 5 5 5 > > > & & & & & & % & % & & & & & & & & & & & & & & & & & > > > 1 5 5 r r r y y k k B Y R ..D.F.H.H.(.`.`.`.(.(.).).`.'.gXkXlXmXGXHXKXHXNXlXhX[.[.[.[.[.jXlXmXmXxXcX.X.X.X.X.X|.|.|.,X,X,X&X^.&X*X:X5XuXuXuXeXeXeX>X-X#XOXx.x.z.z.!.!.x.x.x.N.V.-XZ.A.0X0XrXtXtXqX9XA.Z.B.N.m.l.l.j.j.m./.!.!.!././.^./.W.P.s.e.1.<.O.+.) L L L K D D D Z Z A A C C C G G U U I U U I I I I L L K H H H H H S Z Z n n c z g g g g z z v Z Z v z g g i 8 8 8 8 6 6 9 9 9 9 9 9 9 9 i i 9 9 9 9 9 9 9 9 0 2 2 2 1 3 3 3 1 1 1 1 1 3 1 1 1 1 1 1 1 1 1 1 1 1 1 1 1 1 1 1 1 1 1 1 1 1 1 ",
"6 r 6 6 r r 6 r r r r r y y y y y y y y y y y y y y y y y y y y y y y y y 8 y y y y r 6 y r r r r 6 r 6 6 6 6 6 r r r y y y d d d d d d d d d d d d y y y d d d d k k c c n Y T T W !  .@.$.$.3.D.F.G.G.G.P.w.s.s.s.r.r.r.9.r.u.u.u.i.i.y.y.t.t.t.1.1.1.1.8.8.r.d.d.d.r.r.9.9.h.k.k.z.x.x.x.x.@XOX#X%X-X;X;X;XwXwXwXwXwX>X>X:X:X:X:X:X:X*X*X*X*X*X4X5XyXpXpXiXiXiXiX7XSXSXSXAXAXAXZXvXcXcXcXjXjXjXjXhX].].).).).).T.I.I.L.H.H.F.D.D.3.3.D.D.D.D.D.D.;.$...! W R Y B c k k y r r 5 5 5 5 5 > > & & & % % % % % % % % % % % % % % % & 5 & > 5 > & & & & & & & > > > 1 5 5 r y y y k c B Y ^ ;.F.H.H.(.`.`.).(.(.(.(.`.hXgXgXlXmXGXHXKXGXmXkXhX[.[.[.[.jXzXnXBXMXjXcXcX.X.X.X1X|.|.|.,X,X,X^.^.&X*X>XyXuXuXeXeXeXwX-X%XOXM.x.z.z.z.x.x.x.x.M.V.Z.-XA.A.0XtXtXtXtX9X9XZ.V.B.m.m.l.j.l.l./.!.!./././.^./.W.P.d.e.7.<.+.+.) ) L L L D S S Z Z A A C C G G G U U I ' ' ' I I I L L K H H E H S S S Z n c c z g g g g z b v Z Z v z g g i 8 8 8 8 6 9 9 9 9 9 9 9 9 p p 9 p 9 9 0 9 9 9 9 9 1 1 2 1 3 1 1 1 1 1 1 1 3 3 1 1 1 1 1 1 1 1 1 1 1 1 1 1 1 1 1 1 1 6 1 1 1 1 ",
"r r 6 r 6 r 6 r r y r r y y y y y y y y y y y y y y y y y y y y y y y y y y y y y y y y y 6 6 r 6 6 r r r 6 6 6 1 6 y y y y d d g g d d d d d d d y y d d d d g k k c c n B T T E W [  .@.$.3.5.D.G.G.G.G.G.s.s.s.r.r.P.W.9.r.u.u.u.i.i.i.t.t.t.t.1.1.1.8.8.e.r.d.d.d.r.r.9.r.k.h.c.x.x.x.x.M.M.#X%X-X;X;X0X0XwXwXwXwX>X>X:X:X:X:X:X:X*X*X*X*X*X4X5XyXuXuXiXiXiXiX7X7X7XSXAXAXAXZXvXcXvXcXcXjXjXjX].].].).).).T.T.I.I.I.H.H.F.D.D.D.D.D.D.D.D.D.;.$...^ W W R Y B k k y y r 5 5 5 > > & > & & % % % % @ @ # @ @ # # # @ # # # # # # @ @ % & & & & & & & & & & & & > > 5 5 r r y y k k B Y W $.F.H.I.).`.`.(.(.(.(.(.`.hXgXkXlXmXGXHXHXGXnXgXhX[.[.[.[.jXzXmXBXxXcXcX.X.X.X1X,X|.|.,X,X,X|.^.&X*X:X>XuXuXuXeXeXeX>X%XOX@X@Xx.z.z.z.x.x.x.M.M.V.Z.A.A.0XqXtXtXtX9X9XA.Z.V.N.m.l.l.j.m.N./.!.^.^./.^./.W.P.d.e.8.<.O.+.) ) L L L D D Z Z Z Z Z C C C C G U U U U ' ' I I I U L L K H H H S S S Z Z c z z g g g g z z b m Z v z z g i i 8 8 8 8 8 9 9 9 9 9 9 p p 9 p 9 9 9 9 9 0 0 9 9 2 3 3 1 3 1 1 1 1 1 1 1 1 1 1 1 1 1 1 1 1 1 1 1 1 1 1 1 1 1 1 1 1 1 1 1 1 1 ",
"r 6 r r 6 r r 6 r y y y y y y y y y y y y y y y y y y y y y y y y y y y y y y y y y y r r r r 6 r r 6 r 6 6 6 y R c 6 y y y d g g g d d d d d d d y y y d d d g k c c c n Y T E W ! ..@.@.$.3.D.F.G.G.G.G.s.s.s.s.r.r.W.XX9.u.u.u.u.y.y.t.t.t.t.1.1.1.1.8.8.r.d.d.d.r.r.9.9.k.k.h.x.x.x.x.x.M.OX#X-X-X;X0X0X0XwXwXwXwX>X>X:X:X:X:X:X*X*X*X*X*X*X4XyXyXuXiXiXiX7XiX7X7X6XAXAXZXZXZXvXcXvXcXcXjXjX].].].].).).T.T.I.I.I.I.H.F.D.D.D.D.D.D.D.D.;.$. .......^ R B k k y y r 5 5 5 > > & & % % % % % @ # # @ # # O # # # O O O O O O O O O O # # # # @ % % % & & & & & & > > > 1 5 r r y t k B B W $.D.H.I.).`.).I.I.I.(.(.`.hXgXkXnXNXGXHXGXmXlXgX].[.[.[.jXjXlXmXmXxXcXcX.X.X.X1X|.|.|.,X,X,X^.^.&X:X>XyXuXpXeXeXeX>X-X$X@X!.x.z.z.z.x.x.x.M.M.V.Z.Z.A.0XqXtXtXtX9X9XA.Z.V.N.m.l.l.m.m.=X/./.!.!.!.&X/.Q.P.d.e.8.1.<.+.| ) L L K D D Z Z S Z Z C C C C G U U I U ' ' ' I I U L L K H H H S S S Z n c z z g g g g g z v b Z n z z g i i 8 8 8 8 8 9 9 9 9 9 p i i p p i 9 9 9 9 9 0 9 9 0 2 3 3 1 1 1 1 1 1 1 6 1 1 1 1 1 1 1 1 1 1 1 1 1 1 1 1 1 1 1 1 1 1 1 1 1 1 ",
"6 6 r r 6 r 6 r r y y y y y y y y y y y y y y y y y y y y y y y y y y y y 8 y y y r r r r r 6 6 r r r r r r r y ^ B 6 y y k B k g g d d d d d d y y y y d d d k k c c n B Y T W ! [  .@.$.3.D.D.G.G.G.G.G.s.s.s.d.r.r.r.r.9.u.t.t.y.y.t.t.t.t.1.1.1.1.9.8.e.r.d.d.r.r.r.r.h.k.k.z.x.x.x.x.M.OX#X%X-X;X0X0X0XwXwXwXwX>X>X:X:X:X:X:X%X*X*X*X*X*X4X5XyXiXiXiXiX7X7X7X7X6X2X1XZXZXZXvXvXvXcXvXcXjX].].].`.`.).T.T.I.I.I.H.H.F.D.D.D.D.D.D.D.D.$. . .$.$. .! Y c k t y r r 5 5 > > & & & % % @ @ @ @ # O O O O O O O O O O O O O O O O O O O O O O O @ @ # @ % % % % % % & & & > > 5 5 r r y k j B W  .D.H.(.).).(.I.H.I.I.(.`.hXgXkXnXGXGXHXGXnXkXhX[.[. X[.jXzXmXNXmXcXcXcX.X.X1X1X|.|.|.,X,X|.^.&X*X4X>XuXpXuXeXeXwX:X%X@Xx.x.z.z.z.x.x.x.x.M.V.Z.Z.A.0XqXtXtXtXtX9XA.Z.V.B.N.m.l.m.m.=X=X/./.!.!.&X^./.P.d.d.8.1.<.+.| | ) L L D D S Z Z Z Z C C A G G U U I ' ' ' ' U I L L L K Q H H H S S Z Z n z z g g g g z x b b Z v v z g d i 8 8 8 8 8 9 8 9 9 9 i p i p p p 9 9 9 9 9 9 0 1 1 3 3 3 1 1 2 1 1 1 1 1 1 1 1 1 1 1 1 1 1 1 1 1 1 1 1 1 1 1 1 1 1 1 1 1 1 1 ",
"6 r r 6 r r y y y y y y y y y y y y y y y y y y y y y y y y y y y y y y y y y r y y r r r r 6 6 6 y k y 6 r r 6 8 8 y y d c B g d d d d d d d d y y y y d d d k k c n n Y T E W ! [ @.$.$.3.D.D.G.G.G.e.e.s.s.s.r.r.r.9.r.u.t.t.t.y.y.t.t.t.1.1.1.1.1.9.8.r.d.d.d.r.r.p.p.h.h.k.x.x.x.x.x.M.#X%X-X;X;XwX0XwXwXwXwXwX>X>X:X:X:X:X%X*X*X*X*X*X4X5XyXyXiXiXiXiX7X7X7X6X2X2X1XZXZXvXZXZXvXcXcXjX[.].].`.`.`.).T.I.I.I.I.H.F.F.D.D.D.D.D.D.D.$.$.$.;.;. .R B k k y y r r 5 > > & & % % % @ @ @ @ @ # O O O O O O O O O O O O O O O O O o o O O O O O O O O # # # # % % % % % & & & > 5 5 r r y k k B R  .D.H.(.).).I.H.H.H.I.).'.gXkXlXmXGXGXGXmXlXgX].[.[.[.jXhXlXmXmXxXcXcXcX.X.X1X.X.X|.,X,X|.|.&X&X:X5XuXpXpXeXeXwX>X%XOX!.!.z.z.z.x.x.x.x.M.V.V.Z.A.0X0XtXtXtXtX9X9XA.Z.B.N.m.m.m.N.=X=X/./././.&X^./.P.P.d.r.9.<.+.+.| ) L L K D S Z Z Z Z C C C G L I U I ' -.' ' I I I L L K H H H H S S Z Z n c z g g g g z z b b Z v v z g d i 8 8 8 8 8 8 9 9 9 i i p p u p p p u i 9 9 9 9 6 9 1 1 1 1 1 1 3 1 1 1 1 1 1 1 1 6 1 1 1 1 1 1 1 1 1 1 1 1 1 1 1 1 1 1 1 1 1 ",
"6 6 r r r r y r y y y y y y y y y y y y y y y y y y y y y y y y y y y y y y r r y y r 6 r 6 r 6 6 r y r 6 r r 6 r y y y d g g g d d d d d d d d y y y y d d k k k c n B Y T W ! [  .@.$.3.3.5.G.G.G.G.G.e.s.s.e.r.r.r.r.9.u.t.t.t.y.t.t.t.1.1.<.1.1.8.8.e.g.d.d.r.9.9.9.h.h.h.z.x.x.x.x.M.M.#X-X;X;X0XwXwXwXwXwXwX>X>X:X:X:X%X*X%X*X*X*X*X*X4XyXyXiXiXiXiX7X7X7X6XAX1XZXZXZXZXZXZXvXvXcXjX[.].].].`.`.).).T.I.I.I.H.F.F.F.D.D.D.D.D.D.D.;.D.D.$.^ Y c k k y r r 5 5 > & & & % % % @ @ @ O O O O O O O O O O O o o o o o o o o o o o o o o o o O O O O O O O # # @ @ % % % & & & > > 5 5 r r k k B R  .D.H.(.).(.H.H.H.H.(.).'.gXkXnXNXGXGXGXnXgXhX[.[.[.[.hXzXnXmXmXxXcXcX.X.X1X1X|.|.|.,X|.^.^.&X*X5XyXuXpXpXeXeX>X-X#X@X!.Q.z.z.z.x.x.x.M.M.V.Z.A.;X0XqXtXtXtXqX9XA.Z.V.N.m.m.m.m.m.=X/./.!.^.&X^./.W.P.d.e.9.<.+.+.| | L L K D S Z Z Z Z Z A C C G U U I ' ' ' ' ' I I L L K H H H H S S Z n n c z g g g g z z v b Z v v z g g i 8 8 8 8 8 8 8 9 9 i i i i p p i i i 9 9 9 0 9 9 9 1 2 1 3 2 1 2 1 1 1 1 1 1 1 1 1 1 1 1 1 1 1 1 1 1 1 1 1 1 1 1 1 1 1 1 1 1 ",
"6 r r r r r y y r y y y y y y y y y y y y y y y y y y y y y y y y y y y y y r y y y r r r 6 r 6 6 r r 6 6 6 r r y y y y y d g g d d d d d d y y y y y d d d k k c c n Y Y T W ! [  .@.$.3.3.D.G.G.G.F.G.s.s.s.r.G.r.9.9.9.t.t.t.y.y.t.t.t.1.1.<.1.<.8.8.r.d.d.r.r.r.9.p.h.h.h.x.x.x.x.x.M.#X%X-X;X;XwXeXwXwXwXwX>X>X:X:X:X%X%X:X*X*X*X&X*X4X5XyXyXyXiXiX7X7X7X6XAX2XZXZX1XZXZXZXvXvXcXcXjX].].'.].`.).).T.I.I.H.H.F.F.F.F.F.F.D.D.D.D.D.D.D.$.! Y B k k y r r 5 > & & & % % @ @ @ # O O O O O o o o o o o o o o o o o o o o o o o o o o o o o o o o o o o O O O O # @ @ @ % % & & > > 5 5 r r d k B R  .D.H.(.(.H.F.H.H.H.(.`.hXgXkXmXGXGXGXmXkXhX].[.[.[.jXhXlXmXBXxXcXcXcX.X1X1X.X.X|.|.,X|.^.&X*X4X5XuXpXpXeXeXwX:X$X@X!.!.z.z.z.x.x.x.M.M.V.Z.A.;X0XqXtXtXtXqX9XA.Z.V.B.N.m.m.m.m.=X@X/.!.^.&X^./.W.P.d.e.8.1.1.+.| | L L K D D Z Z Z Z Z C C C G G U I ' -.-.' ' I I L L K K H H H H S Z n n c z g g g g g z b b Z v v z g g i i i 8 8 8 8 8 8 9 i i i i u i i i i 9 9 9 9 9 9 1 1 2 1 2 1 6 1 1 1 1 1 6 1 1 1 1 1 1 1 1 1 1 1 1 1 1 1 1 1 1 1 1 1 1 1 1 1 ",
"r r r r 6 6 r y r y y y y d y y y y y y y y y y y y y y y y y y y y y y y y r y y r r r r y r 6 6 6 6 6 6 6 r r y y y y y d g d d d d d d d y y y y d d d d k c c c Y Y W E ! [  .@.$.3.3.D.G.G.G.G.w.s.e.e.e.r.r.r.r.1.t.t.t.t.y.t.t.t.t.1.1.<.<.8.8.e.r.d.d.r.d.g.p.h.h.k.x.x.x.x.x.M.OX#X-X-X;XwXeXeXeXwXwXwX>X>X:X:X%X%X%X*X*X*X&X*X:X5XyXyXyXyXiX7X7X7X6XSX2X1XZXZX1XZXZXvXvXcXcXjX].].].'.`.`.).T.I.I.H.H.F.F.H.H.H.H.D.D.D.D.D.D.D. .W Y B k k y r 5 5 > & & % % @ @ @ @ O O O O o o o o o o o o o X X X X X X X X X X X X X X X o o o o o o o o o o o o O O O # @ @ % % & & > > > 5 5 r y k c R  .D.H.(.I.F.D.D.H.H.(.`.hXgXlXmXGXGXNXlXgX'.].[.[.jXhXzXnXBXMXjXcXcX.X.X1X1X|.|.|.,X|.^.^.&X4X5XuXuXpXuXeXwX>X%XOX!.Q.z.z.z.!.x.x.M.M.V.Z.-X;X0XqXrXtXtXtX0XA.Z.V.B.M.m.m.m.m.=X@X/.!.!.&X^./.Q.P.P.s.8.1.1.+.| ) L L K D D S Z Z Z Z A A C G G U I ' -.-.' ' ` I L L K H H H H H S Z n n z c g g g g z z x b Z Z v z g g i 8 8 8 8 8 8 8 9 i i i i i u i u i i 9 9 9 9 9 9 0 9 1 3 2 1 6 1 1 1 1 1 y 6 1 1 1 1 1 1 1 1 1 1 1 1 1 1 1 1 1 1 1 1 1 1 1 6 ",
"6 r r r r r r y r y y y y y y y y y y y y y y y y y y y y y y y y y y y y y r r y r r r y d r 6 6 6 6 r 6 6 6 r y y y y d d d d d d d d d d y y y y d d d g k c n n Y T W W ! [  .@.$.3.3.D.G.G.G.e.w.w.E.P.e.r.r.9.9.1.t.t.t.t.y.t.t.t.1.1.<.<.<.8.8.r.d.d.d.d.9.9.h.h.h.x.x.x.x.x.M.OX#X%X-X;X;XeXeXeXeXwXwX>X>X-X:X%X%X%X*X*X*X&X&X*X:X5XyXyXyXyX7X7X7X6X2X2X1X1XZXZXZXZXZXvXcXcXjXhXhX].'.`.`.).T.I.I.H.H.H.F.H.I.I.H.H.H.H.H.D.D.D.$.W Y c k k r r 5 > & & % % % @ @ @ O O O O o o o o o o o o X X X X X X X X X X X X X X X X X X X X X X X o o o o o o o o O O O O @ @ @ % % & > > > 5 5 r y k B R  .D.H.I.H.D.D.D.H.H.(.'.gXkXnXNXGXGXmXkXhX].[.[.jXjXgXlXmXmXxXcXcXcX.X.X1X1X|.|.,X|.^.^.,X<X5XyXuXpXpXuXeX>X%X+X!.Q.z.z.z.x.x.x.M.M.V.Z.-X;X0XqXtXtXtXtXqX9XA.Z.V.N.N.N.m.m.=X=X/.!.!.^.^./.Q.Y.P.s.8.1.1.+.| | L L K D D S Z Z Z A A A A G G U I ' -.-.' ' ` I L L K H H H H H S S n n c c g g g g z x x b Z Z v z g g i 8 8 8 8 8 8 8 9 i i i i i i p u i i i 9 9 9 9 9 9 9 6 2 1 1 1 1 1 1 6 1 1 1 1 1 1 1 1 1 1 1 1 1 1 1 1 1 1 1 1 1 1 1 1 1 1 1 ",
"6 6 r r r 6 y r r y y y y y y y y y y y y y y y y y y y y y y y y y y y y 8 y r r 6 r 6 r r 6 6 r r 6 6 6 6 r r 6 y y y d d d d d d d d d y y y d d d d k g k c c Y Y T W ! ! ..@.$.3.D.D.G.G.G.G.G.s.e.XXE.e.r.r.9.9.1.t.t.t.t.t.t.t.1.1.<.<.<.<.8.r.r.d.d.d.g.9.9.h.h.h.x.x.x.x.x.M.OX#X-X-X;XwXeXeXeXwXwX>X>X:X:X%X%X%X*X*X*X$X&X*X:X5XyXyXyX5X5X7X6X6X6X2X1X1X1X1XZXZXZXZXcXcXjXhXhXhX'.`.`.`.).I.I.H.H.H.H.I.I.(.H.H.H.H.H.H.H.D. .W B c k t r 5 5 > & & % % @ @ @ O O O O o o o o o o X X X X X X X X X X X X X X X X X X X X X X X X X X X X X X o o o o o o O O O O # @ # % % & & & > 5 5 r t k B ^  .J.I.H.D.D.D.D.D.H.).hXgXkXmXNXNXmXlXgX'.].[.[.jXhXkXnXmXzXjXcXcX.X.X1X1X|.|.|.,X|.|.^.<X4X>XeXuXpXpXeX>X-X+X!.z.z.z.z.z.x.x.x.@XM.V.-X;X0X0XqXtXtXtXqX9XA.Z.B.N.N.N.N.N.=X=X=X!.^.^.^.^.Q.Y.P.s.8.1.1.+.+.) L L K D D S S Z Z C A A G G G U I ' -.-.-.' I I L L K K E H H H S Z n n c z z g g g g z x b C Z v z g g i i 8 8 8 8 8 9 i 9 i i p i i u u u u i 9 9 9 9 9 0 9 1 1 3 3 1 1 1 1 1 1 1 1 1 1 1 1 1 1 1 1 1 1 1 1 1 1 1 1 1 1 1 1 1 1 1 1 ",
"r 6 6 r r r y y y y y y y y y y y y d y y y y y y y y y y y y y y y r y y y y r 6 6 r r r r 6 6 r 6 6 r r 6 r r y y y d d d d d d d d d y y y y y d d d k g c c n Y Y T W ! .. .@.$.3.D.D.G.G.G.G.w.s.e.e.e.8.9.9.9.1.t.t.t.t.t.t.t.&.+.1.<.<.1.8.8.r.d.d.g.d.r.r.p.h.h.h.x.x.x.x.M.M.#X%X-X-X;XeXeXeXeXwXwX>X;X:X:X%X%X%X*X*X*X&X$X:X5X5XyX5X5X7X7X6X6X6X2X1X.X.X.XvXZXZXZXvXcXjXjXhXhXhX`.`.).).I.I.I.H.H.H.I.).(.I.I.I.H.H.H.H.D. .W B c k y r 5 > & & % % % @ @ @ # O o o o o o o o X X X X X X X X X X . . X X . . . . . X . . . X X X X X X X X X X X o o o o o O O O O # # @ % % & & & > 5 5 r y k B ^ ;.H.H.J.D.D.D.D.D.I.`.hXgXnXmXNXmXnXkXhX'.].[.jXhXkXlXmXMXxXcXcX.X.X1X1X.X.X.X|..X|.|.,X<X5XuXeXpXpXeXwX:X$X!.Q.z.z.z.z.x.x.x.M.M.V.-X;X0X0XqXtXtXtXqX9XA.Z.V.B.N.C.m.N.=X=X=X/.^.^.&X^.Q.Q.P.d.e.9.1.+.+.| ) L L K D S S Z Z A C A C G G U I ' -.-.-.' ' ` L L K K Q K H S S Z n n c c k g g g z z x b C Z v z g g i i 8 8 8 8 8 9 i i i i i i u u u u u i 9 9 9 9 0 0 9 1 1 1 1 1 1 1 1 6 1 1 1 1 1 1 1 1 1 1 1 1 1 1 1 1 1 1 1 1 1 1 1 1 1 1 1 ",
"r r 6 r r r r y y y y y y y y y y y y y d y y y y y y y y y y y y y y y y y y y y r 6 y r r r r r 6 6 6 6 6 r r r y y d d d d d d d d y y y y y d d d k k k c n B Y T T W ! ..@.#.$.3.D.D.G.G.G.F.L.e.e.e.8.9.9.r.1.1.t.t.t.t.t.t.t.1.1.<.<.<.1.8.8.r.d.r.r.r.9.h.h.h.k.x.x.x.x.M.M.#X%X-X-X;XwXeXeXeXwXwX>X;X-X:X%X%X%X%X%X$X&X&X*X:X5XyX5X5X5X5X4X6X6X2X1X.X.X.X.XZXZXZXZXcXcX[.].hXhX'.`.).).I.I.I.I.H.I.(.).(.I.I.(.I.H.H.H.D. .W B k k r 5 5 > & & % % @ @ # O O O o o o o o X X X X X X X X X X X . . . . . . . . . . . . . . . . . . . X X X X X X X X X X X o o o O O O O # @ % % & & & > 5 5 r y k B ^ ;.H.H.D.;.;.D.D.H.(.'.hXkXmXmXmXmXkXhX'.'.].[.hXhXkXmXBXMXxXcXcX.X.X1X.X.X.X.X.X|.|.,X<X4XyXuXuXpXuXwX:X$X!.!.z.z.z.z.!.x.x.M.M.V.-X;X;X0XqXtXtXtXrXqXA.Z.V.B.N.N.N.N.N.=X+X&X&X/.^.^./.Q.Y.P.e.9.1.+.+.| | L L K D S S Z A A C C C C G U I ' -.-.-.' I ` ) L K K H H H H S Z Z n c c g g g g z z z b C Z v z z g d i 8 8 8 8 8 9 9 i i p i i u a i u u i i 9 9 9 9 0 9 6 1 2 1 6 1 1 1 6 6 1 1 1 1 1 1 1 1 1 1 1 1 1 1 1 1 1 1 1 1 1 6 1 1 1 1 ",
"r r r r r r r y y y y y y y y 8 W ^ y y y y d y y y y y y y y y y y 8 6 y y y r r 6 6 6 6 r r r r 6 6 6 6 r r y y y y d d g d d d d d d y y y d d d d g k c c B Y Y T W ! [  .@.#.3.3.D.G.G.G.q.w.L.e.e.e.8.9.9.9.1.t.t.t.t.t.t.t.1.1.1.<.<.1.7.8.r.d.d.r.r.r.k.k.h.k.x.x.x.x.x.M.M.#X-X-X-X0XeXeXeXwXwX>X>X-X-X%X%X$X%X%X$X&X&X*X:X5X5X5X5X5X4X4X6X6X2X1X1X.X.X.X1XZXZXZXcXcXjX].hXgX'.`.`.).T.I.I.I.I.I.).).).(.(.(.I.H.I.I.D. .R B k k r 5 5 > & % % % @ @ O O O o o o o X X X X X X X X X . . . . . . . . . . . . . . . . . . . . . . . . . . . . . X X X X X X X o o o o O O O # @ % % % & & > 5 r r y k R ^ D.H.D.;.$.;.;.D.H.).hXgXlXmXmXmXlXgX'.'.].[.jXhXkXnXBXMXxXcXcX X.X.X.X.X.X.X|.|.|.|.<X4XyXuXeXpXpXeX>X%X@X!.z.z.z.z.!.!.x.M.M.V.-X;X;X0XqXrXtXtXtXqX9XA.Z.B.N.N.N.N.N.=X=X=X/.!.&X^./.Q.Y.P.d.9.1.+.+.| ) L L D ~ / S Z Z A C A C C G U I ' -.-.-.' ' ` ` ) L H H H H H S Z Z n c z g g g g z z x b C Z n z z g d i 8 8 i i 8 9 i i i i i u u a a a i i i 9 9 9 9 9 6 6 9 3 1 6 6 6 6 1 6 1 1 1 1 1 1 6 6 1 1 1 1 1 1 1 1 1 1 1 1 1 6 1 1 1 1 ",
"r r y r r r r y y y y y y y y y R ^ y y d y y y y y y y y y y y y y y y r 6 r r r r 6 6 6 6 r r r r 6 6 6 r r y y y d d d g d d d d d d d y y d d d d k d g c B Y Y T W ! [  .$.$.3.D.D.G.G.e.q.w.w.e.e.8.9.9.9.1.1.t.t.t.y.t.t.&.+.1.<.<.<.<.8.8.r.r.d.r.r.r.k.h.h.h.x.x.x.x.M.M.#X%X-X-X;X0XeXeXeXwX>X;X:X:X%X%X$X$X%X$X&X&X&X*X:X5X5X5X5X4X4X4X6X2X1X1X.X.X.X1XZXAXZXvXcXjXhXhXhXhX'.`.`.).I.I.I.I.I.).`.).).(.(.I.I.(.I.D. .R B k t r 5 > & & & % % @ @ # O o o o o o X X X X X X . . . . . . . . . . . . . . . . . . . . . . . . . . . . . . . . . . . X X X X X X o o o O O O O @ # % % % & > 5 5 5 r t k R  .D.D.;.$.$.;.;.D.(.'.hXkXnXmXmXlXgXhX'.].[.jXhXgXlXMXMXxXjXjXcX X.X1X1X.X|.|.}.}.|.,X<X5XuXuXuXpXeX>X%X@X!.Q.z.z.Q.!.!.x.M.M.V.Z.;X;X0XqXtXtXaXtXqX9XA.Z.V.B.N.N.N.N.=XOX@X!.^.^.^./.Q.Y.d.e.9.1.1.+.| | L L K ~ ^ S S Z A A D G G G U I ' -.-.-.' ' ` ` ) L K H H H H H S Z n c z z g g g z z x b Z Z v v z g d i 8 8 8 8 8 8 i i i i i u u a a u i i i 9 9 9 9 6 6 6 6 2 1 6 6 1 6 6 1 1 1 6 1 1 6 1 1 1 1 1 1 1 1 1 1 1 1 1 1 1 1 1 1 1 1 ",
"6 r r r y y y y y y y y y y y y 8 8 y d B k y y y y y y y y y y y y 6 r r 6 r r r r 6 6 6 6 r 6 6 r r r r 6 6 y y y d d d g d d d d d y d d d d d d k d Y R c B Y T E W !  .@.$.$.3.D.G.G.r.q.w.w.w.e.8.8.9.9.7.1.t.t.&.t.t.t.t.+.+.<.<.<.<.<.8.8.r.r.r.r.r.9.h.h.h.h.x.x.x.M.M.M.%X-X-X;X;XqXeXeXwXwX>X-X-X%X%X$X%X%X%X$X&X&X*X:X:X5X5X5X4X4X6X6X2X2X1X.X.X.X.X1XAXAXZXcXjXjXhXhXgXhX'.`.`.I.I.I.H.I.).`.).).(.(.(.(.(.(.D...R B k t 5 5 > & & % % @ @ # O O o o o o X X X X X . . . . . . . . . . . . . . . . .   . . . .   .   . . . . . . . . . . . . . . . X X X X X X o o o o O O # # @ % % & > > 5 r r t B R ;.D.;.$. .$.$.;.J.(.'.gXlXmXmXnXgXhX'.].[.[.hXhXkXMXMXxXjXjXcXcXcXvX.X.X.X.X.X}.|.,X<X4XyXuXuXpXuX>X:X+X!.Q.z.z.Q.!.!.x.x.M.%X-X;X;X0XqXrXtXaXtXqX9XA.Z.V.V.M.N.N.N.=XOX@X!.!.^.^./.Q.Y.d.d.8.1.1.+.+.| ) L L K D D S D Z A A G G G U I ' -.-.-.' ' ` ` L L K H H H H S Z Z n c z g g g g z z z b Z Z v v z z i i 8 8 8 8 8 8 i i i i i i u a a u i i i i 9 9 9 6 6 6 6 9 6 6 9 6 6 6 1 1 1 6 1 1 6 1 1 1 1 1 1 1 1 1 1 1 1 1 1 1 1 1 1 1 1 ",
"6 6 r r r y y y y y y y y y y y y y y y k d y y y y y y y y y y 6 y r 6 6 6 r r r 6 6 6 r 6 r 6 6 6 r 6 6 r r y y y d d d d d d d d y y y d d d d d d d ;.:.c B Y T E ! [  .@.$.3.D.D.G.G.e.q.w.w.e.e.8.8.9.9.1.t.t.t.&.t.t.t.&.+.+.<.<.<.<.8.8.r.r.r.r.r.r.p.h.h.h.x.x.x.x.M.M.#X%X-X-X;X0XeXeXwXwX>X;X-X-X%X$X$X%X%X$X&X&X$X*X:X>X5X5X4X4X4X6X2X2XAXAX.X.X.X1XAXAXZXcXcXjXhXhXgXgX'.`.`.).I.I.I.I.).`.`.).(.(.(.(.).(.D. .R B k t r 5 5 & & % % @ @ # O O o o o o X X X X X . . . . . . . . . . .     . .                 .         . . . . . . . . . . . . . . X X X X X X o o o O O O O @ % % % & > 5 5 r r k B ^ ;.D.$. . .$.$.D.H.`.hXkXnXmXnXkXgX'.].].].hXhXkXzXMXxXhXjXjXcX X.X1X.X.X.X.X}.}.|.<X4XyXuXuXpXuX>X:X+X!.Q.z.z.z.z.!.x.x.M.V.-X;X;X0XqXrXtXaXtXtX0XA.Z.Z.V.V.N.N.N.=XOX@X!.!.&X^.!.Q.Y.d.d.r.9.<.+.+.| | L L K ~ K S S S D A D G G U U ' -.-.-.-.I ` I L L K H H H H S S Z n c z z z z g z z z b C Z v v z g i 8 8 8 8 8 8 8 8 i i i i i a a a u u i i i 9 9 9 9 6 6 6 1 9 9 6 6 6 6 6 6 6 6 6 6 6 1 1 1 1 1 1 1 1 1 1 1 1 1 1 1 1 1 1 1 1 ",
"6 r r y y y y y y y y y y y y y y y y y k d y y y y y y y y y r r 6 r r r r r 6 6 6 r r 6 6 6 r 6 r r r r r r y y y d d d d d d d y d y y d d d d d d k B n n Y T T W ! ..@.$.$.3.5.G.G.G.q.q.w.e.e.8.8.9.9.1.1.t.t.&.&.&.&.&.&.+.O.O.<.<.<.8.8.r.r.r.r.r.k.k.h.h.h.x.x.x.x.M.M.#X%X-X;X;XqXeXeXwX;X;X-X-X%X$X$X$X%X$X&X&X&X*X*X:X4X4X4X4X4X4X2X2X2X1X.X.X.X.XZXAXAXvXcXjXhXhXgXgXhX`.`.).I.I.I.I.(.`.`.).(.(.(.).).(.J. .R B k t r 5 5 & & % % @ @ # O O o o o X X X X X . . . . . . . . . .                                         .     . . . . . . . . . . . . X X X X X o o o o O O O # # @ % % & & 5 r r y k R ..D.$. . . .$.;.H.(.'.gXlXmXnXkXgXhX'.].].].hXgXkXMXxXzXjXjXcX X.X.X.X.X.X.X}.}.|.,X<X5XuXuXuXuXwX:X+X!.Q.Q.z.z.z.x.x.x.M.V.Z.;X;X0XqXqXtXaXtXtXqX9XA.Z.V.V.N.N.N.=X+X@X!.!.&X^.!.Q.Y.P.d.e.9.1.+.+.+.| L ) K K D S S A A D D G L I I ' -.-.-.-.' ` I L L K H H H H S S Z n n c c n n g z z x b C Z v v z z :.N 8 8 8 8 8 8 i i i i i i i a a a u i i i 9 9 9 9 9 6 6 9 y 9 6 6 6 6 6 6 6 1 6 6 6 1 6 1 1 1 1 1 1 1 1 1 1 1 1 1 1 1 1 1 1 ",
"r r r y y y y y y y y y y y y y y y y y d d y y y y y y y r y r r r 6 6 y r r r 6 r r 6 6 6 6 6 6 6 r r r r y y y d d d d d d d d d y y y d d d d d d k k c B Y T E W [  .@.$.3.3.D.G.G.G.q.q.e.e.e.8.8.9.9.9.t.t.t.&.&.&.&.&.+.<.<.O.<.<.<.8.9.r.r.9.r.p.k.k.k.h.l.x.x.x.M.M.M.%X-X;X;X0XeXqX0XwX;X-X-X%X$X$X$X$X$X$X&X&X&X*X:X:X:X4X4X<X4X<X2X1X1X.X.X.X.X1XAXAXZXcXjXhXhXhXgXgX'.`.`.).I.I.I.I.`.`.).(.(.(.).`.(.J. .^ B k t r 5 5 & & % % @ @ O O O o o o X X X X . . . . . . . . .                                                     . . . . . . . . . . . . . . . X X X o o o o o O O # @ @ % % & > 5 5 r t B R ;.;. ... . .$.D.H.`.hXkXnXnXlXgXhX'.].].].hXgXkXMXMXzXhXjXjXcX XvX1X.X.X.X}.}.|.,X<X5XyXyXuXpXuX:X$X!.Q.Q.z.z.z.!.!.x.M.#X-X;X;X0XqXqXtXaXaXtXqX9XA.Z.V.V.M.N.N.=X=X+X!.@X&X^.^./.Q.P.d.e.9.<.+.+.+.| L L L D K S S S A D D G G I I ' -.-.-.-.' ` ` ) K K K H H H S Z Z n c z g z z g z z b b A Z v v g z >.B 8 8 8 8 i i i i i i i i i a a a u i i i 9 9 f 9 9 9 6 6 6 6 6 6 6 6 1 6 y 6 1 1 6 1 1 1 6 1 1 1 1 1 1 1 1 1 1 1 1 1 1 1 1 ",
"6 6 y y y y y y y y y y y y y y y y y y y y y y y y y y r r r r r 6 6 6 r r r r 6 6 6 6 6 6 6 6 6 6 6 6 r r y d y d d d d d d d d y y y y y d d d d k k c n B Y T E ! .. .$.$.3.3.D.G.G.q.q.q.e.e.8.8.8.9.9.1.t.t.t.&.&.&.&.+.+.<.<.<.<.<.<.8.9.r.r.9.9.9.p.h.h.h.x.x.x.x.M.M.#X%X-X;X;XqXeXqX0X;X;X-X%X%X$X$X$X$X$X&X&X&X$X:X:X:X4X4X4X<X<X2X2X1X.X.X X.X.XZXAXAXvXcXjXhXhXgXgXhX`.`.).I.I.I.I.).`.).(.(.(.`.`.).J. .^ B k t r 5 5 & & % % @ @ O O O o o X X X X . . . . . . . . . . .                                                       . . . . . . . . . . . . . . . X X X o o o o o O O @ @ % % % & > 5 5 r k B ^ ;. ....... .;.H.(.'.gXlXnXlXgXhX'.'.].hXhXgXkXxXbXxXjXjXjXjXcXvX1X.X.X.X.X}.}.,X<X4XyXuXuXpXuX>X$X!.Q.Q.z.z.z.!.@Xx.M.V.-X;X;X0XqXqXtXaXaXtXqX9XA.Z.V.V.M.N.#X=X=X&X!.@X&X^.^./.Q.P.d.r.r.1.+.+.| | ) L K D D S S S D D F G G I I ' -.-.-.-.' ` ` L K K Q Q H H S S Z n c z z z c g g z x b C Z v z z g i 8 8 8 8 8 8 8 i i i i i i i a a a a i i i i 9 9 9 9 9 6 6 6 9 6 6 6 6 6 6 6 6 1 1 1 1 1 6 6 1 1 1 1 1 1 1 1 1 1 1 1 1 1 1 1 ",
"6 r r y r y y y y y y y y y y y y y y y y y y y y y y y 6 r 6 r r r 6 6 6 6 r 6 r 6 6 6 r 6 6 6 6 6 6 r r r y y d d d d d c k k d y d d y d d d d k k c c n Y T T W !  . .$.$.3.D.D.G.G.q.q.e.e.8.8.8.9.7.9.1.t.t.&.&.&.&.&.+.+.<.<.<.<.<.8.9.r.r.r.r.9.p.h.k.h.x.x.x.x.M.M.M.%X-X-X;X0XeXqX0X0X;X-X-X%X$X$X+X$X$X$X&X&X&X*X:X:X4X4X4X<X<X<X2X1X.X.X X.X.X1XAXAXZXcXjXhXhXhXgXhX'.`.`.I.I.I.I.).`.`.(.(.).`.`.`.H.;.^ R j t r 5 5 > & % % @ @ # O O o o o X X X X . . . . . . . .   . .                                                             . . . . . . . . . . . . . X X X o o o o o O O @ @ % % & & 5 5 r t k Y  . .........$.D.(.'.gXkXlXlXkXhX'.].].hXhXgXkXzXbXxXhXhXhXjXjXcXZX.X.X.X.X}.}.|.,X4X5XyXuXuXuX>X%X!.Q.Y.Q.z.z.!.!.M.M.V.-X-X;X0XqXqXtXaXaXtXqX9XA.Z.V.V.M.N.#X=X=X+X@X!.&X^.^.Q.Y.P.s.e.9.1.+.+.+.) | %.} D D S S S D D D G L U I ' -.-.-.-.' ` ` L K K Q H H H S S Z n c c z c z g z z z b C Z Z z z g i i 8 8 8 8 i i i i i i i i a a a a a i i i i 9 9 9 9 9 9 6 6 9 6 6 6 6 6 6 6 6 1 6 1 1 6 6 6 1 1 1 1 1 1 6 1 1 1 1 1 1 1 1 1 ",
"r 6 r r r r y y y y y y y y y y y y y y y y y y y y y r 6 6 6 6 r r 6 6 r 6 6 6 6 6 r r y r 6 6 6 6 6 r r 6 y d d d d d d k k k d d d y y d d d d k c c c n Y T T W [  .@.$.3.3.D.G.G.e.q.q.q.8.8.8.8.1.1.1.t.&.&.&.&.&.&.+.+.O.<.<.<.8.8.8.9.r.r.r.9.p.p.h.h.h.x.x.x.x.M.M.#X%X-X;X0XeXeX0XwX;X;X-X%X$X$X$X$X$X$X&X&X&X$X*X:X4X4X4X<X<X<X<X1X1X.X X X.X.XZXAXZXvXcXjXhXhXgXgXhX'.`.).I.I.I.).`.`.).(.).'.'.`.H.;.^ R j t r 5 5 5 & % % @ @ # O O o o X X X X . . . . . . . .                                                                               . . . . . . . . . . X X X o o o o O O # @ @ % % & > 5 5 r k B ^  ...^ .... .;.H.).hXkXlXlXkXhX'.].].hXhXhXgXkXxXxXjXhXhXjXjXcXZX1X.X.X.X}.}.|.,X<X5XyXuXuXuX5X%X!.Q.Q.Q.z.z.!.@X@XM.V.-X-X;X0XqXqXtXaXaXtXqX0XA.Z.Z.V.V.B.B.B.#X+X@X!.&X^.^.Q.Y.P.d.d.9.1.1.+.+.| ) | ) K D S S S D D D G L U ` ' -.-.-.-.' ' ` ) L K K K H H S S Z n n c z c z c c z b b C Z v v z g d i d d 8 8 i i i i i i i a a a a a a u u i i 9 9 9 9 9 9 6 9 6 6 6 6 6 6 6 6 6 6 6 6 1 1 6 1 1 1 1 1 1 1 r 1 1 1 1 1 1 1 1 1 ",
"r 6 r r 6 r 6 y y y y y y y y y y y y y y 8 y y y y y 6 6 r r r r 6 6 6 r 6 6 6 6 6 6 r r 6 6 6 r 6 6 6 r 6 k Y d d d d d d d d y y d d d d d d d k c c n n Y T T !  .@.@.$.3.D.D.r.e.q.q.q.8.8.8.<.<.1.1.t.t.&.&.&.&.&.&.+.+.O.O.<.<.<.8.8.8.r.r.r.9.p.p.h.h.x.x.x.x.x.M.M.#X-X-X;X0XeXqX0X0X;X-X%X%X$X$X+X$X$X&X&X&X&X*X*X*X:X4X<X<X<X<X2X1X.X X X X.X1XZXZXZXcXjXhXhXgXkXgX'.`.`.T.I.I.(.`.`.).(.).'.'.'.(.;.^ ^ B k t 5 5 5 & % % % @ O O o o o o X X X . . . . . . . . .                                                                                   . . . . . . . . . X X X o o o o O O @ @ @ % & > 5 5 r y k R ....^ ^ ^ .. .D.(.'.gXkXlXkXgX'.'.'.].hXhXgXkXxXxXxXhXhXhXjXcXZXZX1X.X.X.X}.}.|.<X4XyXuXuXuXyX:X@XQ.Q.Q.z.z.Q.!.@XM.V.%X-X;X0XqXqXtXtXaXtXtX0X;XA.Z.V.V.M.B.=XOX+X@X!.&X^.^.Q.Y.P.d.d.9.1.1.+.+.| | | L K D D D D D D D G L I I ' -.-.S.-.' ' ` ) K K H H H H S S Z n n c c z g c z z b b A Z Z v z g d d i 8 8 8 8 i i i i i a a i a a a a i a i i 9 9 8 6 9 9 9 6 6 6 6 6 6 6 6 6 6 6 6 1 1 1 1 1 1 1 1 1 1 1 1 1 1 1 1 1 1 1 1 1 ",
"r r r r r 6 6 r y y y y y y y y y y y y y 8 y y y y y y r r r r 6 6 6 6 6 6 6 r 6 6 6 1 6 6 1 6 6 6 6 6 r r d k d d d d d d d d y y d k d d d d d k k c n B Y T W !  .@.@.$.3.D.G.e.e.q.q.e.8.8.8.<.<.1.1.t.t.&.&.&.&.&.&.+.+.O.o.<.<.8.8.8.9.r.r.r.p.p.h.h.h.x.x.x.x.M.M.V.%X-X;X;X0XeXqX0X;X;X-X%X$X$X$X$X$X$X&X&X&X&X*X*X*X4X<X<X<X<X<X1X.X.X X X X.XZXZXZXvXcXhXhXgXkXkXhX'.`.).I.I.(.`.`.).(.(.`.hX'.(.;...^ B k r r 5 5 = & % % @ # O o o o o X X X . . . . . . . . . .                                                                                     . . . . . . . . . X X X o o o O O O @ @ % % & > 5 5 r t c ^ ..W W ^ ^  .;.H.`.hXgXkXkXgXhX'.'.'.hXhXgXkXzXMXxXhXhXhXhXjXvXZX.X1X.X X}.}.|.,X4X5XyXuXuXuX:X&X!.Q.Q.z.z.Q.!.@XM.OX-X;X;X0XqXqXtXtXaXtXtXqX0X;XZ.V.V.V.V.=X#X+X@X!.^.^.^.Q.Q.Y.f.d.r.1.<.+.+.| %.| L K K D D D D D D G L I I ' -.-.S.-.' ' ` ) K K K H H H S S Z n n c z z c c z z b b A Z v v z g g d i 8 8 8 i h h i i i a a a a a a i i i i 9 9 9 8 8 9 9 6 6 6 6 6 6 6 6 6 6 6 6 6 6 1 1 1 1 1 1 1 1 1 1 1 1 1 1 1 1 1 1 1 1 ",
"r 6 r r 6 6 6 r y y r y y y y y y y y y y y r r y y 6 y r 6 r r r 6 6 6 6 6 1 1 1 1 6 r r 6 1 6 6 6 6 r 6 y y y d d d d d d d d d d y y y d d d d k c c n Y Y T W [  .@.$.$.D.D.G.G.q.q.q.8.8.8.<.<.1.1.1.t.&.*.&.&.&.&.+.+.O.O.o.o.<.8.8.8.9.r.r.r.p.p.h.h.l.x.x.x.x.M.M.#X%X-X;X0XeXqX0X0X;X-X%X$X$X$X+X$X$X&X&X&X&X*X*X*X*X4X<X<X<X<X1X1X.X X X X.XZXZXZXvXcXjXhXhXgXkXgXhX`.`.).I.I.).`.).).(.`.'.'.(.J...^ N k t 5 5 5 & & % % @ @ O O o o o X X X . . . . . . . . . .                                                                                             . . . . . . X X X X o o o O O # @ @ % & & > 5 5 r k Y ^ W W W W ..;.J.(.'.gXkXkXgXhX'.'.'.hXhXgXkXzXMXxXhXgXgXhXjXcXZXvXZX.X.X}.}.|.,X4X5XyXuXyXuX:X&X!.Q.Q.Q.z.Q.!.!.@X#X%X-X;X0XqXqXtXtXaXtXtXqX0XA.Z.V.V.V.V.=X#X+X@X!.&X&X^.Q.Q.Y.d.g.r.1.1.+.+.| | ) L K K K D D D D D G L I ` ' -.-.S.-.' ' ` ) K K H K H H H S Z n c c z z g z c z b b C C v v z g d d d i i i i i i i i a a a a a a a u i i i i i 9 9 9 9 9 9 6 6 6 6 6 6 6 6 6 6 6 6 6 6 1 1 1 1 1 1 1 6 1 1 1 1 1 1 1 1 1 1 1 ",
"6 6 6 r r 6 6 r r y y y y y y y y y y y y y y y r r r 6 6 r 6 6 6 6 6 6 6 1 1 1 1 1 1 6 6 6 6 6 r r r r r y y d d d d d d d y d y y y y y d d d g k c c n Y T E ! [  .@.$.3.D.G.G.q.q.q.e.8.8.8.<.<.1.1.t.t.&.*.&.&.&.&.+.+.O.O.o.<.6.8.8.9.9.r.r.9.p.h.h.h.x.x.x.x.M.M.M.%X-X;X;X0XeXqX0X;X;X-X%X$X$X$X+X$X$X&X&X&X&X&X*X*X<X<X<X<X<X,X1X.X X X X X.XZXZXZXcXcXjXhXgXkXkXhX'.`.).I.I.).`.`.).(.`.'.hX`.H.;.^ N j t 5 5 5 5 & % % @ # O O o o X X X X . . . . . . . .                                                                                                 .     . . . . . X X X o o o o O O @ @ @ % & & > 5 r y c W W R R W ^  .D.(.`.gXgXgXgXhX'.`.'.hXhXgXkXkXxXxXgXhXhXhXjXcXZXZXZXvX.X}.}..X,X<X4X5XyXyXuX:X&X!.Q.Q.Q.z.Q.!.!.@X#X%X-X;X0XqXqXtXtXaXaXtXqX0XA.Z.-XV.V.V.#X#X+X@X!.&X&X^.Q.Q.Y.f.d.r.1.1.+.&.| | L L K K D D D D D D G L I I ' -.S.S.-.' ' ` ) K K K Q H H H S Z n n c z z g z z z b b C Z v v z g g d d d i i i i i i i a a a a a a a a i i i i i 9 9 9 9 9 6 6 6 6 6 6 6 6 6 6 6 6 6 6 6 6 6 1 6 1 1 6 6 6 1 6 1 1 1 1 1 1 1 1 ",
"6 6 6 6 6 6 r y y r r y y y y y y y y r y y y y r r r r r r 6 r 6 1 6 6 6 6 6 6 1 6 1 6 6 6 6 6 6 6 6 r y y d d d d d d d y y y d y y d d d d d k c c c n Y T W ! [  .$.$.3.D.G.G.q.q.q.8.8.8.<.<.<.1.1.t.&.*.&.&.&.&.+.+.+.+.O.o.<.<.<.8.9.r.r.r.p.p.h.h.h.x.x.x.x.M.M.V.V.-X;X0X0XqX0X0X;X-X%X$X$X+X$X$X$X&X&X&X&X&X&X*X*X4X<X<X<X,X1X1X.X X X X XvXZXZXvXcXjXhXgXkXkXkXhX`.`.).(.).`.`.).(.).'.'.'.(.;.^ R B k r 5 5 5 & & % % @ # O o o o X X X X . . . . . .                                                                                                           . . . . . . X X X X o o o O O # @ % & & > 1 5 r k Y W T R R W ..;.H.`.hXgXgXgXgX'.'.'.'.hXgXkXkXzXxXhXhXhXhXjXcXZXZXZXZX.X}.}.}.|.<X4X5X5XuXuX>X&X!.Q.Q.Q.z.Q.!.!.@XV.%X-X;X0XqXqXtXtXaXaXtXqX0X;XZ.-X-XV.V.#X#X+X@X!.&X&X^.Q.Q.Y.d.d.r.1.1.+.+.| ) | ) K K D S S D D D G L I ' ' -.S.S.-.' ' ` ) K K Q Q H E H S Z n c c c z g g z z b b A Z v v z g g d i i d 8 8 i i i i a a a a a a a a i i i 9 9 9 9 9 8 8 6 8 9 6 6 6 6 6 6 6 6 6 6 6 6 6 6 6 6 6 6 6 6 6 6 1 1 1 1 1 1 1 1 1 ",
"6 6 6 r r r r r r 6 6 r y y y y y y r 6 y r 6 r r r 6 6 r 6 6 6 6 y r 1 6 6 6 1 1 1 1 6 6 6 6 6 6 6 6 r y y d d d d d d d y y y y y y d d d d d k c c n B Y T W [  .@.$.3.3.G.G.e.q.q.q.8.8.8.<.<.1.1.t.&.&.&.&.&.+.+.+.+.+.O.O.o.<.<.8.8.9.9.r.r.p.p.h.h.l.x.x.x.M.M.M.V.-X-X;X0X0XqX0X0X;X-X$X$X$X+X$X$X$X&X&X&X&X&X*X<X4X4X<X<X,X,X1X.X X X X X XZXZXvXvXcXjXgXgXkXkXgX'.`.`.).(.).`.).(.).'.hX'.).J.;.^ B j t 5 5 5 > & % @ @ # O o o o X X X X . . . . . .                                                                                                             . . . . . . . . X X X o o O O O # # % & > > 5 r y B R Y Y R R ^  .J.(.hXgXgXgXhX'.`.'.'.hXgXgXkXzXxXzXhXgXhXjXcXvXZXZXZX.X X}.}.|.<X4X5X5XyXuX>X&X!.Q.Q.Q.z.Q.!.!.@XM.%X-X;X0XqXqXrXaXaXaXtXqX0XA.Z.-X%XV.V.#X#X+X@X!.^.^.^.Q.Q.Y.d.d.r.1.1.+.+.| ` | L K K K S S S D D G L I ' ' -.S.S.-.' ' ` ) K K K Q H E H S Z n c c z g g z z z b C A Z v v z g g d i 8 i 8 8 i i i a a a a a a a a a i i i i i 9 9 8 8 8 8 8 8 8 8 6 6 6 6 6 6 6 6 6 6 6 6 6 6 6 6 6 6 6 6 1 1 1 1 1 1 1 1 1 ",
"r r 6 r r r r r r 8 r r 8 y y y r 6 6 6 r r r r 6 6 6 6 r 6 6 6 6 c k 1 1 6 1 6 1 1 6 6 6 6 r 6 6 6 r r y y d d d d d d d y y y y y y y y d d d g c c n Y Y E ! [  .@.$.3.6.7.G.q.q.q.q.8.8.8.<.<.1.1.t.&.&.&.&.&.+.+.+.+.+.O.o.o.<.8.9.9.9.r.r.p.p.p.h.h.x.x.x.x.M.M.M.V.-X;X0X0XqXqX0X;X-X%X$X+X+X+X+X$X$X&X&X&X&X&X*X<X4X4X<X,X,X1X1X.X X X X X.XZXZXvXcXjXhXgXkXlXkXhX'.`.).(.).`.`.).).`.hX'.`.H.;.^ R j t r 5 5 5 & % % @ @ O O o o X X X X . . . . . .                                                                                                                   . . . . . . X X X o o o o O # # @ % & > 5 5 r k B Y Y R R W  .D.(.'.hXhXgXhX'.'.`.'.hXgXgXkXkXxXzXhXgXgXjXcXvXZXZXZX.X.X}.}.|.,X4X4X5XyXuX5X$X!.Q.Q.Q.Q.Q.!.!.@X#X%X-X;X0XqXqXrXaXaXaXtXrX0X;X-X-XV.V.V.#X#X+X@X@X&X^.^.Q.Q.Y.f.d.r.9.1.+.+.+.` | ) K K K D D D D D L L I ' ' -.S.S.-.' ' ` ) K K K K Q H E S Z n c c z g z g z m A C C Z v v z g g d d d i i i i i i a a x x a a a a a a i i i 9 9 9 9 9 8 8 8 6 g d 6 8 6 6 6 6 6 6 6 6 6 6 6 6 6 6 6 1 1 6 1 1 1 1 1 1 1 1 1 ",
"6 6 6 6 6 r r r 6 6 r r r r y r 6 r 6 6 r 6 r r 6 6 6 6 6 6 6 6 1 6 6 1 1 1 1 1 1 1 1 6 6 6 r r 6 6 6 r y y d d d d d d d d y y y y y y d d d k c c c n Y T W ! [  .$.$.3.6.7.e.q.q.q.q.8.8.<.<.1.1.1.t.&.&.&.&.&.+.+.+.+.+.O.o.o.<.8.9.9.r.9.r.p.p.h.h.j.x.x.x.x.M.M.V.%X-X;X0X0XqX0X0X;X-X%X+X+X+X+X$X$X&X&X&X&X&X&X<X<X4X4X<X,X,X1X.X.X X X X XvXZXvXcXcXjXgXgXlXlXkXhX`.`.).(.).`.`.).).'.hX'.(.;.^ R B k r 5 5 5 & & % % @ O O o o X X X . . . . . . . .                                                                                                                     . . . . . X X X X o o o O O # @ % & & 5 5 r t B Y B Y R W ..;.H.`.hXhXhXhX'.'.`.'.hXgXgXkXkXzXzXgXhXgXjXcXvXZXZXZXZX.X X}.}.,X<X4X5X5XuX5X*X!.Q.Q.Q.z.z.!.!.OX#X%X-X;X0XeXeXrXaXaXaXaXrX0X;X;X-X%XV.V.#X#X$X@X@X&X^.^.Q.Q.Y.f.d.r.1.1.+.+.+.| | ) K K K S D D D D L L I ' ' -.S.S.-.' ' ` ) K K Q Q K H H S Z n c c c z z g z m m C A Z Z v z g g d d d d i i i i i a a a a a a a a a u a i i 9 9 9 9 9 8 9 8 6 8 d 8 6 6 6 6 6 8 y 6 6 6 6 6 6 6 6 6 6 6 1 6 k y 1 1 1 1 1 1 ",
"6 6 6 6 6 6 6 6 r r r 6 r r r r 6 6 r r r r 6 6 r 6 6 6 6 6 6 1 6 1 1 6 1 1 1 1 6 6 6 6 1 1 6 r r 6 6 y y y d d d d d d y y y y y y y y d d d k B c c n Y T W [  .@.$.3.3.7.7.6.5.4.4.8.8.<.<.<.1.1.t.t.&.*.&.+.+.+.+.+.O.O.o.o.<.<.8.8.9.r.r.p.p.p.h.h.l.x.x.M.M.M.M.#X-X-X;X0XqXqX0X;X-X-X#X#XOX+X+X$X$X&X&X&X&X&X*X<X<X4X<X<X,X,X1X.X X X X X XvXvXvXcXjXhXkXkXlXlXgX'.`.`.).).`.`.).).`.'.'.`.J...^ N j t 5 5 5 = & % % @ # O o o o X X X . . . . .                                                                                                                           . . . . . . X X X o o o o O O @ @ % & & > 5 r k B B Y Y R ^ ;.H.).'.hXhXhX'.`.`.`.'.hXgXkXkXzXzXgXgXgXhXjXvXZXZXZXZX.X X}.}.,X4X4X5X5XuX5X&X!.Q.Q.Q.Q.Q.!.@X@X#X%X-X;X0XeXqXrXaXaXdXaXtXqX0X;X-X%X#X#X#X#X+X@X@X&X&X^.Q.Q.Y.f.g.r.9.1.1.+.+.| | L K K H S D D D K L L I ' ' -.S.S.-.' ' ` ) K K K H Q E E T Z n c z z z z z z z b C C Z v v z g g g d d i i i i i i a a a a a a a a a a u i i 9 9 8 9 9 8 9 8 8 8 y 8 6 6 6 6 6 6 6 6 6 6 6 6 6 6 6 6 6 6 1 6 y r 1 6 1 1 1 1 ",
"6 6 6 6 6 6 6 6 6 r r r r r r 6 r 6 r r r r 6 6 6 6 6 6 6 6 6 1 6 6 r 6 r y 1 1 6 6 6 6 1 6 6 6 r 6 r y y y d d d d d d y y d y y y y y d d d k k c n n Y W ! [  .@.$.3.6.7.D.5.5.4.4.8.<.<.<.<.<.1.t.&.&.&.&.+.+.| | +.O.O.o.o.o.<.8.9.r.9.r.p.p.h.h.h.x.x.x.M.M.M.V.%X-X;X0XqXqX0X0X;X-X%X#XOX+X+X+X$X&X&X&X&X&X&X*X<X<X<X<X,X,X,X.X.X X X[. XcXvXcXcXcXjXgXkXlXlXkXhX'.`.).).).`.`.).`.'.hX`.(.;.^ R B k r 5 5 5 & % % @ @ # O o o X X X . . . . . .                                                                                                                           . . . . . . . X X X o o o O O # @ % & & > 5 r k B B B Y R W  .D.(.'.hXhXhX'.`.`.`.'.hXgXgXkXzXzXgXgXgXhXjXvXAXZXZXZX.X X X}.,X<X4X4X5XyX5X*X^.Q.Q.Q.Q.Q.!.@X@X#X%X-X;X0XeXrXrXtXaXdXaXtXqX0X;X-X%XV.#X#X$X+X@X!.&X&X^.Q.Q.Y.f.g.e.9.1.1.+.+.| | ) K K H S S D ~ K L L I ' ' -.S.S.S.' ' ) ) ~ Q Q K K H E S Z n c z c c z c z x b C C Z Z v z g c c d d i i i i i i s / / a a a a a a a u i i 9 9 9 8 9 8 8 8 8 8 6 6 6 6 6 6 6 6 6 6 6 6 6 6 6 6 6 6 6 6 6 1 1 1 1 1 1 1 1 1 ",
"1 6 6 6 6 r 6 r 6 r r 6 r r r r 6 r r r r r 6 6 6 r r 6 6 6 6 1 1 1 1 6 6 r 1 1 1 1 1 1 1 1 6 6 6 r r y y y d d d d d d y y y y y y y d d d d k k c n Z T E ! [  .$.$.D.6.G.6.q.4.4.8.8.<.<.<.<.<.1.&.&.*.&.&.+.| | | +.O.O.#.6.o.6.8.9.r.r.r.p.p.h.h.j.x.x.x.M.M.M.V.%X-X;X0XqXqX0X;X;X-X#X#X+X+X+X$X$X&X&X&X&X&X*X*X<X<X<X,X,X,X.X.X X X X[.cXcXvXvXcXjXhXkXkXlXkXkX'.`.`.).).`.`.).).'.hX'.).J...^ N j t 5 5 5 & & % @ @ # O o o X X X X . . . . . .                                                                                                                           . . . . . . X X X X X o o O O # @ @ % & & > 5 y k c B B Y W ..D.(.'.'.'.'.'.`.`.`.'.hXhXgXkXkXkXgXgXgXhXjXcXAXZXAXZXcX X X}.|.<X4X4X5X5X5X*X!.Q.Q.Y.Q.Q.!.@X+XOX%X-X;X0XeXrXrXaXaXdXaXtXqX0X;X-X%XV.#X%X$X$X@X!.&X&X^.Q.Q.Y.f.g.r.9.1.1.+.+.| | | K K ~ H H K K K L L I ' ' -.S.S.S.' ' ) ) ~ Q Q E E H S S Z n c c c c g z z x b C C Z Z v z g g g d d d i i i s s a R m a M a a a a a a i i 9 9 9 9 9 8 8 8 8 8 6 6 6 6 6 6 6 6 6 6 6 6 6 6 6 6 6 6 1 1 6 1 6 1 1 1 1 1 1 1 ",
"6 6 6 6 6 6 6 r 6 6 6 6 6 r r r 6 r r r 6 6 6 6 6 r r 6 6 6 1 1 1 1 6 1 1 1 1 1 1 1 1 1 1 6 6 6 6 r y y y d d d d d d d y y y y y y y d d d d k k c n Y T W !  .@.$.3.D.7.6.5.5.4.4.8.<.<.<.<.<.1.t.&.&.&.&.&.| | | | | O.O.#.6.<.6.8.9.r.r.p.p.p.h.h.l.x.x.M.M.M.M.V.-X;X0X0XqX0X0X;X-X%X#XOX+X+X+X&X&X&X&X&X&X&X*X*X<X<X<X,X,X,X.X.X X[. X XcXcXvXcXcXjXhXkXlXkXkXgX'.`.`.).).`.`.).`.'.hX'.(.;.^ R B k r 5 5 5 & % % @ @ # O o o X X X . . . . .                                                                                                                               . . . . . . . X X X X X o o O # @ @ % % & > 5 r k c c B B R ..;.H.`.'.'.'.'.`.`.`.'.hXhXgXkXlXkXgXgXgXhXjXbXAXAXAXZXvX X X}.|.<X4X4X5XyX5X*X^.Q.Y.Y.Q.Q.!.@X+X$X%X-X;X0XeXeXrXtXaXdXaXtXqX0X;X-X%X#X#X%X#X+X@X&X&X^.^.Q.Q.Y.f.d.r.9.1.1.+.+.| | ) K K E ~ E K K K L L ` ' ' -.S.S.-.' ' ) ) K K K K E H S S Z n c c z c z z z b b C C Z v v z g g g g d i i i i i s x a a M M a a a a a a i i i 9 9 8 9 8 8 8 8 8 8 6 8 6 6 6 6 6 6 6 6 6 6 r 6 6 6 6 6 1 6 1 6 1 1 1 1 1 1 1 ",
"1 6 6 6 6 6 6 6 6 6 6 r 6 6 r r r r r 6 r 6 r 6 6 6 1 6 r 6 6 1 1 1 6 r 6 1 1 1 1 1 1 1 1 6 r r r r r y y d d d d d y y y y y y y y y y d d d k c c n Y T E [  .@.$.3.6.7.6.5.5.4.4.4.<.o.,.<.<.1.t.&.*.&.&.&.+.| | | O.O.O.o.o.<.8.8.9.9.r.p.p.h.h.j.l.x.x.M.M.M.M.V.-X;X0XqXqX0X;X;X-X#X#XOX+X+X+X&X&X&X&X&X&X&X*X<X<X<X,X,X,X|..X X X[. XcXcXcXcXcXjXhXkXlXlXkXgXhX'.`.`.).`.`.).`.'.hX'.).J.;.^ N j t r 5 5 & & % @ @ # O o o o X X . . . .                                                                                                                                     . . . . . . . X X X X o o O O # @ % % & > 5 r k k c B B R ^ $.H.).'.'.'.'.`.`.`.`.'.hXgXgXkXzXgXgXgXhXxXcXAXAXAXZXvX.X X X|.,X<X4X4XyX5X*X^.Q.Y.Q.Q.Q.Q.!.OX#X%X-X;XwXeXeXrXtXaXdXaXtXqX0X;X-X-XV.#X#X#X+X@X&X&X&X^.Q.Q.Y.f.d.r.9.1.1.&.+.| | ) K K Q ^ E K K K L I ` ' ' -.S.S.S.' ' ) ) } Q K Q K H E S Z n c c c c c z z b b A A Z v v z g g g g d i d g i a a a a a x M x a a a a i i i i 9 8 9 9 8 8 8 8 8 8 8 8 6 6 6 6 y y 6 6 6 6 6 r 6 6 6 6 6 6 6 6 6 1 6 1 1 1 1 ",
"1 6 6 6 6 1 6 6 6 r 6 6 6 6 6 r r r 6 6 6 r r r 6 6 1 6 r r 6 6 1 1 6 6 6 1 1 1 1 1 1 1 1 6 6 6 r r r y y d d d d d y y y y y y y y y d d d k k c c n T T W [  .@.$.3.6.6.6.5.5.8.8.6.<.o.<.<.1.1.&.&.*.&.&.| | +.| } O.O.O.o.<.6.8.7.9.r.r.p.p.h.h.l.x.x.x.M.M.M.V.V.-X;X0XqXqX0X;X-X%X#XOXOX+X+X+X&X&X&X&X&X&X&X<X<X<X<X,X,X|..X}. X[.[. X XcXcXcXcXjXkXkXlXlXkXgXhX`.`.).).`.`.).`.'.hX'.(.;.^ ^ B k r 5 5 5 & % % @ @ O o o o X X X . . . .                                                                                                                                     . . . . . . . . X X X o o O O # @ @ % & & > 5 y k k c B Y ^  .H.).'.'.'.'.`.`.`.`.'.hXhXgXkXzXgXgXgXgXxXbXAXAXAXAXZXcX X X.X,X<X4X4X5X5X*X^.Q.Q.Q.Q.Q.Q.!.+X#X%X-X;XwXeXrXrXaXaXsXaXtXqX0X;X-X-XV.#X#X$X+X@X&X&X&X^.Q.Q.Y.f.g.r.r.1.1.+.+.+.| ) K K E ^ ~ K K K L I ` ' ' -.S.S.S.' ' ) ( ( Q Q Q K E H S Z n c c c c z z z b b A A Z v v z z g g g g d g s i a a a a a a x M a a a a i i i i 9 8 8 8 8 8 8 8 8 8 8 8 6 6 6 6 6 6 6 6 6 6 6 6 6 6 6 6 6 6 6 6 6 6 6 1 1 1 1 ",
"6 1 6 6 1 6 6 6 6 6 6 6 6 6 r 6 r 6 6 6 6 6 6 6 6 6 6 6 6 6 1 1 1 1 1 6 1 1 6 1 6 1 6 6 1 6 r 6 6 y y y y d d d d y y y y y y y y y y d d k k k c n T T E ! [  .@.$.3.6.6.5.5.5.8.4.<.<.o.<.<.1.1.t.&.*.&.&.| | | | O.O.O.O.o.<.6.8.9.9.r.p.p.p.h.h.l.x.x.x.M.M.M.V.-X-X;XqXqXqX;X;X-X%X#XOXOX+X+X&X&X&X&X&X&X&X*X<X<X<X,X,X|.|..X}.[.[. XcXcXcXcXcXcXhXkXlXnXlXkXgXhX`.`.).`.`.`.`.`.hXhX`.J.;.^ N j t r 5 5 = & % % @ O O o o X X X . . . .                                                                                                                                           . . . . . . X X X o o o O O # @ % % & > 5 y k k k B Y ^  .D.(.`.'.`.`.`.`.`.`.'.hXgXgXgXhXgXgXgXgXjXbXAXAXAXAXZXcX X X.X,X<X<X4X5X5X*X^.Q.Q.Q.Q.Q.Q.!.@XOX%X-X;X0XeXrXtXaXaXsXaXtXrX0X;X-X-XV.#X#X$X+X@X&X&X&X^.Q.Q.Y.f.g.r.r.1.1.&.+.+.| | ~ K H H E K K K L I ` ' -.-.S.S.S.' ` ) ( K Q K K K E S S Z n c c c c z z z b m A A Z v v z g g g d d d d g s a a a a x x M M a a a a a i i i 9 8 9 8 8 8 8 6 8 8 8 8 8 6 6 6 r 6 6 6 6 6 6 6 6 6 6 6 6 6 6 6 6 6 6 1 1 1 1 ",
"1 1 1 1 1 6 6 6 6 6 6 6 r 6 6 r 6 6 6 6 1 1 6 1 1 6 r 1 1 6 1 1 1 1 1 1 1 1 1 1 6 1 6 1 6 6 r r 6 y y y d d d d d d y y y y y y y y y d d d k k c n T E E [ ..@.#.$.6.6.6.5.5.4.8.4.<.o.o.o.O.1.t.t.&.*.` | | | | | | } O.O.o.<.6.8.9.r.r.p.p.h.h.x.x.x.x.x.M.M.V.V.-X;X0XqXqX0X;X;X-X%X#XOXOX+X+X&X&X&X&X&X&X&X*X<X<X,X,X,X|..X}.}.[.[.[. XcXcXcXcXxXzXkXlXnXkXgXgX'.`.`.).`.`.`.`.'.hX'.(.D...^ B k t r 5 5 & % % % @ O O o o X X . . . .       .                                                                                                                                   . . . . . . . . X X X o o o O # @ % % & > 5 y k k k c B R ..D.(.`.'.`.`.`.`.`.`.'.hXgXgXgXgXgXgXgXgXxXxXAXAXAXAXZXcX X X.X,X<X<X4X5X5X*X^.Q.Q.Q.Q.Q.Q.!.@XOX%X-X;X0XeXrXtXaXdXsXaXtXrX0X;X-X-XV.#X#X$X+X@X&X&X&X^.Q.Q.Y.f.d.r.r.1.t.&.+.| | } ~ ~ Q Q H K ~ K L L ` ' -.-.S.S.S.' ` ) ( ] K Q Q Q H S S Z n c c c c z z z n A A A Z v v z g g g g d d g g s a a x x x x M M a a a a a i i i i 9 9 8 8 8 d k y 8 8 8 8 8 6 6 6 6 r 6 6 6 6 6 6 6 6 6 6 6 6 6 6 6 6 6 1 1 1 ",
"1 1 1 1 r 6 6 6 6 6 6 6 6 r r 6 6 6 6 1 y B y 1 1 1 6 1 1 1 1 6 1 1 1 1 1 1 1 1 1 1 1 1 1 6 r r r r y y d d d d d d y y y y y y y y y d d d g k c n Y T W [  .@.$.$.6.6.5.4.4.4.4.,.,.o.o.o.+.1.t.&.*.&.` | | | | | O.O.O.X.o.<.6.7.7.9.r.p.p.k.k.x.x.x.x.M.M.M.V.Z.Z.;X0XqXqX0X;X-X%X#XOXOX+X+X&X&X&X@X&X&X&X&X<X<X<X,X,X,X|..X X X[.[.[. XcXcXcXxXxXkXkXlXlXkXgXhX'.`.`.`.`.`.`.`.hXhX'.H.;.^ R B k r r 5 5 & % % @ # O o o X X X . . . . .                                                                                                                                         . . . . . . . . X X X o o o O O O % % & & > r k k k c B R ..;.(.`.'.`.`.`.`.`.`.'.hXhXhXgXgXgXgXgXgXxXxXAXFXFXAXZXcX X X X,X<X<X<X4X5X*X^.Q.Q.Q.Q.Q.!.!.@XOX%X-X;X0XeXrXtXaXdXsXaXtXrX0X;X;X-X%X#X#X$X+X+X&X&X^.!.Q.Q.Y.f.d.r.9.1.1.+.+.| | } ~ Q Q Q ~ ~ ~ K L I ` ' -.S.S.S.v.' ` ) } ] Q Q Q E E S Z n n c c z c z c z b C A A Z v v z g g g g d d g s h a a x x x x x M M a a a a i i i 9 9 8 9 8 6 g B d 8 8 8 8 8 8 8 6 6 6 6 6 6 6 6 6 6 6 6 6 6 6 1 6 r r 6 6 1 1 ",
"1 1 1 1 6 6 6 1 6 6 1 6 r 6 6 6 6 6 6 1 d ^ y 1 1 1 1 6 1 1 1 6 1 1 1 6 6 1 1 1 1 1 1 6 1 6 6 6 r r y y d d d d d d d y y y y y y y y d d g k c c n Y E ! [  .@.$.6.7.6.5.4.4.8.,.<.o.o.o.o.O.1.t.&.*.` ` | | | | | O.O.O.X.o.<.6.8.r.r.r.p.p.k.k.x.x.x.x.M.M.M.V.Z.;X;XqXqXqX0X;X-X%X#XOXOX+X+X&X&X&X&X^.^.&X&X<X<X,X,X,X,X|..X X[.[.[.[.cXcXcXcXxXxXkXlXnXlXkXgXhX`.`.).`.`.`.`.'.hXhX`.J.;.^ N j t r 5 5 5 & % % @ # O o o X X X . . . .                                                                                                                                           .   . . . . . . X X X X o o O O # @ % & & > 5 t k k k B R ^ ;.I.`.`.`.`.`.).`.`.'.hXhXhXgXgXgXgXgXkXzXxXAXFXFXFXAXvX X X X1X2X<X<X4X5X*X^.Q.Q.Q.Q.Q.!.!.@XOX%X-X;X0XeXrXtXaXdXsXaXtXrXqX;X;X-X%X#X$X$X+X+X&X&X^.!.Q.Q.Y.f.d.r.9.1.1.+.+.+.| } } ~ K Q K ~ ~ L L ` ' ' -.S.S.S.' ' ` ) } ] ] K Q Q E S Z n n c c c c z c z b C A A Z v v z g g g g d g g a z x m x a x x x x M x m h i i i i i 9 8 8 8 6 8 8 8 8 8 y y 8 6 6 6 6 6 6 6 6 6 6 6 6 6 6 6 6 6 6 6 6 6 6 6 1 1 ",
"1 1 1 1 1 6 1 1 1 1 1 1 6 6 6 6 1 6 6 1 1 6 1 r 1 1 1 1 1 1 1 1 1 1 1 1 1 1 1 1 1 1 1 1 6 6 r r r y y y d d d d d d d y y y y y y y y d d g k c n n T E ! [  .$.$.6.6.6.5.4.4.8.,.,.o.O.O.+.+.t.&.&.*.` | | | | } } } O.O.X.o.6.6.7.r.r.p.p.k.k.x.x.x.x.x.M.M.M.V.Z.;X0XqXqX0X;X-X%X#XOXOXOX+X&X&X&X@X&X^.^.&X&X<X,X,X,X,X|..X}.}._.[.jXjXcXcXjXxXxXzXlXnXnXlXkXgX'.`.).).`.`.).`.'.hXhX(.;...^ B k t 5 5 5 & & % @ @ # o o X X X . . . .   . .                                                                                                                                             . . . . X X X X X o o O O O @ % % & & 5 y t k k c R ^ ;.H.`.`.`.).).).`.`.'.hXhXhXhXgXgXgXgXkXzXxXAXFXFXFXAXvXcX X X.X2X<X<X4X4X<X^.Q.Q.Q.Q.Q.!.!.!.OX%X-X;X0XeXrXtXaXdXsXaXtXrXqX0X;X-X%X#X$X$X+X@X&X&X^.Q.Q.Q.Y.f.d.r.9.1.1.+.+.+.| } ~ ~ } Q Q ~ ~ L L ` ' ' -.S.S.S.' ' ` | } ] ] Q Q Q E S Z n c c c z c c c b b C A A Z v v z g g g g d g g g h x m b x x x x M x x m h i i i i i i i y 8 f y 8 8 8 8 y y 8 y 8 8 6 6 r r 6 6 6 6 6 6 6 6 6 6 6 6 1 1 6 6 1 1 ",
"1 1 1 1 1 1 1 1 1 1 1 1 1 1 1 1 1 1 1 1 1 1 1 6 1 1 1 1 1 1 1 1 r 1 1 1 1 1 1 1 1 1 1 1 1 6 6 6 6 y y d d d d d d d y y y y y y y y y d d g k c n Z T E ! [ @.$.$.6.6.5.4.4.8.8.,.o.o.O.O.+.+.t.&.*.*.` | | | | } } } O.O.X.o.6.6.7.r.r.p.k.k.h.x.x.x.x.x.M.M.V.V.Z.;X0XqXqX0X;X-X%X#XOXOXOX+X&X&X&X&X^.^.^.&X&X,X,X,X,X|.|..X}._.[.[.jXjXjXjXjXxXxXzXlXnXnXlXgXhX'.`.).).`.).`.`.hXhX'.H.;.^ R B k r 5 5 5 & & % @ # # o o X X X . . . . . .                                                                                                                                               . . . . . X X X X o o O O O @ % % & & 5 r t k k k R ^  .H.`.`.`.).).).`.`.'.hXhXhXhXgXgXgXgXkXzXxXAXFXFXFXAXvXcX X X.X1X<X<X4X4X<X^.Q.Q.Q.Q.Q.!.!.!.@X%X-X;X0XeXrXtXaXdXsXaXtXrXqX0X;X-X%X#X$X$X+X@X&X&X^.Q.Q.Q.Y.f.d.r.9.1.1.+.+.+.} } K } :.Q ~ } } L L ` *.' -.S.S.S.' *.` | } ] ] Q Q Q E S Z n n c c z c c c n b C A A Z v v z g g g g d g g g h x x x x x x x M x a a a a i i f i 8 i 9 8 c d 8 8 8 8 8 8 y y 6 8 6 6 6 6 6 6 6 6 6 6 6 6 6 6 6 6 6 1 6 6 1 1 ",
"1 1 1 1 1 1 1 1 1 1 1 1 1 1 1 1 6 1 r 1 6 6 1 1 1 1 1 1 1 1 1 1 1 1 1 1 1 1 1 1 1 1 6 6 6 6 6 6 6 y y d d d d d d d y y y y y y y y y d d d k c n Y T E ! [ @.$.3.6.6.4.4.4.8.<.,.o.o.o.O.+.+.t.&.*.&.` | | | | | } } O.O.o.o.6.6.7.9.r.p.k.k.k.x.x.x.x.M.M.M.V.Z.Z.;XqXqXqX0X;X-X%X#XOXOX+X+X&X&X&X^.^.^.&X&X,X,X,X,X|.|..X}.}._.[.[.cXjXjXjXxXxXzXlXnXnXnXkXgXhX'.`.).).`.).).'.hXhX(.J.;.^ N j k r 5 5 5 & % % @ O O o o X X X . . . .                                                                                                                                                     . . . . X X X X o o O O O @ @ % & & 5 r t k k k Y ^  .H.`.`.).).).).`.`.'.hXhXhXhXhXgXhXgXgXzXxXAXFXFXFXAXvXcX X X.X1X<X<X<X4X*X^.Q.Q.Q.Q.Q.!.!.!.@X%X-X;X0XeXrXtXaXdXsXaXtXrXqX;X;X-X%X%X#X$X+X@X&X&X^.Q.Q.Q.Y.f.d.r.9.1.1.+.+.+.} } } } } Q ~ } %.| ) ` *.' v.S.S.b.' *.) ) ( ] Q Q Q E E S Z n n c c z c z v m A A A Z Z v v z g g g g g g g g a a x x x x x x M x a a a i i i i i 9 8 8 8 8 8 8 y 8 8 8 8 y 8 6 6 6 6 6 6 6 r 6 6 6 6 6 6 6 6 6 6 6 1 1 1 1 1 ",
"1 1 1 1 1 1 1 1 1 1 1 1 1 1 1 1 6 1 1 1 1 1 1 1 1 1 1 1 1 1 6 1 1 1 1 1 1 1 1 6 1 1 6 6 6 6 6 6 r y y y d d d d d d y y y y y y y y y d d d k c n Y T Q !  .@.$.3.6.6.4.4.4.6.<.o.o.o.O.O.+.+.t.&.*.` ` | | | | } } } O.O.o.o.6.8.7.9.r.p.k.k.k.x.x.x.M.M.M.M.V.Z.Z.;XqXrXqX;X-X-X%XOXOXOX+X+X&X&X&X^.^.^.&X&X,X,X,XAXFX.X}.}.}._.[.[.cXjXjXjXxXxXzXlXnXmXnXkXgXhX'.`.).`.`.).`.'.hXhX(.D...R B j t r 5 5 5 & % @ O O o o X X X X . . . . .                                                                                                                                                 . . . . . . X X X o o o O O @ @ % & & > r t k k k B W  .H.).`.).).).).`.`.'.hXhXhXhXhXgXhXgXgXzXxXAXFXFXFXFXvXcX X X.X1X<X<X<X4X*X^.Q.Q.Q.Q.Q.!.!.@XOX%X-X;X0XeXrXtXaXdXsXaXtXrX0X;X;X-X%X%X$X$X+X@X&X&X!.Q.Q.Q.Y.f.d.r.9.1.1.+.+.+.} } } } Q ~ } } | | ) ` ' ' v.S.S.b.' *.) | ] ] Q Q Q E H S Z n n c c c c c n b A A A A Z v v z g g g g g g g g a a x x x x M x M a a i a i i i i i 8 8 8 8 8 8 8 8 8 y y 8 y 8 8 6 6 r 6 6 6 6 6 6 6 6 6 6 6 6 6 6 6 1 1 1 1 1 ",
"1 1 1 1 1 1 1 1 1 1 1 1 1 1 6 1 1 1 1 6 1 1 1 1 1 1 1 1 1 1 1 1 1 1 1 1 1 1 1 6 1 1 1 6 6 6 6 6 r y y d d d d d d y y y y y y y y y d d d g k c n Y E ! [  .@.$.6.7.6.4.4.4.,.<.o.{ O.O.O.+.&.&.&.*.` ` | | | } } } } O.O.o.6.6.8.7.r.r.k.k.k.x.x.x.x.x.M.M.V.V.Z.;X0XqXrXqX;X-X%X#XOXOXOX+X+X&X&X&X^.^.^.^.,X,X,X,XAXFX.X}.}._._.[.cXjXjXjXxXxXxXlXlXnXmXlXkXhX'.`.`.).`.).).`.hXhX'.H.;...R B j t r 5 5 5 & % @ # O o o X X X X . . . .                                                                                                                                                   . . . . . . X X X o o o O O # @ % & & 5 r y k k k B W ..H.).`.).(.).).`.`.'.hXgXhXhXhXgXhXgXkXkXxXDXDXFXFXFXvXcX X X.X1X,X<X<X<X<X^.Q.Q.Q.Q.!.!.!.@XOX%X-X;X0XrXrXtXaXdXsXaXtXrXqX0X;X-X-X%X$X$X+X+X&X&X!.Q.Q.Q.Y.d.d.r.9.1.1.1.+.+.} } } } ] ] } } ) ) ` ' ' ' v.S.b.b.' &.| | ] ] Q Q Q H H S Z n n c c c c c v m Z A A Z Z v v z g g g g g g g g h x x x x x x x x a x B i a d i i i i 8 8 8 8 8 8 y y 8 y 8 8 8 8 r 6 y y 6 6 r r r 6 6 6 6 6 6 6 6 6 6 1 1 1 1 ",
"1 1 1 1 1 1 1 1 1 1 1 1 1 1 1 1 1 1 1 1 6 1 1 1 1 1 1 1 1 1 1 1 1 1 1 1 1 1 1 1 1 1 1 6 6 r r r y y y d d d d d d d y y y y y y y y d d d g c n Z T E ! [  .@.3.6.6.6.4.2.8.,.o.o.X.O.O.+.+.&.&.&.*.` ` | | | } } } } O.O.o.6.6.8.9.r.p.k.k.k.x.x.x.x.x.M.M.V.V.Z.;X0XrXrX0X;X-X%X#XOXOXOX+X$X&X&X^.^.^.^.^.,X,X,X,X|.}.}.}.}._._.[.cXjXjXjXxXxXzXlXlXnXmXlXgXhX'.`.`.`.`.).).`.hXhX`.H.;.^ R B k t r 5 5 5 & % @ # O o o X X X . . . . .                                                                                                                                                   . . . . . . X X X o o o O O O @ % % & > 5 t k k k B R ..H.).`.(.(.).`.`.`.'.gXhXhXhXhXhXhXgXkXlXxXDXFXFXFXFXvXcX X X.X1X,X<X<X<X,X^.Q.Q.Q.Q.Q.!.!.@XOX%X;X0X0XrXrXtXaXsXsXaXtXrXeX0X;X-X-X%X$X$X+X&X&X&X!.Q.Q.Q.f.d.d.9.9.1.1.1.+.O.} } ] ] ] ] } } ) ) ` ' *.' -.S.b.b.' *.) } ] ] Q Q Q E S T Y n c c c c c c v A A A D S Z v z z g g g g g g g g h x x x x x x x x a / :.g i f f i f f 8 8 8 8 8 8 y y y y y y y y 8 6 6 y 6 6 6 6 y 6 6 6 6 6 6 6 6 6 6 6 1 1 1 ",
"1 1 1 1 1 1 1 1 1 1 1 1 1 1 1 1 1 1 1 1 1 1 1 1 1 1 1 1 1 1 1 1 6 r 6 1 1 1 1 1 1 1 6 1 6 6 r r y y y d d d d d d d y y y y y y y y y d d g c n Z T E ! { @.#.3.6.6.5.2.2.6.<.o.o.O.O.O.+.+.&.&.*.*.` | | | | } } } } } X.X.#.6.7.r.r.p.k.k.k.x.x.x.x.x.M.M.V.Z.-X;XqXrXrX0X;X-X#XOXOXOXOX+X&X&X&X^.^.^.^.^.&X,X&X|.|..X}.}._._.[.[.jXjXjXjXxXzXzXlXnXnXmXlXgXhX'.`.`.`.`.).).'.hXhX(.J.;.^ N B k t r 5 5 & & @ # O O o o X X X . . . .                                                                                                                                                   . . . . . . . . X X X o o o O # @ % % & > 5 y t k k B R ..H.).).(.I.).).).`.'.gXhXhXhXhXhXhXgXkXlXMXDXDXFXFXAXvXcX X X.X1X,X,X<X4X,X^.Q.Q.Q.Q.Q.!.!.@XOX%X-X;X0XrXrXtXaXsXsXaXtXrXeX0X;X-X%X%X$X$X+X&X&X&X!.Q.Q.Q.f.d.d.9.r.1.1.1.O.+.} } ] } [ { } } | ) ` *.' ' S.b.S.S.&.*.| } ] ] Q Q Q H S S Z n c c c c c n n Z Z D Z Z Z v z z g g g g g g g x x x x x x x x M x x x z a i i f i h f 8 8 8 8 y 8 8 8 8 y 8 8 y y 8 6 6 6 6 r 8 6 6 6 6 6 6 6 6 6 6 6 6 6 1 1 1 ",
"1 1 1 1 1 1 1 1 1 1 1 1 1 1 1 1 1 1 1 1 1 1 1 1 1 1 1 1 1 1 1 1 r r 1 1 1 1 1 1 1 1 1 1 6 6 6 r y y d d d d d d d d y y 8 y y y y y d d d k c n Z T E [ { @.$.3.6.6.2.2.6.2.,.o.o.O.O.O.+.+.&.&.*.` ` | | | | } } } } } X.6.6.6.r.r.r.p.k.k.k.x.x.x.x.x.M.M.V.Z.;X;XqXtXqX0X;X-X#XOXOXOXOX+X&X&X&X^.^.^.^.^.^.|.^.|.|.}.}.}._._.[.[.jXjXjXhXzXzXzXlXnXmXnXlXgXhX'.`.).).).).).'.hX'.(.J. .R N j k t r 5 5 & % @ # O O o o X X X . . . .                                                                                                                                                       . . . . . . X X X o o o O # @ % % & > 5 y t k k B R ^ D.).).(.(.).).`.`.hXkXhXhXhXhXhXhXgXkXlXMXDXDXFXDXAXvXcX X X.X1X,X,X<X<X,X^.Q.Q.Q.!.!.!.!.@XOX-X;X;X0XrXrXtXaXsXsXaXtXrXqX0X;X-X-X%X%X$X+X&X&X^.!.Q.Q.Q.f.d.g.r.9.1.1.1.O.+.} } ] } { ] } } | ) ` ' ' ' S.S.S.S.&.*.| } ] ] Q Q Q H T S Z n c c c c n n n v A D D Z n v z z g g g g g g z x b b x x x x x M x x x a a a f f i i d 8 8 8 8 y y 8 y y y 8 8 y 8 8 y 8 6 8 8 r r 6 6 6 6 6 6 6 6 6 6 6 1 1 1 1 ",
"1 1 1 1 1 1 1 1 1 1 1 1 1 1 1 1 1 1 1 1 1 1 1 1 1 1 1 1 1 1 1 1 1 1 1 1 1 1 1 1 1 1 1 1 1 r r r y y d d d d d d d d y y d y y y y y d d g g c n Z T E [  .@.$.3.6.6.4.2.6.,.o.o.o.{ O.+.+.+.&.*.*.` ` | | | | } } } } } O.#.6.8.7.r.r.k.k.k.k.x.x.x.x.M.M.V.V.Z.A.0XrXtXqX;X-X%X#XOXOXOX+X$X&X&X^.^.^.^.^.^.^.^.^.|.}.}.}._._._.[.[.jXjXjXxXzXzXlXlXnXmXnXkXgXhX'.`.).).).).`.hXhX'.(.;...R B j k t r 5 5 & % @ # O o o o X X . . . . . .                                                                                                                                                 . . . . . . . . X X X X o o O # @ % % & & 5 y y k k B R ^ D.).).I.(.).).).`.hXgXhXhXhXhXhXhXgXlXlXMXDXDXDXDXAXvXcX X X.X1X,X,X<X<X&X^.Q.Q.^.^.!.!.@X@XOX-X;X;XeXrXtXaXaXsXsXaXtXrXwX0X;X-X-X%X%X$X+X&X&X^.!.Q.Q.Q.f.d.g.r.r.1.1.1.O.+.} } ] ] { } } | | ) ` *.*.v.S.b.b.S.&.&.| } ] ] Q Q E E S S Z n n c c c c n Z Z A D Z Z Z v z z g g g g g g g h x x x x x x x x x x a a h a f i f i i 8 8 8 8 y y y y y 8 y 8 8 y y 8 y 6 6 8 y 6 6 6 6 6 6 6 6 r 6 6 6 6 1 1 1 ",
"> 1 1 1 1 1 1 1 1 1 1 1 1 1 1 1 1 1 1 1 1 1 1 1 1 1 1 1 1 1 1 1 1 1 1 1 r 6 1 1 1 1 6 r r 6 6 r y y d d d d d d d d y d N k y y y y d g g n n n Y T ! [  .@.$.6.6.8.2.2.6.,.o.o.o.} O.+.+.&.&.*.*.` | | | | } } } } } } O.o.6.8.7.r.r.k.k.k.x.x.x.x.x.M.M.V.V.Z.;X0XrXtXqX;X-X#X#XOXOX+X+X$X&X&X!.^.^.^.^.^.^.^.^.|.}.}._._._.[.[.jXjXjXhXzXzXzXlXnXmXmXnXkXgXhX'.`.`.).).).`.hXhX'.H.;.^ R B j k t r 5 5 & % @ @ O o o X X X . . . . . .                                                                                                                                                   . . . . . . . X X X o o o O O @ @ % % & 5 r y y k B Y ^ D.(.(.I.I.).).).`.hXgXhXhX'.'.hXhXgXlXnXMXDXDXDXDXAXbXcXcX X.X1X,X,X<X<X&X^.Q.Q.Q.!.!.!.@X@XOX-X;X0XeXrXtXaXdXsXsXaXtXeXwX0X;X-X-X%X%X$X+X+X&X^.!.Q.Q.Q.f.d.g.r.9.1.1.1.+.+.O.} } { ] } } } ) ) ` ' *.y.S.b.b.y.&.&.| } ] ] Q Q E E S Z n n c c c n c n n Z A F Z Z Z v z z g g g g g g g x x x x x x x x x x x x a a a i f f d y d 8 8 8 y y y y y y 8 8 y y y 6 r r 6 6 8 y y 8 6 6 r 6 6 r 6 6 6 6 6 1 6 ",
"1 1 1 1 1 1 1 1 1 1 1 1 1 1 1 1 1 1 1 1 1 1 1 1 1 1 1 1 1 1 1 1 1 1 1 1 1 1 1 1 1 6 1 6 y y 6 r 8 y d d d d d d d y y d d d y y y d d d k oXJ.v T E ! [  .@.$.6.6.6.2.6.<.,.o.O.{ } O.+.+.&.&.*.*.` | | | | } } } } } } O.o.6.7.7.r.p.k.k.k.x.x.x.x.x.M.N.V.V.-X;X0XrXrX0X;X-X#XOXOX+X$X$X$X&X&X!.^.^.^.^.^.|.|.^.}.}.}.}._._._.[.jXjXjXhXkXzXzXlXnXmXmXlXkXgXhX'.`.).).).).`.hXhX`.H.;.^ R B k k t r 5 5 & % @ # O o o X X X . . . . .                                                                                                                                                     . . . . . . . X X X o o o O O @ @ % % & 5 r y t k B Y ^ J.(.I.I.I.).).).`.gXgXhXhX'.'.hXhXgXlXmXMXDXDXDXDXbXbXcXcX X.X1X,X,X<X6X,XQ.Q.Q.!.!.!.!.!.@X#X-X;X0XeXrXtXaXdXsXsXaXtXeXwX0X;X-X-X%X%X$X+X+X&X!.!.Q.Q.Y.f.d.g.r.9.1.1.1.+.O.O.} } } { } } | | | ' ' *.y.S.b.b.y.&.&.| } ] Q Q E E S T Z n n n c c n z v Z C A D Z Z Z v z z g g g g g g h x x x x x M b x x M x a h h a i f i i 8 d y 8 8 8 8 8 y y 8 8 y 8 8 8 r 6 r 8 r 6 6 8 6 6 6 6 6 6 6 6 6 6 6 6 6 1 ",
"1 1 1 1 1 1 1 1 1 1 1 1 1 1 1 1 1 1 1 1 1 1 1 1 1 1 1 1 1 1 1 1 1 1 1 1 1 1 1 1 1 1 1 1 r r 6 r y y d d d d d d d d d y y y y y y d d d k :. .n T E ! [  .@.$.6.6.2.2.6.<.o.o.O.{ { O.+.+.&.&.*.*.` | | | | } } } } } O.O.o.6.8.r.r.p.k.k.k.x.x.x.M.x.M.M.V.V.-X;XqXtXrX0X;X-X#XOXOX+X+X$X$X&X^.!.^.^.^.^.^.^.^.~.}.}.}._._._.[.[.jXjXjXzXkXlXlXnXnXmXmXlXkXhX'.'.`.).).).).`.hXhX(.J. .^ R B k k t r 5 > & % @ # O o o X X X . . . . .                                                                                                                                                     . . . . . . . X X X o o o O O # @ % % & 5 r y t k B Y ^ D.(.I.I.I.).).).`.gXgXhXhX'.'.hXhXgXlXmXVXDXDXDXDXbXbXcX X X.X1X,X,X<X<X&X^.Q.Q.!.!.!.!.@X@X#X-X;X0XrXrXtXaXdXsXsXaXtXeXwX0X;X-X-X%X%X$X+X&X&X!.!.Q.Q.f.f.d.g.r.9.1.1.1.O.+.O.} } { { { } | | | *.' &.y.S.b.b.' &.+.| ] ] Q Q E E T T Z n n n c c c n n A A A A Z E Z v z z z g g g g g g h x x x x M b x x b x h h x h i f i i 8 y y 8 y 8 8 y 8 8 6 y y y 8 8 8 y r 6 r 6 8 8 r r r 8 6 6 r 6 6 6 6 6 6 1 ",
"1 1 > > 1 1 1 1 1 1 1 1 1 1 1 1 1 1 1 1 1 1 1 1 1 1 1 1 1 1 1 1 1 1 1 1 1 1 1 1 1 1 1 6 6 6 6 r y y d d d d d d d d d y y y y y y d d g g g v Z T E ! { @.@.3.6.6.2.2.<.<.o.O.O.{ } O.+.+.&.*.*.` ` | | | | } } } } } } X.o.6.8.r.r.p.k.k.k.x.x.x.x.x.M.M.V.Z.;X;XqXtXqX0X-X%XV.OXOXOX+X$X$X&X^.^.^.^.^.^.^.^.^.~.}.}.}._._._.[. XjXjXhXzXkXlXnXnXnXmXmXlXgXhX'.'.`.).).).).'.hX'.(.J. .^ R B j k t r 5 5 & % @ # O o o X X . . . . .                                                                                                                                                       . . . . . . . X X X X o o O O # @ % % & 5 r y t k B Y ^ F.I.H.H.I.).I.).'.gXgXhX'.'.'.hXhXkXlXmXVXDXDXDXDXbXbXcXcX X.X,X,X,X,X<X|.~.Q.Q.^.^.!.!.@XOX%X-X;X0XrXrXtXaXsXsXsXaXrXeX0X0X;X;X-X-X%X$X+X&X@X!.!.Q.Q.f.f.d.g.r.9.1.1.1.O.O.O.} } { { } } | | ` *.' &.y.S.b.b.&.&.+.| ] ] Q Q E E T T Y n n n c c c n n Z A D S Z E Z z z z z g g g g g g x x x x b b x x x x x h a h h f f i i d d 8 y 8 8 y 8 8 d d y y y y 8 6 6 8 8 y 8 y 6 y 6 6 r 8 y 6 6 6 r 6 6 1 1 ",
"> > > 1 1 > 1 1 1 1 1 1 1 1 1 1 1 1 1 1 1 1 1 1 1 1 1 1 1 1 1 1 1 1 1 1 1 1 1 1 1 1 1 1 6 r r r r y d d d d d d d d d d d y y y d d d g g c n Z T E !  .@.#.3.6.6.2.2.<.o.o.o.O.} } O.+.+.&.*.*.` | | | | } } } ] { } X.X.#.6.7.r.r.p.k.k.k.x.x.x.x.x.M.V.V.Z.;X0XqXtXqX0X-X%X#XOXOXOX+X$X$X&X^.^.^.^.^.^.^.^.^.~.~.}.}._._._.[.cXjXjXhXkXlXlXnXnXmXBXmXlXgXhX'.'.`.).).).).'.hX'.(.D...^ R B j k k y 5 5 & % @ # O o o X X X . . . .                                                                                                                                                       . . . . . . . X X X X o o O O @ @ % % & 5 r r t k B Y ..H.I.H.H.I.).I.).'.kXgXhX'.'.'.hXhXkXlXMXVXDXDXDXDXbXbXcXcX.X.X,X,X,X,X2X,XQ.Q.Q.^.&X!.!.+X#X%X-X;XwXeXrXtXaXsXsXsXaXtXrXeX0X;X>X-X-X%X$X+X&X@X!.!.Q.Q.f.d.f.g.r.9.1.1.1.O.o.O.} { { { } } | | ` ' *.' y.S.b.b.&.&.+.} ] Q Q Q E T T Y Z n n n c c c n n Z Z D S S Z n n z z g g g g z z z x x b x b M b x x x x a h a h f f i i d d d y 8 k d 8 8 ^ ^ y 8 y y 6 8 y 6 8 6 6 r y 8 y y 1 ^ J.k 6 r 6 6 6 1 1 ",
"1 1 > > > > 1 1 1 1 1 1 1 1 1 1 1 1 1 1 1 1 1 1 1 1 1 1 1 1 1 1 1 1 1 1 1 1 1 1 1 6 1 1 1 6 6 r y y d d d d d d d d d d d y y y d d d g g c n Y T E [  .@.#.6.6.6.2.2.o.o.o.{ { } } O.+.+.&.&.*.` ` | | | } } } } } { X.X.#.6.7.r.r.p.k.k.x.x.x.x.l.x.N.M.V.Z.;X0XqXtXqX;X-X%X#XOXOXOX+X$X&X^.!.!.^.^.^.^.|.^.^.~.}.}.}._._._.[.jXjXjXhXkXlXlXnXnXmXBXmXlXgXhX'.'.`.).).).`.'.hX'.(.;.^ ^ R B B k k y 5 > & % @ O O o o X X X . . .                                                                                                                                                         . .   . . . . . X X X o o o O # @ % % & 5 5 r y k c B ..H.I.F.H.I.(.I.).hXkXgX'.'.'.'.hXhXkXlXMXVXLXDXDXDXbXbXcXcX.X.X,X,X,X,X,X^.Q.Q.Q.!.!.!.!.OX#X%X;X;X0XrXrXtXaXsXsXdXaXrXeXeXwX;X;X-X:X%X+X+X&X@X!.!.Q.Q.f.f.g.g.9.r.1.1.1.<.O.O.{ { { { } } | | ` *.&.' y.b.b.S.&.&.| } ] Q Q Q E T T Z Z n n n c c c v Z Z S S S S Z n z z z z z g g z z x x x x b b M b x x x x h h h i f f d i d y y 8 8 k d y 8 B R y y y y 8 6 6 6 8 r r 6 r 6 r y 6 W J.k 1 6 6 6 1 1 1 ",
"1 > > y 1 > > 1 1 1 1 1 1 1 1 1 1 1 1 1 1 1 1 1 1 1 1 1 1 1 1 1 1 1 1 1 1 1 1 1 1 1 6 6 6 6 6 6 y y d d d d d d d d d d d d y d d d d g k c n Y T Q [  .@.#.6.6.6.6.<.o.o.{ O.} } } +.+.&.*.*.*.` ` | | | } } } } { { O.o.o.6.7.9.r.k.k.k.k.k.x.x.l.N.N.V.V.Z.;X0XrXtXqX;X-X%X#XOXOXOX+X$X&X!.!.Q.^.^.^.^.^.^.~.~.~.}._._._._.[.jXjXjXzXkXlXlXnXmXmXBXmXlXgXhX'.`.).).).).`.'.hX'.H.;.^ ^ R B B k k y r > & % @ O O o o X X . . . . .                                                                                                                                                           . . . . . X X X X o o O O # @ % % & 5 5 y y k c B ..H.H.D.F.(.I.I.).hXkXhX'.'.'.'.hXhXkXnXMXDXDXDXDXVXbXbXcXcX.X.X,X1X2X,X,X^.Q.Q.Q.!.!.!.@X@XOX-X;X0XeXrXtXaXdXsXsXdXtXrXeXwX0X;X;X-X-X%X+X+X+X!.!.!.Q.Q.f.f.g.r.9.9.9.9.<.<.O.O.{ { { { } | | ) ` *.&.y.S.b.b.y.&.&.| ] ] Q Q E E T S Z n n n c c c z ! {...C S S Z n n z z z g g g g g z x x x x b b M b x x x x a h h i f i i i i y y d y 8 y 8 y 8 8 y y y y y y y y y 8 r r 8 6 6 6 6 6 6 1 6 6 6 6 1 1 1 ",
"> > 1 t r > > 1 > > > > > 1 1 1 1 1 1 1 1 1 1 1 1 1 1 1 1 1 1 1 1 1 1 1 1 1 1 1 1 1 6 r 6 6 r r y y d d d d d d d d d d d y y d d d d k k c n Y T ! [  .@.$.6.6.6.6.<.o.o.{ { } } } +.+.&.*.*.*.` | | | ) ~ ~ } } } { O.o.<.6.7.r.p.k.k.k.l.l.x.x.l.N.N.V.V.Z.;X0XrXtXqX;X-X#XOXOXOXOX$X$X&X^.^.Q.Q.^.^.^.^.~.~.~.~.}._._._._.[.jXjXxXzXkXlXnXnXmXmXBXmXlXgXhX'.`.`.).).).`.'.hX`.H.;.^ ^ R B B k k t r > & % @ O O o o X X X . . . . .                                                                                                                                                       . . . . . . X X X o o o O O # @ % % & 5 5 r y k c B ..D.D.D.H.(.I.I.`.hXkXhX'.'.'.'.'.hXkXnXBXLXDXDXDXVXbXbXcXcX.X.X|.,X1X<X,X^.Q.Q.!.!.!.!.@XOX#X-X;X0XeXrXtXaXdXsXsXaXtXrXeXwX;X;X>X-X%X%X+X+X&X!.!.!.Q.z.f.f.g.r.r.r.p.r.<.O.o.o.{ X.X.{ O.O.| ) ` *.&.y.b.b.b.y.&.&.| ] ] Q Q E H T Z Z n n c c c c v ..{. .Z S S Z n n z z z g g g g g z x x x b b b M b M x x x h h a i f d f i y y y d y y y y y y y y y y 8 y y y r y y y y 8 r y r 6 6 6 6 6 6 6 6 1 1 1 ",
"> > > > > > > 1 > > 1 1 1 1 1 1 1 1 1 1 1 1 1 1 1 1 1 1 1 1 1 1 1 1 1 1 1 1 5 1 1 6 r r 6 6 r y 8 y d d d d d d d d d d y y y d d d g k c n n Y E ! [  .#.#.6.6.6.6.<.o.X.{ } } } } +.+.&.*.*.` ` | | ) ) ~ } } } } O.O.o.6.8.9.r.p.k.k.k.x.x.x.x.x.N.M.V.V.Z.;XqXtXrX0X;X-X#XOXOXOX+X$X$X@X^.^.Q.Q.^.^.^.^.~.~.~.~.}._._._.[.[.cXjXxXkXkXlXnXmXmXBXBXmXlXgXhX'.`.`.).).).`.'.'.`.H.;.^ R R B B k k k r 5 & % @ # O o o X X X . . . . . .                                                                                                                                                       . . . . . X X X o o o O O O @ % % & 5 5 r y k k B ..D.D.D.H.(.I.(.`.gXgXhX'.'.'.'.hXgXkXmXBXLXDXDXDXVXbXbXcX X.X.X|.,X,X,X,X^.Q.Q.!.!.!.!.@XOX#X-X;X0XeXrXtXaXdXsXsXaXtXrXeXwX;X;X>X-X%X$X+X+X@X!.!.Q.Q.f.f.d.g.g.r.r.p.1.1.<.o.o.o.O.X.O.O.| | | ` *.' y.b.b.b.y.&.+.| ] Q Q E E T T Z Z n n c c n n n Z F C D S Z Z n n z z z g g g g z z x x b b b b M b x x x x h h a i i f i d y y 8 y 8 8 y y y y y y y y y y y y y r r y y y r r r 6 6 6 6 6 6 6 6 6 1 1 ",
"> > > 1 1 1 > > > > 1 1 1 1 1 1 1 1 1 1 1 1 1 1 1 1 1 1 1 1 1 1 1 1 1 1 1 1 1 5 1 1 1 6 6 6 r y y y d d d d d d d d d d d d y d d d g k c n n Y E ! [  .@.2.6.6.6.<.o.o.O.O.} } } } | +.&.&.*.` ` | | | | } } } } { X.O.o.6.8.9.r.p.k./.x.l.x.x.x.x.M.M.V.V.Z.;XqXtXrX0X;X-X#XOXOXOX+X$X$X@X!.!.^.Q.^.^.^.^.^.~.~.~.~._._._.[.[.jXjXzXkXkXlXnXmXmXBXBXmXlXgXhX'.`.`.`.).).).'.'.`.H.;.^ R R B B j k k r 5 & % @ O o o o X X X . . . . .                                                                                                                                                   . .   . . . . . X X X o o o O O @ @ % % & > 5 r t k k B ..D.D.D.H.I.I.).'.gXgXhX'.'.'.'.hXgXlXmXVXLXDXVXVXVXbXxXcX X.X|.|.,X,X,X^.^.Q.Q.!.!.!.!.@XOX%X-X;X0XeXrXtXaXdXsXsXaXtXrXeXwX;X;X>X-X%X$X+X+X@X!.!.Q.Q.Q.f.d.g.r.r.9.9.1.1.<.o.O.o.O.O.O.O.| | ` *.*.y.y.b.b.b.&.*.| } ] Q Q E E T T Z n n n c z c Z n Z C C S S Z Z n v z n c z g g g x x x x b b b M M b b b x x h h h i i f i i y 8 d y y d y y y 8 y y y y y y y y y 8 8 y y 6 r 6 6 6 6 r 6 6 6 6 6 1 1 1 ",
"> > > > 1 1 > 1 > > 1 1 1 1 1 1 1 1 1 1 1 1 1 1 1 1 1 1 1 1 1 1 1 1 1 1 1 1 1 1 1 1 1 6 r r y y y y d d d d d d d d k k y d d d d d g g c n Y T E [ { @.#.#.6.6.6.<.o.o.O.O.} } } } | +.&.*.*.` ` ) L ) ~ } } } } } } O.o.6.7.9.r.p.k.k.x.k.x.x.x.l.N.M.V.Z.Z.0XqXtXrX0X-X-XV.OXOXOX+X$X&X@X!.!.Q.Q.^.^.^.^.~.~.~.~.}._._._.[.[.jXjXzXkXkXlXnXmXmXBXBXmXlXgXhX'.`.`.).).`.`.'.'.).H.;.^ R R R B B B k r 5 & % @ O O o o X X X . . . . .                                                                                                                                                   .     . . . . . X X o o o O O O # @ % % & 5 5 r t k k B  .D.$.D.H.I.I.).'.gXgX'.'.'.'.'.hXgXlXmXVXLXVXVXVXVXbXcXcX X.X|.|.,X,X,X^.^.Q.Q.!.!.!.@X@X#X-X;X;X0XrXrXtXaXsXsXsXaXtXrXeXwX;X;X;X-X%X$X+X+X@X!.!.Q.Q.z.f.g.9.9.P.E.9.1.1.<.o.o.o.O.O.O.} | | ` *.&.y.S.b.b.y.&.&.+.} ] Q Q E E T T Z n n n c c c n n Z A S S S Z Z n n z n c g g g g x x x b b b b b b b b x x x h h h i f f i d d y y y y y y y y y y y y y y y y y k 8 r r y r 6 6 6 r r 6 r 6 6 6 1 1 1 1 ",
"> > > > > > > > > 1 1 1 1 1 > 1 1 1 1 1 1 1 1 1 1 1 1 1 1 1 1 1 1 1 1 1 1 1 1 1 1 1 6 6 6 6 r y y y d d d d d d d d k k d d d d d d k k c n Y T E [ { @.#.6.6.6.6.o.o.O.O.} } } } | +.+.&.*.` ` ) =.) ) ~ ~ } } } } { X.#.6.7.r.r.p.k.k.l.x.x.x.l.x.N.N.V.Z.A.0XqXtXqX0X-X%X#XOXOXOX$X$X&X@X!.!.Q.^.^.^.^.^.~.~.~.~.}._._._.[.[.jXxXzXkXkXnXnXmXBXBXBXmXlXgXhX'.'.`.`.).).`.'.'.).J.;.^ ^ R R B B B k r 5 & % @ O O o o X X X . . . . .                                                                                                                                                   . . . . . . . X X X X o o O O O # @ % % & > 5 r k k k Y  .;.$.D.H.H.I.`.hXgXhX'.'.'.'.'.gXkXnXmXVXLXVXVXVXbXbXcXcX X.X.X|.,X,X,X^.Q.Q.!.!.!.!.@XOX#X-X;X0XeXrXtXaXaXsXsXsXaXtXrXeXwXwX>X-X-X%X$X+X+X@X!.!.Q.z.z.f.g.9.9.XXDXG.1.1.<.o.o.o.{ O.O.O.| | ` *.&.y.y.b.b.y.&.&.+.} ] Q Q E E T T Z n n n c n n n n Z Z S S Z Z Z v n z z g g g g x x x b b b b M M M M b b x x x h h f f f d d y y y y y d y y y y y y y y y y y y r 6 6 r y r 6 6 r 6 6 r r 6 6 1 1 1 1 1 ",
"> > > > 1 > > 1 > 1 1 1 > > > 1 1 1 1 1 1 1 1 1 1 1 1 1 1 1 1 1 1 1 1 1 1 1 1 1 1 1 1 6 6 6 r y 8 y d d d d d d d d d d d d y d d d g k c n Y T E [ { @.#.6.6.6.6.o.o.O.O.} } } } | +.&.&.*.` ` | =.) ) ~ ~ } } } } { O.#.8.7.r.r.k.k.k.x.x.x.x.x.x.N.N.V.Z.A.0XqXtXqX0X-X%XV.OXOXOX$X$X&X!.!.!.Q.Q.^.^.^.^.~.~.~.~.}._._._.[.[.jXxXzXkXlXnXmXBXBXBXBXmXlXgXgX'.'.`.`.).).`.'.'.(.J.;.^ ^ R R B B B j r 5 & % @ # O o o X X X . . . . . .                                                                                                                                               . . . . . . . . X X X o o o O O O # @ % & & 5 5 y k k k R $.$.$.D.F.H.I.`.hXgXhX'.'.'.'.hXgXkXnXBXVXDXVXVXVXbXbXcX X X.X|.|.,X,X,X^.Q.Q.!.!.!.@X@XOX#X-X;X0XqXrXtXaXdXsXsXsXaXtXrXeXwXwX>X-X-X%X$X+X+X!.!.!.Q.z.k.d.d.r.9.r.G.9.9.8.<.o.o.o.O.O.O.O.| | &.*.&.y.y.b.b.y.&.+.| ] [ ! Q E T T Y Z n n n n n n n n Z Z S S Z Z Z v c c c g g g g x x x b b b b M M M M b x x x h h h f f d d i 8 d y y y y y y y y y y y y y y y y r r r r r 8 6 6 6 6 6 6 r 6 6 6 1 1 1 1 ",
"> > > > 1 1 1 1 > > > 1 > > > 1 > 1 1 1 1 1 1 1 1 1 1 1 1 1 1 1 1 1 1 1 1 1 1 1 1 1 1 1 6 6 6 6 r y d d d d d d d d d d d y y d d d g k c n Y T E [  .@.#.6.6.6.<.<.o.O.O.{ ] } } | +.&.` ` ` ` L L ) ) ~ ~ ~ ] } } } X.O.6.7.r.r.k.k./.x.x.l.l.l.N.N.M.B.Z.A.0XrXtXqX;X-X%X#XOXOX+X$X$X&X!.!.!.Q.Q.^.^.^.^.~.~.~.~.R._._._.[.cXjXxXzXkXlXnXmXBXBXBXBXmXlXgXhX'.'.`.`.).).`.'.'.(.J.;.^ ^ R R B B B B r 5 & % @ O O o o X X X . . . . . . .                                                                                                                                         . .   . . . . . . . X X X o o o O O O @ @ % & > 5 r y k k c W $. .$.D.F.H.(.'.gXgXhX'.`.].'.hXgXkXnXBXLXVXVXVXVXMXbXcX X X.X.X|.,X,X&X^.^.!.!.!.@X@X@XOX%X-X;X0XeXrXtXaXdXsXsXdXaXtXrXeXwXwX>X-X%X%X$X+X+X!.!.!.z.z.k.d.r.9.r.9.9.9.9.<.<.o.o.o.O.O.O.| | | *.*.&.y.b.b.y.y.&.+.} ] ] Q E E T T Y n n n n n c c n n Z Z Z Z Z Z Z n z z z g g z z x b b b b b b M M b M M x x x x h h f f d i i d y y y y y y y y y y y y y 8 y y y y y y y r r r 6 r r r 6 6 6 6 6 6 6 1 1 ",
"> > > > > > 1 > > > 1 > > > > 1 > 1 > 1 1 1 1 1 1 1 1 1 1 1 1 1 1 1 1 1 1 1 1 1 1 1 1 1 6 6 6 6 y y d d d d d d d d d d d y y d d d g c c n Y T ! [ { @.#.6.6.6.<.o.O.O.} { } } } | +.&.` ` ` | L L ) ) ~ ~ ~ } } [ { O.#.6.7.r.r.k.k./.x.x.l.m.M.N.N.M.B.Z.A.0XrXtXqX;X-XV.#XOXOX#X$X$X&X!.!.!.Q.^.^.^.^.Q.~.~.~.~.R._._._.[.jXjXzXkXkXlXnXmXBXBXBXBXmXlXgXhX'.'.`.`.).).`.'.`.(.J.;.^ ^ ^ R Y N Y B t 5 & % @ # O o o o X X X . . . . .                                                                                                                                               . . . . . . . . X X X o o O O O O @ % % & > 5 r k k k B ^ $. .$.D.F.I.).'.gXgX'.'.`.`.'.hXgXlXmXVXLXVXVXVXVXbXbXcX X X.X.X|.,X,X^.^.^.!.!.!.@X@X@X#X-X-X;X0XeXtXtXaXsXsXsXaXaXrXrXeX0X;X>X-X-X%X$X+X@X!.!.!.z.z.k.g.r.9.r.9.9.9.9.<.,.,.o.o.O.O.O.| | ` *.*.&.y.b.b.y.t.&.| } ] Q Q E E T Y Y n n n n n c n n Z Z Z Z Z Z Z n n n z z g z z z x b b C C b b M M M b b x x x h h h f i d d d d y y 8 y y y y y y y y y y y y y y y y y y y y y 6 r r 6 r 6 6 6 6 6 6 1 1 ",
"> > > > > > > > > > > 1 1 > > > 1 > 1 1 1 1 1 1 1 1 1 1 1 1 1 1 1 1 1 1 1 1 1 1 1 1 1 1 6 6 6 6 y y d d d d d d d d d d d y d d d d k c c B Y E ! [ { @.#.6.6.6.<.o.O.O.} { } } } | | &.` ` ` ) =.) ) ~ ~ ~ ~ } } } } X.#.6.7.r.r.k.k.x.x.x.l.x.N.N.N.M.V.Z.A.0XrXtXqX;X-XV.OXOXOX$X$X$X&X!.!.!.Q.^.^.^.^.^.~.~.~.~.R._._._. XjXjXzXkXkXlXnXmXBXBXJXBXmXlXgXhX'.'.`.`.).).`.'.`.(.J.;...^ ^ R R R R B t 5 > & % @ O o o o X X X . . . . . .                                                                                                                                               . . . . . . X X X X o o O O O # @ % & & > 5 y k k k Y .. . .$.D.F.I.).hXgXhX'.].].].'.hXgXlXmXVXLXVXVXVXVXbXbXcX X.X.X|.,X,X|.^.^.!.!.!.!.@X@XOX$X-X;X;X0XrXtXaXaXsXsXsXaXtXrXrXwXwX;X;X-X%X%X$X+X@X!.!.Q.z.z.k.d.9.9.9.9.r.9.9.8.,.,.,.o.O.O.O.| | &.*.*.y.y.y.b.y.&.+.| { ] Q Q E E T Y Z n n n B n c n n n Z Z Z S Z Z n n n z g g g z z x b b C b b M M M M M b x x x h h h h d d d d d d y y y d y y y y y y y y y y y y y y y 8 y y y r r 6 r 6 6 r 6 6 6 6 1 1 ",
"> > > > > > > > > > 1 1 > > 1 > > > 1 1 1 1 1 1 1 1 1 1 1 1 1 1 1 1 1 1 1 1 1 1 1 1 1 1 6 6 6 6 y y d d d d d d d d d k k d d d d d g c c Z Y E ! [ { @.#.6.6.6.o.o.O.O.{ } } } } | | ` ` ` ` | ) ) ) ~ ~ ~ ~ } } { { X.#.6.7.r.r.k./.x.x.l.l.M.m.N.N.V.V.Z.A.0XrXrXqX;X-XV.OXOXOX$X$X$X&X!.!.!.Q.^.^.^.^.^.Q.Q.~.R.R._._.[. XcXxXzXkXlXlXnXmXBXNXJXBXmXlXgXhX'.'.'.`.).).`.'.`.(.J.;...^ ^ R R R R Y k 5 > & % @ O O o o X X X . . . . . . .                                                                                                                                               . . . . . X X X o o o O O O # @ % & & > 5 y k k c R .... .D.F.H.I.`.hXhXhX].`.`.].'.hXkXnXBXVXJXVXVXVXMXMXbXcX X X}.|.,X,X^.^.^.!.!.!.!.@X@XOX$X-X;X0XeXrXtXaXaXsXsXdXaXtXrXeXwXwX>X-X-X-X$X$X+X@X!.!.Q.z.k.k.r.9.9.9.9.r.r.8.4.,.,.o.o.O.O.+.| | &.*.&.y.y.b.y.y.&.+.| ] Q Q E E T T Z n n n n n n c n T S Z Z Z Z Z Z n c c c z z c c z x b b b b M M M M M b b x x x h h h d i d d d d y y y d d y y y d y y y y y y y y y y y y r r y r r r r 6 6 6 6 6 6 6 6 1 ",
"> > > > > > > > > > > > > > 1 > 1 1 > 1 1 1 1 1 1 1 1 1 1 1 1 1 1 1 1 1 1 1 1 1 1 1 1 1 6 6 6 6 y y y y d d d d d d d g k d d d d d g k c n Y E ! [  .#.#.6.6.6.o.o.O.} } } } } } | ) ` ` ` ` =.=.) ~ ~ ~ ~ Q Q } } O.O.#.7.7.r.p.k.k.x.l.k.l.x.N.N.N.M.V.Z.;XqXrXrX0X;X-XV.OXOXOX+X$X$X+X!.!.Q.Q.Q.^.^.^.Q.Q.~.~.~.R._._._. XjXxXzXkXkXlXnXmXBXBXJXBXmXlXkXhXhX'.`.`.).).`.'.'.(.J.;...^ ^ W R R R R k r 5 & % @ O O o o o X X . . . . . .                                                                                                                                           . . . . . . . . X X X o o o O O O @ @ % & & 5 5 y k k B W ....$.D.F.H.I.'.hXhX'.'.`.'.].hXhXkXnXMXJXVXVXVXVXMXbXcXcX.X.X.X|.,X|.^.^.^.!.!.!.!.@XOX#X-X-X;X0XeXrXtXaXdXsXsXaXtXtXrXeXwXwX;X-X-X-X%X$X+X@X!.!.Q.k.k.W.k.9.r.9.9.r.r.8.<.,.,.o.o.O.+.+.| | &.*.&.y.y.b.y.t.&.+.} ] Q Q E T T Y Z n n c c c c c n ^ E Z Z Z Z Z n n z c z z z z z z b b M M M M M M M M b b b x x h h i f d i i d 8 y y y y y y y y y y y y y y y y y y y r r r r y r r 6 6 6 6 6 6 r 1 1 1 1 ",
"> > > > > > > > > > > > > 1 > 1 1 1 1 1 > 1 1 1 1 1 1 1 1 1 1 1 1 1 1 1 1 1 1 1 1 1 1 1 1 6 6 r y d c g d d d d d d k k k d d d d d k k c n Y E ! [ { #.2.6.6.6.O.o.O.} } } ] } | | ` ` ` ` ` L =.) ~ ~ ~ ~ ~ Q } ] O.#.#.6.7.r.p.W.k.l.l.l.l.N.N.N.M.V.V.Z.A.qXrXrX0X;XZ.V.OXOXOX+X$X$X+X!.!.Q.Q.Q.^.^.^.^.Q.~.~.~.R._._.[.[.jXxXzXlXlXlXmXmXBXBXJXBXmXlXkXhX'.'.`.`.).).`.'.`.(.J.;.......W R R R R k r 5 > % @ O O O o o X X X . . . . . .                                                                                                                                           . . . . . . . X X o o o o O O @ @ % % & > 5 r y k k B W .. .$.D.F.H.).'.hX'.'.`.`.`.'.hXhXkXnXBXJXVXVXVXMXMXxXcX X X.X.X|.,X^.^.^.^.!.!.!.!.@XOX#X-X-X;X0XeXtXaXaXsXsXsXaXtXrXrXeXwXwX;X-X-X%X$X$X+X@X!.!.W.k.k.d.9.9.9.9.r.r.r.8.<.,.,.o.o.O.+.+.| | &.&.y.y.y.b.y.t.+.+.} ] Q Q E T T Y Z n n c c c c c n Z n Z Z Z Z Z n n z c z g z z z x b b C C C M M M M M b b b x x x h h f d d d d d y y y y y y y y y y y y y y y y y y y r r r r r r r y y 6 6 6 1 6 1 1 1 1 ",
"> > > > > > > > > > > > > > 1 1 1 > > > 6 d 1 > 1 1 1 1 1 1 1 1 1 1 1 1 1 1 1 1 1 1 1 1 6 6 6 r y d Y n d d d d d d d d d d d d d d k k n Z T E ! [  .#.#.6.6.6.o.o.O.} } } } } | | ` ` ` ` ` =.) ) ) ~ ~ ~ ~ } } [ { O.#.6.7.r.p.W.k.x.l.x.l.N.m.N.M.V.V.Z.;XqXrXrX0XA.Z.V.M.OXOX#X$X$X+X!.!.!.Q.Q.^.^.^.^.Q.~.~.R.R.}.}.[.[.jXxXzXlXlXnXnXBXNXBXJXJXBXlXkXgXhX'.'.`.).).).`.`.(.H.;. .....^ R R W W B r 5 > & % @ # O o o o X X X . . . . .                                                                                                                                         . . . . . . . X X X o o o O O O @ @ % & & > 5 r y k k Y ! ..@.D.F.H.I.).hXhX'.'.`.`.`.'.hXgXlXnXBXJXVXVXVXMXbXbXcX X X.X|.,X,X^.^.^.^.!.!.!.@X@XOX%X-X;X0XqXrXtXaXaXsXsXaXaXtXrXeXeXwXwX;X-X-X%X$X$X+X!.!.!.W.k.k.g.9.9.9.r.d.d.r.8.8.,.,.o.o.O.+.| +.+.&.&.y.y.y.y.y.&.+.| { ] Q E E T Y Y Z n n c c c c c n n Z Z Z Z Z Z n n z c z g z z z b b b C C C M M C C C b b b x x h g f d f d d d d y y d y y y y y y y y y y y y y y y y y y r r 6 6 y y y 6 6 6 6 6 1 1 6 1 ",
"> > > > > > > > > > > > > 1 1 1 > 1 > ; :.{.B > 1 1 1 1 1 1 1 1 1 1 1 1 1 1 1 1 1 1 1 1 1 1 6 r y y d d d d d d d d k k d d d d d d k c n Z T E ! [ X.#.#.6.6.<.o.O.O.} } } ( } | | ` ` ` ` ` =.) ) ~ ~ ~ ~ ~ } } [ { X.#.6.7.r.p.W./.x.l.l.l.N.m.N.M.V.V.Z.;XqXrXrX0XA.V.V.OXOX#X$X$X$X@X!.!.Q.Q.Q.^.^.^.Q.Q.~.R.R.R._._.[.jXjXxXzXlXlXlXmXmXNXBXJXJXNXnXkXgXhX'.`.`.).).).`.`.(.H.;. .....^ W R W ^ B t r 5 & % @ O O O o o X X X . . . . . .                                                                                                                                   . . . . . . . . . X X X o o o O O O @ @ % & & > r r y k B R ^  .$.D.H.H.I.`.hXhX'.`.`.`.].'.hXgXlXmXBXVXBXBXVXMXbXbXcX X.X.X|.,X|.^.^.^.!.!.!.!.@X@X#X%X-X;X0XqXrXtXaXdXsXsXaXtXrXrXeXwXwX;X-X-X-X%X$XOX@X!.!.!.z.k.k.9.9.9.9.d.d.d.r.8.8.4.,.<.o.O.+.+.+.&.*.&.y.y.y.y.y.&.+.} ] Q Q E E W Z Y n n c c c c n n n n Z S Z Z Z n n n z c g g z z z b b C C C C C C C C G C b b x h h d h d i d d d d y y y y y y y y y y y y y y y y y y y y y r y y r r 6 6 6 6 6 6 6 1 6 6 1 ",
"> > > > > > > > > > > > > > 1 > > 1 1 ; :.bXN 1 1 1 1 1 1 1 1 1 1 1 1 1 1 1 1 1 1 1 1 1 1 1 6 r y y d d g d d d d d k k y y d d d d k c c Z T E ! [ @.#.#.%.O.O.o.O.} { ] ( } } ) | ` ` ` ` =.| ) L ~ K ~ ~ ~ Q } } { O.#.6.7.r.p.k.k./.x.x.l.N.l.N.N.V.V.Z.;XqXtXrX0X;X%X#XOXOXOXOX+X$X+X!.!.Q.Q.Q.^.^.^.Q.~.~.R.R.R.R._._.[.jXxXMXlXlXlXnXmXNXBXJXJXNXnXkXgXhX'.'.`.`.).).`.`.(.H.;. .....^ ^ R W ^ R k r 5 & % @ @ O O o o o X X . . . . . .                                                                                                                                   . . . . . . . . X X X o o o o O O # @ % % & > 5 r y k k B W ^ $.H.H.H.H.(.'.hX'.'.`.`.`.`.'.hXkXnXmXVXVXBXVXBXMXbXbXcX X X.X|.|.^.^.^.^.!.!.!.!.@XOX#X%X-X;X0XeXrXaXaXsXsXdXaXtXrXeXeXwXwX;X-X-X-X$XOXOX@X!.!.z.z.k.d.p.r.9.r.d.d.r.e.8.4.8.,.o.o.+.+.+.+.&.&.&.y.y.y.y.t.+.O.{ [ Q E E E E Y Y n n c c c c n n n Z Z Z Z Z Z n n z z z z k z z x b M C C C C C C C C C b b x x h h d d d i d d d d d y y y y y y d y y y y y y y y y y y y r y y y y 6 B B 6 6 6 6 6 6 1 1 1 ",
"> > > > > > > > > > > > > > > 1 1 > 1 ; r k 1 1 > > 1 1 1 1 1 1 1 1 1 1 1 1 1 1 1 1 1 1 1 6 6 r y y d k ..B y d d d k d d d d d d d k c c Z T E ! [ @.#.#.6.6.O.o.O.{ } ] ] } } | | ` ` ` ` =.| | L L ~ ~ ~ Q ~ } } { O.#.6.7.r.K.k./.l.x.x.x.N.l.N.N.B.V.Z.;XqXtXrX0X;X-X#XOXOXOXOX$X$X+X!.!.Q.Q.Q.^.^.^.Q.~.R.R.R.R.R._.[.[.jXxXMXnXlXnXnXmXNXBXJXJXNXnXkXgXhXhX'.`.`.).).`.`.(.H.;. .......^ W ^ ^ R k r 5 > & % @ # O O o o X X X . . . . . . .                                                                                                                               . . . . . . . . X X X o o o o O O # @ % & & 5 5 r y k c Y W  .J.H.H.H.I.).'.'.'.`.`.`.].`.'.gXkXnXBXVXBXBXBXMXMXbXcXcX X X.X|.^.^.^.^.^.!.!.!.!.@X#X%X-X-X;X0XeXtXaXdXsXsXaXtXtXrXeXwXwXwX;X-X-X-X#XOXOX@X!.x.z.k.k.d.r.9.r.d.d.d.d.e.8.<.,.,.o.o.O.+.+.+.*.&.&.y.y.y.a.t.+.O.{ [ Q E E ! W Y Z n n n c c c n n Y S Z Z Z Z Z n n z z z c c z z x b M C C C C C C C C b b x x x h g d d d d d d d d d y y y y y y y y y y y y y y y y y y y y y y y y 6 D.H.8 6 r 6 6 6 1 1 1 ",
"> > > > > > > > > > > > > > > 1 1 > 1 1 ; ; > 1 1 1 1 1 1 1 1 1 1 1 1 1 1 1 1 1 1 1 1 1 1 6 6 6 y y d g / c d d d d d d d y d d d d k c n Z T E ! [ @.#.6.6.%.O.o.O.} } ] K ~ } | | ` ` ` ` L =.L L K K K ~ Q Q } } } O.#.6.7.p.W.W././.x.l.x.N.l.N.N.V.V.Z.A.qXtXrX0X;XV.#XOXOXOXOX$X$X+X!.!.Q.Q.Q.^.^.^.Q.~.R.R.R.R._._.[.[.jXxXmXlXnXlXnXmXNXBXJXJXBXmXlXkXhXhX'.`.`.).).).`.(.H.;.$. . ...^ ^ ^ ..^ B t r 5 & % @ # O O o o o X X X . . . . . .                                                                                                                             . . . . . . . . X X X X o o o O O # # % % & > 5 r r y k B R ! $.H.H.H.H.I.`.'.'.'.`.`.].].'.hXgXlXnXBXVXBXBXBXMXMXxXcX X X}.|.|.^.^.^.^.!.!.!.!.@XOX#X%X-X;X;XwXrXtXaXsXsXsXaXtXrXrXeXwXwX;X-X-X-X%X#XOXOX@X!.x.z.k.k.p.r.r.r.d.d.d.d.e.q.<.,.,.o.o.+.+.+.&.*.&.y.y.y.y.a.t.O.} ] ! ! E E W W Y n B n B c c n Y W Z Z Z Z Z Z n n v z z z c z z c b b b C C C C C C C C b b b x x h g d g h d d d d d y y y y y y y y y y y y y y y y y y y y y y r y y 8 n Y 6 6 r 6 6 6 1 1 1 ",
"> > > > > > > > > > > > > > 1 1 > 1 1 1 1 1 > 1 1 1 1 1 1 1 1 1 1 1 1 1 1 1 1 1 1 1 r 1 6 r r r y y d d d d d d d d y y d y d d d g k c n Z T E ! { @.#.%.6.O.O.o.O.} } } ~ ~ } | | ` ` ` ` L =.L ) K ~ ~ ~ Q Q ~ } { O.#.6.7.r.K.W.k.x.x.x.x.N.l.N.M.V.V.Z.;XqXtXrX0X-XV.V.OXOXOXOX$X$X@X!.!.Q.Q.Q.^.^.^.Q.~.R.R.R.R._.}.[.[.jXxXmXlXnXnXnXmXBXBXJXJXBXmXlXkXgXhX'.`.`.).).).`.).H.;.;. . . ...^ ^ ....R k r 5 & % @ @ O O O o o X X X . . . . . . .                                                                                                                         .   . . . . . . X X X X X o o O O O # @ % & & 5 5 r y k c Y W ..D.H.H.H.I.).`.'.'.`.`.).].].'.hXkXlXmXBXBXBXBXMXMXbXxXcX X X.X|.|.^.^.^.^.!.!.!.@X@XOX%X-X-X;X0XeXrXtXaXsXsXdXtXtXrXeXeXwXwX;X-X-X-X%X#XOX@X!.!.x.z.k.k.p.p.p.d.d.d.d.e.e.q.<.,.,.o.O.+.+.+.&.&.&.y.y.y.y.t.+.+.{ [ Q Q E T T T Y n n n B c n n Z Z n Z Z Z Z n n n c c z z z z c m b b C C C C C C C C C b b x x g h g d g g d d d d y y d y y y y y y d y y y y y y y y y y y y y 6 y y y 6 6 6 6 6 6 6 6 6 1 1 ",
"> > > > > > > > > > > > > > 1 > > 1 1 > 1 > 1 1 > 1 1 1 1 1 1 1 1 1 1 1 1 1 1 1 1 1 1 1 6 6 r 6 8 d d d d d d d d d d d d y y d d g k c n Z T E Q { X.#.#.%.O.O.O.O.} ] K K K } | | ` ` ` ` L =.=.) ~ ~ ~ K Q Q ] [ { X.#.6.7.r.p.W.k./.x.x.x.m.l.N.N.V.V.Z.;XqXrXrX0X-XZ.V.OXOXOXOX$X$X+X!.!.Q.Q.Q.!.^.^.Q.~.R.R.R.R.R.}.[.[.jXxXmXnXnXnXmXmXBXBXJXLXHXmXlXkXgXhX'.`.`.).).).`.).H.D.;. . . ...^ ^ .. .R j t 5 = & % @ O O O o o o X X . . . . . .                                                                                                                           . . . . . . . X X X X X o o o O O # @ @ % & > 5 5 r y k B Y W $.F.H.H.H.I.).'.'.`.`.].).`.`.'.gXkXnXBXBXBXBXMXMXMXbXxXcX X X.X|.^.^.^.^.^.!.!.!.@XOX#X%X-X-X;X0XeXrXaXdXsXsXaXtXrXrXeXwXwX>X;X-X-X-X$XOXOX@X!.!.x.k.k.k.r.r.r.d.f.d.d.e.8.<.4.,.<.<.O.+.+.+.&.&.y.y.y.y.y.t.+.O.{ ] Q E E T T Y n n n n c c c c n n n Z Z Z Z Z n n c c c k z z c m b C C C C C G G C C C b b x x h h g g d d d d d d y y y y y y y y y y y d y y y y y y y y y y y y 6 r y y 8 8 6 6 6 6 6 6 1 1 ",
"> > > > > > > > > > 1 1 > > > 1 > > > 1 1 1 1 1 1 1 1 1 1 1 1 1 1 1 1 1 1 1 1 1 1 1 1 1 1 6 6 r y y d g g d d d d d d d d d d d d d k c n Z T E Q [ X.#.#.%.O.O.O.O.} ] K K K ) | | ` ` ` I L =.L L ~ ~ ~ ~ Q Q Q ] { O.#.6.r.r.K.W././.x.x.x.x.l.N.N.V.V.Z.A.0XrXrX0XZ.Z.V.M.OXOXOX$X$X+X!.!.Q.Q.Q.^.^.^.Q.~.R.Y.R.R.R.}. X[.jXxXMXnXlXnXmXmXNXJXJXLXJXmXnXkXgXhX'.'.`.`.).).).).I.D.;.$. . . .......$.^ B k r 5 & % @ @ # O o o o X X X X . . . .                                                                                                                           . . . . . . X X X X X o o o O O # @ @ % % & > 5 r r t k B R ..D.H.H.H.H.I.`.`.`.`.`.`.).`.'.hXgXlXmXBXBXBXBXmXmXxXbXcX X X X.X|.^.^.^.^.!.!.!.@X@XOX%X-X-X-X;X0XrXtXaXsXsXaXtXtXrXeXeXwXwX>X-X-X:X%X$XOXOX@X!.!.z.k.k.p.r.r.d.d.f.d.d.e.8.<.<.<.o.o.+.+.+.&.&.&.y.y.y.y.y.t.O.O.[ ] Q E E T Y Y n n n n c c c n n n n Z Z n Z n n n c c z c c z z m m C C C G C F C C C C b b x z h g g d d d d d y d d y y y y y y y y y y y y y y y y y y y y y y y 8 8 y y r 6 r 6 6 6 r r 6 1 ",
"> > > > > > > > > 1 1 1 > > 1 > 1 1 1 1 1 1 1 1 1 1 1 1 1 1 1 1 1 1 1 1 1 1 1 1 1 1 1 1 1 6 6 r y y d g g d d d d d d d y y d d d g k c n Z T E ! { @.#.%.%.O.O.O.O.} ] K K K | | ` ` ` ` I L =.L L ~ ~ ~ ~ E Q Q ] { O.#.6.7.r.p.k./.=Xx.x.x.x.l.N.N.V.V.Z.A.0XrXrX0X;XV.V.M.M.OXOX$X$X+X!.!.Q.Q.Q.!.^.^.Q.~.~.Y.R.R.R.}. X[.jXxXMXnXnXnXmXmXNXHXJXLXJXmXnXkXgXgXhX'.'.`.`.).).).I.J.;.$. . .$.......$. .R k t 5 5 & % @ @ # O o o o X X X . . . . .   . .                                                                                                                 . . . . . . X X X X X o o o o O O # @ % % & > > 5 r y k B Y W $.F.H.H.H.I.).`.`.`.`.`.`.).`.'.hXgXlXmXBXBXBXBXmXmXxXbXcX X X X|.|.^.^.^.!.!.!.!.@XOX#X%X-X-X;X0XqXrXtXdXsXsXaXtXrXeXeXwXwXwX>X-X-X-X%XOX+X@X!.!.!.z.k.k.p.r.r.d.P.P.d.g.e.8.<.<.<.o.+.+.+.&.&.&.y.y.y.y.y.y.+.O.{ [ ! Q E E T Y B n n n c c c c c n n n Z Z n Z n n c c c g c z n R b A C C G G F F C C C C b b x x h g g d d d d d y d d y y d y d y y y y y y y y y y y y y y y y y y y y y y y 6 r r 6 6 6 6 6 6 ",
"> > > > > > > > > 1 1 1 > > 1 > 1 1 1 > 1 1 1 1 1 1 1 1 1 1 1 1 1 1 1 1 1 1 1 1 1 1 1 1 1 6 r y 8 y d g g d g d d d d d d d d d d g k c n Y T E Q { @.#.6.O.O.O.O.} } ( K K K ) | ` ` ` I L L =.L ) ~ ~ ~ ~ Q Q Q } } O.O.6.7.r.p.k./.=X/.N.x.x.l.m.N.V.V.Z.A.0XrXrX0XZ.V.V.M.M.OXOX+X$X+X!.!.Q.Q.Q.Q.^.^.Q.Q.R.Y.R.R.R._.}. XjXxXMXnXnXnXmXmXNXBXJXLXJXBXnXlXkXgXhX'.'.'.`.).).).(.H.;.;.;.$.$. .....$.;.^ j t 5 5 & % % @ # # O o o o X X X . . . . . . . .                                                                                                               . . . . . X X X X X X o o o O O # @ @ % % & 5 5 r r k c B R ..D.H.H.F.F.I.).`.`.`.`.`.).`.`.'.gXkXnXmXBXBXBXmXmXMXMXbXcX X X}.|.^.^.^.!.!.!.!.@X@X#X%X%X-X;X;X0XeXtXaXsXsXdXtXtXrXeXwXwXwX>X;X-X-X-X#XOXOX@X!.!.!.z.k.k.k.r.r.P.P.P.d.e.8.8.4.<.<.o.+.+.+.&.&.&.y.y.y.y.y.t.+.O.{ [ ! E E E T Y B B n n n c c c n n n n Z Z Z Z n n c c c c z z R / m C C G G G G G F C C C b b x x h g g d d d d d y y y y d d d y y y y y y y d y y y y y y y y y y y y y y y 8 r 6 6 r 6 6 6 6 6 ",
"> > > > > > > > > 1 1 1 1 1 1 1 1 1 1 > 1 1 1 1 1 1 1 1 1 1 1 1 1 1 1 1 1 1 1 1 1 1 1 1 6 6 6 8 y d d g d d g d d d d y y y d d d g k c n Y T Q ! { @.#.6.<.+.O.O.} { ( Q ~ K ) | | ` ` I L L =.L L ~ ~ ~ E E Q } ] { O.#.6.7.r.p.k./.=X=X=Xx.x.x.m.N.N.V.Z.A.0XrXrX0X;X%XV.M.M.OXOX$X$X+X!.!.Q.Q.Q.Q.!.^.Q.Q.Y.Y.R.R.~.}.}. XjXxXMXmXnXnXmXmXBXHXJXLXLXNXmXlXkXgXhX'.'.'.`.).).(.(.H.D.;.;.$. . . . .;.;...B k r 5 > & % @ @ # O O o o X X X . . . . .   .                                                                                                           . . . . . . . . X X X X X o o o O O O @ @ @ % & > 5 5 r y k B Y ! ;.F.H.F.F.H.I.`.`.`.).).`.).`.`.'.gXkXnXMXBXmXBXmXMXMXbXxXcX X.X.X|.^.^.^.!.!.!.!.@X+X#X%X-X-X;X0X0XrXtXaXsXsXaXtXrXeXeXwXwXwX;X;X-X-X%X#XOXOX@X!.!.!.k.k.k.r.r.k.f.P.d.d.e.e.8.8.<.<.O.O.+.+.&.&.y.y.y.y.y.y.t.O.{ [ [ ! ! E T Y Y n n n n c c n n n n n n n n n n n c c c c c z z n n A A G G G G G F F C C C b b x x h g d d d d d y y d y y d d y y y y y y y y d y y y y y y y y y y y y y y y y r r 6 6 6 6 6 1 1 ",
"> > > > > > > > > 1 1 1 1 1 1 1 1 1 1 1 1 1 1 1 1 1 1 1 1 1 1 1 1 1 1 1 1 1 1 1 1 1 1 6 6 6 6 6 y d d g d d d d d d d d y y y d d g k c n Y T Q ] { @.#.%.O.+.O.O.} ] } ~ ~ K ) | ` ` ` I I L =.) L ~ ~ ~ E E Q Q [ { O.#.6.7.r.p.k./.=X=X=Xx.x.x.m.N.N.V.Z.A.0XrXrX0X;X%XV.M.M.OXOX#X$X+X!.!.Q.Q.Q.Q.!.^.Q.Q.Y.Y.R.R.R.}.}. XjXxXMXmXnXnXmXmXNXHXJXLXLXHXmXnXkXgXhXhX'.'.`.`.).(.(.H.D.;.;.$. .$. . .$.D.$.R j t 5 5 & % % @ @ O O o o o X X X . . . . .                                                                                                       . .   . . . . . . . X X X X X X o o O O O # @ @ % & > > 5 5 r k c Y R  .D.H.F.F.F.H.).`.).).).).).`.`.'.hXgXlXmXBXmXmXBXMXMXMXbXcX X.X.X|.^.^.^.^.!.!.!.@X+X$X%X-X-X-X;X0XqXrXtXaXsXaXtXtXrXeXwXwXwXwX;X;X-X-X%XOXOX@X!.!.!.z.k.k.p.r.d.k.f.f.d.d.e.8.8.8.<.o.<.O.+.+.&.&.y.y.y.y.y.t.+.O.{ [ [ ! $...Y Y Y B B B n c c B B n n n n n n n n n c c c z c c z n m A G G G G G G G G F C C b b x z h g g d d d d d d y d d y d y d y y y d y d d y y y y y y y y y y y y y y y y y y r 6 6 6 6 1 1 ",
"> > 1 1 1 > > > > > 1 1 1 1 1 1 1 1 1 1 1 1 1 1 1 1 1 1 1 1 1 1 1 1 1 1 1 1 1 1 1 1 1 1 6 6 6 6 y d d g g d d d d d d y y y d d d g k c n Z T Q ] { @.#.%.O.+.O.O.} } K ~ ~ K L | ` ` I I I L =.L L ~ ~ ~ E E Q Q ] { O.o.6.7.r.p.W./.=X=Xx.x.N.l.l.N.N.B.Z.A.0XqXrX0X;XV.#XM.M.OXOXOX$X+X!.!.Q.Q.Q.Q.!.^.Q.Q.Y.Y.R.R.~.}.}. X[.jXMXmXnXnXmXmXNXNXJXLXLXHXmXnXlXkXgXhX'.'.'.'.`.(.(.(.D.D.;.$.$.;.;. .$.D.D.^ B k r 5 5 & % @ @ # O O o o o X X X X . . .                                                                                                   .     . . . . . . . . . X X X X o o o o O O O @ @ % & & 5 5 5 r y k B R ^ ;.F.F.F.F.H.I.).).).).).).).).`.'.hXkXnXmXmXmXmXBXMXMXxXxXcX X}..X|.^.^.^.!.!.!.@X@X+X$X%X-X-X-X;X0XeXrXaXaXaXaXtXrXrXeXwXwXwX;X;X;X-X-X#X#X+X@X!.!.!.z.k.k.k.d.k.W.P.f.d.s.e.q.<.<.<.o.O.+.+.&.&.t.y.y.y.y.y.t.+.O.{ [ ! ! $.[ Y Y Y Y Y B B n n n n n n n n n n n n n c c z c c c c m A A G G J J F F F G C C C b b z z g g g d d d y d d d d y y y y y y y d y y d y d y y y d y y y y y y y y y y y 6 r 6 6 6 6 6 6 1 ",
"> 1 1 1 > 1 1 > > > 1 1 1 1 1 1 1 1 1 1 1 1 1 1 1 1 1 1 1 1 1 1 1 1 1 1 1 1 1 1 1 1 1 1 6 r 6 r y d d g g g g d d d y y y y y d d k k c n Z T Q Q [ X.#.%.+.+.O.O.} ] Q ~ K K L L ) ` ` I I L =.L L ~ ~ ~ E E Q Q ] { O.o.6.7.r.p.W./.=X=XN.x.m.l.l.N.N.B.V.Z.0XqXrX0X-XV.V.M.M.OXOXOX$X+X!.!.Q.Q.Q.Q.Q.^.Q.Q.Y.Y.Y.R.~.~.}. X[.jXMXmXnXnXmXmXNXGXJXLXPXJXmXmXlXkXgXhX'.'.'.hX'.).(.(.H.D.D.;.$.$.;.;.$.D.D. .R B t 5 5 > & % @ @ # O o o o X X X X . . . .     . .                                                                                       . . . . . . . . . . . . X X X X X o o o O O # @ @ @ % & > 5 5 5 r k B Y W  .D.F.F.F.F.H.I.).).).).).).).`.`.hXgXkXnXmXmXmXmXmXmXMXbXcX X X}.|.|.^.^.!.!.!.!.@X+X$X%X-X-X-X;X0X0XrXtXaXaXaXtXrXrXeXwXwXwXwX;X;X-X-X%X#X#XOX@X!.x.!.k.k.k.r.k.W.W.P.P.d.e.e.q.4.8.<.<.O.+.+.&.&.t.y.y.y.y.t.t.O.{ { [ ! ! E T Y Y Y Y Y B c n n n n n n n n n n n n c c z z z c c n m A D G G J J J J F F C C b b b z z g i i d d d d d d d d y y d d y d d y y y y d d y y y y d d y y y y y y y y y y r r 6 6 6 6 6 6 ",
"1 1 > 1 > > > > > 1 1 1 1 1 1 1 1 1 > 1 1 1 1 1 1 1 1 1 1 1 1 1 1 1 1 1 1 1 1 1 1 1 1 1 6 6 6 r y y g g g g c g d d d y y y y d d g k c n Z E Q Q [ @.#.O.O.+.O.+.} } ~ K K K L ) ) ` ` I L L L L L K K K E E E ~ ] } O.o.#.7.r.p.k./.=X=XN.l.x.x.l.m.M.V.Z.Z.0XqXrX0XZ.V.V.OXOXOXOX+X$X+X!.!.Q.Q.Q.Q.Q.Q.Q.Q.Q.Y.R.R.R.R._. X[.jXxXMXnXnXmXmXNXNXJXLXPXJXNXmXlXkXgXhXhX'.'.'.`.).(.(.H.D.D.;.;.$.;.;.$.;.J.D.^ N k t 5 5 & % % @ # O O o o o X X X . . . . .   . . .                                                                             .       . . .   . . . . . . . X X X X X o o o o O # # @ @ % & & 5 5 5 r t k B R ..;.D.F.F.F.H.I.T.I.).).).).).).`.'.hXgXlXmXmXmXmXmXmXmXMXxXcX X X.X|.^.^.^.!.!.!.!.@X+X%X%X-X-X-X;X0XqXrXtXaXaXtXtXrXeXwXwXwXwX>X;X-X-X-X%XOXOX@X!.!.!.x.k.k.k.k.k.W.W.P.P.d.s.e.8.8.6.<.<.O.+.+.&.&.y.y.y.y.t.t.1.O.{ [ [ ! E T Y Y Y B B n c c n c n n n n n n n n n c c c c c c c c n A A G G G J J J G F F C C b b x x g h :.^ 8 d d d d d d d y y y y y y d y y y y y y y y d y y y y y y y y y y y y r r 6 6 6 6 6 6 6 ",
"1 > > 1 > > > 1 1 1 1 1 1 1 1 1 1 1 1 1 1 1 1 1 1 1 1 1 1 1 1 1 1 1 1 1 1 1 1 1 1 1 1 6 6 6 6 y y d g g d d g d d d d d y y d d d g k c n Z E Q Q { @.o.O.O.+.O.O.} } ~ K K K ) | ` ` I I L | =.L L K K K E E E Q } } O.o.#.7.r.r.W./.=X=XN.x.x.x.x.N.M.V.Z.Z.0XqXrX0XA.V.V.#XOXOXOX+X$X+X@X!.Q.Q.Q.Q.Q.FXZXY.Y.Y.R.R.~.R.}. X[.jXxXMXmXnXmXmXNXNXHXLXPXLXHXmXnXkXkXgXhX'.'.`.`.).(.I.H.H.D.D.;.$.;.;.;.$.D.J. .R B k r 5 5 & % % @ @ # O o o o X X X X . . . . . . . .                                                                                     . . . . . . . . X X X X X X o o o o O O # @ @ % & & 5 5 5 5 r k B R ! $.D.F.F.H.H.I.I.I.T.).).).).).`.`.'.gXkXmXnXmXmXmXmXmXMXbXjX X X}.|.|.^.^.!.!.!.@X@X+X$X%X-X-X-X-X;X0XeXrXtXaXtXtXrXrXeXwXwXwXwX;X-X-X-X-X$XOXOX@X!.!.!.z.k.k.k.d.W.W.P.P.d.s.e.8.4.8.8.<.<.+.+.&.&.t.y.y.y.a.a.t.O.O.{ [ ! ! E T Y Y Y B B n n n c c n n n n n n n n n c c c c c c c c v C A G G J J J J G F F C b b x x x g h oX>.8 d d d d d d y y y y d d y d d y y y y y y y y y y d y y y y y y y y y y r r r 6 r 6 6 6 ",
"> > 1 > > > > 1 1 1 1 1 1 1 1 1 1 1 1 1 1 1 1 1 1 1 1 1 1 1 1 1 1 1 1 1 1 1 1 1 1 1 1 1 6 6 6 8 y d g g g d d d d d d d y y d d d g c n n S E Q Q { X.o.O.O.+.+.+.} } ~ K K K ) | ` I ` I L | =.L L K K K ~ E Q Q } } O.o.#.7.r.r.W./.=X=XN.x.x.x.x.M.M.V.V.Z.;XqXrX0X;XV.V.V.M.OXOXOX$X+X@X!.!.Q.Q.Q.~.UXFXf.Q.Y.Y.R.R.R.}. X[.jXxXMXmXmXmXmXNXNXHXLXPXLXJXmXnXlXkXgXhXhX'.`.`.`.(.I.I.H.D.D.D.;.$.;.D.;.D.H.D.^ N j t r 5 > & % % @ @ O O o o o X X X . . . . . . . .                                                                           .         . . . . . . . . X X X X X o o o o O O # @ @ % & & > > 5 5 r k c Y ! $.D.F.D.F.H.H.I.I.I.T.).).).).).`.'.hXgXlXnXnXnXnXmXmXmXMXxXcX X}.}.|.^.^.!.!.!.!.@X@X$X%X-X-X-X-X;X0XqXrXtXtXtXtXtXrXeXwXwXwXwX>X-X-X-X-X%X#XOXOX@X!.!.!.k.k.k.d.d.W.W.P.P.d.e.e.8.8.8.<.<.O.+.+.&.&.y.y.y.y.K./.1.o.X.{ [ ! ! E T Y Y Y Y B n n n n n n n n n n n n n c c c c c c c z n v A D G J J J J J J F C C b b x z z g s c z i d d d d d d d d d d d d y y y d y y y d y y d d d y y y y y y y y y y r r r r r r 6 6 6 ",
"> 1 > > > 1 1 > > 1 1 1 1 1 1 1 1 1 1 1 1 1 1 1 1 1 1 1 1 1 1 1 1 1 1 1 1 1 1 1 1 1 1 1 1 6 6 y y y d g g d d d d d d d y y y d d g c n n S E Q Q [ X.o.O.O.+.O.+.} } K K K K ) | I I I I L L L L L ~ ~ K E E Q Q ] { O.O.#.7.r.r.k./.=X=XN.l.x.x.x.M.M.M.V.Z.A.qXrXqX;XZ.V.M.OXOXOXOX$X+X@X!.!.Q.Q.Q.Q.~.Q.Q.Q.Y.Y.R.R.R.}.}. XjXxXMXmXmXmXmXNXNXHXJXPXPXJXNXmXlXkXkXgXhX'.`.`.`.).I.I.H.H.D.D.;.$.;.D.;.;.H.H.;.^ B k r 5 5 & & % % @ @ O O o o o X X X . . . . . . . .       .                                                   . .       .         . . . . . . . . . X X X X X o o o o O O O @ @ % & > & > 5 5 r k k B W ..D.D.F.F.H.H.I.I.I.I.T.T.T.).).`.`.'.hXkXnXnXnXmXnXmXmXmXxXjX X X}.|.^.^.^.!.!.!.@X@XOX$X%X-X-X-X-X;X0XeXrXtXtXtXtXrXeXeXwXwXwX>X>X-X-X-X-X$XOXOX@X@X!.!.!.k.k.k.k.d.P.P.P.P.s.e.8.8.8.8.<.<.+.+.&.&.t.y.y.y.y.t.t.O.O.{ { [ ! W T T Y Y Y Y B n n B n c n n n n n n n n c c c c z c c n n b A F J J J J J J J F C C b b x z z g g s d d d d d d d d d d d d d d d y y y y d y y d d d d y d y y y y y y y y r r 6 r r 6 6 6 6 6 ",
"> > > 1 > > > > 1 1 1 1 1 1 1 1 1 1 1 1 1 1 1 1 1 1 1 1 1 1 1 1 1 1 1 1 1 1 1 1 1 1 1 6 6 6 6 8 y y d g g d d f d d y y y y d d d g c n n Z T E Q [ X.#.O.+.+.O.O.} } ~ K ~ ) L | I I I I L L L L L ~ ~ ~ H E E Q ] [ } O.o.7.r.r.k./.=X=X=Xx.x.l.x.M.M.M.V.Z.A.0XrXqX;X-XV.M.OXOXOXOX+X+X@X!.!.Q.Q.Q.Q.Q.Q.Q.Y.Y.Y.Y.~.R.}.}. XjXxXMXBXmXmXmXNXNXHXJXPXPXJXGXmXnXkXgXgXhX'.'.`.`.).(.I.I.H.D.D.D.;.$.D.D.;.D.H.J...R j t r 5 5 & & % % @ @ O O o o o o X X X X . . . . . . . . .                                                               .   . . . . . . . . . . X X X X X o o o O O O O # @ % & & & > 5 5 5 t k B R ..$.D.F.F.H.H.I.I.I.I.T.).T.T.).).`.`.'.gXlXlXlXnXmXmXmXnXMXxXcX X}.}.|.^.^.^.!.!.!.@XOX+X%X%X%X-X-X-X;X0XeXrXrXtXtXtXrXeXeXwXwXwX>X:X:X-X-X%X#XOXOX@X!.!.!.W.k.k.k.d.P.P.P.P.d.s.e.q.8.<.<.<.O.+.&.&.&.y.y.y.y.y.t.1.O.X.{ [ ! ! E T T Y Y Y B B B B B B c c n n c n n c c c c c c z z c n m A A D J J J J J J K D C C b b z z g g g g d d d d d d d d d d d d d d y y y y y d y y d d d y d y y y y y y y y y y r r 6 r y 6 r r r ",
"> 1 1 1 1 1 1 1 1 1 1 1 1 1 1 1 1 1 1 1 1 1 1 1 ; 1 1 1 1 1 1 1 1 1 1 1 1 1 1 1 1 1 6 6 6 6 r y y d d g g d d f d d y y y y d d d g c n n Z T E Q { X.#.%.+.+.O.O.} ] ~ K K L L | ` I I I L L L L L ~ D K H E E Q ] { { O.o.7.r.r.k./.=X=X=Xl.x.l.x.x.N.M.V.Z.A.0XqXqX;X-XV.M.OXOXOXOXOX+X@X!.!.Q.Q.Q.Q.Q.Q.Q.Y.Y.Y.Y.R.R.~.}. XcXxXMXBXmXmXmXNXNXHXJXLXPXLXHXNXmXlXkXgXhX'.'.'.`.`.(.I.I.H.F.D.D.;.$.;.J.D.D.H.H.;.^ B k r 5 5 > & % % @ @ @ O O o o o X X X X X X . . . . . . . . .                                                 .   . . . . . . . . . . . . . . X X X X X o o o O O O O # @ % & & & > 5 5 5 r k B R ^ $.D.F.F.H.I.I.I.I.I.I.T.).T.).).`.`.'.hXkXlXlXlXnXmXmXmXzXxXcX X X}.}.~.^.^.^.!.!.!.+X+X$X%X%X%X-X-X;X;X0XrXrXrXrXtXrXrXeXwXwXwX>X>X:X-X-X-X%XOXOX@X@X!.!.W.k.k.k.W.W.P.P.P.P.d.s.e.q.8.<.<.<.O.+.&.&.y.y.i.i.y.t.t.+.o.X.{ [ ! W E T T Y Y Y B B B B n n n n n n n n n c c c c c c c c c n A A D L J J J K L J D F C C b v z z g g d d d d d d d d d d d d d d d d d d y d d y d d d d d d d d y y y y y y y y y r r r y y r 6 6 6 ",
"1 1 1 1 1 1 1 > 1 1 1 1 1 1 1 1 1 1 1 1 1 1 1 6 d 6 1 1 1 1 1 1 1 1 1 1 1 1 1 1 1 1 1 6 6 r r y y y d g g d d d d d y y y y d d d g c n n Z T Q Q [ X.#.O.+.+.O.} } ( ~ K K L L L I I I I L L L L D D D K H E Q Q ] [ { O.o.6.r.r.k./.=X=XN.l.x.x.x.M.M.M.V.Z.A.0XqXqX;X-XV.M.M.OXOXOXOX+X@X!.!.Q.Q.Q.Q.Q.Q.Q.Y.Y.Y.Y.R.~.~.}. X XjXxXMXmXmXmXmXNXHXJXLXPXLXJXNXmXlXkXgXgXhX'.'.'.`.).I.I.I.H.D.D.D.;.;.J.J.D.D.H.H. .R B k r 5 5 > & % % @ @ @ O O o o o o X X X X X . . . . . . . . . .                       . .                 . .     . . . . . . . . . . . . X X X X X o o o o O O O @ @ @ % & & > 5 5 5 r k k B W  .D.F.F.H.I.I.I.H.I.I.T.T.T.).).).`.`.'.gXkXlXlXnXmXmXmXnXMXxXjX X}.|.~.~.^.!.!.!.!.@X+X+X$X%X%X%X-X-X;X0XeXeXrXrXrXrXrXeXeXwXwXwX>X>X:X-X:X%X#XOXOX@X@X!.!.W.k.k.W.W.W.W.P.P.d.d.s.e.4.8.<.<.O.+.+.&.t.y.y.i.i.t.t.1.O.X.{ [ [ ! W T T Y Y Y Y B B B n n n c c c c n n n c c c c c c c c n n A F D L L L K L K K F F C b b z z z g g g d d d d d d d d d d d d d d d d d d d d d d y d d d d y d d y y y y y y y r r r 6 6 6 r 6 6 6 ",
"1 1 1 1 1 1 1 1 1 1 1 1 1 1 1 1 1 1 1 1 1 1 > k / y ; 1 1 1 1 1 1 1 1 1 1 1 1 1 1 1 1 6 6 6 r y y y d g g d d d d d d d y y y d d g c c n Y T Q Q [ X.#.O.+.+.O.} } } K K K L L L I I I I L L L G D D D K E E Q Q Q ] { O.o.6.r.r.k.W.=X=X=Xl.x.l.x.N.M.M.V.Z.A.0XqXqX0X-X%XM.M.OXOXOXOX+X@X!.!.Q.Q.Q.Q.Q.Q.Q.Q.Y.Y.Y.~.~.~.}.}. XcXxXMXBXmXmXmXNXNXHXLXPXLXJXHXmXnXlXkXgXhX'.'.'.`.).(.I.I.H.F.D.D.D.;.D.J.J.D.H.(.J...R j t r 5 5 > & % % @ @ O O O O o o o X X X X X . . . . . . . . . .       . . .         .     .           . . .   . . . . . . . . . . . X X X X X X o o o O O O O # @ % % & & & > 5 5 r t k B W ..;.D.F.H.I.I.I.H.H.I.I.I.T.).).).`.`.'.hXkXlXlXnXnXmXMXmXmXxXjX X X.X|.~.Q.^.!.!.!.@X+XOX$X%X%X%X-X-X;X;X0XeXeXrXrXtXrXrXeXeXwXwXwX>X-X-X-X%X%X#XOXOXOX@X!.!.W.k.k.W.P.W.W.P.P.d.s.e.8.8.<.<.O.+.+.&.&.y.y.y.y.y.t.t.+.o.X.{ [ [ ! W T T Y Y Y Y Y B n n n n n n n n n c c c c c c c c z n n Z A D K K L L L L K K D C C b v z z x c g g d d d d d d d d d d d d d d d d d d d d d y y d d d y d y y y y y y y y y y r r r 6 r r 6 6 6 ",
"> > > 1 1 1 1 1 1 1 1 1 1 1 1 1 1 1 1 1 1 1 > 1 r 1 1 1 1 1 1 1 1 1 1 1 1 1 1 1 1 1 1 1 6 6 6 y y d d g g g d d d d d d y y d d k k k n n Z T E Q [ { o.O.+.+.O.| } ( K K K L L =.I I I I L L L G D D D ~ E E E Q Q ] } O.o.6.9.r.k.W.=X=X=Xm.l.l.x.N.M.M.V.Z.;X0XqXqX0X-XV.V.M.OXOXOXOXOXOX!.!.Q.Q.Q.Q.Q.Q.Q.Y.Y.Y.Y.Y.~.R.}.}. XcXxXMXBXBXmXmXBXNXHXJXPXPXLXHXNXmXlXkXgXhXhX'.'.`.`.(.I.I.H.F.F.D.D.D.;.J.H.D.J.(.(.;.^ B k t r 5 5 5 & % % @ @ # O O O o o o X X X X X X . . . . . . . . . . . . . . . . .   .     .   .     . . . . . . . . . . . . . . X X X X X X X o o o O O O O @ @ % % % & & > 5 5 r t k B R ..$.D.F.H.I.I.I.H.H.L.I.I.T.T.T.).).`.`.'.gXkXlXlXnXnXMXmXmXMXxXjX X}.|.^.~.^.!.!.!.!.@X+X$X$X%X%X%X-X-X;X0XwXeXeXrXrXrXrXeXeXwXwXwX>X:X:X-X-X%X$X#XOXOX@X@Xx.W.k.k.W.W.W.W.P.P.P.d.e.8.8.8.<.<.O.1.+.&.t.y.y.y.y.y.t.1.O.X.X.{ [ ! ! W T Y Y Y B Y Y B B n B n n n n n n c c c c c z z c c n n Z A D K K L L K K K K F C C b z z z g g d d d d d d d d d d d d d d d d d d d d d d d y d d d d d d y y y y y y y y y y 8 r r r r 6 6 r 6 ",
"> 1 > 1 1 1 1 1 1 1 1 1 1 1 1 1 1 1 1 1 1 1 1 1 1 1 1 1 1 1 1 1 1 1 1 1 1 1 1 1 1 1 6 6 6 6 6 8 y y d g g g d d f f d d d d d d g g c n n S E Q Q [ { O.%.+.+.+.} } ( K ~ K L L L L I I I L L G G K ~ T T T E E Q Q ] { O.o.6.7.r.k.W./.$X=Xm.l.l.x.x.N.M.V.V.Z.A.qXqX0X-XV.V.M.#XOXOXOXOXOX@X!.Q.Q.Q.Q.Q.f.Y.Y.Y.Y.Y.Q.R.R.}.}. XcXcXbXBXBXBXBXBXBXHXJXPXPXLXJXNXmXnXlXkXgXhX'.'.`.`.).I.I.H.H.F.D.D.D.D.D.H.H.D.H.(.H.;.R B k t r 5 5 5 & % % @ @ @ O O O o o o o X X X X X X . . . . . . . . . . . . . . . . . . . . . . . . . . . . . . . . . . . X X X X X X X o o o o o O O O O # @ % % % & & > 5 5 r t k B R ^ $.D.F.I.I.I.H.H.H.H.I.I.T.T.T.T.).`.`.'.hXgXkXlXnXnXmXMXmXMXxXjX X X}.|.^.Q.!.!.!.!.@X+X$X$X%X%X%X%X-X-X;X0X0XeXrXrXrXrXeXeXeXwXwX>X;X-X-X-X-X%X#X#XOXOX@X!.x.W.k.k.W.W.W.W.P.P.d.s.e.8.8.8.<.<.1.+.+.t.i.y.y.y.y.t.t.<.o.X.{ { [ ! W W T Y Y T ^ Y B B B B B n n n n n n c c c c c c c c n n Z Z K K K K L L K K K F F C C v z z g g g d d d d d d d d d y y d d d d d d d d d d d d d d d d d d d y y y y y y y y y y y 6 r r r r r r 6 ",
"> 1 1 1 1 1 1 1 1 1 1 1 1 1 1 1 1 1 1 1 1 1 1 1 1 1 1 1 1 1 1 1 1 1 1 1 1 1 1 1 1 1 1 6 6 6 6 8 y d d g g g g d f d d d y d d d d g c n n T E Q ] [ X.O.O.+.+.O.| } ( K ~ K L L L L I I L L L L G D K D S T T E E Q ] { O.o.6.7.r.k.W./.=X=Xm.l.l.l.x.N.M.M.V.Z.A.qXqX0X;XZ.V.M.M.#XOXOX#XOX@X!.Q.Q.Q.Q.Q.f.f.Q.Q.Y.Y.Y.Y.R.~.}.}. XcXbXMXBXmXBXBXBXHXJXLXPXPXJXGXmXnXlXkXgXhX'.'.`.`.`.I.I.I.H.F.F.D.D.D.D.J.H.H.H.(.(.J. .R B k t r r 5 5 & & % @ @ @ O O O o o o o X X X X X X X . . . . . . . . . . . . . . . . . . . . . . . . . . . . . . . . . X X X X X X o o o o o O O O # @ @ % % % & & > 5 5 r t k B R ..$.D.F.I.I.I.H.H.H.H.I.I.T.T.T.T.).).`.`.'.gXkXkXlXnXmXMXmXmXxXjX[. X}.|.~.Q.^.^.!.!.!.OXOX$X$X%X%X%X%X-X;X;X0XeXeXrXrXrXeXeXeXeXwXwX>X-X-X-X-X-X$X#X#XOXOX@X!.x.k.k.W.W.W.W.P.P.P.s.d.e.8.<.<.<.<.+.+.&.&.y.y.i.y.y.t.1.O.o.X.{  .[ ! W R T Y Y R ^ Y B n B n n n n n n c c n c c c c c c c n n Z S ) ) K L L ( ( K K F C C b v z g g g d d d d d d d d d d d d d d d d d d d d d d d d d d d y d d d y y y y y y y y y y y r r 6 6 6 r r 6 ",
"1 1 1 1 1 1 1 1 1 1 1 1 1 1 1 1 1 1 1 1 1 1 1 1 1 1 1 1 1 1 1 1 1 1 1 1 1 1 1 1 1 1 6 6 6 6 6 8 y d d g g g d d f d d y y d d d d g c n n Z E Q Q [ X.O.O.+.+.+.| } ( K ~ K L L L L I I L L L L L D D T S S T E E Q ] { O.o.<.9.r.p.W./.$X=Xm.l.l.l.x.N.M.M.V.Z.A.0XqX0X;XZ.V.V.V.OXOXOXOXOX@X!.Q.Q.Q.Q.Q.Y.Y.Y.Y.Y.Y.Y.Y.R.R.}.}. XcXxXMXMXmXmXBXBXHXHXLXPXPXLXHXmXmXlXkXgXhXhX'.'.`.`.).I.I.H.F.F.F.D.D.D.D.H.H.H.H.(.(.J...R B k t r r 5 5 5 & % @ @ @ # O O O o o o o X X X X X X X . . . . . . . . . . . . . . . . . . . . . . . . . . . . . X X X X X X o o o o o O O O # O @ @ % % & & & & 5 5 r t k B R ..;.D.H.I.(.I.H.H.F.H.H.I.I.T.T.T.T.).`.`.'.hXgXkXkXnXmXmXmXmXxXxXjX X}.}.}.~.Q.^.!.!.!.@XOX#X$X%X%X%X%X-X-X;X;X0XeXrXrXrXeXeXeXwXwXwX>X;X-X-X-X-X%X$X#X#XOXOX!.x.z.k.k.W.W.W.W.P.P.d.s.s.r.8.8.<.<.+.+.&.&.t.y.y.i.y.t.t.<.o.X.X.{ [ ! ! W T T Y Y Y Y B B n B n n n n n n n c c c c c c c c n n Z Z D K K L L ( ) ( K K F F Z v v z g g g d d d d d d d d d d d d d d d d d d d d d d d d d d d d d d d d d y y y y y y y y r r y r r 6 6 6 6 ",
"1 1 1 1 1 1 1 1 1 1 1 1 1 1 1 1 1 1 1 1 1 1 1 1 1 1 1 1 1 1 1 1 1 1 1 1 1 1 1 1 6 1 6 6 6 6 6 6 y y d g g g d f f d d d d d d d d c c n n T E Q Q [  .O.O.+.+.+.| } } K ~ K L L L I I I L L L G L D D D S S T E E Q ] { } O.o.7.r.p.W./.=X=X/.l.l.l.x.x.M.M.V.Z.A.0XqX0X;XZ.V.V.M.M.#XOXOXOX@X!.!.z.Q.Q.Q.Y.Y.f.Y.Y.Y.Y.Y.R.~.}.}. XcXbXMXMXMXBXBXBXHXHXJXPXPXLXJXNXmXnXlXkXgXhXhX'.`.`.`.I.I.H.H.F.F.F.D.D.D.D.H.H.H.(.).(.;.^ R B k t t t 5 5 & & % % @ # @ # O O O o o o o o X X X X X X X X X . . . . . . . . . . . . . . . . . . . . X X X X X X X X o o o o o O O O O # @ @ @ % % & & & > 5 5 r t k B R ..;.F.I.I.I.I.H.F.F.H.H.I.I.T.T.T.T.).`.`.`.'.gXkXkXnXnXmXmXnXMXxXjX X X}.|.^.^.^.!.!.!.@X+X$X#X$X$X%X%X-X-X-X;X0X0XeXrXrXeXeXeXeXwXwXwX>X:X:X-X:X-X%X$X#X#XOX@X!.!.W.k.W.W.W.W.P.P.P.s.e.e.8.8.8.<.<.+.+.&.&.y.y.b.y.y.t.1.<.o.X.{ [ [ [ ! W T T T T Y Y B n n n B n n n n n c c c c c c c c c n n Z D D K K K ) ( | | K D F D Z v z z g g d d d d d d d d d d d d d d d d d d d d d d d d d d d y d y y y d y y y y y y y y y y y r r r r r 6 6 ",
"> 1 1 1 1 1 1 1 1 1 1 1 1 1 1 1 1 1 1 1 1 1 1 1 1 1 1 1 1 1 1 1 1 1 1 1 1 k k 1 1 1 1 6 6 6 6 6 8 y d g g g d f d d d d d d d d d k c c n S E Q Q [ { O.O.+.+.+.+.} ( K K K L L L L *.=.L L L G G D D D D S S E E Q Q { } O.o.7.r.p.W./.=X=X=Xl.l.l.l.x.x.M.V.Z.A.0XqX0X;X-XV.V.V.M.OXOXOXOXOX!.!.z.Q.Q.Q.f.f.f.f.Y.Y.Y.Y.R.~.~.}. X XcXbXMXMXBXBXBXHXHXJXLXPXPXLXHXmXnXlXkXgXhXhX'.'.`.`.).I.H.H.F.F.F.D.D.D.D.J.(.H.H.(.).H.;.^ R B k k k t r 5 & & % % @ @ @ # O O O O o o o o o X X X X X X X X X X . X X X . . . . . . . . X . X X X X X X X X o o o o o o o O O O O @ @ @ % % & & & & 5 5 5 r t k B R ..;.H.I.I.(.H.F.F.F.F.H.I.I.I.).T.T.).`.`.`.'.hXgXkXlXnXmXBXnXmXxXjX[. X}.}.^.^.^.!.!.!.@X@X$X$X$X$X#X%X%X-X-X;X;XwXeXeXrXeXeXeXeXwXwXwX>X:X-X-X-X%X%X%X$X#X#XOX@Xx.!.W.k.W.W.W.P.P.P.P.s.w.8.8.<.8.<.O.+.&.&.y.y.b.y.y.t.t.1.o.X.@.{ [ [ ! W T T T Y Y Y Y B n n n B n n n n c n c c c c c c c n n Z D D K K K ( ) ) ( | K D D Z v v z g g d d d d d d d d d d d d d d d d d d d d d d d d d d y d y d d y y d y y y y y y y y y y r r r r r 6 6 6 ",
"> > 1 1 1 1 1 1 1 1 1 1 1 1 1 1 1 1 1 1 1 1 1 1 1 1 1 1 1 1 1 1 1 1 1 1 3 :.:.1 1 1 6 6 6 6 6 8 8 y d g g g d f d d d d d d d d d g c c n Y E Q Q [ { O.O.+.+.+.| } K K K K L L L L =.` L L L L G G D D D S S E E Q Q } { O.o.7.9.r.W./.=X$X=Xl.l.l.l.x.x.M.M.V.Z.0XqX0X;X-XV.V.V.M.M.OXOX#XOX!.!.z.z.Q.Q.Q.f.f.f.Y.Y.Y.Y.Y.~.~.}.}. XvXbXMXMXMXMXBXBXHXJXLXPXPXLXJXNXmXnXkXkXgXhX'.'.`.`.).I.I.H.H.F.F.F.D.D.D.D.H.(.(.(.`.).H.;.^ R B k k k k r 5 > & & % % @ @ @ # O O O o o o o o o X X X X X X X X X X X X X X X X X X X X X X X X X X X o X o o o o o o O O O O O @ @ % % % & & & & 5 5 r y k k B W ..D.H.I.(.I.H.F.F.F.F.H.I.I.I.).T.T.).`.`.`.'.hXgXkXlXnXmXBXmXmXxXjX[. X}.}.^.^.^.!.!.!.!.@X+X$X$X$X$X%X%X-X-X-X;X0XwXeXeXeXeXeXeXeXwXeX>X>X:X-X%X%X%X%X$X$X$X$XOX!.!.W.W.W.W.W.W.P.P.P.s.e.e.8.8.7.1.<.+.+.&.t.y.b.b.y.y.t.1.<.o.@. .{ [ ! W W W T Y Y Y n B B n B n n n n n n n n c c c c n n n n Z Z D K K K ) ( ( ) K K K D D Z v v z g g d d d d d d d d d d d d d d d d d d d d d d d d d y d d d d y B B y y y y y y y y y y r r r r r r r 6 6 ",
"1 1 1 1 1 1 1 1 1 1 1 1 1 1 1 1 1 1 1 1 1 1 1 1 1 1 1 1 1 1 1 1 1 1 1 1 1 y d 1 1 1 1 6 6 6 6 y 8 y d d g g d d d f d d d d d d d g c n n Z E Q Q [ { O.O.+.+.+.} } ( K K K L L L I I L =.=.G G G D D D S S T E E Q Q ] } O.o.6.9.r.k.W.=X$X=Xl.l.l.l.x.x.M.M.V.Z.;X0XqX0X-XZ.V.V.M.M.OXOXOXOX@X!.z.z.Q.Q.Q.f.f.f.Y.Y.Y.Y.Y.~.~.~.}. XcXbXbXVXMXBXBXBXBXHXJXLXPXPXJXHXmXnXlXkXgXhXhX'.'.`.`.).I.I.H.F.F.F.F.D.D.D.J.(.(.(.(.`.).H.;.^ R B k k k k t 5 5 & & & % % @ @ @ # # O O O o o o o o o o o X X X X X X X X X X X X X X X X X X o X X o o o o o o O O O O O # @ @ @ % % % % & & & 5 5 5 y k B R ^  .D.I.(.(.I.F.F.F.F.F.H.I.I.I.).).T.T.).`.`.`.'.gXgXkXnXmXmXmXnXMXxXjX X}.}.^.^.^.!.!.!.!.@X+X+X$X$X#X%X%X%X-X-X-X;XwXeXeXeXeXeXeXeXwXwXwX>X:X:X-X%X%X%X$X$X$X%X$X@X!.!.W.W.W.W.Q.P.P.P.P.e.P.e.8.8.G.r.+.+.&.&.y.y.b.i.y.t.t.<.o.#.@. .{ [ ! W W W T Y Y Y W Y n B n n n n n n n n c c n n c n n n Z Z A D K K ( ) ) ( ) L K K F D Z v z z g g d d d d d d d d y d d d y y d d d d d d d d d d d d d d d d y c c y y y y y y y y y y y r r r y r r 6 6 ",
"1 1 1 1 1 1 1 1 1 1 1 1 1 1 1 1 1 1 1 1 1 1 1 1 1 1 1 1 1 1 1 1 1 1 1 1 1 1 ; 1 1 1 1 1 6 6 6 r y y d g g g d d f d d d d d d d g k c c n Z E Q ! [ { O.O.+.+.+.} } K K K K L L L I I ` XX%.G G G G T D S S T T E E Q ] { O.o.<.7.9.k.k./.$X=Xl.l.l.l.x.x.M.M.V.Z.;X0XqX0X;XV.V.V.M.M.M.M.OXOX@X!.Q.z.z.Q.Q.f.f.f.f.Y.Y.Y.Y.Y.~.~.}. XcXvXbXbXMXMXBXBXBXHXJXLXPXPXLXJXmXmXlXkXkXgXhXhX'.`.).).I.I.H.H.F.F.F.F.D.D.D.H.(.(.(.`.'.(.J.;.^ R B k k B B t 5 5 5 & & % % % @ @ # # # O O o o o o o o o o o o X X X X X X X X X X o o X o o o o o o o O O O O O O O # @ @ @ @ % % % % & > > 5 5 r t k B R ^ ;.F.I.(.(.I.H.F.D.D.F.H.I.I.I.I.).T.T.).`.`.`.`.hXgXkXlXmXBXmXnXmXxXjX[. X}.}.~.Q.^.!.!.!.@X@X+X$X#X#X#X%X%X%X-X-X;X0XeXeXeXeXeXeXwXwXwXwX>X:X:X%X%X%X%X%X$X$X%X%X$X@X!.z.z.W.W.Q.W.P.P.P.s.e.e.8.8.<.7.1.+.+.&.t.y.y.b.y.y.t.1.o.o.@.@. .[ [ ! ! W R Y Y Z R {...c B n n B n n n n c c c c n n n n n n Z D K K K ( ( ) | ) K K D C Z Z v z g g d d d d y y d d d d d d d y y d d d d d d d d d d d d d y y d d y y y y y y y d y y y y y 6 6 r r r 6 6 6 ",
"1 > 1 1 1 1 1 1 1 1 1 1 1 1 1 1 1 1 1 1 1 1 1 1 1 1 1 1 1 1 1 1 1 1 1 1 1 1 1 1 1 1 1 6 6 6 6 6 8 y d g g g g d f f f d d d d d d g c c n Z E Q Q [ { O.O.+.+.+.} } K K K K L L L I I I %.=.L G G G T D S T T T E H Q ] { O.o.<.7.r.p.W./.$X=Xl.l.l.l.x.N.M.M.V.Z.A.0XqX0X;XZ.V.V.V.M.M.M.OXOXOX!.!.z.Q.Q.Q.Y.f.f.f.Y.Y.Y.Y.Y.~.~.~..X XcXbXbXVXMXMXBXBXBXJXJXLXPXPXJXNXmXnXlXkXgXhXhX'.'.].`.).I.H.H.H.F.F.H.H.F.D.D.H.(.(.).'.`.(.J.;.^ R B k B B B k r 5 5 & & % % % @ @ @ @ @ # O O O O o o o o o o o o o o o o o o o o o o o o o o o o O O O O O O # # @ @ @ @ @ % % % & & > 5 5 5 r k B B R ..D.H.I.(.I.H.F.D.D.D.F.H.I.I.I.I.T.T.).).`.`.`.'.hXhXkXlXnXBXmXnXmXxXjX[. X}.}.~.^.^.!.!.!.!.@X+X$X$X#X#X#X%X%X-X-X;X;XwXeXeXeXeXeXeXwXwXwX>X>X-X%X%X%X%X%X$X$X$X%X%X@X!.!.z.W.W.W.W.P.P.P.s.e.e.8.8.8.<.<.+.+.&.&.y.b.b.b.y.t.1.<.o.#.@.@. .[ ! ! W W R T Y Y Y W Y n Y n n B n n n c c c n c n n n n n Z Z D K K ( ( ( ( ( ) K K D C Z v n z g d d d d d d y y y d d d d d y y d d d d y d d d d d d d d d y y y d d d y y y y y y y y y y y r r 6 6 r 6 6 ",
"> 1 1 1 1 1 1 1 1 1 1 1 1 1 1 1 1 1 1 1 1 1 1 1 1 1 1 1 1 1 1 1 1 1 1 1 1 1 1 1 1 1 6 6 6 6 6 6 y y d d g g g g h f f d d d d d g k c c n Z E Q ! [ { O.O.+.+.+.| } K K K K L L L L I I L G L G G G D T Z Z S S E E Q ] ] } o.<.7.r.p.k./.$X=X=Xl.l.l.l.x.N.M.V.V.Z.0XqX0X;XZ.V.V.V.V.OXM.OXOXOX@X!.z.z.Q.Q.Y.Y.f.Y.Y.Y.Y.Y.Y.Y.~.~..X.XcXvXbXbXMXMXBXBXBXHXJXLXPXPXLXHXmXnXlXkXkXgXhX'.'.].).).I.I.H.I.H.F.F.H.F.D.D.H.I.(.(.`.'.'.(.J.;.^ R B B B R R j t 5 5 5 = & & % % % @ @ @ @ # O # O O o o o o o o o o o o o o o o o o o o o O O O O O O O # @ @ @ @ % @ % % % % & > > 5 5 r t k B Y W  .D.I.(.I.H.F.D.D.D.D.D.H.H.L.I.I.T.T.T.).`.`.`.`.'.hXkXlXnXmXmXnXnXzXjX[. X}.}.~.~.^.!.!.!.!.@X+X$X$X#X#X#X%X%X-X-X-X;XwXeXeXeXeXeXeXeXwXwX>X>X:X-X%X$X$X$X$X$X$X%X%X+X!.!.!.W.Q.Q.W.W.P.P.s.w.w.8.8.<.8.7.9.+.+.&.y.y.b.b.y.t.t.<.<.#.#.@. .[ [ ! W E T T Y Y Y Y n B B B B n n n n n c c c n n n n n n n Z D K K ( ( ( _ _ ( ( K K F Z v v n c g d d d d y d d y y d d d d y y y y d d d c ..W d d d d d y d d y y y y y y y y y y y y y 6 r r r r 6 6 r 6 6 ",
"> 1 1 1 1 1 1 1 1 1 1 1 1 1 1 1 1 1 1 1 1 1 1 1 1 1 1 1 1 1 1 1 1 1 1 1 1 6 6 1 1 1 6 6 6 6 6 6 y y d d g g g g d f f f d d d d d g z c n Z E Q Q [ { O.O.+.+.+.| } K K K K L L L L I I L L L G G G D D Z Z T T T E Q Q ] } O.<.7.r.p.k.W.=X$X=Xl.l.l.l.l.N.M.V.V.Z.0XqXqX;XZ.V.V.V.V.V.M.OX#X#XOX!.z.z.Q.Q.Q.Y.f.f.f.Y.Y.Y.Y.Y.~.~.}..X.XvXvXbXVXMXMXBXBXBXJXJXLXPXLXJXNXmXnXlXkXgXhXhX'.`.].).).I.I.H.H.H.F.F.H.H.F.D.H.(.).).'.'.`.(.H.;...^ R B R R R B k r 5 5 5 & & & % % % % @ @ # # # O O # O O O O O O O O o o O o o o O O O O O # O O # @ @ @ @ @ % % % % & & & 5 5 5 r r k j B R ^ ;.H.I.I.I.H.D.D.D.D.D.F.H.H.H.L.I.T.T.T.).`.`.`.`.'.hXkXlXnXmXmXnXnXzXhX[. X}.}.}.~.^.^.!.!.!.@X+X+X$X#X#X#X#X%X%X-X-X;X;XwXeXeXeXeXwXwXwXwX>X>X:X:X%X$X$X$X$X$X$X%X%X$X@X!.!.W.W.W.Q.W.Q.P.P.s.w.e.8.8.<.1.7.1.+.&.t.y.y.b.y.y.t.1.<.#.#.#.@.{ [ [ ! W T T Y Y Y Y Y Y B B B n n n c n n c c c n n n n n n Z S K K K ( ( _ _ ( ) K K D A Z v z c g g d d d d y y y y y d d y y y d y d d d 8 ..].H.c d d d d d d d y y y y y y y y y y y y y y y r r 6 6 r 6 6 6 ",
"1 1 1 1 1 1 1 1 1 1 1 1 1 1 1 1 1 1 1 1 1 1 1 1 1 1 1 1 1 1 1 1 1 1 1 1 1 6 1 1 1 1 1 6 6 6 6 6 6 y y d g g g g d f d d d d d d d g c c n Z T E Q ] { O.O.+.+.+.| } ( K K K L L L L I I L L G G G G D D Z Z S T T E E Q ] } O.O.6.9.p.k.W./.$X=X/.l.l.l.l.N.M.M.V.Z.;XqXqX0XZ.V.%XV.V.M.M.M.#X#XOX!.!.z.z.Q.Q.f.f.f.f.Y.Y.Y.Y.Y.Q.~.}.|..XvXvXbXVXVXVXVXBXJXHXJXLXPXPXLXHXmXnXlXkXgXgXhX'.'.`.).).T.I.H.H.H.H.F.F.H.H.D.H.H.(.`.`.'.hX'.(.J.;. .^ R B B R R R j t r 5 5 5 & & & & % % % @ @ @ @ @ @ # # # O # # O O O O O O O O O O O # # # # @ @ @ @ % % % % % & & & 5 5 5 5 r t k B R W $.D.H.I.I.H.F.D.D.D.3.D.H.H.H.F.I.I.T.T.).).).).`.`.'.hXkXlXnXmXmXnXnXxXjX[.[. X}.}.|.^.^.!.!.!.@X+X+X+XOX#X#X$X#X5X:X-X-X;XwXwXwXeXeXeXwXwXwXwX>X>X-X%X$X$X$X$X$X$X%X%X$X+X!.!.!.W.W.Q.Q.W.Q.P.P.e.e.8.8.<.1.7.<.1.+.&.y.y.b.b.y.y.t.<.o.#.#.@. .{ [ ! W W T T Y Y Y Y Y B B B B B n c c c n c c n n n n n n Z S K K K ( ( _ _ _ ( ( K D D C v z z g g d d d 8 y y y y d y d d y y y y y d d d 8 T (.J.g y d d d y y y y y y y y y y y y y r y y y y r 6 r r r 6 6 6 ",
"1 1 1 1 > 1 1 1 1 1 1 1 1 1 1 1 1 1 1 1 1 1 1 1 1 1 1 1 6 1 1 1 1 1 1 1 1 1 1 1 1 1 1 6 6 6 6 r 6 8 y d g g g g f f d d d d d d d g c c n Z T E Q ] { O.O.+.+.+.| } ( K K K L L L L I I L L G G G G A A A Z Z T S E E Q ] } O.O.<.9.9.k.W./.$X=Xm.l.l.x.l.N.M.M.V.Z.A.0XqX0XA.Z.%XV.V.V.M.M.#X#XOX@X!.z.z.z.Q.f.f.f.f.Y.Y.Y.Y.Y.Q.~.~.|.|..XvXvXbXVXVXVXVXBXHXJXJXLXPXLXJXBXmXnXkXkXgXhXhX'.'.].).).I.L.L.I.H.F.F.F.H.H.H.H.H.(.`.'.hXhX'.).H.;. ...R R B R ^ R B k t r 5 5 5 5 & & & % % % % % @ @ @ @ @ @ @ @ @ @ @ # # O # @ # @ @ @ @ # @ @ @ % % % % & & & > > 5 5 5 r y k j B R ..D.H.I.H.H.F.D.D.D.3.D.D.H.(.H.H.I.I.T.T.).).).).`.`.'.hXkXlXnXmXmXnXnXzXhX[.[.}.}.}.~.^.^.^.!.!.@X+X$X$XOXOX#X#X#X#X:X:X-X;X;XwXwXeXeXeXwXwXwXwX>X>X-X%X$X$X$X$X$X$X$X%X%X*X!.!.!.W.W.W.Q.Q.W.Y.s.e.e.e.8.<.1.<.<.<.+.&.t.y.b.b.b.y.t.1.<.o.#.@.@. .[ [ ! W W T T Y Y Y Y Y Y B B B n n c c c c c c n n n n n Z S S K K K ( ( _ _ ( ( K K D D Z v z z g g d d d y d y y y y y y y y y y y y d d d y i g g y y d d y y y y y y y y y y y y y y y y y y r 6 r r 6 r 6 6 6 ",
"1 1 1 1 1 1 1 1 1 1 1 1 1 1 1 1 1 1 1 1 1 1 1 1 1 1 1 1 1 1 1 1 1 1 1 1 1 1 1 1 1 1 6 6 6 6 6 6 6 8 d d g g g g h f f d d d d d g g c c n Z T E ! ] [ O.O.+.+.+.| ( K K K K K L L L I I U L L G G G A A A Z Z S S T E Q Q } } O.<.7.r.k.k./.$X=X=Xm.l.x.l.x.M.M.V.Z.A.0XqX0XA.Z.%X%XV.V.M.M.M.#X$X@X!.z.z.z.z.f.f.f.f.Y.Q.Q.Y.Y.Y.~.~.|..X.XvXvXbXbXVXMXVXBXBXJXJXLXPXPXJXHXmXnXlXkXkXgXhXhX'.].`.).).I.I.L.H.H.F.F.H.H.H.H.H.(.(.`.'.hXhXhX`.H.;.;...^ R B R ^ ^ N j t r r 5 5 5 5 & & & % % % % % % % @ @ @ @ @ @ @ @ @ @ @ @ @ @ % @ % % % % % % & & & & > > > 5 5 r y t k B R ^ ;.F.H.H.F.F.D.D.D.D.D.D.D.D.F.H.L.I.I.I.T.).`.).`.`.`.'.hXkXlXnXmXmXnXnXxXhX[.[._.}.}.~.Q.Q.^.!.!.@X+X+X$XOXOX#X#X#X$X%X%X-X-X;X;XwXeXeXeXwXwXwXwX>X>X-X-X$X$X$X$X$X$X%X%X%XSXUX!.!.!.!./.Q.Q.Q.Y.P.s.e.e.8.<.<.1.<.<.+.+.t.y.y.b.b.y.y.t.1.6.o.#.@.@. .[ ! W W T Y Y Y Y Y Y Y B B B B n n c c c c c c n n n n Z Z E K K K ( ( ( | | ( ( L K D T T v z z g d d d y y y y y y y y y y y y y y d d d d y d y y y d y d y y y y y y y y y y y y y y y y y r r r 6 6 r r 6 6 6 ",
"> > 1 1 1 1 1 1 r 1 1 1 1 1 1 1 1 1 1 1 1 1 1 1 1 6 1 1 1 1 1 1 1 1 1 1 1 1 1 1 1 1 1 6 1 6 6 r 6 8 y d d g g f d f f d d d d d g k c c n Z T E ! ] [ O.O.+.+.+.| } K K K K D L L L I I U L L G G D A A A Z Z T T S E Q Q } } O.<.1.r.p.k./.=X%X=X=X/.x.l.x.x.M.M.V.Z.0XqX0XA.Z.-X%XV.V.V.M.M.#X#XOX!.z.z.z.Q.f.f.f.f.f.Q.Q.Y.Y.Y.Q.~.|..X.XvXZXvXbXVXVXVXVXBXBXJXJXLXPXLXJXBXmXnXkXkXgXhXhX'.'.`.).).T.I.L.L.H.H.H.F.H.H.H.H.H.(.`.'.hXgXgXhX`.(.D.;...^ R Y R ^ ^ ^ R k t y r 5 5 5 5 > & & & & & % % % % % % % % % % % % % % % % % % % & & & & & > > > > 5 5 5 r y k k c Y ^ $.D.H.H.D.D.D.D.;.$.$.3.3.D.F.H.(.I.I.I.T.T.).`.`.`.`.`.'.hXkXlXmXmXmXnXnXzXhX[.[._.}.}.~.~.Q.!.!.!.!.@X+X+X+XOXOXOX#X#X$X%X-X-X;X;XwXeXeXeXwXwXwXwX>X>X:X-X%X$X+X+X+X+X$X%X%X%X*X<X!.!.!.W./.W.W.Q.P.P.e.e.e.8.<.1.<.<.O.+.t.y.y.b.y.m.8Xt.1.<.,.#.@.@. .[ [ ! W T T Y Y Y B Y Y Y B B B B n n c c c n c c n n n n S S H K K ( ( ( | | | ( ( K K F S Z z z g d d d i 8 y 8 y y d d y y y y y y y y y d d d d d y y y y y y y y y y y y y y y y r y y r r r r r r r 6 6 6 6 6 6 ",
"1 1 1 1 > 1 1 1 N B ; 1 1 1 1 1 1 1 1 1 1 1 1 1 1 6 1 1 1 1 1 1 1 1 1 1 1 1 1 1 1 1 1 6 6 6 6 6 6 8 y d g g g g h f f d d d g k g k c c n Z T E Q ] [ O.O.+.+.+.| } ( K K K K L L L L L L L L G G D A A Z Z Z T W T T E Q ] } O.O.<.r.9.k.W.=X%X=X/.l.N.N.x.x.M.M.V.Z.;X0X0X;XZ.Z.V.V.V.V.M.V.#X%X#X@Xx.z.z.Q.Y.P.f.f.f.f.Y.Y.Y.Y.Q.~.^.|.|..XZXvXbXbXVXVXVXBXBXJXJXJXLXPXJXHXBXnXlXkXkXgXgXhX'.].].).).T.I.L.L.H.H.H.H.H.H.H.H.H.(.`.'.hXgXgXgX'.(.J.;. ...W R R W ^ ^ B k k k t r r 5 5 > 5 > > & & & & & & & & & & & & & % & & & & & & & & > > > 5 5 5 5 r r y k k B Y ^ $.D.D.D.D.3.$.$.$.$.$.$.$.3.D.F.H.L.I.I.I.T.T.).).`.`.`.`.'.hXkXlXmXmXnXlXnXzXhX[.[._.}.}.~.~.^.^.!.!.!.@X+X+X+XOXOX#XOX#X$X%X%X-X-X;XwXwXeXeXwXwXwXwX>X>X>X-X%X$X+X+X+X+X$X$X%X%X%XOX!.!.!.W.Q.Q.Q.Q.P.P.e.e.e.8.8.1.<.O.+.+.&.t.y.b.b.y.i.a.t.<.o.#.#.@. . .[ ! ! W T Y Y Y B B B Y Y B B B n n n c c n n B c n n n Z S S H K ( ( ( ( _ ( } } K K D A Z v z z g d d d y y y y y y d y y y y y y y y y y d d d y y y y y y y y y y y y y y y y y y y y y r 6 r r 6 6 r 6 r r 6 6 6 ",
"1 > > > > 1 1 1 6 6 1 1 1 1 1 1 1 1 1 1 1 1 1 1 ; ; 3 1 1 1 1 1 1 1 6 6 1 1 1 1 1 1 6 6 r 6 6 6 y 8 y d g g g g h f f d d d d d g g c c n Z T E Q Q [ { O.O.+.+.| } } K K K K L L L L I U L L G G D A A A Z Z S T T T E E ] } O.o.<.9.9.k.W./.%X=X/.l.l.x.x.N.M.M.V.Z.A.0X0X0XA.Z.V.%XV.V.V.V.#X%X#XOX!.z.z.Q.Y.f.f.d.f.f.Q.Q.Y.Y.Y.~.~.|..X.X1XvXvXbXVXVXVXVXBXBXJXJXLXPXLXJXBXmXlXkXkXgXgXhXhX'.].).).T.I.I.L.H.H.H.H.H.H.H.H.H.H.(.`.hXgXgXkXgXhX).H.;.;. .^ W R R R R B B k k k t y r r 5 5 5 5 > > > > 5 5 > > 5 5 & & & & & & 5 5 > > > > 5 5 5 r r y k k B Y R ^  .;.;.$.$.$.$.$.$.@.#.$.$.3.D.D.F.H.L.I.I.I.I.).).).`.`.`.'.hXgXkXnXmXmXnXlXnXzXhX[.[._.}.}.~.Q.Q.!.^.!.!.@X+X+X+X+XOXOXOX#X$X%X%X-X-X;X>XwXeXeXwXwXwXwX>X>X>X:X%X$X+X+X&X+X+X$X$X%X%X$X@X!.!.!.W.W.Q.Q.P.P.e.e.e.8.8.<.<.O.+.1.&.t.y.b.y.y.y.y.t.1.<.#.#.@.@. .[ [ ! W W T T Y Y B Y Y Y Y B B n n n n n n n n n n n n Z Z S H K ( ( ( ( ( ( | } ( K K D Z v v z g g d d i y y y y 8 y y y y y y y y y y y y y y y y y y y y y y y y y y y y y y y y y y y r r r 6 6 6 r 6 6 6 r 6 6 6 ",
"> 1 > > 1 1 1 1 1 > 1 1 1 1 1 1 1 1 1 1 1 1 1 > k N 1 1 1 1 1 1 1 1 6 6 1 1 1 1 6 6 6 6 6 6 6 6 8 8 y d d g g g h f f d d d d d g g g c n Z S E Q Q [ } %.O.+.+.| } ( K K K K L L L L I U L L G G A A R A Z Z Z Z T E H E Q } O.o.<.1.r.k.W./.$X%X=X/././.x.M.M.M.M.V.Z.0X0X0XA.Z.Z.%X%XV.M.V.V.%X#XOX@Xx.z.z.Q.f.f.f.d.f.Y.Q.Q.Y.Y.~.~.^.|..X.XZXZXvXbXVXVXVXVXBXJXJXJXLXPXLXHXmXnXlXkXkXgXgXhX'.'.].).).T.I.I.L.H.H.H.H.H.H.H.H.H.I.(.`.hXgXkXkXgXhX`.(.J.;.$. .^ R R R R Y B B k k k k t y r r r 5 5 5 5 5 5 5 5 5 5 5 5 5 5 5 5 5 5 5 5 5 r r t t k k B Y R W ! ! ..^ ^ ...... . .@.@.$.$.3.D.D.D.F.H.I.I.I.T.T.).`.`.`.`.`.'.hXgXlXnXmXmXnXnXnXkXhX[.[._.}.~.~.Q.Q.Q.!.!.!.@X@X+X+XOX+XOXOX#X#X$X%X-X-X;X>XwXeXeXwXwXwXwX>X>X>X:X%X$X$X+X+X+X&X$X$X%X%X%X@X!.!.!.W.Q.Q.W.Q.P.e.e.8.8.8.8.<.<.1.+.&.t.a.b.b.y.y.y.t.t.<.#.#.#.@. .{ [ ! ! W W T Y Y Y B Y Y Y Y B B n n n n n n n n n n n n Z S S K ( ( } ( ( _ ( | } ( K K S Z v z z g g d d d y y y y y y y y y y y y y y y y y y y y y y y y y y y y y y y y y y y y y y y r r r r 6 r r 6 6 6 6 r r 6 6 ",
"1 1 > > > 1 > 1 1 1 1 1 1 1 1 1 1 1 1 1 1 1 1 ; / :.6 1 1 1 1 1 1 1 1 1 1 1 1 1 6 6 1 6 6 6 6 6 6 y y d g g g g h h f f d d d d g g g c n Z T E Q ] ] } O.O.+.+.+.} ( K K K D L L L L U L L L G G A A A A Z Z Z S T E E H Q ] } O.<.1.r.k.W./.=X%X=X/./././.x.M.M.M.V.Z.;X0X0XA.Z.Z.%X%XV.V.V.V.#X%X#X@Xx.z.z.z.f.f.f.d.f.f.Q.Q.Y.Y.Y.~.Q.|.|..X1XZXZXbXbXbXVXVXVXBXJXJXJXLXLXJXBXmXnXkXkXkXgXhXhX'.].).).).T.I.L.L.H.H.H.F.F.H.H.H.H.I.).'.hXgXkXkXkXgX'.(.H.;.;.;. .^ W W R R Y B B B c k k k k t y r r r r r 5 r 5 5 5 5 5 r 5 5 r r r y t k k k c B B B Y Y T T T R R W ! .. . .@.$.$.3.D.D.D.F.H.L.I.I.I.I.T.).`.`.`.`.'.'.hXkXlXmXmXmXlXnXlXkXhX[.[._.}.~.~.~.Q.Q.!.!.!.&X+X+X+X+XOXOXOX#X#X%X%X%X-X-X>XwXeXeXeXwX>XwXwX>X>X:X-X$X$X+X+X&X&X$X$X%X%X%XOX@X!.!.W.W.Q.Q.Q.P.s.e.e.8.8.8.7.1.1.1.1.t.t.b.b.y.y.y.8Xa.1.6.#.#.@.@. .[ [ ! W W T T Y Y B Y B Y Y Y B n n n n n n n n n n n n Z S S H K ( } } ( _ _ ( } } K K D Z v v z g g g d y y y y y y y y y y y y y y y y y y y y y y y y y y y y y y y y y y y y y y y y r 6 r r 6 6 r r r r 6 r r 6 6 6 ",
"1 > > > > 1 1 1 1 1 1 1 1 1 1 1 1 1 1 1 1 1 1 1 1 6 1 1 1 1 1 1 1 1 6 r 1 1 1 1 6 1 6 6 6 6 6 6 6 y y d g g g h h f f d f d d g g g c c n Z S E Q Q [ { O.O.+.+.+.| ( K K D D G L L U U L G G G G G A T Z Z Z Y S T T T E Q ] } O.<.7.r.r.k.W.=X%X=X/././.x.x.x.x.M.V.Z.A.0X0XA.Z.Z.-X-XV.V.V.V.V.%X#XOXx.z.z.z.f.P.f.f.d.f.Q.Q.Q.Y.Y.~.~.~.|.|.1X1XZXAXbXbXbXVXVXBXJXJXJXJXLXLXJXBXnXlXkXkXgXhXhX'.].]._.).T.T.I.L.L.H.L.H.H.H.H.H.I.I.I.).'.hXkXkXlXkXgXhX`.(.J.;.;.;.;...^ W R R Y B B B B B c c k k k k t t y y r r y y y y y y t k k k k k k k c c c n B Y Y Y T E ! [  . .@.@.$.$.3.D.D.F.F.H.L.I.I.I.T.T.).`.`.`.`.'.hXgXkXnXmXmXmXnXlXlXgXhX[._._.}.~.~.~.Q.Q.^.!.!.@X@X+X+X+XOX+XOXOX#X#X5X5X%X-X>XwXeXeXeXwXwXwXwX>X>X>X:X%X$X+X&X&X&X$X$X%X%X%X$X@X!.!.!.W.W.Q.Q.P.P.s.e.8.8.8.7.1.1.1.t.t.t.y.y.y.y.y.t.K.p.<.2.#.#.@. . .[ ! ! W W T Y Y Y Y B Y Y Y Y B B n n n n B n n n n Z Z S S H K ( } } O.O.+.| } | ( K S S Z v z z g g d d d d y y y 8 y y y y y y y y y y y y d y y y y y y y y y y y y y y y y y y y 6 6 r r 6 r r r r r r 6 6 6 6 6 6 6 ",
"> > > 1 > 1 1 1 1 1 1 1 1 1 1 1 1 1 1 1 1 1 1 1 1 1 1 1 1 1 1 1 1 1 6 r 1 1 1 1 1 1 1 6 6 6 6 6 6 6 y d d g g g g d d f f d d g g g c n n Z S E Q Q ] { O.O.O.+.| | ( K H D D D G L L U L G G G G G A A Z Z Z Z Z Z T T E Q Q } O.O.<.1.9.k.W./.$X$X=X/./.x.x.x.x.M.V.Z.A.0X0XA.A.Z.Z.Z.V.V.V.V.V.%X%X#X@Xx.z.z.f.f.f.f.d.f.Y.Q.Q.Y.Y.Q.~.~.|.|.,X1XZXZXAXAXbXbXVXVXBXJXJXJXJXLXJXBXmXnXlXkXgXgXhXhX'.].]._.).T.T.I.L.L.L.L.H.H.H.I.I.I.I.(.).`.hXkXlXlXkXkXgX'.).H.D.;.D.J.;. .^ ^ R R R Y Y B B B B B B c c k k k k k k k k k k k k k k k c c c c B B B Y Y T T W ! [  . .@.@.$.$.$.3.D.D.F.H.H.L.I.I.I.T.T.`.`.`.`.'.'.hXgXkXnXmXmXnXlXnXlXgX].[._._.}.~.~.Q.Q.Q.!.!.!.!.@X@X+X+XOXOX+XOX$X#X#X%X-X-X:X>XeXeXeXwXwXwXwX>X>X>X:X%X$X+X&X&X&X&X$X$X%X%X$X@X!.!.!.W.W.W.Q.Y.P.s.e.e.8.<.7.1.1.1.t.t.t.y.i.i.y.y.t.t.1.1.2.2.#.@.@. .[ [ ! ! W R T Y Y Y Y Y Y Y Y Y B n n B B n n n n n n Z Z S H K K ( } O.O.O.+.+.} } K K S Z v v z g g d d d y y y y y 8 y y y y y y y y y y y y y y y y y y y y y y y y y y y y y y y r r r r r 6 r r 6 r 6 r 6 6 6 6 6 6 6 ",
"> > > > > > 1 1 1 1 1 1 1 1 1 1 1 1 1 1 1 1 1 1 1 1 1 1 1 1 1 1 1 1 1 1 1 1 1 1 1 1 1 1 6 6 6 6 6 8 y y d g g g g h f f f d d d g g k c n n S E Q ] ] { O.O.O.+.| | } K K K D D G L L L L L G G G G A A Z Z Z Z Z Y T T E E Q ] } O.<.1.9.d.k./.$X%X=X/.=X/.x.x.x.M.M.V.Z.;X0XA.A.Z.-XZ.V.V.V.V.V.V.%X%XOXx.z.z.f.f.f.f.d.d.Y.Q.Q.Y.Q.Q.~.~.~.|.|.1XZXZXZXAXAXbXVXVXBXBXJXJXJXLXLXJXBXmXlXkXkXgXgXhX'.'.].]._.).T.I.L.L.L.L.L.L.H.L.L.I.I.I.(.).`.hXkXlXlXlXkXgXhX`.(.H.J.J.H.H.D. .^ ^ W R R Y Y Y Y Y Y B B B B B B B c c c c B B B B B B B Y Y Y Y T R W ! .... .@.@.$.$.$.$.$.3.3.D.F.H.H.L.I.I.I.T.T.).`.'.'.'.hXgXgXkXlXmXmXnXlXlXnXlXhX].[._.}.}.~.~.Q.Q.Q.!.!.!.@X@X&X$X+XOX+X+XOXOX$X$X$X%X-X-X>XeXeXeXeXwXwX>X>X>X>X:X%X$X&X&X&X&X$X$X$X%X:X$XOX@X!.!.Q.Q.W.Q.Q.P.P.s.e.8.8.1.1.1.1.t.t.t.y.i.b.i.y.y.t.t.1.<.2.#.@.@. . .[ ! ! W W R T Y Y Y B B Y Y Y B B n n n n n n n n n Z Z S H K ( ( ( O.O.O.O.+.| } ( K H S Z n z z g g d d y y y y y y y y y y y 8 y y 8 y y y y y y y y y y y y y y y d y y y y r y r r r 6 r r 6 r r r r 6 6 6 6 6 r 6 6 6 ",
"> > > 1 1 1 1 1 1 1 1 1 1 1 1 1 1 1 1 1 1 1 1 1 1 1 1 1 1 1 1 1 1 1 1 1 1 1 1 1 6 6 1 1 6 r 6 6 6 6 y y d g g g g g f f d d d g c c k c n n Z E Q Q ] ] } O.O.+.+.| } ( K K D D G L L L L L G G G G A A Z Y Y Z Z Y T T E E Q ] } O.<.1.r.d.k./.=X%X=X/./././.x.x.x.M.V.Z.A.0X0XA.Z.Z.Z.Z.V.V.V.V.V.%X%X#X@Xx.z.f.f.f.f.d.d.f.Q.Q.Q.Q.Q.Q.~.Q.|.|.1X1XZXZXZXAXDXbXVXVXBXVXJXJXJXLXLXJXBXnXlXkXgXgXgXhX'.'.].).).).T.T.L.L.L.L.L.H.H.L.L.I.I.I.I.).`.'.gXlXlXlXkXkXgXhX`.(.H.H.(.(.H.D.;...^ ^ ^ W W R R R T Y Y T Y Y Y Y Y Y Y Y Y Y T T R R W W ! ! .... . .$.$.@.$.$.$.$.3.3.D.D.F.H.H.L.I.I.I.T.T.).`.`.'.'.hXhXgXkXkXnXmXmXnXlXlXlXkXhX]._._.}.~.~.~.Q.Q.^.!.!.!.@X@X+X$X*X@X+X+X+XOX+X$X$X$X%X-X>XeXeXeXeXwXwX>X>X>X>X:X%X$X&X&X&X&X&X$X$X%X:X%X+X@X!.!.Q.Q.Q.Q.Q.Y.P.e.e.e.8.1.1.1.1.1.t.t.y.y.b.y.y.y.t.t.1.8.2.2.#.@.@. .[ ! ! W W R T Y Y Y Y Y Y Y Y Y Y B n n n n n n n n Z Z S H H K ( ( _ _ O.+.+.+.| } K K S Z Z v z g g d d d y y y y 8 y y y y y y 8 y y 8 y y y y y y y y y y y y y y y y 8 y y r r y r r r 6 r r 6 6 6 r r 6 r 6 6 6 r 6 6 6 ",
"> > > 1 1 1 1 1 1 1 1 1 1 1 1 1 1 1 1 1 1 1 1 1 1 1 1 1 1 1 1 1 1 1 1 1 1 1 6 1 6 6 1 1 6 y r 6 6 6 y y d d g g h g d d d d d g g k k c n n Z E E Q ] ] } O.O.+.+.| } K K K K D G L L L L L G G G G A m Z Z Y Y Y Z S T S E Q ] } O.O.1.9.d.d.W.=X$X$X/./.l.k.k.x./.M.V.V.A.0X0XA.Z.Z.Z.Z.V.V.V.V.V.%X%X%X@Xx.z.f.f.f.d.d.d.d.Q.Q.Q.Q.Y.Q.Q.~.~.|.|.1X1XAXZXZXAXbXVXVXVXVXBXJXJXJXLXJXBXmXnXkXkXgXgXhXhX'.].]._._.T.T.T.I.L.L.L.L.L.L.L.L.I.I.I.I.).`.'.gXkXnXnXlXkXgXgXhX`.(.H.I.(.(.(.J.;. .......^ ^ W W W W W W W W W W W W W W W ! ! ^ ...... . .@.@.$.$.$.$.$.3.3.3.3.D.D.F.H.H.I.I.I.I.I.T.).`.`.'.'.hXhXhXgXkXlXnXmXnXnXlXlXzXhX].[._._.}.~.~.~.~.Q.Q.^.!.!.!.@X+X+X+X+X@X@X+X+X+XOX$X$X%X-X>XeXeXeXeXwXwX>X>X>X>X:X:X$X$X&X&X&X&X%X%X%X:X%XOX@X!.!.Q.Q.Q.Q.Q.Y.L.e.e.8.8.7.1.1.1.1.t.t.t.y.i.y.y.y.t.t.1.7.2.3.#.@.@. . .[ ! ! W R T Y Y Y Y Y Y Y Y Y Y n n n n n n B B n Z Z W ..E K ( ( O.O.O.O.O.O.| | ( K H S Z n z z g g d d d y y y y y 8 y y y y r 6 r y y y 8 y y y y y y y y y y y y y y y y y r r r r r r r 6 6 6 r r 6 6 6 r 6 6 6 6 6 6 6 ",
"1 1 1 1 > > 1 1 1 1 1 1 1 1 1 1 1 1 1 1 1 1 6 1 1 1 1 1 1 1 1 1 1 1 1 1 1 1 1 1 1 6 6 6 6 r 6 6 6 6 y 8 d d g g h h g f f d d d g g c c n n Z T E Q ] ] } O.O.O.+.| } K K K K D G L L L L L G G G G A m Z Z Z Y Y Z Y S T E E Q } O.o.<.9.r.d.W./.$X$X=X/./.&X/.k.x.M.M.V.Z.;X0XA.Z.Z.Z.Z.Z.V.V.V.V.V.-X%X#Xx.z.f.f.f.d.d.d.d.Y.Q.Q.Q.Y.Y.Q.~.Q.^.|.,X1X2XZXZXZXbXbXVXVXVXBXJXJXJXJXLXJXBXnXlXkXgXgXgXhXhX'.].]._._.T.T.T.L.L.L.L.L.L.L.L.I.I.I.I.T.).`.`.hXkXlXnXnXlXkXgXgXhX`.(.(.(.).).(.H.D.;.;. . ...........^ ^ .......... . . . . . . . . .@.$.$.$.$.$.$.3.3.5.D.D.F.F.H.H.L.I.I.I.I.T.).`.`.'.hXhXhXgXgXkXlXnXmXnXnXlXlXlXgXhX]._._.}.~.~.~.Q.Q.Q.Q.!.!.!.@X&X+X+X+X+X@X@X@X+X+X+X$X$X%X-X>XeXuXuXeXwX>X>X>X>X>X:X:X%X$X&X&X&X&X$X%X:X:X%X#X@X!.!.Q.Q.Q.Q.Q.Y.P.e.e.q.8.<.7.1.1.t.t.t.t.y.y.y.y.y.t.t.t.1.2.3.3.#.@. . ...[ ! W W T T Y Y Y Y Y Y Y Y Y Z n n n n n n n n Z Z T E [ K ] ( ( O.+.O.+.O.O.} } K K S Z Z v z g g d d d y y y y y y y y y y y y 8 r y y y y y y y y y 8 y y y y y r y y y y 6 r r r r 6 r r r r r r 6 6 r 6 6 1 r 6 6 6 6 1 ",
"> > > > 1 1 1 1 1 1 1 1 1 1 1 1 1 1 1 1 1 1 1 1 1 1 1 1 1 1 1 1 1 1 1 1 1 1 1 1 1 1 1 6 6 6 6 6 6 6 8 8 d d g g h h f f f f d g g k k c n n Z T E Q ] ] } O.O.O.+.| } ( K H K D G L G L L L G G G G A A A Z Z Y Y Z Z T T E H Q ] } O.<.1.r.9.d.W.=X$X=X=X=XSX/.k.x.x.M.V.Z.;X0XA.A.Z.Z.Z.Z.V.V.V.V.V.-X-X%X@Xx.z.f.f.d.d.d.d.f.Q.Q.Q.Q.Q.Q.Q.~.~.^.|.,X1X2XAXZXAXbXbXVXVXVXBXVXBXVXJXLXVXBXnXlXkXgXgXgXhX'.'.].[._._.T.R.T.L.L.L.L.L.L.L.L.L.I.I.T.I.).`.`.'.gXlXnXnXnXlXkXkXgX'.`.(.(.(.`.`.(.(.H.D.;.;.$.$.$. . . . . . . .$.$.$.$.$.$.$.$.$.@.$.$.$.3.3.3.D.D.D.F.F.F.H.H.I.I.I.I.T.T.).`.`.'.hXhXhXgXgXkXkXlXnXnXnXlXlXlXkXhX].[._._.}.~.~.~.Q.Q.Q.Q.Q.!.!.!.@X&X$X+X@X@X@X@X+X+X+X+X$X%X:X>XeXuXpXeXeXwX>X>X>X:X:X:X%X$X&X&X&X&X*X%X:X:X:X$X@X!.!.!.Q./.Q.Q.Y.P.s.e.e.8.8.1.1.1.1.t.t.t.y.y.y.i.y.y.t.t.9.8.2.$.$.@.@. ...[ ! ! W W R T Y Y Y Y Y Y Y Y Y B n n n n B n Z Z Z Z S E H ( ] ( O.O.O.O.O.O.O.} } K H S Z n z z g g d d d y y y y y y y y y 6 6 y y 6 y y y y y r y y y 6 r y y r r r r r 8 8 y r r r 6 6 r r r r 6 6 r r 6 6 r 6 r r 6 6 1 6 ",
"1 1 > 1 > 1 > 1 1 1 1 1 1 1 1 1 1 1 1 1 1 1 1 1 1 1 1 1 1 1 1 1 1 1 1 1 1 6 6 6 1 1 1 1 6 6 6 6 6 6 8 8 d d g g h h h h f d d g g g k c c n Z S E Q ] ] } O.O.O.+.| } ( K H K K D G L L L L G G G G b m A Z Z Z Y Z Z T T T H H ] } O.O.1.9.r..XFX/.$X$X=X/.l./.x.x.x.@XM.V.A.0XA.A.Z.Z.Z.Z.Z.V.V.V.V.Z.-X-X#Xx.z.f.f.f.d.d.d.f.z.Q.Q.Q.Q.Q.Q.~.~.~.|.,X,X2X2XZXZXAXbXbXVXVXVXBXVXBXBXLXJXBXmXlXkXgXgXgXgXhX'.'.].]._._.R.R.U.U.U.U.L.L.L.L.L.L.I.I.I.I.T.).`.`.hXkXlXnXmXnXlXkXkXgXhX'.`.`.`.`.`.).(.H.H.J.D.D.;.;.;.$.;.;.;.;.;.D.D.D.D.D.D.D.D.D.D.D.D.D.F.F.F.H.H.H.I.I.I.I.I.T.).`.`.'.'.hXhXhXhXgXkXkXlXnXmXnXlXlXlXkXhX].[._._._.}.~.~.Q.Q.Q.Q.Q.!.!.!.!.@X@X+X+X@X@X@X@X+X+X+X+X$X%X:X>XeXuXpXeXwXwX>X>X:X:X:X%X%X$X&X&X&X&X*X*X:X:X:X$XOX@X!.!.Q.Q.Q.Q.Y.P.s.e.e.8.8.7.1.1.1.t.t.t.t.y.y.y.i.i.t.t.1.7.8.3.$.#.@.@. ...[ ! W W R T Y Y Y Y Y Y Y Y Y Y B n n n Z Z Z Z Z Z T E Q Q ] { O.O.O.O.O.O.O.} } K H S Z n n z g g d d d y y y y y y y y y 6 6 y y y r 6 y y y y y y y r r 6 r r r y r r 6 r 6 d y r 6 6 6 r 6 6 6 6 r 6 6 6 6 r r r r 1 6 1 6 ",
"> > > > > > 1 1 1 1 1 > 1 1 1 1 1 1 1 1 1 1 1 1 1 1 1 1 1 1 1 1 1 1 1 1 6 1 1 6 6 1 6 1 1 6 6 6 6 6 8 y 8 d d g g g h h f f d d g g g c c n Z T E Q Q ] ] } O.+.+.| } ( K K K K D G L L L G G G G A :.^ v Z n Z Z Z Z Z S S H H K ] O.O.<.9.d.FXPXXX=X$X=X/././.k.x.x.M.M.V.Z.;X0XA.Z.Z.Z.Z.Z.Z.V.V.Z.Z.-X-X%XM.z.z.f.f.f.s.s.d.Y.Q.Q.Q.Q.Q.Q.~.~.~.~.|.,X,X2X2XZXZXAXbXbXVXVXBXVXBXBXVXJXJXVXnXlXkXgXgXgXhXhX'.'.]._._._.R.R.R.T.U.L.L.L.L.L.L.L.L.I.I.I.I.).).`.'.hXlXnXmXmXnXnXlXkXgXgXhX'.`.`.`.`.`.).(.(.H.H.H.F.D.D.D.D.D.D.D.D.D.D.D.D.D.F.F.F.F.F.F.H.H.H.I.I.I.I.I.T.).`.`.`.'.hXhXhXgXhXgXgXkXlXnXmXnXlXlXkXkXgXhX[.[._._._.}.~.~.Q.Q.Q.Q.Q.!.^.!.@X@X+X@X@X@X@X@X@X@X@X+X+X$X%X:X>XeXpXpXeXwXwX>X>X>X:X:X*X$X&X&X&X&X&X*X*X%X:X:X$XOX@X!.!.Q.Q.Q.Q.Y.P.s.e.e.8.8.8.7.1.1.t.t.t.t.y.y.y.y.y.t.t.9.7.8.2.2.#.$.@. ...! ! W W R T T Y Y Y Y Y Y Y Y Y B B B Z Z Y Z Z Z Z T Q Q Q ] { } O.O.O.O.O.O.O.} } E H S Z n c z g d d d y y y y y y y y r r r y r r 6 6 6 6 r y y y y y r r r r y r r r 6 6 6 6 r 6 r r 6 6 6 6 6 6 r r r 6 6 6 6 6 r 6 1 1 6 6 ",
"> > > > > > 1 > 1 1 1 1 1 1 1 1 1 1 1 1 1 1 1 1 1 6 1 1 6 1 1 1 1 1 1 1 6 1 1 1 6 1 6 6 6 6 6 6 6 6 8 y 8 d d g g g h h h f d d g g g c c c n S T E Q ] ] } O.+.+.+.} ( K K K D D G G G L G G G G A oX>.Z n n n Z Z Z Z Z S E E Q ] } O.<.9.r.E.XXW./.%X=X/././.!.k.x.x.M.M.V.;X;XA.Z.Z.Z.Z.Z.Z.Z.Z.Z.Z.-X-X-X#Xx.z.f.f.f.d.s.d.f.z.W.Q.Q.Q.Q.Q.~.~.~.|.|.,X,X2X1XZXZXAXbXbXVXVXVXVXBXBXVXJXVXBXnXkXgXgXgXhXhX'.'.'.]._._._.R.R.R.T.U.U.U.U.U.L.L.L.L.I.I.I.I.I.).).`.'.gXkXnXmXmXnXnXlXkXkXgXhXhX'.'.'.'.'.`.`.).(.(.I.I.I.H.H.H.H.H.H.H.H.H.H.H.H.H.I.I.I.I.I.I.I.T.).).`.`.`.'.'.hXhXgXgXgXgXgXkXnXnXnXnXlXlXkXgXhX].[.[._._._.}.~.~.~.Q.Q.Q.Q.!.!.^.!.!.@X@X+X@X@X@X@X@X@X@X+X+X$X%X:X>XeXuXpXeXeXwX>X>X:X:X:X%X$X$X&X&X&X&X*X*X%X:X%X$XOX@X!.x.Q.Q.Q.Q.Y.P.s.e.w.8.8.<.1.1.1.t.t.t.t.y.y.y.y.y.t.t.1.7.8.4.2.#.#.@. . ...! ! W R R R Y Y Y Y Y Y Y Y Y Y n B n Z Z Y Z Z Y S S Q } } ] } O.O.O.O.O.O.O.} } ~ E S Z n n c g g d d y y y y y y y y y y r y y r 6 6 6 r r r r r y y y r r r r r y r r r 6 6 r r 6 6 6 6 6 6 r r r r r 6 6 6 1 1 1 1 1 6 1 6 6 ",
"> > > > > > > 1 1 > 1 1 1 1 1 1 1 1 1 1 1 1 1 1 1 1 1 1 6 6 1 1 1 6 1 1 1 1 r 6 6 1 y y 1 6 6 6 6 6 8 8 y f f g g g h h h h d d g g g z c c n Z E E Q Q ] } O.+.+.| | ( K K K D D G G G G G G G G A n / / n Y Y n Z Y Y Y T T E H ] } O.<.<.r.r.W././.$X$X/./././.k.x.x.x.M.V.-X;XA.Z.Z.Z.Z.Z.Z.Z.Z.Z.Z.Z.-X-X%XM.x.z.g.f.f.d.d.d.f.Q.Q.!.Q.Q.Q.Q.~.~.~.|.,X,X1X2X1XZXAXbXbXbXMXVXVXVXBXBXVXJXVXMXlXkXgXgXgXhXhXhX'.`.].[._._.R.T.R.T.U.U.U.U.U.L.L.L.U.L.I.I.I.T.T.).`.`.'.gXkXnXmXmXmXnXlXlXkXgXgXhXhXhXhXhXhX'.'.`.`.).).).).(.(.(.(.(.I.I.(.(.(.(.).).).).).`.`.`.`.'.'.'.hXhXhXgXgXgXgXkXlXnXnXmXnXlXlXkXgXhX].].[._._._.R.~.~.~.~.Q.Q.Q.!.!.!.!.^.@X@X@X@X@X@X@X@X@X@X@X+X+X$X%X:X>XuXpXuXeXeXwX>X>X:X:X:X*X$X&X&X&X&X&X*X*X*X:X%X$X+X@X!.!.Q.Q.Q.Q.Q.Y.d.e.e.q.8.<.1.1.1.1.t.t.t.y.y.y.y.y.t.t.1.7.8.4.2.3.#.#.@. ...! ! W W T R R T Y Y Y Y Y Y Y Y Y Y Y Y Y Y Y Y Z T S H K { } { O.O.O.O.+.+.+.O.} } Q E S Z n c g g d d d y y y y y y y y 8 8 r r y r r 6 r r y y 6 r r r y y r 6 r r r r y r 6 r r r 6 6 6 6 6 6 r 6 6 6 6 6 6 1 1 1 1 1 1 r 1 6 6 ",
"> > > > 1 > > 1 1 1 > 1 1 1 1 1 1 1 1 1 1 1 1 1 1 1 1 6 6 1 6 1 1 6 1 1 1 1 y r 6 1 r r 1 1 1 6 6 y y 8 9 f d g g h h h h h f d d g g k z c n S T E Q Q ] [ O.O.+.| | | K K K K D G G G G G G G A A m m n n n Z Z Y Y Z Z T T E H K ] O.o.<.9.r.W.W./.=X%X=X/././.k.k.x.x.M.V.V.A.A.Z.Z.V.Z.Z.Z.Z.Z.Z.Z.Z.-X-X-X#Xx.z.g.f.f.d.d.d.f.Q.W.Q.Q.Q.Q.Q.Q.Q.~.^.|.,X,X2X2X1XZXAXbXbXbXVXMXVXVXVXBXVXVXVXmXlXkXgXgXhXhXhX'.'.].]._._._._.R.R.U.U.U.U.U.U.U.U.L.U.L.I.I.I.I.T.T.).`.`.'.hXkXlXnXmXmXnXnXlXlXkXkXgXgXgXgXgXhXhXhXhX'.'.`.`.`.`.`.`.`.`.`.`.`.`.`.`.`.`.'.'.hXhXhXhXhXhXhXgXgXgXkXkXlXnXmXmXnXlXkXgXgXhX].[.[._._.R.R.~.~.~.~.Q.Q.Q.Q.Q.!.!.!.!.!.@X@X@X@X@X@X@X@X@X@X+X+X$X%X:X>XuXpXpXeXwXwX>X>X:X:X:X*X$X&X&X&X&X&X*X*X*X:X%X$X+XOX!.!.!.Q.Q.Q.Q.Y.d.s.e.8.8.8.7.1.1.t.t.t.t.t.y.y.y.y.t.t.1.7.8.4.3.3.3.$.$.@. .[ ! W W W T T T Y Y Y Y Y Y Y Y Y Z Z T W Y Y Y Y T T H Q ] { { O.O.O.+.+.+.+.O.O.} ~ E S Z n n c g d d d y y y y y y y y 6 6 r 6 r 6 r r 6 r r 6 y y r r 6 r r 6 6 r r r r y r 6 6 6 r r 6 6 6 6 6 6 6 6 6 r 6 1 1 1 1 1 1 1 6 6 6 6 ",
"> > > > > > > 1 1 1 1 1 > > 1 1 1 1 1 1 1 1 1 1 1 1 1 1 1 1 6 r 6 6 6 1 6 1 1 1 1 1 1 6 1 1 1 6 6 6 y 8 y f f h g g g h h h d f g g g g z n n Z S E Q Q ] ] O.+.+.+.| } ( K K D D D G G G G G G A m m m n Z n n Z Y Y Z Z S T T H K ] O.O.<.9.g.k.W.W./.%X=X/./././.k.x.x.M.M.V.Z.A.A.Z.V.Z.Z.Z.Z.Z.Z.Z.Z.-X-X-X%XM.z.z.g.d.d.d.g.d.f.W.Q.W.Q.Q.Q.Q.Q.Q.Q.^.|.,X,X2X2X1XZXAXvXbXVXMXVXVXVXBXVXVXVXVXmXlXkXgXgXhXhXhX'.'.].]._._._.R.R.R.R.U.U.U.U.U.U.U.U.U.U.U.U.L.T.T.T.T.).`.`.'.hXgXkXnXmXmXmXmXnXnXlXkXkXgXkXgXgXgXgXgXgXhXhXhXhXhXhXhXhXhXhXhXhXhXhXhXhXhXgXhXhXhXhXhXgXgXgXkXlXlXnXnXnXnXlXkXgXhXhX].[._._._.R.~.~.~.~.~.~.Q.Q.Q.!.!.!.!.!.!.@X@X@X@X@X@X@X@X@X@X@X+X+X$X:X>XwXuXpXpXeXwX>X>X>X:X:X*X*X$X&X&X&X&X&X*X*X*X:X*X$X+X@X!.!.!.Q.Q.Q.Q.P.d.s.e.e.8.8.9.1.1.t.t.t.t.t.y.y.y.y.t.t.t.7.8.5.5.3.3.#.#.@. ...! ! W W T T T Y Y Y Y Y Y Y T Y n Z Y Y Y Z Y Z Z S E Q ] } O.{ O.O.O.+.+.+.O.o.{ ] Q E S Z n c z g d d d y y y y y y 8 8 r 6 y r r r r 6 r r 6 r r r 6 r r 6 6 6 6 r 6 6 r r r 6 r r 6 6 6 6 6 6 6 6 1 r r y r 6 1 1 6 1 1 1 1 1 1 1 ",
"> > > > > > > > 1 1 1 1 1 1 1 1 1 1 1 1 1 1 1 1 1 1 1 1 1 6 6 6 6 6 6 1 1 1 6 1 1 6 6 6 6 1 6 6 6 6 6 8 8 d f h h g h h h h h g g g g g c n n Z S E Q Q ] ] } +.+.+.| } ( K H D D D G G G G G G m A A n n n n n n Z Z Z Z Z S S H Q ( } O.<.9.9.k.W.Q./.$X$X/./.=X/.k.k.x.N.M.V.V.Z.Z.Z.V.Z.Z.Z.Z.Z.Z.Z.Z.Z.-X-X-X#Xx.z.g.g.d.d.d.d.f.z.Q.Q.,X^.Q.Q.Q.~.Q.^.^.|.,X1X2X2XZXZXAXvXbXbXVXVXVXBXBXVXVXVXMXmXlXkXgXgXhXhX'.'.`.]._._._._.R.R.R.R.U.U.U.U.U.U.U.U.U.U.L.U.U.T.T.T.T.).).`.`.`.'.hXgXlXnXmXmXmXmXmXnXlXlXkXkXkXkXkXkXkXgXgXgXgXgXgXgXgXgXgXgXgXhXhXhXhXgXgXgXgXgXgXkXlXlXnXnXnXlXkXkXgXhXhX].[.[._._._.~.~.~.~.~.~.~.~.~.Q.Q.!.!.!.!.!.!.!.@X@X!.!.!.@X@X@X@X@X+X+X%X:X>XwXuXpXuXeXwX>X>X>X:X:X*X*X*X&X&X&X&X&X*X*X*X:X:X$X+X+X!.!.!.Q.Q.Q.Q.Y.P.s.e.8.8.8.7.1.1.t.t.t.t.t.t.y.y.y.t.t.t.r.8.4.5.3.3.$.#.@.@. .[ ! W W T T T Y Y Y Y Y Y Y T T Y Z Y Y Y Z Z Y T T E K Q ] } O.O.O.O.+.+.O.O.%.:.] Q E T Z n c c g g d d d y y y y y y 6 6 6 6 r r r r 6 6 r r r r 6 6 r r r 1 ^ ;.y 6 6 6 6 6 r r 6 6 6 6 6 6 r 6 6 6 1 1 6 6 r 1 1 1 1 1 1 1 1 6 1 1 ",
"> > > > > 1 > > 1 1 1 1 1 1 1 1 1 1 1 1 1 1 1 1 1 1 1 1 1 6 1 1 1 1 1 1 1 1 6 1 1 6 6 6 1 1 6 6 6 6 6 8 y y d g h g h h h h d d g g g g z c n n Z T Q Q Q ] } O.+.+.| } ( K H K D D D G G G G A m m m n n Z Y n n Z Z Z Z Z S S E Q ] } O.<.1.9.d.k.Q./.=X$X=X/././.k.k.k.x.M.M.V.Z.Z.Z.V.V.Z.Z.Z.Z.Z.Z.Z.Z.-X-X-X%XM.x.z.g.d.d.g.g.d.f.Q.Q.^.^.Q.Q.Q.Q.Q.~.^.^.|.,X2X2X1XZXZXZXvXbXbXMXMXVXVXBXVXVXVXMXmXlXkXgXgXhXhXhX'.`.].)._._._._.R.R.R.R.U.U.U.U.U.U.U.U.U.U.U.U.U.U.T.T.T.T.).).`.`.'.'.hXgXlXnXmXmXmXmXmXnXnXnXlXlXlXlXkXkXkXkXkXkXkXkXkXkXgXgXkXkXkXkXkXkXlXlXlXnXnXnXnXlXlXkXhXhXhX].].[._._._._.R.R.~.~.~.~.~.~.~.Q.Q.Q.!.!.!.!.!.!.@X@X@X!.!.!.@X@X@X@X@X+X$X%X:X>XeXuXpXuXeXwX>X>X>X:X:X*X*X&X&X&X&X&X&X*X*X*X:X:X%X$X+X@X!.!.Q.Q.Q.Q.Y.P.s.e.e.8.8.1.1.1.1.t.t.t.t.t.y.y.t.t.t.t.9.9.4.5.5.3.3.$.@.@. ...! ! W R T T T Y Y Y Y Y T Y T T Y Y Y Y Z Y Y T S E Q Q ] { O.O.O.O.O.<.+.O.O.#.O.] Q E S Z n c g g d d d d d y y y y y r r r r r y r r 6 6 6 r 6 r r r 6 6 r 1 W ;.y 6 6 6 6 6 6 6 6 6 6 6 6 1 6 6 6 6 6 6 6 1 1 1 1 1 1 1 1 1 1 1 1 1 ",
"> > > 1 > > 1 1 1 1 1 1 1 1 1 1 1 1 1 1 1 1 1 1 1 1 1 6 1 1 1 1 1 1 1 1 6 6 1 1 1 6 6 1 1 1 6 6 6 9 6 8 y f d d d g g f h h d d d g g g z c n v Z T E Q ] ] } O.+.+.| | } K H K D D D G G G G G m A A n n n R n n Z Z Z Z Z T T H Q ] } O.O.1.r.g.k.W././.$X=X/././././.k.x.x.M.M.V.Z.Z.V.V.V.Z.Z.Z.Z.Z.Z.Z.Z.-X-X-X#Xx.c.h.g.d.d.g.g.f.W.!.!.Q.Q.Q.Q.Q.Q.Q.^.^.^.,X,X2X2X1XZXZXAXbXbXbXMXMXVXVXMXMXVXVXMXnXlXkXgXgXhXhXhX'.`.].]._._._._._.R.R.R.U.U.U.U.U.U.U.U.U.U.U.U.U.U.U.U.T.T.T.T.).).`.`.'.'.hXgXkXlXnXnXmXmXmXmXmXnXnXnXnXnXnXnXlXnXlXlXlXlXlXnXlXnXnXnXnXnXlXnXlXlXkXgXhXhX'.].]._._._._._.R.R.~.R.R.~.~.~.Q.Q.Q.Q.Q.Q.!.!.!.!.!.!.!.!.@X!.@X@X@X@X!.@X@X&X$X%X:X>XuXuXuXuXwXwX>X>X:X:X:X*X*X&X&X&X&X&X<X*X*X*X:X:X%X$X+X@X!.!.Q.Q.Q.Q.Y.P.d.e.e.8.8.1.1.1.1.1.t.t.t.t.t.y.y.t.t.t.p.7.4.5.5.3.3.$.@.@.@. .[ ! W W T T T Y Y Y Y Y T T T T Y Y Y Y Z Z T T T E Q Q ] { } O.O.O.<.1.1.<.O.O.{ ] Q E T Z n c c g g d d d y y y y y y y r r r r 6 r r r 6 6 6 6 r r r r 6 6 6 6 6 6 r r r 6 6 6 6 6 6 6 6 6 6 1 6 6 1 1 1 1 1 1 1 1 1 1 1 1 1 1 1 1 1 1 ",
"> > 1 1 1 1 > > 1 > 1 1 1 1 1 1 1 1 1 1 1 1 1 1 1 6 6 1 1 1 1 1 1 1 1 1 6 6 1 1 1 6 6 6 6 6 1 6 6 6 6 8 8 d d d d g h h h h d g g g g g g c v >.:.S E Q Q ] } O.+.+.| } } K H K D D D G G G G A A A A A m n n n n n n n Z Z S S S Q ] } O.O.<.9.g.d.W././.&X$X=X/./././.k.k.x.N.M.V.Z.Z.Z.B.B.V.Z.Z.Z.Z.Z.Z.Z.-X-X-X-XM.x.z.g.f.d.g.d.f.k.W.!.!.!.Q.Q.Q.Q.Q.Q.^.^.|.,X,X2X2X2XZXZXZXbXbXbXMXMXVXMXMXMXVXVXMXmXlXkXgXgXhXhXhX'.`.].[._._._._._.R.R.R.R.U.U.U.U.U.U.U.U.U.U.U.U.U.U.U.T.T.T.T.U.T.).).`.`.`.'.'.hXgXgXkXlXlXnXnXnXmXmXmXmXmXnXmXmXmXnXmXmXnXnXlXlXkXkXkXgXgXhX'.].].]._._._._._.R.R.R.~.R.~.~.~.~.Q.Q.Q.Q.Q.Q.Q.Q.!.!.!.!.!.!.!.!.!.^.!.@X@X!.@X@X@X&X$X:X:X>XuXuXuXuXwX>X>X:X:X:X%X*X*X&X&X&X&X,X<X<X*X:X:X:X%X$X+X@X!.!.Q.Q.Q.Q.Y.P.s.s.e.8.8.<.1.1.1.t.t.t.t.y.t.t.t.t.t.1.r.9.8.5.5.5.3.3.$.@.@. ...! W W R Y T T T Y R T T T T T Y Z T T Z Z T T T E E K ] { } O.O.O.1.1.1.1.O.o.} [ ] E T T Z n c g g g d y y y y y y y r r 6 6 r r r r r 6 6 6 6 r r 6 6 6 6 6 6 r 6 y k r 6 6 6 6 6 6 6 6 6 6 6 5 6 6 1 1 1 1 1 6 1 1 1 1 1 1 1 1 1 1 1 1 ",
"> > > 1 1 1 > 1 > > 1 1 1 1 1 1 1 1 1 1 1 1 1 6 1 1 6 1 6 6 1 1 1 1 6 1 6 6 6 6 6 1 6 6 6 6 6 6 6 6 6 r 6 8 d d d h h h h h h M g g g g g z z >.:.S E Q Q ] } O.+.+.+.} } K K K D D D G G G G A A m m n n n n n n Z n n Z Z Z S S Q Q ] } O.<.9.r.d.k././.&X%X=X/././././.k.k.x.N.C.V.Z.V.C.C.B.Z.Z.Z.Z.Z.Z.Z.Z.-X-X-XV.x.z.h.f.f.d.P.f.f.z.!.!.!.Q.Q.Q.Q.Q.Q.^.^.^.,X,X<X2X2X2XZXZXvXbXbXbXMXVXMXMXMXMXMXVXMXmXlXkXgXhXhXhX'.'.'.].[._._._._._.R.R.R.R.U.U.U.U.U.U.U.U.U.U.U.U.U.U.U.U.U.U.U.T.U.T.T.T.).).).`.`.`.`.'.'.hXhXgXgXkXkXkXkXkXkXkXkXkXkXgXgXhXhXhX'.'.'.].].).)._._._._.R.R.R.R.R.R.R.~.R.Y.Q.Y.Q.Q.Q.Q.Q.Q.Q.!.!.!.!.!.!.!.!.!.!.@X&X!.!.!.!.&X&X&X%X:X>XyXuXuXuXuXwX>X>X:X:X%X*X*X&X&X&X&X,X<X<X<X<X:X:X:X%X+X@X@X!.!.Q.Q.Q.Q.Y.P.P.s.e.8.8.1.1.1.1.t.t.t.t.t.t.t.t.t.t.1.r.9.8.4.5.5.3.3.$.$.@.@. .[ ! W W T T T T T R R Y T T T Y T T T T Z S S T E Q Q ] { { { O.O.O.1.1.<.<.o.O.} [ Q E T Z n c c g d d d y y y y y y r y r 6 r r r r r 6 6 6 6 6 r 6 6 6 6 6 6 6 6 6 r y 6 6 6 6 6 6 6 6 6 1 6 1 1 1 1 1 1 1 1 1 1 1 6 1 1 1 1 1 1 1 1 1 1 ",
"> > > 1 1 > 1 1 1 1 1 1 1 1 1 1 1 1 1 1 1 1 1 1 1 1 1 6 6 1 1 1 1 1 1 6 6 6 6 6 6 1 6 6 6 y y 9 9 9 6 9 6 8 y f d g g g h h f d f g g g g z z z Z S E Q Q ] } O.+.+.+.| } } K K D D D G G G G G A A m m m n n n n Z Z Z Z Z Z T S E Q ] } O.<.1.r.g.k.W./.!.$X$X/././././.k.k.x.N.N.B.V.Z.V.C.B.V.Z.-XZ.Z.Z.Z.Z.;X;X-X-XM.x.z.g.f.f.d.d.g.k.!.!.!.!.Q.Q.Q.Q.Q.Q.^.^.^.,X,X<X2X2X2XZXZXvXbXbXbXMXMXMXMXMXMXMXMXMXnXlXkXgXgXhXhX'.'.`.].]._._._._._._.R.R.R.R.U.U.U.U.U.U.U.U.U.U.U.U.U.U.U.U.U.U.U.U.U.U.U.T.T.T.).).).`.`.`.`.`.`.`.`.`.`.`.`.`.'.'.'.`.].].].).).).)._._._._.R.R.R.R.R.R.R.R.R.R.Y.Y.Q.Y.Q.Q.Q.Q.Q.Q.Q.!.!.!.!.!.!.!.!.!.&X!.!.!.^.^.!.!.&X&X$X*X:X>XyXuXuXuXeXwX>X:X:X%X*X*X*X&X&X&X,X<X<X<X<X*X:X:X:X%X+X@X@X!.!.Q.Q.Q.Q.Y.P.d.d.e.e.8.9.1.1.1.1.t.t.t.t.t.t.t.t.t.1.9.9.8.q.q.5.5.3.3.$.@.$. .[ ! ! W R T T T Y Y Y Y Y T T T T T T T T S S S E E Q ] { { { O.O.<.1.1.<.<.O.O.} [ Q E T Z n c c g d d d y y y y y y y r r r r r 6 6 r r 6 6 6 6 6 6 6 6 6 6 6 6 6 6 6 6 r 6 6 r 6 6 6 6 6 1 1 6 6 1 1 1 1 1 1 1 1 1 r t r 1 1 1 1 1 1 1 1 1 ",
"> > > 1 > 1 1 > 1 1 1 1 1 1 1 1 1 1 1 1 1 1 1 1 1 1 1 1 1 6 1 6 6 1 6 6 1 1 1 1 1 2 6 9 6 6 6 6 6 6 9 9 9 8 y d d d g g f f f f h g g g g c c n Z S E Q Q Q ] | +.+.+.| } } K K K D D D G G G G A m m m m m n n n Z Y Z Z Z Y S S H Q } } O.O.1.9.g.f.W././.&X*X=X/./././.k.k.k.x.N.N.V.V.V.C.B.V.Z.Z.;XA.Z.Z.Z.;X;X;X-X%XM.x.h.g.f.d.d.g.f.z.!.!.!.!.!.Q.Q.Q.Q.Q.^.^.&X,X,X<X2X2X2XZXZXvXbXbXbXMXMXMXMXMXMXMXMXMXnXlXkXgXgXhXhXhX'.`.`.]._._._._._._._.R.R.R.U.U.U.U.U.U.U.U.U.U.U.U.U.U.U.U.U.U.U.U.U.U.U.U.U.U.U.U.T.T.T.T.).).).).).).).).).).).).)._._.T.R.).T.R.R.R.R.R.R.R.R.R.R.Y.R.Y.Y.Y.Y.Y.Q.Q.Q.Q.Q.Q.Q.Q.Q.!.!.!.!.!.!.^.^.!.^.!.!.^.^.^.^.&X&X*X:X4X5XyXuXuXeXwX>X>X:X:X%X*X*X&X&X&X&X,X,X<X<X<X*X:X:X:X%X$X@X!.!.!.Q.Q.Q.Q.Y.P.d.s.e.e.8.9.1.1.1.1.1.1.t.t.t.t.t.t.t.1.r.9.8.q.5.5.5.5.3.$.$.@.@. .[ ! ! R T T T T T Y T T T T T Z Z T T T T T T E E Q ] ( { O.O.O.<.<.1.<.<.<.o.O.{ [ Q E S Z n c k g d d y y y y y y r r r r r 6 r r 6 r r 6 6 6 r 6 6 6 6 6 6 6 6 6 6 6 6 6 6 6 6 6 6 6 6 6 1 1 1 1 1 1 1 1 1 1 1 1 1 1 1 1 1 1 1 1 1 1 1 1 1 ",
"> > > > > > 1 1 1 1 1 1 1 1 1 1 1 1 1 1 1 1 1 1 1 1 1 1 1 6 y 6 1 1 1 1 1 6 6 6 1 1 6 6 1 9 8 6 6 6 6 6 9 8 y d d d d g g f f g d g k d g c c n n Z H Q Q Q ] } | +.| } } } ~ K K D D D G G G G m m m m n n n n n n Z Y Z Z Y T T E Q ] } O.o.<.9.9.h.k.W././.$X&X/./././.k.k.k.l.N.N.C.V.V.C.N.B.V.Z.A.A.A.A.A.;X;X;X-X-XM.x.c.h.g.f.g.g.g.f.W.!.@X!.!.!.Q.Q.Q.Q.^.^.^.&X,X,X<X2X2X2XZXZXvXbXbXbXMXMXMXMXMXMXMXMXMXmXkXkXgXgXhXhX].].].`.].)._._._._.R.R.R.R.R.R.U.U.U.U.U.U.U.U.U.U.U.U.U.U.U.U.U.U.U.U.U.U.U.U.U.U.U.U.R.R.R.R.R.R.R.T.T.T.T.T.T.R.T.T.R.R.R.R.R.R.R.R.R.R.R.R.R.Y.Y.Y.R.Y.Y.Y.Y.Q.Q.Q.Q.Q.Q.Q.Q.^.!.!.!.!.!.!.!.!.^.^.!.!.!.!.^.^.&X*X*X:X5X5XuXuXuXwX>X>X:X:X:X*X*X*X&X&X&X,X,X,X<X<X:X:X:X:X:X%X$X+X@X!.!.!.Q.Q.Q.Y.P.s.e.e.e.8.9.1.1.1.1.1.t.t.t.t.t.t.t.t.1.9.9.q.q.5.5.5.5.3.3.$.$.@. .[ ! ! W R T T T T T Y T T T T T $.$.S T T T S E Q Q ] { { { O.O.<.<.1.<.<.<.O.O.{ [ Q E T Z n n c g d d d y y y y y y y r r r r y y r r r r 6 6 6 6 6 6 6 6 6 6 6 6 6 6 6 6 6 6 6 6 6 6 6 6 6 1 6 6 6 1 1 1 1 1 1 1 1 1 1 1 1 1 1 1 1 1 1 1 1 1 ",
"> > 1 > > > 1 1 1 1 1 1 1 1 1 1 1 1 1 1 1 1 1 1 1 1 1 1 1 6 6 6 1 1 1 1 6 6 6 6 6 1 1 6 6 6 9 9 6 6 6 9 8 8 y y d d g g h h d d d h g g k c c n n Z S E Q Q ] } | | | } } } } K K K D G A G G G A m m m m n Z Z n n n Y Z Z Z T T E H Q } O.O.<.1.9.h.k.Q././.&X$X=X/./././.k.k.k.l.N.N.C.C.C.N.N.V.V.Z.;XA.A.A.A.;X;X;X-X%XM.x.c.h.f.d.g.g.d.k.W.!.@X!.!.!.Q.Q.Q.Q.^.^.^.&X,X,X<X2X2X2X1XZXvXbXbXbXMXMXMXMXMXMXMXMXMXmXlXkXgXhXhXhX].].'.`.`.)._._._._._.R.R.R.R.R.R.U.U.U.U.U.U.U.U.U.U.U.U.U.U.U.U.U.U.U.U.U.U.U.U.U.U.U.U.U.U.U.U.U.R.R.R.R.R.R.R.R.R.R.R.R.U.U.Y.Y.R.Y.Y.Y.Y.Y.Y.Y.Y.Y.Y.Q.Q.Q.Q.Q.Q.Q.Q.Q.Q.Q.Q.Q.!.!.!.!.!.^.^.^.!.!.^.^.^.&X&X*X4X4X5X5XyXyXwX>X>X>X:X:X%X*X*X*X&X<X,X,X,X<X<X<X4X:X:X:X:X%X$X+X@X!.!.Q.Q.Q.Q.Y.Y.d.e.e.8.8.<.9.1.1.1.1.t.t.t.t.t.t.t.u.1.9.9.8.q.q.5.5.5.3.3.$.$.@. .[ [ ! ! W R T T T T Y Y T T T T T (.E.S E T T E E Q ] { { { O.O.<.<.1.1.<.<.O.o.O.{ ! Q E Z Z n c g g d d y y y y y y y y r r r r k k 6 r 6 6 6 6 6 6 6 6 6 6 6 6 6 6 6 6 6 6 6 6 6 6 r r 1 6 6 6 1 6 6 1 1 1 1 r 1 1 1 1 1 1 1 1 1 1 1 1 1 1 1 1 ",
"> 1 > > > 1 1 1 1 1 1 1 1 1 1 1 6 1 1 1 1 1 1 1 1 1 1 1 1 1 1 1 1 1 1 1 6 1 6 6 6 9 6 1 9 6 6 6 6 6 9 9 9 9 8 y d f d g h h f f g g d g g k c n n Z S E Q Q ] } | +.+.+.} } } K K D D D G G G A A m m m m n Z Z Z Z n n Z Z Z T S E E Q } O.7.<.1.r.9.k.Q././.^.*X&X/././././.k.k.l.l.N.C.C.N.N.N.M.V.Z.;X;XA.A.;X;X;X;X;X-XV.M.x.z.f.f.g.g.g.f.k.!.@X@X!.!.!.Q.Q.Q.!.^.^.^.&X,X<X<X2X2X2X1XZXvXvXbXbXMXMXMXMXMXMXMXMXMXmXlXkXgXgXhX'.].'.'.'.`.)._._._._._.R.R.R.R.R.R.U.U.U.U.U.U.U.U.U.U.U.U.U.U.U.U.U.U.U.U.U.U.U.U.U.U.U.U.U.U.U.U.U.U.U.U.U.U.U.U.U.U.Y.Y.Y.Y.Y.Y.Y.Y.Y.Y.Y.Y.~.Y.Y.Q.~.Q.Q.Q.Q.Q.Q.Q.Q.Q.Q.Q.!.!.!.!.!.!.^.!.^.^.!.^.^.&X&X*X*X4X4X:X:X>X>X>X>X:X:X:X*X*X*X*X*X&X,X<X<X<X<X<X<X<X:X:X:X:X%X$X+X@X!.!.Q.Q.Q.Q.Y.P.d.s.e.e.8.8.1.1.1.1.1.1.t.t.t.t.t.t.1.9.9.9.8.q.5.5.5.5.3.3.$.$.$.@. .[ ! ! W W R T T T T T T T T E T T [ Q H H E E Q Q ] { { { O.O.<.1.1.1.1.<.<.O.O.{ [ Q E T Z n c c g d d d y y y y y y y r r 6 6 r y r r 6 6 6 6 6 6 6 6 6 6 6 6 6 6 6 1 6 6 6 6 6 6 6 6 6 6 1 6 1 1 1 1 1 1 1 1 1 1 1 1 1 1 1 1 1 1 1 1 1 1 1 1 1 ",
"1 > > 1 > 1 > > 1 1 1 1 1 1 1 1 1 1 1 1 1 1 1 1 1 1 1 1 1 1 1 6 1 1 1 9 9 2 6 6 6 9 6 1 1 1 9 9 6 6 9 9 9 9 8 y d d d g g h f d d g d g g g c c n Z S E E Q ] } } | +.+.} } } K K D D D G G G G A m m m m n n Z Z Z n n Z Z Z T S S H Q ( :.vX6.1.9.p.k.W.Q././.&X$X/././././.k.k.l.l.m.N.N.N.N.m.M.V.V.Z.;XA.A.A.A.;X;X;X-X-XV.x.z.h.g.g.g.g.d.k.W.!.@X!.!.!.!.Q.Q.!.^.^.^.^.&X,X<X<X2X2X2XZXZXvXvXbXbXbXMXMXMXMXMXMXMXMXmXkXkXgXhXhXhX'.'.'.'.].].).)._._._._.R.R.R.R.R.R.R.U.U.U.U.U.U.U.U.U.U.U.U.U.U.U.U.U.U.U.U.U.U.U.U.U.U.U.U.U.U.U.U.U.Y.Y.U.U.U.Y.Y.Y.Y.Y.Y.Y.Y.Y.Y.Y.Y.Y.~.Q.Q.Q.~.Q.Q.Q.Q.Q.Q.Q.Q.Q.Q.Q.!.!.!.^.^.!.^.^.^.^.^.^.&X&X<X<X:X:X:X:X:X:X:X:X:X:X:X*X*X*X*X*X<X,X,X<X<X<X<X<X4X4X:X:X:X%X$X+X@X!.!.Q.Q.Q.Q.Y.P.d.s.e.8.8.8.<.1.1.1.1.1.t.t.t.t.t.t.p.r.9.9.e.q.q.5.5.5.3.3.3.$.$.$. .[ ! ! ! W W R T T Y T T T T W T T T S S E E E E Q ] { { o.O.O.<.<.1.1.1.<.<.O.O.{ [ ! Q E Z Z n c k g d d y y y y 6 6 6 y y 6 y 6 r 6 6 r r 6 6 6 6 6 6 6 6 6 6 6 6 6 6 1 6 6 1 6 6 1 6 6 6 r 6 6 1 1 1 1 1 1 1 1 1 1 1 1 1 1 1 1 1 1 1 1 1 1 1 1 1 ",
"1 > > 1 1 1 1 1 1 1 1 1 1 1 1 1 1 1 1 1 1 1 1 6 6 1 1 6 1 1 1 1 1 6 6 9 1 2 6 6 9 6 6 9 6 6 1 9 9 6 9 9 6 8 8 y 8 d d h g h h g d g g g g g k c n Z S S Q [ Q ] } | +.+.} } } K K K D D A G A A A A m m m n n Y Y Y Z Y Y Z Z Z S S H E ~ } O.+.<.1.9.d.k.Q././.&X$X&X/./././.k.k.k.l.m.m.C.N.N.m.m.N.V.Z.-X;XA.A.A.A.0X;X;X-X%XM.x.z.h.g.g.g.d.f.z.!.@X+X!.!.!.^.Q.Q.!.^.^.^.&X&X,X<X<X2X2X2X1XZXvXvXbXbXbXMXMXMXMXMXMXMXMXzXlXkXgXhXhXhX'.'.'.'.].].].).)._._._.R.R.R.R.R.R.R.R.U.U.U.U.U.U.U.U.U.U.U.U.U.U.U.U.U.U.U.U.U.U.U.U.U.U.U.U.U.U.U.Y.Y.Y.Y.Y.Y.Y.Y.Y.Y.Y.Y.Y.Y.Y.Y.Y.Q.Q.Q.Q.Q.Q.Q.Q.Q.Q.Q.Q.Q.Q.Q.Q.^.^.^.^.!.^.^.^.^.^.&X&X&X<X<X<X*X*X*X:X:X:X:X:X:X*X*X*X*X*X*X&X&X,X<X<X<X<X<X<X4X:X:X:X:X%X$X+X@X!.!.Q.Q.W.Q.Y.P.d.d.e.e.8.8.1.1.1.1.1.1.1.1.t.t.t.u.9.7.9.9.8.q.q.q.5.5.5.3.3.$.$.$.@.[ [ ! ! W W R T T T T T T T T T T T T T E E E H Q ] { { o.O.<.<.<.1.1.<.<.<.O.o. .{ [ ! E T Z n c c g d d d d y y r r y r y 6 y B k 6 6 6 6 6 r r 6 6 1 6 6 6 6 6 6 6 r 6 1 6 6 6 6 1 1 1 1 6 6 6 6 1 1 1 1 1 1 1 1 1 1 1 1 1 1 1 1 1 1 1 1 1 1 1 1 1 ",
"1 1 1 1 1 1 1 1 1 1 1 1 1 1 1 1 1 1 1 1 1 1 6 6 6 1 6 6 1 1 1 6 6 9 6 9 1 1 2 1 9 6 9 9 1 6 6 1 6 6 9 9 9 8 y y y f d h h h h d f g d d g g g c c Z S S E Q Q ] } | +.+.| } } } K K K D A A A A A A m m m n n n n n n Z Y Y Z Z T ! E H ~ } ( +.1.1.r.g.k.W.Q./.!.&X$X/.=X/.W.k.k.k.l.l.m.m.m.m.m.m.m.B.V.Z.;X;XA.A.A.;X;X;X;X-X%XM.x.c.h.g.d.g.g.k.W.!.+X+X!.!.&X!.!.!.!.^.^.^.^.&X,X<X<X<X2X2X1XZXvXvXbXbXbXMXMXMXMXMXMXMXMXzXlXkXgXgXhXhX'.'.'.].].].].].).)._._._.R.R.R.R.R.R.R.R.U.U.U.U.U.U.U.U.U.U.U.U.U.U.U.U.U.U.U.U.U.U.U.U.U.Y.Y.Y.Y.Y.Y.Y.Y.Y.Y.Y.Y.Y.Y.Y.Y.Y.Y.Y.Y.Q.Q.Q.Q.Q.Q.~.Q.Q.Q.Q.Q.Q.Q.Q.Q.^.^.^.^.^.^.^.^.^.^.&X&X<X<X<X*X*X*X*X:X:X:X:X*X*X*X*X*X*X*X<X<X,X,X<X<X<X<X<X<X4X4X:X:X:X%X$X+X@X!.!.Q.Q.Q.Q.Y.d.d.s.e.e.8.<.<.1.1.1.1.1.1.1.t.t.1.1.1.1.9.9.8.q.q.q.5.5.5.3.3.3.$.$.@. .[ ! ! ! W W T T T T T T T T T T T T E T E H E Q ] { { o.o.<.<.<.1.1.<.<.<.<.o.O. .[ ! E T T Z n c g g d y d k y y r y r r 6 6 y k y 6 r 6 r 6 r 6 6 6 6 6 6 6 6 6 6 6 6 6 6 1 6 6 6 6 1 1 1 1 1 1 6 1 1 1 1 1 1 1 1 1 1 1 1 1 1 1 1 1 1 1 1 1 1 1 1 1 ",
"> ; 1 1 1 1 1 1 1 1 1 1 1 1 1 1 1 1 1 1 1 1 1 1 1 1 6 6 6 6 6 1 6 6 6 1 1 1 2 1 1 1 6 9 1 2 9 6 9 9 9 9 9 9 y y y f f f h h h h f g d d g g k c c n Z S H H Q Q } | | +.| } } } K K D D D A A A G G m m m n n n n n n n n Z Y Z T ..E H ~ } } +.+.1.9.9.g.k.Q././.&X*X&X/././.k.W.k.k.l.l.l.m.m.m.l.m.N.B.Z.Z.;XA.A.A.A.;X;X;X-X-X#Xx.z.z.g.f.f.g.f.z.!.!.&X+X!.!.!.!.!.!.^.^.^.^.^.&X,X<X<X2X2X2X1XZXvXvXbXbXbXMXMXMXMXMXMXMXMXzXzXkXgXgXhXhX'.'.'.hXhX].].].).).)._._._.R.R.R.R.R.R.R.R.Y.Y.U.Y.U.U.U.U.Y.U.U.U.U.U.U.U.U.U.U.U.U.Y.Y.Y.Y.Y.Y.Y.Y.Y.Y.Y.Y.Y.Y.Y.Y.Q.Y.Q.Q.Q.Q.Q.~.Q.Q.~.Q.Q.Q.Q.Q.Q.^.Q.Q.Q.^.^.^.^.^.^.^.^.^.&X&X*X<X<X*X&X&X*X*X*X4X*X*X*X*X*X*X*X*X&X,X,X,X<X<X<X<X<X<X4X4X4X:X:X:X%X$X+X@X!.!.Q.Q.z.z.f.d.d.d.e.8.8.8.<.1.1.1.1.1.1.1.1.t.1.1.9.9.9.8.e.q.q.q.5.5.5.5.3.3.3.$.@. ...[ ! ! W W T T T T T T T T T T T T T E E E E Q ] { { o.o.<.<.<.1.1.1.<.<.6.#.O. .{ [ ! E T Z n c z g d d y d k y y y r r r 6 6 r r 6 r r 6 r 6 r 6 6 6 6 6 1 1 6 1 6 6 6 1 1 1 6 6 6 1 6 1 1 1 1 1 1 1 1 1 1 1 1 1 1 1 1 1 1 1 1 1 1 1 1 1 1 1 1 1 1 1 ",
"> > 1 1 > 1 1 1 1 1 1 1 1 1 1 1 1 1 1 1 1 1 6 1 1 1 6 1 1 k d 1 1 6 1 1 1 1 2 9 6 1 6 9 1 2 9 9 9 9 9 9 9 9 9 9 8 y d h h g g h f f d g d g k c c n Z S S E Q Q } | | +.| } } } K K D D D A A A A A A m m m n n n n n Y n n Z Z Z S S H K } } +.O.<.1.9.g.k.Q././.!.&X$X/./././.W.k.k.l.l.l.m.m.m.m.l.m.N.B.Z.A.A.A.A.A.9X9X;X;X-X%XM.x.c.h.f.f.g.g.f.z.!.@X$X+X!.!.!.!.!.^.^.^.^.^.^.&X,X<X<X<X2X2X1X1XvXvXbXbXbXMXMXMXMXMXMXxXzXzXzXkXkXgXhXhX'.'.'.'.].jXhX].].].).).)._._.R.R.R.R.R.R.R.R.Y.Y.Y.Y.U.Y.Y.Y.Y.Y.Y.U.Y.U.U.Y.U.Y.Y.Y.Y.Y.Y.Y.Y.Y.Y.Y.Y.Y.Y.Y.Y.Q.Y.Q.Q.Q.Q.Q.Q.Q.Q.Q.Q.Q.Q.Q.Q.Q.Q.Q.^.Q.Q.Q.^.^.^.^.^.^.^.,X,X&X&X&X&X&X&X&X*X*X*X:X*X*X*X*X*X*X*X<X,X,X,X,X<X<X<X<X<X<X4X4X:X:X:X:X%X$X@X@X!.!.Q.Q.Q.f.f.d.d.d.e.8.8.<.<.1.1.1.1.1.1.1.1.1.r.9.9.9.9.8.q.q.q.q.q.q.5.5.5.3.3.$.@. .[ [ ! ! W W W T T T T T R T T T E T E E E E Q Q ] { { o.,.,.<.<.1.1.1.1.<.6.#.#.X.{ [ ! E T Y n c k g g d y y y k d y y r r 6 r 6 r 6 6 6 6 6 6 6 6 6 6 1 1 1 1 6 1 6 6 1 1 1 1 1 1 1 6 r 6 1 1 1 1 1 1 1 1 1 1 1 1 1 1 1 1 1 1 1 1 1 1 1 1 1 1 1 1 1 1 1 ",
"1 1 1 1 > 1 1 1 1 1 1 1 1 1 1 1 1 1 1 1 1 1 6 6 1 1 6 6 6 d 8 1 1 1 6 1 1 9 2 9 1 1 1 1 1 6 9 9 2 9 9 9 9 9 9 8 d d d h h d d d f f g d d g g c c n Z Z S E Q Q ~ | | +.+.} } ( K K K D D D A A m m m m m m n n n B B n n Z Z Z Z Z T E K } } } +.+.1.9.9.k.k.Q././.^.&X&X/././././.k.k.k.l.l.m.m.l.l.m.N.N.V.Z.;X;XA.;X9X9X;X;X;X-X#XM.x.c.z.g.g.g.f.z.W.!.+X$X+X@X@X!.!.^.^.^.^.^.^.^.&X,X<X<X<X2X2X2X1XvXcXbXbXbXbXMXMXMXMXxXxXzXzXzXkXzXhXhXhXhX'.'.'.].hXhXjX].].].).).)._.R.R.R.R.R.R.R.R.R.R.Y.Y.Y.Y.Y.Y.Y.Y.R.Y.Y.Y.Y.Y.Y.Y.Y.Y.Y.~.~.~.Y.Y.Y.Y.Q.Q.Q.Q.Q.Q.Q.Q.Q.Q.Q.Q.Q.Q.Q.Q.Q.Q.Q.Q.Q.Q.Q.^.Q.Q.^.^.^.^.^.^.|.,X,X,X&X&X&X&X&X&X*X*X<X*X*X*X*X*X*X*X*X*X,X,X,X,X<X<X<X<X<X4X4X:X:X:X:X:X%X$X@X@X!.!.Q.Q.Q.Y.f.d.d.e.e.8.8.8.<.<.1.1.1.1.1.1.1.1.r.r.9.9.9.8.q.q.q.q.q.q.q.5.3.3.3.$.@. . .[ [ ! ! W W W T T T T T T T T R W E E E E E Q ] ] { { o.,.<.<.1.1.1.1.7.6.%.#.@.{ [ [ ! E T Z n c k g k d d y y y y r r r r r 6 6 6 6 r r 6 6 6 6 6 6 6 1 1 1 1 1 6 6 1 1 1 6 1 1 1 6 1 6 6 6 1 1 1 1 6 1 1 1 1 1 1 1 1 1 1 1 1 1 1 1 1 1 1 1 1 1 1 1 1 1 ",
"1 1 1 1 1 1 1 1 1 1 1 1 1 1 1 1 1 1 6 1 1 1 6 6 9 1 6 6 6 6 1 1 1 1 1 1 1 6 2 6 6 9 1 1 2 9 9 9 6 2 6 9 9 9 9 8 d k d f f d g h f f d d d g g c c c n Z S E E Q Q } | | +.} } ( K K K D D D A A A A m m b m n n n n n n n Z Z Z Z S S S H K } } +.+.<.9.9.g.k.Q./././.&X&X/./.!./././.k.k.l.j.j.l.l.l.l.m.N.B.Z.A.;X;X;X9X9X9X;X;X-X%XV.M.x.c.z.g.g.f.f.z.!.!.+X$X+X@X@X@X!.!.^.!.^.^.^.^.&X,X<X<X<X2X2X2X1X.XvXvXbXbXbXbXbXMXMXMXxXzXkXkXzXzXhXgXhXhX'.'.'.'.].hXjX].].].).].).)._._._.R.R.R.R.R.R.R.R.Y.Y.Y.Y.Y.Y.R.Y.Y.Y.Y.Y.Y.Y.Y.Y.Y.R.R.~.Q.Y.Q.Q.Q.Q.Q.Q.Q.Q.Q.Q.Q.Q.Q.Q.Q.Q.Q.Q.Q.Q.^.^.^.^.^.^.Q.Q.^.^.^.^.|.,X,X,X&X&X&X&X&X&X*X*X*X*X*X*X*X*X*X*X*X*X<X<X,X<X<X<X<X<X<X4X4X4X4X:X:X:X:X$X+X@X@X!.!.Q.Q.Q.Y.f.d.s.e.e.8.8.8.8.<.<.1.1.1.1.1.1.7.9.9.9.9.9.8.w.w.q.q.q.q.q.5.5.3.3.$.@. . .[ [ ! ! W W W W T T T T T T T T E E E E E Q Q ] { { { o.,.<.<.1.1.1.1.7.6.6.#.@.{ {  .! E E Y n c c g k k y d d 6 8 y y r 6 6 6 6 6 r 6 r 6 r 6 r 6 6 6 1 1 1 1 1 6 1 1 1 1 6 1 1 1 1 1 1 1 6 6 1 1 1 1 1 1 1 1 1 1 1 1 1 1 1 1 1 1 1 1 1 1 1 1 1 1 1 1 1 1 ",
"1 1 1 1 1 1 1 2 1 1 1 1 1 2 1 1 1 1 1 1 1 1 1 6 6 1 1 1 6 1 1 1 1 1 1 1 1 1 2 2 9 9 2 9 2 9 9 9 1 1 9 9 9 6 6 r y 8 d d f d g d f d g g g g g k z c n Z S S E Q Q } | | | } } } K K K D D D A A A m m m m m n n n n n n n n n Z Z Z S S H ~ } } | +.1.1.9.p.h.z.W././.^.&X&X/./././.W.k./.k.l.j.l.m.l.l.l.N.M.V.Z.A.;X;XA.9X0X0X;X;X-X%XM.x.l.c.z.g.g.f.k.z.!.!.+X%X$X@X@X@X@X!.!.!.^.^.^.^.&X&X<X<X<X2X2X2X1X1XcXvXbXbXbXbXbXbXxXxXxXxXzXzXzXzXzXhXhXhX'.'.'.'.].].jXjXjX].].].].).)._._._._.R.R.R.R.R.R.R.R.Y.Y.Y.Y.Y.Y.Y.Y.Y.Y.Y.Y.Y.Y.Y.Y.Y.Y.Y.Y.Q.Q.Q.Q.Q.~.~.Q.Q.Q.Q.Q.Q.Q.Q.Q.Q.Q.Q.^.^.Q.^.^.^.^.^.^.|.|.^.^.&X&X&X&X&X&X&X&X*X*X*X*X*X*X*X*X*X*X*X*X<X<X<X<X<X<X<X<X4X4X4X5X5X>X:X:X%X$X+X@X!.!.!.Q.Q.f.Y.f.d.d.e.e.8.q.q.8.8.8.<.<.<.<.<.9.9.9.9.9.9.8.8.q.w.w.w.q.q.q.5.5.3.3.$.@. .{ [ [ ! ! ! W W W T T T T T R W T R E E E E Q Q ] { { { o.,.<.<.1.1.1.9.9.6.6.#.@. .{ [ [ E E T Z n c k g d d y y y r y y y r r 6 6 6 6 r r 6 6 6 6 6 1 1 1 6 1 1 1 1 6 1 1 1 1 1 1 1 1 1 1 1 1 1 1 1 1 1 1 1 1 1 1 1 1 1 1 1 1 1 > 1 1 1 1 1 1 1 1 1 1 1 1 1 1 ",
"1 2 2 1 1 2 2 1 1 1 1 1 2 2 1 2 2 1 9 2 2 1 2 1 1 1 6 1 6 1 6 9 1 1 9 9 6 1 2 2 9 9 9 9 2 9 9 9 2 1 9 9 9 6 6 6 8 8 i d d d d d h h h g d d g g g c n n Z S E Q K } | | | | } } K K K D D D A A A m m m A A n n n n n n n n n Z Z Z Z S H E K } | +.+.<.9.9.h.k.W././.^.&X&X/././.W.W.W./.k.l.j.j.l.l.l.l.l.N.M.V.Z.;X;X;X0X0X0X;X;X;X-X#XM.x.c.c.h.g.g.g.k.z.!.@X$X%X$X@X@X@X@X!.!.!.^.^.^.&X&X&X,X<X<X<X2X2X2X1XvXvXbXbXDXbXbXbXbXxXxXxXzXzXzXxXzXhXhXhXhX'.'.'.].].jXjXjXjXhX].].).).).).)._._._.R.R.R.R.R.R.R.R.Y.R.R.R.R.R.Y.Y.Y.Y.Y.Y.Y.Y.Y.Y.Y.Q.Q.~.~.Q.Q.~.~.Q.~.Q.~.Q.Q.Q.Q.Q.Q.Q.Q.^.^.^.^.^.^.^.|.|.^.^.^.^.&X&X&X&X&X&X*X*X*X*X&X*X&X*X*X*X*X<X,X<X<X<X<X<X<X4X4X4X5X>X>X>X:X:X%X$X+X@X!.!.Q.Q.z.f.f.Y.d.d.e.8.8.8.q.4.8.8.<.<.<.<.8.8.8.9.9.8.8.8.q.w.w.w.w.w.q.q.5.5.5.3.3.@. .{ [ [ ! ! ! W W R T T T T T R R R R W E E Q Q Q ] { { { o.,.<.<.1.9.9.9.r.9.6.#.#.@. .[ [ Q E T Z n c c g d d y d y y y r y r r r 6 r 6 6 r 6 6 6 6 6 6 1 6 1 1 1 1 1 1 1 1 1 1 1 1 1 1 1 1 1 1 1 1 1 1 1 1 1 1 1 1 1 1 1 1 1 1 1 1 1 1 1 1 1 1 1 1 1 1 1 1 1 1 1 ",
"2 1 1 1 2 2 2 2 1 2 2 1 1 1 1 2 1 1 1 1 9 2 2 9 6 1 6 1 1 1 1 6 6 1 1 1 2 1 1 2 6 2 2 9 2 9 9 2 2 1 6 9 9 9 9 9 8 y y d f d d f f g g d d d g g g c n n Z S H H Q ~ } | | | } } ( K K K D D D A m A m m m m m n n n n n n n n n Z Z Z T T E ~ } } } +.<.1.9.p.h.z.W././.^.&X&X/./.!.W.W././.l.j.j.j.j.l.j.l.N.N.B.Z.Z.;X;X0X0X0X0X;X;X;X-XV.M.x.l.z.g.g.g.g.z.!.!.@X$X%X$X+X@X@X&X@X!.!.^.^.^.&X&X&X<X<X<X<X<X2X2X1X1XvXvXAXAXDXbXbXbXxXxXxXxXxXxXxXzXhXhXhXhXhX].].].].].jXjXjXjXhX[.].].].).)._._._._._._._.R.R.R.R.R.R.R.R.R.R.R.R.~.~.~.R.~.~.~.~.~.~.~.Q.Q.Q.Q.Q.Q.Q.Q.Q.Q.Q.Q.Q.Q.Q.Q.Q.^.^.^.^.^.^.^.^.^.^.^.^.&X&X&X&X&X&X&X&X&X&X*X&X&X&X*X*X<X*X<X<X<X<X4X4X4X4X4X5X>X>X>X>X:X:X%X$X+X@X!.!.z.z.z.f.f.d.g.e.e.8.8.8.8.4.<.<.<.<.<.8.8.8.8.9.8.8.8.8.q.w.w.w.w.w.q.q.5.5.5.3.3.#.@. .[ [ ! ! ! W W W T T T R T T T R T E E E E Q Q ] { { { o.,.,.<.<.9.9.9.9.7.7.6.#.@. .{ [ ! E T Z n c z g d d d y y y y y 6 r r r 6 6 6 6 6 6 6 6 6 6 6 6 6 6 6 1 1 1 1 1 1 1 1 1 1 1 1 1 1 1 1 1 1 1 1 1 1 1 1 1 1 1 1 1 1 1 1 > 1 > > 1 1 1 > 1 1 1 1 1 1 1 1 1 1 ",
"1 1 1 1 2 2 2 2 2 2 2 1 2 1 2 2 1 1 1 1 2 9 9 2 1 9 1 1 1 1 6 6 6 1 1 1 2 1 9 9 1 1 9 9 9 9 9 2 1 6 9 9 9 9 9 9 9 y y d f d d d d g g g f d g g g c c n Z S S E H Q } | | | } } } K H K D D A A A m m m m n n n n n n n n n n Z Z Z Z T T E ~ K } } +.O.<.9.p.h.z.W.W./.!.&X&X=X/./.W.W.W.k.k.l.j.j.j.j.j.l.l.N.N.V.Z.A.;X0X0X0X0X;X;X;X-X-XV.M.x.c.z.g.g.g.h.z.!.!.@X$X%X$X+X+X@X@X@X&X^.^.!.^.^.&X&X&X<X<X<X<X2X2X1X1X.XvXvXAXDXDXbXbXbXbXxXxXxXxXxXjXhXhXhXhX].].].].].].].].jXjXjXjXjXjX[.].].[.]._._._._._._.R.R.R.R.R.R.R.R.R.R.~.~.~.~.~.~.~.~.~.~.~.Q.Q.Q.Q.Q.Q.Q.Q.Q.~.Q.~.~.~.Q.~.^.^.^.^.^.^.^.^.^.^.^.^.&X&X&X&X&X&X&X&X&X&X&X&X&X&X*X*X*X<X<X<X4X4X4X4X4X:X5X5X>X>X>X>X:X:X%X$X+X@X!.x.z.z.z.f.f.g.d.e.e.8.8.8.8.8.4.4.8.<.<.8.q.8.8.8.8.8.8.w.w.w.w.w.w.w.w.q.5.5.5.5.3.#.@.{ { [ ! ! ! W W W T T T T R R T T T E E E E Q Q ] { { { o.,.,.<.<.<.9.9.9.7.7.6.#.@.@.{ { [ E T Y n n c g d d d y y y 8 y y 6 6 6 6 r 6 6 6 6 r 6 6 6 6 6 6 6 1 1 1 1 1 1 1 1 1 1 1 1 1 1 6 1 1 1 1 1 1 1 1 1 1 1 1 1 1 1 1 1 1 1 1 1 > > 1 1 > 1 1 1 1 1 1 1 1 1 1 1 ",
"2 2 2 1 2 2 2 2 2 2 2 1 1 1 2 2 1 2 1 1 1 9 9 2 2 9 9 9 1 1 6 6 9 9 9 1 2 9 6 9 1 1 2 1 9 6 9 9 1 2 9 9 9 9 9 9 9 y y f f d d g d g g g d d g g g c c n n Z S H H Q } | | | } } } K H K K D A A A A m m m m m n n n n n n n n Z Z Z Z Z Z T Q ~ ~ } | +.<.1.9.h.h.z.W././.^.&X&X/./.!.W.W.k.k.k.j.j.j.j.j.j.j.l.N.B.V.Z.A.;X0X0X0X0X;X;X;X-XV.M.x.x.c.z.z.g.g.z.z.!.@X+X%X%X$X+X+X&X&X&X&X^.^.^.^.^.&X&X&X<X<X<X<X<X2X1X1X1X.XvXAXDXDXDXbXbXxXxXxXxXjXjXjXjXjXjXhX].].].].].].].].].jXjXxXxXjXjXjX].].].].].[._._._._._._._._._.R.R.R.R.R.~.~.~.~.~.~.~.~.~.~.~.~.Q.~.~.~.~.~.~.~.~.~.~.~.~.^.^.^.^.^.^.^.^.^.&X&X&X&X&X&X&X&X&X&X&X&X&X&X&X&X*X*X*X<X<X4X4X4X5X5X>X:X>X>X>X>X>X>X:X-X%X$X@X!.!.Q.z.z.f.f.d.d.d.d.e.e.8.8.8.8.q.q.q.q.q.q.8.8.8.e.q.q.q.0.w.w.w.w.w.w.w.q.q.5.5.5.3.#.@.{ { [ [ ! ! ! W W E T T T T T T T T T E E E Q ] ] { { o.o.,.<.<.<.8.9.9.9.7.7.6.#.@.@.{ { [ Q E T Z n c k d d d y y y y 8 6 6 6 6 6 6 6 6 r r 6 6 6 6 6 6 1 6 6 6 1 1 1 6 1 1 1 1 1 1 1 1 1 1 1 1 1 1 1 1 1 1 1 1 1 1 1 1 1 1 1 1 1 > > > 1 1 1 1 1 1 1 1 1 1 1 1 1 1 1 ",
"2 2 2 2 2 2 1 2 2 2 2 2 2 2 2 2 9 2 1 1 1 9 9 9 6 2 9 9 9 2 1 6 9 6 1 6 2 9 9 2 1 2 1 1 9 2 9 2 2 9 6 9 9 9 9 9 9 9 y y f f d d h g g g d d h g g g c c n Z S H E Q ~ | | | | } } K K K K D A A A C m m m m m n n n c n n n n n n Z Y Z T / E K K ( } +.+.1.9.p.h.k.W./.W./.&X&X&X/./.W.W.k.k.k.k.j.j.j.j.j.j.l.l.N.V.V.Z.;X;X0X0X0X0XA.;X;X-XV.M.x.x.z.z.f.f.k.z.z.!.@X+X%X:X%X$X&X&X&X&X&X&X^.^.^.^.&X&X*X<X<X<X<X<X<X2X1X1X.XvXvXbXDXDXbXbXbXxXxXxXjXcXjXjXjXjXjXhX].].].].[.[.].].].].jXjXjXjXjXjXjXjX[.[.[.[.[.[._._._._._._._._.R.R.R.}.~.~.~.~.~.~.~.~.~.~.~.}.~.~.~.~.~.~.~.~.^.^.^.^.^.^.^.^.&X&X&X&X&X&X&X&X&X&X&X&X&X&X&X&X*X*X*X*X*X*X<X4X4X4X5X5X5X>X>X>X>X>X>X>X>X:X%X$X+X@X!.x.z.z.z.f.d.d.s.d.d.0.e.0.8.q.q.q.q.q.q.q.q.q.8.e.q.q.q.q.q.0.w.w.w.w.w.w.w.q.5.5.5.3.#.@. .{ [ [ ! ! ! W W W E T T T T T T T E E E E Q ] { { { o.o.,.,.<.<.8.9.9.9.7.7.6.#.#.@.{ { [ Q E T Z n c k g d d y y y y y r 6 6 6 6 r 6 6 6 6 6 6 6 6 6 6 6 6 1 1 1 1 1 1 1 1 1 1 1 1 1 1 1 1 1 1 1 1 1 1 1 1 1 1 1 1 1 1 1 1 1 1 1 > > > 1 1 1 1 1 1 1 1 1 1 1 1 1 1 1 1 ",
"2 2 2 2 2 2 2 2 2 2 2 2 1 2 2 2 2 1 1 9 1 6 2 1 1 1 1 1 1 1 9 6 9 9 9 9 1 1 2 1 2 2 2 2 2 2 1 2 2 1 9 9 9 6 6 6 9 r y y f d d d g g d d d g g g g g c c n Z S E H Q Q } | | | } } } K K D D D A A A m m m m n n n n c n n n n n n n R R Z T T E ~ } } +.+.1.1.9.h.k.z.Q././.!.&X&X/././.W.k.k.k.k.k.k.j.h.j.j.j.l.x.N.V.V.Z.;X;X0X0X0X9X;XZ.-XZ.V.M.x.x.c.z.z.z.g.z.!.!.@X+X%X:X$X$X+X+X@X+X&X&X@X^.^.&X&X&X&X*X<X<X<X<X<X2X1X1X1XZXZXAXAXAXDXbXbXbXbXxXcXcXcXjXcXjXjXjX[.[.[.[.[.[.].].].].].].[.jXjXjXjXjXcXjXjXjX[.[.[.[.[._._._._.}._._.}.}.}.}.}.}.}.}.}.}.}.}.}.~.~.}.}.|.^.^.^.^.^.|.^.^.^.^.^.&X&X&X&X&X&X&X&X&X&X&X&X&X&X&X*X*X*X*X*X<X4X4X5X5X5X5X5X5X>X>XwX>X>X>X:X:X%X+XOX!.!.z.z.z.f.f.d.g.d.d.0.0.0.8.8.8.8.8.q.q.q.q.0.0.q.q.q.q.q.w.w.w.w.w.w.w.w.w.w.q.5.5.5.3.#.@. .{ [ [ ! ! ! ! W W E E T T T T T E E E E E Q ] { { X.o.o.,.,.,.<.<.9.9.9.9.7.6.6.#.@. .{ [ [ E T Z n n c g d d d y y y y r r r r 6 6 6 6 6 6 6 6 6 6 6 6 6 r 1 1 1 1 1 1 1 1 1 1 1 1 1 1 1 1 1 1 1 1 1 1 1 1 1 > 1 1 1 1 1 1 1 > 1 1 > 1 1 1 1 1 1 > 1 1 1 1 1 1 1 1 1 1 1 ",
"2 2 2 2 2 2 2 2 2 2 2 2 2 2 9 2 2 2 2 9 1 2 9 1 1 2 9 9 2 1 9 9 9 2 2 9 2 1 2 2 9 9 9 9 2 2 2 9 9 1 9 9 9 6 9 6 9 y y 8 d f d d d d d f d g d g g g c z c n Z S H H H } | | | } } } K H K D D D A A A m m m m n n c c c n n n n n n Y Y Z Z T H H ~ } } +.1.1.9.p.h.z.W././.!.^.&X^././.W.k.k.k.k.k.k.k.k.j.j.j.j.l.x.N.B.V.Z.;X0X0X0X0X0XA.Z.Z.-XV.M.x.l.c.z.z.h.z.z.z.!.@X$X%X%X$X$X+X+X+X&X&X&X&X@X@X&X&X&X&X*X*X<X<X<X<X<X,X1X1X1XZXZXZXAXAXAXbXbXbXbXcXcXcXcXcXcXcXjXjX[.[.[.[.[.[.].).).).).].[.[.[.jXjXjXcXcXcXcXcXcXcXcX X X X X X X X}.}.}.}.}.}.}.}.|..X.X|.|.|.|.|.|.|.|.^.^.^.^.^.^.^.^.^.^.^.^.^.&X&X&X&X&X&X&X&X&X&X&X*X*X*X<X4X4X4X4X5X5X5X>X>X5XwX>X>X>X:X:X%X$X+X@X!.!.z.z.z.f.f.d.g.d.d.0.0.0.0.q.8.8.8.q.q.q.q.0.0.q.q.q.q.q.q.0.w.w.w.w.w.w.w.q.q.q.q.5.3.#.@. .{ [ [ ! ! ! ! W W E T T T T E E E E E E E Q ] { X.{ o.o.,.,.<.<.<.8.9.9.r.9.6.6.#.@.@.{ [ ! Q T T Z n c g d d d y y y y r y r r r 6 6 6 6 6 6 6 6 6 6 6 6 6 r 1 1 1 1 6 6 1 1 1 1 1 1 1 1 1 1 1 1 1 1 1 1 1 > r B 1 > 1 1 1 1 1 > 1 1 > > 1 1 1 1 1 1 1 > 1 1 1 1 1 1 1 1 1 ",
"2 2 2 2 2 2 2 2 2 2 2 2 2 2 9 2 2 2 2 9 2 2 9 2 9 9 9 9 2 1 1 9 2 2 2 2 9 2 9 9 9 9 9 9 9 9 2 9 9 9 9 9 9 9 9 9 9 y y 8 f d d d d g h h f d g g g g g c c n Z S H H H K | | | | } } K K K D D D A D A m m m n n n n n n n n n n n n n Z Z Z S S H K K } O.+.<.1.9.h.k.z.Q.Q././.&X&X^.!./.W.k.k.k.k.k.k.k.h.h.j.j.l.l.N.N.V.Z.-X;X0X0X0X0X;XA.Z.-X%XV.M.x.x.z.z.z.z.z.z.x.!.@X$X:X:X%X$X$X+X&X$X+X&X@X@X&X&X&X&X&X*X*X<X<X<X<X<X<X,X1X1X1XZXZXZXAXAXAXAXbXvXvXvXvXcXcXcXcXcXcXjX X[.[.[.[.[.[._.)._._._._._.[.[.[.[.[.cXcXcXcXcXcXcX X X.X.X.X.X.X.X.X.X.X.X.X.X|.|.|.|.|.|.|.|.^.^.^.^.^.^.^.^.^.^.^.^.^.^.&X&X&X&X&X&X&X&X&X*X*X*X<X<X4X4X4X4X4X5X5X5X>X>X>X>X>X>X>X:X:X%X$X@X!.!.z.z.z.Q.f.f.d.g.d.d.0.0.0.q.q.q.q.q.q.0.0.0.w.0.0.0.q.q.q.w.w.w.w.w.s.w.w.w.w.q.q.q.5.3.#.@.@.{ { [ [ ! ! ! W W W T T T T T T E E E E E Q ] { X.o.o.o.,.<.<.<.<.<.8.9.r.r.7.6.#.#.@. .{ ! Q E T Z n c g c B k y y y y y r r y 6 6 r 6 6 6 6 6 r 6 6 6 6 6 6 6 1 1 1 1 r 6 1 1 1 1 1 1 1 1 1 1 1 1 1 1 1 1 1 & N J.r > 1 1 1 > 1 > > > 1 > 1 1 1 > 1 1 > 1 1 1 1 1 1 1 1 1 1 ",
"2 2 2 2 2 2 2 2 2 2 2 2 2 9 2 2 9 9 2 2 9 9 2 9 9 2 9 6 1 2 1 2 2 2 2 2 9 2 9 9 9 9 9 9 9 9 9 6 9 9 2 9 9 9 9 9 9 y 8 y d f d d d d d f f d g g g g g c c n n Z S H H K } | | | | ( K K K D D D A A A m m m m n n n n c c n n n n n n Z Z Z Z S S H K } | +.1.1.9.u.h.z.W.Q./././.&X&X^.!.W.W.k.W.k.k.k.a.h.j.h.h.j.l.x.N.M.V.Z.Z.;X0XqX0X0XA.Z.Z.Z.V.M.M.x.z.c.z.z.z.z.z.x.@XOX%X:X:X:X%X$X$X$X$X$X&X&X&X&X&X&X&X&X*X*X<X<X<X<X<X<X,X,X1X1X1XZXZXZXAXAXAXvXvXvXvXcXcXcXcXcXcXcXcXcX X[.[.[.[.[.[.[._._._._._._._._._._._._.[. X X X X X X X.X.X.X.X.X.X.X.X.X|.|.|.|.|.^.^.^.^.^.^.^.^.^.^.^.^.^.^.^.&X^.&X&X&X&X&X&X&X&X*X*X*X*X4X4X4X4X4X5X>X5X5X5X5X>X>X>X>X>X:X:X%X$X+X@X!.z.z.z.f.f.f.d.s.d.d.0.0.0.0.q.q.q.q.q.q.0.0.w.w.0.0.0.q.q.q.w.w.w.w.s.s.s.w.F.w.q.q.q.5.2.#.@.@.{ { [ [ ! ! ! W W W T T T T T E W W E E Q Q ] { X.{ o.,.,.<.<.8.8.9.9.9.9.r.7.6.#.#.@.{ { [ Q E T Z n c c k c B d y y y r y r 6 y y 6 r 6 6 6 6 6 6 6 6 r 6 6 6 1 1 1 1 1 1 1 1 1 1 1 1 1 1 1 1 1 1 1 1 1 1 1 1 > 6 y > > 1 > > > 1 1 > > > > > 1 > > 1 > 1 1 1 1 1 1 1 1 1 1 > ",
"2 2 2 2 2 2 2 2 2 2 2 2 2 9 9 2 8 9 2 2 9 9 9 2 2 2 1 6 9 6 2 2 2 2 2 2 2 2 9 9 9 9 2 2 9 9 9 9 9 9 2 9 9 9 9 9 6 9 8 y y y d d f d g h d d h g g g g c c c n Z S S H H ~ | | | } ( ( K H K D D D A A b m m m c n n c c c n n n n n n n n Z S S S H K } } +.+.1.1.9.h.h.z.Q.Q././.&X&X^.!./.W.W.W.k.k.a.a.u.u.h.h.h.l.l.x.N.M.V.Z.A.;X0XqX0X0X;XZ.Z.Z.V.M.M.x.l.z.z.z.z.z.z.x.@XOX%X:X:X:X%X$X$X$X%X$X$X&X&X&X&X&X&X&X&X*X<X<X<X<X<X<X<X,X,X1X1X1XZXZXAXAXAXAXAXZXvXvXcXcXvXcXvXvXcXcXcXcX X X X X[.[.[.[._._._._._._._._._._._._._._.}.}.}.}.}.}.}.}.}.}.}.}.~.}.~.~.~.~.~.~.Q.Q.^.^.^.^.^.^.^.^.^.^.&X&X&X&X&X&X&X*X*X*X*X*X4X4X4X4X4X4X5X5X5X5X5X5X>X>X>X>X:X:X%X$X+X@X!.x.z.z.z.f.f.f.s.s.d.d.s.0.0.0.8.0.0.0.w.0.0.0.0.0.0.0.0.0.0.w.w.w.w.s.s.s.s.s.w.F.q.F.F.5.3.#.#.X.{ { [ [ ! ! ! W W E T T T T E E E E E E W [ { { { X.o.,.,.<.<.<.8.8.9.9.9.r.7.7.#.#.@.@.{ [ ! E T Y n c c g g d d y y y y r 6 y r r r 6 r 6 6 6 6 6 6 6 r y 6 1 6 1 1 1 1 1 1 1 1 1 1 1 1 1 1 1 1 1 1 1 1 1 1 > 1 1 > > > > > 1 1 1 > 1 1 > 1 > > 1 > > > > > 1 1 > > 1 1 1 1 1 > ",
"2 2 2 2 2 2 2 2 2 2 2 2 2 2 2 2 2 2 2 2 9 9 2 2 2 2 6 6 9 6 9 2 1 6 9 9 2 2 9 9 2 2 2 2 9 6 9 9 9 9 9 9 9 9 9 9 9 9 8 y y y d d d h g d d d d d d g g g g c n Z Z S H H K } | | } ( ( K H K D D D A A m b b n c n c c n c n n n n n n n n n Z Z S S H K } | +.1.1.9.9.h.k.W.Q./.!.^.&X&X^./.!.W.W.k.a.a.k.u.u.u.h.h.h.l.l.x.N.V.V.Z.A.0XqXqX0X0X;XZ.-XV.%XM.M.x.c.c.z.z.z.z.z.x.@XOX%X:X:X:X:X%X%X%X%X%X$X$X&X&X@X&X&X&X&X*X*X<X4X6X<X<X<X,X,X,X,X1X1XZXAXAXAXAXAXAXAXZXZXvXvXvXvXvXvXvX.X.X X X X X X X X X[.}._._._._._._._._._._.R.R._.R.~.~.~.~.~.~.~.~.~.~.~.~.~.~.~.~.^.^.^.^.^.^.^.^.^.^.^.&X&X&X&X&X&X*X*X*X*X*X*X:X4X4X4X4X5X5X5X5X5X5X5X5X>X>X>X:X:X%X$X+X@X!.!.!.z.z.f.f.g.g.s.d.d.0.s.P.0.8.0.0.0.0.w.s.w.0.0.0.0.0.w.0.0.0.w.w.w.s.s.s.s.w.w.w.q.F.q.5.2.#.#.@.@.{ [ [ ! ! ! W W W E T T T E E E E E W Q [ { { X.o.,.,.<.<.<.<.8.9.9.9.r.9.7.7.6.#.@.@.{ { [ E T S Z n c k g d d y y y y y 6 6 6 r 6 6 r 6 6 6 6 6 6 6 6 6 r 1 1 1 1 1 1 1 1 1 1 1 1 1 1 1 1 1 1 1 1 1 1 1 > > > > > > > > > > > 1 1 > > > > > > > > > > > > > 1 1 1 > 1 > 1 > > > ",
"2 2 2 2 2 2 2 2 2 2 2 2 2 2 2 9 2 2 2 9 9 9 2 2 2 2 1 2 6 9 9 9 9 9 9 9 2 2 2 9 2 2 9 9 9 9 9 9 9 2 9 6 9 9 9 9 9 9 9 8 y y d d d d g d d d d d g g g g c c c n Z S H H ~ ~ | | | } ( ( K H S D D D A m b m m n n c c B Y c c c c n n n n n n Z Z S H K K ( +.+.1.1.9.g.h.z.Q.Q.Q./.^.&X&X^./.W.W.k.k.k.k.k.h.h.h.h.h.h.c.l.x.M.V.V.Z.;X0XqX0X0X0X;XZ.Z.%XV.M.M.x.z.c.z.z.z.z.z.x.@XOX%X:X:X:X:X%X%X%X%X%X*X$X&X&X@X&X&X&X&X&X*X<X7X4X<X<X<X,X,X,X,X1X1X2X2XAXAXAXAXAXAXAXZXZXZXZXZXZX1X1X1X1X.X.X.X.X.X X X X X X}.}.}.}.}.}.}.}.}.}.}.}.}.}.~.}.~.}.~.~.~.~.~.~.~.~.~.^.^.^.^.^.^.^.^.^.&X&X&X&X&X&X*X*X*X*X<X4X4X4X4X:X:X4X4X:X>X5X5X5X5X5X5X>X>X>X:X:X%X$X+X@X!.!.x.z.z.z.f.f.g.s.s.d.s.0.0.w.w.0.0.0.0.0.0.s.s.w.s.0.0.0.0.w.0.0.s.s.s.s.s.s.s.s.w.w.q.q.5.5.2.#.#.@.@.{ [ [ ! ! ! W W W E W W E W E E E E W ! [ { { { o.,.,.<.<.8.8.8.8.9.9.r.r.7.7.6.$.#.@.@.{ [ Q E T Z n c k g d d d y y y y y r 6 6 r 6 6 6 6 6 6 6 6 6 6 6 6 1 1 1 1 1 1 1 1 1 1 1 1 1 1 1 1 1 1 1 1 1 1 1 1 > > > > 1 > > 1 > > > > > > > > > > > 1 > > > > > > 1 1 1 > > > 1 > > > ",
"2 2 2 2 2 2 2 2 2 9 2 2 2 2 9 2 2 2 9 9 9 9 2 2 2 2 2 2 9 9 9 9 9 9 9 9 2 2 2 9 9 2 9 2 9 9 2 2 9 6 6 6 9 9 9 9 9 9 9 9 9 8 d d d d g d g d d d d d g g g z c n n Z H H H ~ | | } ( } } K H D D D D A m m m m m m c c n n n c c c c n n n n n n Z S S H K ( } +.1.1.9.9.g.z.Q.Q.Q././.&X&X^.^./.Q.W.k.k.k.k.k.h.h.h.h.h.h.l.l.x.N.V.V.Z.;X0XqX0X0X0X;XZ.Z.V.V.M.x.x.z.c.c.z.z.z.z.x.@XOX%X:X:X:X:X%X%X:X%X%X%X%X$X&X&X&X&X&X&X$X*X%X:X4X<X<X<X<X,X,X,X,X<X<X2X2X2XAXAXAXAXAXAXZXZXZXZXZX1X1X1X1X1X1X1X.X.X.X.X.X.X.X X.X.X X.X}.}.}.}.}.}.}.}.}.}.}.}.}.}.}.~.^.|.^.^.^.|.^.|.,X,X,X,X&X&X*X*X*X*X*X:X4X4X4X4X4X4X4X4X4X4X4X4X5X5X5X5X5X5X5XyX>X>X:X:X%X$X+X@X!.!.!.z.z.z.f.f.f.g.s.d.d.s.s.0.0.0.0.0.0.0.0.s.s.s.s.s.s.0.w.0.0.w.s.s.s.s.s.s.s.s.w.w.w.q.q.5.3.2.#.#.@.@.{ [ [ [ ! ! ! E W W E W W W W W E E Q ! [ { { X.o.,.,.<.<.8.8.8.8.9.9.r.9.7.7.6.#.#.@.@.{ [ Q E T Y n c c g d d d y y y y y y y 6 6 6 r 6 6 6 6 6 6 6 6 6 6 6 1 1 1 1 1 1 1 1 1 1 1 1 1 1 1 1 1 1 1 1 1 1 > 1 > > > > 1 1 1 > > > > > > > > 1 > > > 1 > > > > 1 1 > > > > > > > > > > ",
"2 2 2 9 2 2 2 2 2 2 2 2 2 2 2 2 2 9 9 9 9 9 2 2 2 2 2 9 9 9 2 2 2 9 9 9 9 2 2 2 9 2 2 2 2 2 2 9 9 9 2 9 9 9 9 9 9 9 9 9 9 y d d f d d B c g d d g k g g g z z c n Z S S H K | | | ( } ( K K D D D A A A m m m m n n n n n c c c c n n c c n n n Z Z S H K K ( +.+.1.9.9.g.h.z.W.Q.Q././.&X&X^.^./.W.W.k.k.k.a.u.u.h.h.h.h.j.l.l.N.N.V.Z.-X;X0XqXqX0X0X0X;XZ.V.V.M.x.x.z.z.c.z.z.z.z.x.@XOX$X:X:X:X:X:X:X%X%X%X:X%X%X$X&X&X&X&X$X$X$X*X*X4X<X<X<X<X<X,X,X,X<X<X<X<X2X2X2XAXAXAXAXAXAXZXZX1X1X1X1X1X1X1X1X1X1X1X1X1X1X.X.X.X1X.X.X.X.X.X.X.X.X.X.X.X|.|.|.|.|.|.|.|.|.,X,X,X,X,X<X<X<X<X<X<X4X4X:X:X4X4X4X4X4X4X4X4X4X4X4X5X5X5X5X5X5X5X5X>X>X>X:X:X:X%X$X@X@X!.x.z.z.z.f.f.f.g.g.s.d.s.s.0.0.0.0.0.0.0.0.0.0.s.s.s.w.w.w.w.w.w.w.s.s.s.s.s.s.s.s.s.w.w.w.q.q.3.2.#.#.@.X.{ [ [ ! ! ! W E E E E E W W E W W W Q ! [ { X.o.,.,.<.<.G.q.8.8.e.r.r.9.r.7.7.6.$.#.#.@.{ [ ! E T Z n n c k g d d y y y y y y 6 6 6 6 y y 6 6 6 6 6 6 6 6 6 6 6 6 6 1 1 1 1 1 1 1 1 1 1 1 1 1 1 1 > 1 1 1 1 1 1 1 1 1 1 1 1 > > > > > > > > > > > > > > > > > > > 1 1 1 > > > > > > > > ",
"2 2 2 2 2 2 2 2 2 2 9 9 2 2 2 2 2 2 9 9 9 9 2 2 2 2 2 9 9 2 2 2 2 9 9 9 9 2 2 2 9 9 9 9 9 9 9 9 9 9 9 9 9 1 3 9 y 9 9 9 9 y y d f d d B k d d f k g g k g g z c n Z Z S S K K ( | | } ( K K D D D A A A m m A m n z c c c c c c c c c c c c n n n Z Z S K K ( +.+.+.1.9.9.g.h.z.Q.!./././.&X^.^.^.W.W.k.k.k.k.p.p.p.p.h.h.h.h.l.l.N.M.V.Z.-X;X0XqX0XqXpX;XZ.Z.V.V.M.M.x.x.z.z.z.z.z.z.x.@XOX#X-X:X:X:X:X-X:X:X:X:X:X%X$X$X$X$X$X&X$X$X*X*X*X<X<X*X<X<X,X,X,X<X<X<X<X<X2X2X2X2XAXAXAXAXAXAXAXAX2XZX1X1X2X2X2X2X2X2X2X2X2X2X2X2X1X1X1X1X,X1X,X,X,X,X,X,X,X,X,X,X,X,X,X<X<X<X<X<X4X4X4X4X4X4X5X5X4X4X4X4X4X4X4X4X4X4X4X5X5X5X5X5X5X5X>X>X>X:X:X:X:X%X$XOX@X!.x.z.z.z.z.f.f.f.g.s.d.s.s.s.0.0.0.0.0.0.0.s.s.s.s.s.s.s.w.s.s.s.s.w.s.s.s.L.s.s.s.s.s.s.w.w.w.q.4.2.#.#.@.{ { { [ ! ! ! E W E E E E W E W E W Q ! [ [ { X.o.,.<.<.<.8.w.q.8.8.r.r.9.r.7.6.6.$.#.#.@. .[ ! E T Z Z n c k g d d d y y y y y r 6 6 6 6 y y r r 6 r 6 6 6 6 6 6 1 1 6 1 1 1 1 1 1 1 1 1 1 1 1 1 1 1 > 1 > 1 > > > > 1 1 > > > > > > > > > > > > > > > > > > > > > 1 1 1 r 1 > > > > > > > ",
"2 2 2 2 2 2 2 2 2 9 9 9 9 9 9 2 2 2 2 2 9 9 9 2 2 2 9 9 9 9 2 2 2 2 9 9 9 9 2 2 9 9 9 9 9 9 9 9 9 9 9 9 6 d k 6 9 6 9 9 9 9 y d f d d g g d d d g g g g g g g c n Z Z S S H K } | ) ( ( K K K K D A A A A m m n m n z c n n c c c c c c c c n n n Z Z S ~ ~ K } +.+.1.9.9.9.g.z.Q.Q./././.^.&X^.!./.Q.W.W.W.k.k.p.p.p.h.k.h.h.h.l.l.x.M.V.Z.-X;X0XqXqX0X0X;X-XZ.V.V.M.M.x.x.c.z.z.z.z.z.x.x.OX#X-X:X>X:X-X-X:X:X:X:X:X:X%X%X%X%X$X$X$X$X*X*X:X:X:X*X<X<X<X<X,X,X<X<X<X<X<X<X2X2X2X2XAXAXSXAXAX2XAXAX2X2X2X2X2X2X2X2X2X2X2X2X2X6X6X6X2X2X2X2X<X<X<X<X<X<X<X<X<X<X<X4X4X4X4X4X4X5X5X5X5X5X5X5X5X4X4X5X5X5X5X5X5X5X5X5X5X5X5X5X5X>X>X>X:X:X:X:X%X$X+X@X!.!.z.z.z.z.f.f.f.d.s.s.d.s.s.s.0.0.s.0.0.0.s.s.s.s.s.s.s.s.s.0.s.s.s.s.s.s.L.s.s.s.s.s.s.s.w.w.q.5.4.2.#.#.@.@.{ [ [ ! ! ! W E E W W E W E E ! Q Q ! [ { { X.o.,.<.<.8.8.8.8.8.e.r.r.9.r.9.7.6.$.#.#.@.@.{ [ E T T Z n c k g d d d d d y r y y 6 6 6 r r 6 6 r r 6 6 6 6 6 6 6 6 6 1 1 1 1 1 1 1 1 1 1 1 1 1 1 1 1 1 1 > > > > > > > > > > > > > > > > > > > > > > > > > > > > 1 1 > 1 r r 1 > > > > > > > ",
"2 2 2 2 2 2 2 2 2 9 9 9 9 9 9 2 2 9 2 2 9 9 2 2 2 2 9 9 9 9 9 2 2 2 9 9 9 9 2 9 9 9 9 9 9 9 9 9 9 9 9 9 3 >.oX8 1 9 9 9 9 9 y y d d d d d d d d g h d g g g g z z n Z S S H K ( } ( ( ( K K K K D D A A A m m b b c c c c c c c c c c n c c n n n n Z S S H K ( | +.1.1.9.9.g.h.z.Q.Q./././.^.&X^.^./.Q.W.W.W.k.k.p.p.k.k.k.h.h.c.l.x.N.N.V.Z.-X;X0XqXqXqX0X;X-X-XV.V.M.M.x.x.z.z.z.z.z.z.x.x.OX#X-X:X:X>X:X-X:X:X:X:X>X:X:X:X%X%X%X%X%X%X%X:X:X:X:X4X:X<X<X*X,X,X,X<X<X<X<X<X<X<X<X2X6X6X6X6X6XAXAX2X2X2X2X2X2X2X2X2X2X2X2X2X6X6X6X6X6X6X6X4X4X6X4X4X4X4X4X4X4X4X4X5X5X5X5X4X5X5X5X5X5X5X5X5X5X5X5X5X5X5X5X5X5X5X5X5X5X>X>X>X:X:X:X:X%X%X$X+X@X!.x.z.z.z.f.f.f.f.g.d.d.s.d.d.s.s.s.0.0.s.s.s.s.s.s.s.s.s.s.s.s.s.s.s.s.s.s.s.s.s.s.s.s.s.s.s.w.w.q.5.4.2.#.#.@.X.{ [ [ ! ! W W E E E W W W E E E ! Q [ [ { { X.o.,.<.<.<.8.8.e.8.e.e.r.r.r.r.7.6.3.#.#.@.@. .[ ! E T Z n c c g g d d y d y y y y r 6 6 6 r r r 6 6 6 6 6 6 6 6 6 6 6 1 1 1 1 1 1 1 1 1 1 1 1 1 1 1 1 > > > > > 1 1 > 1 > > > > > > > > > > > > > > > > > > > > > > > 1 1 1 y 1 > 1 > > > > > > ",
"2 2 2 e 2 2 2 9 e e e e 9 9 9 2 9 9 2 9 2 2 2 2 2 9 9 9 9 2 2 2 2 9 2 9 9 2 2 2 9 9 9 9 9 9 9 9 9 9 9 9 9 M N 6 9 9 9 9 9 9 f d d f d d d d d h d d d h g g g g z n Z Z S S K K K ( ) ( ( K K K D D A A A A b v n n c c c c c c c c c c c c c c n n Z S S H K K ( +.+.1.1.9.9.g.z.Q.Q.Q././.!.&X^.!.Q.W.Q.W.W.k.W.p.p.p.p.k.k.h.h.c.l.x.N.M.V.Z.-X;X0XqXqXqX0X;X-X-XV.V.M.M.x.x.!.z.c.z.z.z.x.x.M.#X%X-X>X>X>X:X-X:X:X>X>X>X>X:X:X:X:X%X:X:X:X:X:X>X:X:X:X4X<X*X*X*X<X<X<X<X<X<X<X<X<X<X4X6X6X6X6X6X6X6XSX6X2X2X2X2X2X2X2X6X6X6X6X6X6X4X6X4X4X4X4X4X4X4X4X4X4X5X5X5X4X5X4X4X4X5X5X5X5X5X5X5X5X5X5X5XyXyXyXyX5X5X5X>X>X>X:X:X:X:X:X%X$X+X@X@X!.x.z.z.z.f.f.f.f.d.g.s.s.s.d.s.s.s.s.0.0.0.s.s.s.s.s.s.s.s.s.s.s.s.s.s.s.s.s.s.s.s.s.s.s.s.s.s.w.w.q.q.4.2.2.#.X.X.{ [ [ ! ! ! W W E W E E E E W E Q Q [ { { { X.o.,.,.<.8.q.8.e.8.8.r.r.r.r.r.7.6.3.3.#.#.@. .[ ! E T Z n n c k g g d y y y y y y y y 6 6 6 6 6 6 r r 6 6 6 6 6 6 6 6 1 1 1 1 1 1 1 1 1 1 > > > > 1 1 1 > > > 1 1 > > > > > > > > > > > 1 1 > > > > > > > > > > > > > > 1 1 > > > > > > > > > > > ",
"2 2 9 e 2 2 2 2 e 2 e e 9 9 9 9 9 2 2 9 2 9 9 9 9 9 9 9 9 9 2 9 9 9 9 2 9 9 9 9 9 9 9 9 9 9 9 9 9 9 9 9 9 2 3 9 9 9 6 9 9 9 k k y d d d d d d f d d d d g g g g z n n Z S S H K ~ ( ( ( ( K K K K D D A A A m v m n z z c c c c c c c c c c c c n n Z Z S H H K ( } +.+.1.9.9.g.h.z.Q.Q.!././.^.&X^.!./.Q.Q.W.k.W.k.k.p.k.p.k.k.h.h.c.l.x.N.M.V.V.-X;X0XqXqXqX0X0X-X-XV.#XM.M.!.UX6Xc.c.z.z.z.x.x.M.#X%X-X-X>X>X>X:X:X:X>X>X>X>X>X:X:X:X:X:X:X:X>X>X>X>X>X4X:X:X*X*X*X<X<X<X<X<X<X<X<X<X4X4X4X4X4X6X6X6X6X6X6X6X6X6X6X6X6X2X6X6X6X6X6X6X6X6X4X4X4X4X4X4X4X4X4X4X5X5X5X5X5X5X5X5X5X5X7XiXiXiXiXiXiXyXyXyX5X5X>X>X>X>X>X:X:X:X%X%X$X+X@X!.!.x.z.z.z.f.f.f.f.f.d.d.s.s.s.s.s.s.s.s.s.s.s.s.s.s.s.s.s.s.s.s.s.s.s.s.s.s.s.s.s.s.s.s.s.s.s.s.s.s.w.q.4.5.3.2.#.X.{ { [ ! ! ! ! W W W E W E E E W ! Q ! [ { X.X.X.o.,.,.q.8.G.E.e.e.r.r.9.r.r.r.7.6.3.3.#.#.X.{ [ ! E T Z n c c c g g d d y y y y y y y y 6 6 6 6 r 6 r r 6 6 6 6 6 6 6 1 1 1 1 1 1 1 1 1 1 1 1 > > 1 1 1 1 > > > > > > > > > > > > > > > > 1 y 1 > > > > > > > > > > > > > > > > > > > > > 1 > > > > ",
"2 2 e e 2 2 2 9 2 9 2 2 2 2 9 9 2 9 9 9 2 9 9 2 9 9 9 9 9 9 2 9 9 9 9 9 9 9 2 9 9 2 9 2 9 9 9 9 9 9 9 9 9 9 9 9 9 9 9 9 9 9 y d y y f d d f f f d d d d g g g g z c n n Z S S K K K } K ( ( K K H D D D A m m m m m c z c c c c c c c c c c c c c n n Z Z S H H K } +.+.+.1.9.9.g.z.z.Q.Q./././.^.&X^.!.Q.Q.Q.W.W.d.k.p.k.p.k.k.h.h.h.c.l.x.M.M.V.Z.-X;X0XqXqXqX0X;X;X-X-XV.M.+XUX6Xx.c.c.c.z.z.x.x.M.OX%X-X-X;X>X>X:X:X>X>X>X>X>X>X>X>X:X:X:X:X:X>XwXyXyX5X>X5X:X:X:X:X*X*X<X<X<X<X<X<X<X<X4X4X4X4X4X4X4X4X6X6X6X6X6X6X6X6X6X6X6X6X6X6X6X6X6X6X6X6X7X7X7X7X7X5X5X5X7X7X7X7XiXiXiXiXiXiXiXiXyXyXyX5X>X>X>X>X>X>X:X:X:X:X%X$XOXOX@X!.!.x.z.z.z.z.f.f.f.f.f.d.d.s.s.s.s.s.s.s.s.s.s.s.s.s.s.s.s.s.s.s.s.s.s.s.s.s.s.s.s.s.s.s.s.s.s.s.s.w.w.q.4.4.2.2.3.#.@.{ { [ ! ! ! W W W E E W W E W ! ! ! ! [ { { X.o.o.,.<.8.8.8.E..Xe.e.r.9.r.r.r.r.6.3.#.#.#.@.{ [ ! E T Z n c c c g g d d y y y y y y y y r r 6 6 6 r r 6 r 6 6 6 6 1 1 6 1 1 1 1 1 1 1 1 1 1 1 1 > > 1 1 > 1 1 > > > > > > > > > > > > > > > > 1 > > > > > > > > > > > > > > > > > 1 > > > 1 > > > > > ",
"e e e e 2 9 y 0 e 9 2 2 2 9 9 2 9 y 9 2 9 9 2 9 9 9 9 9 9 9 9 9 9 9 9 9 9 9 9 9 9 9 2 9 9 9 9 9 9 9 9 9 9 9 9 9 9 6 9 6 9 9 y y y y d d d d f f d d d d d g g g g z z n Z S S H K K K K K ( K K K K D D A A m m n n n n Z Z c c c c c c c c c c c n n Z Z S S H K ( } O.+.1.1.9.g.h.k.Q.Q.Q./././.&X^.^.Q.Q.Q.W.W.P.k.p.p.p.k.k.h.h.h.h.c.l.x.N.M.V.V.Z.;X0XqXqXeX0X0X;X-XZ.V.V.M.N.x.x.c.c.c.c.z.z.x.x.M.V.%X-X-X;X>X>X>X>X>X>X>X>X>X>X>X>X:X:X:X:X>XwXeXuXuXuXyX>X>X:X:X:X:X:X*X*X*X*X<X*X<X<X4X4X4X4X4X4X4X4X4X4X4X4X6X6X6X6X6X6X6X6X7X7X7X7X7X7X7X7X7X7X7X7X7X7X7XiXiXiXyXyXyXyXyXyXyXyXyX>X>X>X>X>X>X:X:X:X-X-X%X#XOXOX@X!.x.x.z.z.z.z.z.f.f.f.f.f.d.s.s.s.s.s.d.s.s.d.s.s.s.s.s.s.s.s.s.s.s.s.s.s.s.s.s.s.s.s.L.s.U.L.s.s.s.s.w.w.q.5.2.2.2.#.#.@.{ { [ ! ! ! W W W W W W ! ! ! ! ! ! ! [ { { X.o.,.,.<.q.8.8.8.e.s.e.r.d.r.r.r.7.6.3.#.#.#.@.{ [ ! E T Z n c c k g d d d d y y y 8 y y d y 6 6 6 6 6 6 y y r 6 6 6 6 1 1 1 1 1 1 1 1 1 1 1 1 1 > > > > > > > > > > > > > > > > > > > > > > > > > 5 1 > > > > > > > > > > > > > > > 1 > > > > > > > > > > ",
"e 2 2 e 0 u u 9 e 2 2 2 2 2 9 9 9 9 2 2 2 9 9 9 9 2 9 9 9 9 9 9 9 9 9 9 9 9 9 9 9 9 9 9 9 9 9 9 9 9 9 9 9 9 9 9 9 6 6 9 6 6 8 9 9 y y d d d d d f f d d d g g g g z z n Z Z S H K K K K K K ( K K K D A A C b b b b z T oXoXB c c c c c c c c c c c n n Z Z S K K K } } +.+.1.9.9.g.h.z.Q.Q./././.!.&X^.Q.Q.Q.Q.W.f.d.d.d.p.p.p.p.k.k.k.h.j.l.x.N.M.V.V.Z.;X0X0XqXqXqX0X;X-X-X%X#XM.M.x.x.x.z.c.c.z.z.x.x.x.OX%X-X-X;X>X>X:X:X>X>X>X>X>X>X>X>X>X>X>X>X>X>XeXuXuXuXuXeXwX>X>X>X:X:X:X:X:X:X:X:X*X*X*X*X4X*X:X4X4X4X4X4X4X4X4X4X4X4X5X5X7X7X5X5X5X5X5X5X5XyXyX5X5X5XyXyXyXyXyXyXyX5XwXwXwXwXwX>X>X>X>X:X:X:X:X-X-X%X$XOX@X@X!.x.x.z.z.z.z.f.f.f.f.f.f.f.f.d.d.s.s.s.s.s.s.s.s.s.s.s.s.s.s.s.s.s.s.s.s.s.s.s.s.s.f.U.U.s.L.L.s.s.s.s.w.w.q.4.2.2.#.o.#.#.{ [ [ ! ! Q E W E E W ! [ Q ! ! Q Q ! [ { { X.,.,.,.<.8.q.8.8.8.d.d.r.r.r.r.r.7.6.3.$.#.#.@.{ [ ] Q T Z n n c z g g d d d y y y y y y r 6 r 6 6 6 r 6 r r r r r 6 6 6 6 6 1 1 1 1 1 1 1 1 1 > > > > > > > > > ; > > > > > > > > > > > > > > > > > > > > > > > > > > > > > > > > > > > > > > > > > > > > > ",
"e e e e 9 9 2 2 2 e 2 2 9 e 9 9 9 9 9 9 9 9 9 9 9 9 9 9 9 9 9 9 9 9 9 9 9 9 9 9 9 9 9 9 9 9 9 9 9 9 9 9 9 9 9 6 9 6 6 6 9 6 6 8 8 y y y d d d d d d d d d d d g g z z n v Z Z S K K K K K L ( K K K D D A C C b b b x Z CXCXY c c c c c c c c c c c n n n Z S S H ~ O.( } +.1.1.9.g.g.z.z.Q.Q./././.!.^.^.Q.Q.Q.Q.W.d.d.d.r.p.p.p.k.k.k.h.h.j.l.x.M.M.V.V.Z.;X;X0XqXqXqX0X;X-XZ.%XV.M.M.M.x.x.c.c.c.z.z.x.x.x.M.#X%X-X-X>X>X;X>X>X>X>X>X>X>X>X>X>X>X>X>X>X>XwXeXeXpXpXpXuXuXeXwX>X>X>X:X:X:X:X:X4X:X*X*X*X*X*X*X:X:X:X:X4X4X4X4X4X:X4X5X5X5X5X5X5X5X5XyXyXyXyXyXyXyXwXwXwXwXwX>X>X>X>X>X>X>X>X:X-X-X-X-X%X%X#X#XOX@X@Xx.x.x.z.z.z.z.f.f.f.f.f.f.f.f.f.g.g.s.s.s.s.s.s.s.s.f.s.s.f.s.s.s.s.s.s.s.s.s.s.s.s.f.U.U.U.U.s.s.s.s.s.w.w.q.q.4.2.2.#.o.X.@.X.{ [ ! ! ! E E W W W W ! ! ! ! ! Q [ [ { { X.o.,.<.<.8.8.8.8.8.e.g.d.d.r.r.r.7.6.3.3.#.#.@.{ [ Q E T S Z n c c g g d d d d y y 8 y y y r 6 r r r 6 r 6 r r 6 r 6 6 6 6 6 1 1 1 1 1 1 1 1 1 1 > > > > > > > > 1 c d > > > > > > > > > > > > > > > > > > > > > > > > > > > > > > > > > > > > > > > > > > > > ",
"e 2 2 e e e 9 2 e e 9 9 9 9 9 9 9 9 9 2 9 9 9 9 2 9 9 9 9 9 9 9 e 9 9 9 9 9 e 9 2 9 9 9 9 9 9 9 9 9 9 9 9 9 6 6 6 6 9 9 8 6 6 9 9 8 y y d d d d d d d d d g d g g g z z n Z Z S D K K K K K ( K K K D D D A A A m m n z n Y c n c c c k c c c c c c c n n Z Z S S ~ } } } +.+.1.1.9.g.g.z.Q.Q.!./././.^.&X^.Q.Q.Q.Q.W.P.d.d.d.p.r.p.d.d.h.k.h.h.l.x.x.M.M.V.-X-X;X0XqXqXqX0X0X;X-X%XV.V.M.M.x.x.c.c.z.z.z.z.x.x.M.M.#X-X-X;X>X>X>X>X>X>X>X>X>X>X>X>X>X>X>X>X>X>XwXeXrXpXpXpXpXpXuXeXwX>X>X>X>X>X:X:X:X:X:X:X*X%X%X%X:X:X:X:X:X:X:X:X:X:X>X>X>X>X>X>X>X>XwXwXwX>X>X>X>X>X>X>X>X>X>X>X>X;X>X-X-X-X-X%X%X#X#XOXOX@X@Xx.x.x.x.z.z.z.f.f.f.f.f.f.f.f.f.f.g.g.g.d.d.g.s.s.f.f.f.f.s.s.s.s.s.s.s.s.s.s.s.s.s.s.f.f.U.U.U.s.s.s.s.s.w.0.q.4.4.2.o.o.X.X.{ { [ [ ! ! ! E E ! ! W W ! ! ! ! ! [ [ [ { { X.o.,.<.8.8.8.8.8.8.e.d.d.r.r.r.r.r.6.3.2.#.#.@.{ [ Q E T S Z n c g g g d d d d d y y y y y y y 8 6 r r 6 r 6 r r r 6 6 6 6 1 6 1 1 1 1 1 1 1 1 > > > > > > > > > > c (.;.1 > > > > > > > > > > > > > > > > > > > > > > > > > > > > > > > > > > > > > > > > > > > ",
"e e e e e e 9 e e 9 9 9 2 9 9 9 2 9 9 9 9 9 e 9 2 9 e 9 9 2 2 9 9 e e e 9 9 2 0 0 0 9 9 9 9 9 9 9 9 9 9 9 9 9 r f 6 9 9 y 6 6 6 8 8 y y d d d d d d d d d g d d g g z z v n Z Z S K K K L K K K K K D D D D A Z A n v c c z z c c c c k z c c c c c c c n n Z Z S D K K } } +.+.1.9.9.g.g.z.Q.Q.!./././.^.^.^.Q.Q.Q.Q.P.P.d.d.d.k.k.d.d.k.k.h.h.c.l.x.x.N.M.V.V.-X;X0X0XqXqX0X0X;X-XV.V.V.M.M.x.x.x.z.z.z.z.z.x.x.x.M.#X%X-X-X>X>X>X>X>X>X>X>X>X>X>X>X>X>X>X>X>X>X>XwXeXeXpXpXpXpXpXpXeXeXeXeXwX>X>X>X>X:X:X:X:X:X:X:X:X:X:X%X:X:X:X:X:X:X:X:X>X>X>X>X>X>X>X>X>X>X>X>X>X>X;X>X;X;X;X-X-X-X-X-X-X%X%X#X#XOXOX@XM.M.x.x.x.x.z.z.z.f.f.f.f.f.f.f.f.P.f.d.d.f.d.d.d.d.s.f.f.f.f.f.s.s.s.s.s.s.s.f.f.f.s.f.f.f.U.U.s.s.s.s.s.s.w.q.q.4.4.2.#.o.X.X.{ [ [ ! ! ! ! ! ! W E W ! ! ! ! ! ! [ [ { $.@.X.,.<.<.8.8.8.8.8.e.d.d.d.g.r.r.r.r.6.3.2.#.#.@.{ [ Q E T Z Z n c c g g d d d d y y y y y y 6 8 y y r r r 6 6 6 6 r 6 6 6 6 6 6 6 1 1 1 1 1 1 1 1 > 1 > > > > > > > & k D.^ > > > > > > > > 1 > > > > > > > > > > > > > > > > > > > > > > > > > > > > > > > > > > > ",
"e e e e 2 e e 2 9 9 9 9 2 2 9 9 9 0 9 9 9 9 9 0 9 9 9 9 9 2 2 9 9 9 9 e 0 0 9 9 / m 9 9 9 9 9 9 9 9 9 9 9 9 6 6 6 9 6 6 6 6 6 6 8 8 y y y d d d d d d d d d d d g g z z z v Z Z S K K K K K K K K K K D D D A A A v n c c c z c c k g g g c c z c c c c n n n Z Z S K K ( } } +.1.1.9.9.g.g.z.Q.Q.^./././.^.^.Q.Q.Q.Q.Q.P.f.d.d.W.d.d.r.r.p.k.h.h.h.l.x.x.M.M.V.V.-X;X0X0XeXeXqX0X;X-XZ.V.V.V.M.M.x.x.z.z.z.z.z.z.x.x.x.M.#X%X-X-X;X>X>X>X>X>X>X>X>X>X>X>X>X>X>X>X>X>X>XwXeXeXrXpXpXpXpXrXpXrXeXeXeXeXeXwX>X>X>X>X>X:X:X:X:X:X:X:X-X:X:X:X:X:X:X:X>X>X>X>X>X;X;X;X;X;X;X;X;X;X;X;X-X-X-X-X-X%X%X%X#X#XOXOXM.M.x.x.x.x.x.x.x.z.z.z.f.f.f.f.f.f.f.P.Y.f.f.f.f.f.f.f.f.f.f.P.P.s.s.s.f.f.f.f.U.f.f.f.f.U.U.s.s.s.s.s.s.s.w.w.q.4.4.2.o.o.@.X.{ { [ [ [ ! ! ! ! ! ! ! ..! ! ! ! ! ! [ [ { X.#.2.4.4.4.q.8.8.8.0.e.e.d.g.r.r.r.r.7.6.3.2.2.#.@.{ { ] E T S Z n n z k g d d d y y y y y y y 8 r y y r r r 6 6 6 6 6 r 6 6 6 1 6 1 1 1 1 1 1 1 > > > > > > > > > > > > > > 6 1 > > > > > > > > > > > > > > > > > > > > > > > > > > > > > > > > > > > > > > > > > > > > ",
"e e e e e 2 2 9 9 2 2 2 2 9 2 9 9 0 9 9 9 9 9 e 9 9 9 9 9 9 9 9 9 9 9 9 e 9 9 9 / h 0 9 9 9 9 9 9 9 9 9 9 9 9 6 9 6 6 9 6 y f y 6 8 y y y y y d d d d d d d d d g g g z z v n Z S D K K K K K K K K K D D D A A A m n n c c z z c g k g g k c c g c c c c n n n Z S S K K ( } +.+.<.1.9.9.g.z.z.Q.Q.^././.!.^.^.Q.Q.Q.Q.Q.P.d.d.d.P.d.r.r.d.k.k.k.h.h.l.x.x.M.M.V.V.-X;X0X0XqXeXqX0X;X-X-X-XV.V.M.M.x.x.z.z.z.z.z.z.x.x.x.M.M.#X%X-X-X>X>X>X>X>X>X>X>X>X>X>X>X>X>X>X>X>X>X>XwXwXeXeXrXtXpXpXpXpXpXrXrXeXeXeXeXeXwXwX>X>X>X>X>X>X;X>X>X;X>X;X;X;X;X;X;X;X;X;X;X;X;X;X;X;X;X;X;X;X-X-X-X-X-X-X%XV.#X#XV.M.M.M.M.x.x.x.x.x.x.x.z.z.z.z.z.z.z.z.f.f.Q.Q.f.f.f.f.f.f.f.f.f.f.P.f.s.s.f.f.f.f.f.U.U.U.U.U.U.U.s.s.s.s.s.s.0.q.q.4.2.2.o.#.X.X.{ { [ [ ! ! ! Q ! ! ! Q [ J. .Q ! ! [ [ { { X.o.o.4.L.w.F.P.8.0.e.e.d.r.g.r.r.r.r.7.6.3.2.2.#.@.X.[ Q E E S Z n z z g g g d d d y y y y y y 8 y y y y r r 6 6 6 6 6 6 6 6 6 6 1 6 1 1 1 1 1 1 1 > > > > > > > > > > > > > > > > > > > > > > > > > > > > > > > > > > > > > > > > > > > > > > > > > > > > > > > > > > > > ",
"e e e e e e e 9 e e 2 2 e 2 9 9 0 9 9 2 2 2 9 9 9 9 9 9 e e w 9 9 9 9 9 e e 9 0 2 2 9 9 9 9 9 9 9 9 9 9 9 9 9 6 6 6 6 8 6 y y 6 6 8 8 y y y d y d d d d d d d d g g g g z z v v Z S K K K K K K K K K K S S D A A A m n c c c c z z c k g g g g g z z c c c n n Z Z S H K K } } O.+.<.9.9.g.g.z.Q.Q.Q./././.!.^.^.Q.Q.Q.Q.Q.P.P.d.d.d.d.d.d.d.d.k.h.h.h.z.l.x.M.N.V.V.-X-X;X0XqXqXqXqX0X;X-XZ.V.V.M.M.N.x.x.z.z.z.z.z.z.x.x.x.M.M.#X%X-X-X;X>X>X>X>X>X>X>X>X>X>X>X>X>X>X>X>X>X>X>XwXwXeXeXrXtXtXpXpXtXtXtXrXrXrXeXeXeXeXwXwXwXwXwXwXwX;X;X;X;X;X;X;X;X;X;X;X;X;X;X;X;X;X;X;X;X-X-X-X-X-XZ.Z.%XV.V.V.V.M.M.M.M.M.x.x.x.x.x.x.z.c.z.z.z.z.z.z.z.z.f.f.f.f.f.f.f.f.f.f.f.f.s.s.s.f.f.U.Y.f.f.f.f.U.f.f.s.s.s.s.s.s.w.0.q.4.4.2.o.o.X.X.X.{ [ [ [ ! ! ! ! ! ! ! ! [ ! ..[ ! ! [ [ { X.X.o.,.,.4.F.q.0.0.8.0.d.g.d.d.r.r.r.r.6.3.3.3.#.#.#.X.{ ] E E T Z n c z g g d d d d d y y y y y y 6 y y y 6 r 6 6 6 6 6 6 6 6 6 6 y r 1 1 1 1 1 1 1 1 1 > > > > > > > > > > > > > > > > > > > > > > > > > > > > > > > > > > > > > > > > > > > > > > > > > > > > > > > > > > > ",
"2 e e e e e 2 e e 2 2 2 e 2 2 9 0 9 2 f m 9 2 9 9 9 9 e e e e e 9 9 9 9 9 0 9 9 9 9 9 9 9 9 9 9 9 9 9 9 6 6 6 9 6 9 6 6 6 6 6 6 6 8 y y y y y d d d d d d d d d d d g g g z v v Z Z S K K K K K K K K K D S S C C m A m z z c c z z g g k c c k g c g c z c c n n n Z S H K K ( } O.+.<.9.9.g.h.z.Q.Q.Q./././.^.&X^.Q.Q.Q.Q.Y.Y.P.d.d.d.d.r.d.d.d.g.h.h.h.c.l.x.N.N.V.V.V.-X;X0X0XqXqXqX0X;X-X-XV.V.M.M.M.x.x.z.z.z.z.z.z.z.x.x.x.M.M.#X%X-X-X-X;X;X>X>X>X>X>X:X:X:X>X>X>X>X>X>X>X>X>XwXwXwXeXeXrXtXtXtXaXaXaXtXtXrXrXrXeXeXeXeXeX0XwXwXwXwXwX0X0X0X0X0X0X0X0X0X0X0X0X0X;X;X;X;X;X;X;X-X-XZ.Z.V.V.V.V.M.M.M.M.M.x.x.x.x.x.l.z.z.z.z.z.W.W.k.k.z.f.g.g.f.f.f.f.d.d.d.f.d.f.f.f.f.f.Y.f.f.f.f.f.f.f.s.s.s.s.s.s.0.q.q.4.2.2.o.#.#.@.{ { [ [ [ ! ! ! ! ! ! !  . .[ [ [ [ [ [ { { X.o.,.,.4.4.4.<.8.8.0.0.d.d.d.d.d.r.r.r.6.3.3.2.2.#.@.X.{ Q Q E T Z n c c g g d d d d d d d y y y y 8 8 y y 6 r 6 6 6 r 6 6 6 6 r 6 6 r r 1 1 1 1 1 1 1 1 1 > > > > > > > > > > > > > > > > > > > > > > > > 1 > > > > > > > > > > > > > > > > > > > > > > > > > > > > > > > > > > ",
"e e e e e e e e e 2 2 2 2 2 2 9 0 e 2 m oXM 2 9 9 9 9 9 9 9 9 9 9 9 9 9 9 9 9 9 9 9 9 9 9 9 9 9 6 9 6 6 9 9 6 6 6 6 6 6 9 8 6 6 6 8 8 8 8 8 y d d d d d d d d d d d k g g z v n v Z S H K K K K K K K K D D S A A v n n z z z c z z c c c c g g k g z c c c c n n n Z Z S H K K ( } O.+.1.9.9.g.f.f.Q.Q./././.Q.^.^.Q.Q.Q.Q.Q.Y.P.P.d.d.r.r.r.r.r.9.g.h.h.h.h.l.x.x.N.N.V.V.-X;X;X0XqXeXeX0X;X-X-XV.V.V.M.M.x.x.x.z.z.z.z.z.z.x.x.x.M.M.V.%X%X-X-X-X-X>X>X>X>X:X>X>X>X:X>X>X>X>X>X>X>X>X>XwXwXwXeXeXeXrXrXrXtXtXtXtXtXtXtXtXrXrXrXeXeXeXeXeXqXqXqXqXqXqXqX0X0X0X0X0X0X0X0X0X;X;X;X;X;X;X-X-X-XZ.Z.V.V.V.M.M.M.x.x.x.x.x.x.c.z.z.z.z.z.z.z.f.z.f.z.f.f.f.f.d.d.d.d.d.s.f.f.f.f.f.f.f.f.f.f.f.f.s.s.s.s.s.s.0.0.q.4.4.2.2.o.o.#.@.{ { [ [ ! Q Q ! ! ! ! ! Q $.$.[ [ [ [ { { { X.o.,.,.<.<.q.q.8.0.e.e.d.s.d.d.r.r.r.r.6.3.3.2.#.#.X.{ [ Q Q E S Z n c z g g d d d d d d y y y y y y 8 8 r 6 6 r 6 6 6 6 6 6 6 6 6 6 6 6 1 1 1 1 1 1 1 1 1 1 1 > > > > > > > > > > > > > > > > > > > > > > > > > > > > > > > > > > > > > > > > > > > > > > > > > > > > > > > > > > ",
"e e e e e e e e 2 2 2 9 2 2 9 9 9 e 2 9 M 9 0 9 e 9 0 9 9 9 9 9 9 e 9 9 9 9 9 9 9 9 9 9 9 9 9 9 9 6 6 1 6 9 6 6 6 6 6 6 y 6 6 6 6 6 6 8 y y y y y d y d d d d d d d d g g z z v v Z F D K K K K K K ) K D D S D A C v v z z z c c z c c k c g g g g g z z z z c z n Z Z S H H K K ( } +.1.1.9.9.g.f.f.Q.Q./.Q././.^.^.Q.Q.Q.Q.Q.Q.P.f.d.d.r.r.r.r.r.9.g.h.h.h.h.l.l.x.N.N.V.V.Z.-X;X0X0XqXeX0X;X;X-XV.V.V.M.M.x.x.x.z.z.z.z.z.z.z.x.x.x.M.M.M.#X%X-X-X-X-X-X:X:X>X>X>X:X:X:X;X>X>X-X;X;X>X>X>X>XwXwXwXeXeXeXeXrXrXrXrXrXtXtXtXtXtXrXrXrXrXrXrXqXqXqXqXqXqXqXqXqXqXqXqXqXqX0X0X0X0X;X;X;X;X;X-XZ.Z.V.V.V.M.M.M.x.x.x.x.l.l.c.z.z.z.z.z.z.z.z.z.g.z.f.g.d.g.g.g.d.d.s.f.f.f.f.P.f.f.f.f.f.s.s.s.s.s.s.s.s.0.q.q.4.4.2.o.o.X.X.@.{ [ [ [ [ ! ! ! ! ! ! ! ! ! [ [ [ [ [ { { X.X.o.,.,.<.8.8.q.0.0.d.e.d.d.d.r.r.r.r.7.6.3.2.2.#.#.X.{ [ ! E E S Z n n c g g d d d d d y y y y y y y y 6 r r r 6 6 r r 6 6 6 6 6 6 6 6 6 6 1 1 1 1 1 1 1 1 > > > > > > > > > > > > > > > > > > > > > > > > > > > > > > > > > > > > > > > > > > > > > > > > > > > > > > > > > > > > > ",
"e e 2 e e e 2 e e e e 2 e 9 9 9 9 e 2 2 2 0 e 9 e e 9 e e e 0 9 w 9 e e 9 9 9 9 9 9 9 9 9 9 9 9 9 9 9 6 9 6 6 6 6 6 6 6 6 6 6 6 6 6 6 8 8 8 y 8 8 d d d d d d d d d d g g g z v v Z Z S H K K K K K K K K D D D D A A b m n z c c z c z k k g g g k k k c z z c c n n Z S S H K K } } +.+.<.1.9.g.g.f.z.Q.Q././.Q.!.^.^.Q.Q.Q.Q.Q.Q.Y.P.P.d.r.r.r.r.r.9.9.h.h.h.h.l.l.x.N.N.M.V.V.-X;X0X0XqXqXqX0X;X-X-XV.V.M.M.M.x.x.x.z.z.c.z.z.z.z.x.x.x.M.M.M.V.#X%X-X-X-X-X-X:X:X:X:X:X-X-X:X:X-X-X:X-X;X;X;X;X;X;X0X0X0X0XeXeXeXeXeXeXrXrXrXrXrXrXrXrXrXrXrXrXrXrXrXrXqXqXqXqXqXqXqX0X0X0X;X;X;X;XA.Z.Z.Z.V.V.V.M.M.M.N.x.l.x.l.l.c.z.z.z.z.z.k.f.z.g.g.g.g.g.g.g.g.g.d.f.f.f.f.f.f.f.f.P.f.f.s.s.s.s.s.s.s.0.0.w.q.4.4.,.o.o.o.X.X.{ { [ [ ! [  ...! ! ! ! ! ! ! [ [ [ [ { { #.#.o.,.,.<.4.q.q.q.8.0.s.d.s.d.P.d.r.r.r.6.5.3.2.2.#.@.X.{ [ Q Q E S Z n n c z g g d d d d y y y y 8 y y 8 y 6 y 8 6 6 6 6 6 6 6 r 6 6 6 6 6 6 1 1 1 1 1 1 1 1 1 > > > 1 > > > > > > > > > > > > > > > > > > > > > > > > > > > > > > > > > > > > > > > > > > > > > > > > > > > > > > > > > ",
"e e e e e e e 2 e e e 2 e 2 2 2 2 2 e e 9 e e 9 e e e 9 9 9 e e w w e 9 9 e 9 9 9 9 9 9 9 9 9 9 9 6 6 6 6 6 6 6 6 6 6 6 6 6 6 6 6 6 8 8 8 8 y 8 y d d d d d d d d d d d g g z z z v Z S F K K K K K K K K D D D D D A m m m z n B c c z g g g k g g k c g c c c c c n n Z S H H K K } } +.<.<.9.9.g.g.f.z.Q.Q./././.Q.^.^.Q.Q.Q.Q.Q.Q.Y.P.d.d.r.r.r.r.r.9.9.p.h.h.h.h.l.x.N.N.M.V.V.Z.-X;X0XqXeX0X0X;X-X-XV.V.V.M.M.x.x.x.c.c.z.z.z.z.z.x.x.x.x.x.M.M.M.V.%X%X-X-X-X-X-X-X:X-X-X-X-X:X-X:X:X-X-X-X;X;X;X;X;X;X;X;X0X0X0X0X0X0X0X0XqXqXqXqXqXqXqXqXqXqXqXqXqXqX0X0X0X0X0X0X0X;X;XA.A.Z.Z.Z.Z.V.V.V.V.M.M.M.M.x.x.x.x.x.l.z.c.z.z.k.h.g.g.g.g.g.g.g.g.g.g.d.f.f.f.f.f.f.f.f.f.f.s.s.s.s.s.s.s.w.w.0.0.q.q.4.2.o.o.o.X.X.X.{ { [ [ [ ! ! ! ! ! ! ! ! ! [ ! [ [ { { X.X.#.2.,.<.<.q.q.q.0.0.s.0.0.s.d.d.P.r.r.r.6.5.2.2.#.#.@.X.{ ] Q E T Z Z n c z z g d d d d d d d y y y 8 y 8 y r y 6 6 6 6 6 6 6 6 r y 6 6 6 1 1 1 1 1 1 1 1 1 1 1 > > > > > > > > > > > > > > > > > > > > > > > > > > > > > > > > > > > > > > > > > > > > > > > > > > > > > > > > > > > > > > ",
"e e e e e e e 2 e e 2 2 9 e 2 2 e 9 9 9 e 9 e e 9 9 9 9 9 9 e 9 e e 9 9 9 9 9 9 9 9 9 9 9 9 9 9 9 9 6 6 6 6 6 6 6 6 6 6 6 6 6 6 6 6 6 8 8 8 y y y 8 d d d d d d g d d d g d c / z v D Z F H K K K K K K K D D D D D A n n v z z z z g k c g g g k g g k z g z c c c c n Z Z S S H K ( } } O.+.1.9.9.g.g.f.Q.Q././.Q./.^.^.Q.Q.Q.Q.Q.Q.Y.Y.d.d.d.r.r.r.r.r.9.9.9.p.h.h.h.j.l.x.N.N.M.V.V.Z.;X;X0X0X0X0X0X;X-XV.V.V.M.M.M.x.x.x.z.z.z.c.z.z.z.z.x.x.x.x.M.M.M.M.#X#X%X%X-X-X-X-X-X-X-X-X-X-X:X-X-X-X-X-X-X-X-X-X-X;X;X;X;X;X;X;X;X;X;X;X;X;X0X0X0X0X0X0X0X0X;X0X;X;X;XA.A.A.A.Z.Z.Z.Z.Z.V.V.B.V.M.M.M.M.M.N.l.x.x.l.c.c.c.c.z.z.h.h.g.g.g.g.g.g.g.f.f.f.f.f.f.Y.f.f.f.f.f.s.s.s.s.d.s.s.s.0.0.0.0.q.q.4.2.,.,.o.X.X.X.X.@.{ [ [ [ ! ! [ ! ! ! ! ! ! [ [ [ [ { { X.o.o.o.,.<.4.q.q.0.0.0.0.P.s.d.d.d.d.r.r.r.5.5.3.2.#.#.@.X.[ ] Q E T Z Z n c z g g g d d d d d d d y y y 8 8 8 y 6 r 6 6 r 6 r r 6 6 r 6 6 6 1 6 1 1 1 1 1 1 1 1 1 1 > > > > > > > > > > > > > > > > > > > > > > > > > > > > > > > > > > > > > > > > > > > > > > > > > > > > > > > > > > > > > > ",
"e e 2 e e e e e 2 2 2 2 2 2 e 2 9 e e 2 2 2 9 9 e e 9 9 e e 9 9 e e e 9 9 9 9 9 9 9 9 9 9 9 9 9 6 9 6 6 6 6 6 6 6 6 6 6 6 6 6 6 6 6 6 6 8 8 8 y y y y y d d d d d d d d g d n / z v Z Z Z S K K K K K K K K K D D D Z n b v z z z g z Y B g g g z g g g k z z z c c c n n Z Z S S H K } } } O.1.1.9.r.g.f.f.Q.Q./././././.^.Q.Q.Q.f.Q.Q.Y.Y.d.d.d.r.r.r.r.r.r.9.9.p.h.h.h.h.l.x.x.N.M.V.V.Z.-X;X0X0X0X0X0X;X-XZ.V.V.M.M.M.x.x.x.x.z.z.z.z.z.z.c.x.x.z.x.x.x.M.M.M.M.#X#X#X%X%X%X%X%X%X%X-X-X-X-X:X-X-X-X-X-X-X-X-X-X-X-X-X-X-X-X-X-X-X-X-X-X-X;X;X;X;X;X;X;XZ.Z.Z.Z.Z.Z.Z.Z.Z.V.V.V.V.M.N.N.N.N.M.x.x.x.l.l.c.c.c.c.c.c.h.h.h.g.g.g.g.g.g.g.g.f.f.f.f.f.f.Y.Y.d.d.d.d.d.s.s.s.s.s.0.0.0.0.0.q.q.4.4.2.,.o.o.X.X.{ { {  .[ [ [ [ ! [ ! ! ! ! ! ! [ [ [ { { { X.X.o.,.,.<.q.q.q.0.0.w.w.0.e.d.d.d.r.r.r.r.5.5.5.2.#.#.@.@.[ Q Q E S Z n n n z g g g d d d d d d y y y y y 8 8 8 8 6 r 6 r 6 6 r r 6 6 r r 6 6 1 1 1 1 1 1 1 1 1 1 1 1 1 > > > > > > > > > > > > > > > > > > > > > > > > > > > > > > > > > > > > > > > > > > > > > > > > > > > > > > > > > > > > > ",
"e e e e e e e 2 2 e 2 2 2 2 2 e 2 2 e e e 2 2 9 e e e e e e e e e e 9 9 9 9 9 9 9 9 9 9 9 9 9 6 9 9 6 6 6 6 6 6 6 6 6 6 6 6 6 6 6 6 6 6 6 8 8 y 8 y y y y y y d d d d d d g s s z z v v Z S S K K K K K K ) ~ D D S Z Z v v z z c c z c c g g g g c g g k g g g z c c z n Z Z S S S H K K } O.O.<.1.9.g.g.f.f.Q.Q.Q.Q././.^.^.Q.Q.Q.Y.Q.Q.Y.f.f.d.d.d.r.r.r.r.r.r.r.9.p.h.h.h.l.l.x.N.N.V.V.V.Z.-X;X0X0X0X0X;X;XZ.V.V.V.M.M.x.x.x.x.z.z.c.c.z.c.z.z.c.z.z.x.x.x.x.M.M.M.M.M.#X#X#X#X#X#X%X%X%X%X%X%X%X%X%X%X%X%X-X%X%X%X%XZ.%X%X%X%X%X-X-X-XZ.Z.Z.Z.V.V.V.V.V.V.V.V.V.V.V.V.V.N.N.N.N.N.N.x.x.x.x.x.l.l.c.c.c.z.z.z.z.z.h.g.h.z.f.f.f.f.f.z.f.f.f.f.f.f.f.f.d.g.g.s.d.d.d.d.s.0.0.0.0.q.q.q.4.4.2.,.o.o.X.X.{ { { [ [ [ [ ! ! ! ! [ ! ! [ [ [ [ [ { { { X.X.o.,.,.2.<.q.q.0.0.0.0.s.w.e.d.d.d.r.r.r.e.5.5.2.2.2.#.X.{ [ Q E T S Z n n c c z g g d d d d d y y 8 8 y y y y 8 6 r y 6 6 6 6 6 6 6 6 6 6 6 1 1 6 1 1 1 1 1 1 1 1 1 1 1 1 > > > > > > > > > > > > > > > > > > > > > > > > > > > > > > > > > > > > > > > > > > > > > > > > > > > > > > > > > > > > > ",
"e e e e e 2 e 2 2 2 2 2 2 2 2 2 2 2 e e e e e 2 e e e e e e e e e e 9 9 9 9 9 9 9 9 9 9 9 9 6 9 9 6 6 6 6 6 6 6 6 6 6 6 6 6 6 6 6 6 6 6 6 8 8 8 y y 8 y y d y y d d d d d d c :.n z z v Z Z S K K K K K K K K D D S S Z b v v m n c z g g z g g k c g g g g g g z z z c n n n Z S S H H K } } O.O.<.1.9.g.g.f.f.Q.Q.Q.Q././.^.Q.Q.Q.Y.Y.Y.Q.Q.Y.f.d.d.d.r.r.r.r.9.r.9.9.9.h.h.h.h.l.x.x.N.N.M.V.V.Z.;X;X;X0X0X;X;X-XV.V.V.M.M.N.x.x.x.x.z.c.c.c.z.z.z.c.c.c.z.x.x.x.x.x.x.x.M.M.M.M.M.M.OXOX#X#XOXOX#X#X#X#X#X#X#X%X#X#XV.V.V.V.V.V.V.V.V.V.V.V.V.V.V.V.M.M.M.N.M.N.N.N.M.N.N.N.N.x.x.x.x.x.x.l.l.c.c.c.z.z.z.z.h.z.z.f.g.g.g.z.f.f.f.f.f.f.f.f.f.f.d.d.g.g.g.g.d.s.d.d.e.0.0.q.0.0.q.4.4.4.2.2.2.o.o.X.X.{ { { [ [ [ [ ! ! ! ! ! ! ! ! [ [ [ [ { { X.X.o.o.2.4.<.<.q.q.0.0.0.0.s.s.s.s.r.d.r.r.r.5.5.5.2.2.#.#.@.{ [ Q E T Z Z n n c c g g d g d d d d d d 8 y y y y y 8 8 6 6 6 6 6 6 6 r 6 6 6 r 6 6 6 6 1 1 1 1 1 1 1 1 1 1 > 1 1 > > > > > > > > > > > > > > > > > > > > > > > > > > > > > > > > > > > > > > > > > > > > > > > > > > > > > > > > > > > > > ",
"e e e e 2 e 2 e 2 2 e 2 2 2 2 2 2 e e 2 e 9 e 9 e e e 9 e 9 9 9 9 9 9 9 9 9 9 9 9 9 9 9 9 9 9 9 9 9 9 6 6 6 6 6 6 6 6 6 6 6 6 6 6 6 6 8 8 8 8 8 8 8 8 y d y d y d d d d d d g Y z z z v Z Z F S K K K K K K K K D D D A C b v n z z z z z g g g g z g g g c z c g z c c z c n n Z Z S H K } } } O.<.<.9.9.g.g.f.Y.Q.Q.Q.Q.W./.!.Q.Q.Q.Y.Y.Y.Q.Y.f.f.d.d.d.r.r.r.r.9.9.9.r.9.p.h.h.h.l.l.x.N.N.M.V.V.V.Z.-X;X;X;X;X;X;XZ.V.V.V.M.N.N.x.x.x.l.c.c.c.c.z.z.c.z.c.c.c.c.z.x.x.x.x.x.x.x.x.M.M.M.M.M.M.M.M.M.M.M.M.M.M.M.M.M.M.M.M.M.M.M.M.M.M.M.M.M.M.M.N.N.M.N.N.N.N.N.N.N.x.x.x.x.x.l.l.x.l.c.c.c.c.c.c.z.h.z.h.z.g.g.f.f.z.z.z.z.z.f.f.f.f.g.f.f.g.g.g.g.g.g.d.d.d.e.e.0.0.q.q.q.q.q.<.4.,.2.2.o.o.X.X.{ { { { [ [ [ [ [ ! ! ! [ ! [ [ [ [ [ [ { { X.X.o.o.,.<.4.4.q.q.0.0.0.0.s.s.s.d.r.r.r.G.G.5.5.5.2.2.#.#.X.{ [ Q E S S Z n n z z g g g d d d d d d d d 8 8 8 8 8 8 8 8 8 8 6 6 6 6 6 6 6 6 6 6 6 6 1 1 1 1 1 1 1 1 1 1 1 1 1 > > > > 1 > > > > > > > > > > > > > > > > > > > > > > > > > > > 1 > > > > > > > > > > > > > > > > > > > > > > > > > > > > > > ",
"e e e e e 2 2 2 e e 2 e 2 2 2 2 2 2 2 2 2 2 2 e e e e e 9 9 9 9 e 9 9 9 9 9 9 9 9 9 9 9 9 9 9 6 9 9 9 6 6 6 6 6 6 6 6 6 6 6 6 6 6 6 6 6 8 8 8 8 8 8 y y y d y 8 y d d d d d d i g z z v v Z Z S D K K K K K K K K D D A A C v v z z z z c g g g g g k g c k g c g z z c z c n v n Z S S H K K } O.O.<.<.9.r.g.g.d.f.Q.Q.Q.Q.W./.!.Q.Q.Q.Y.Y.Y.Y.Y.f.f.d.d.d.d.d.r.r.r.r.r.r.9.9.h.h.h.j.l.l.x.N.N.N.V.V.V.Z.-X;X;X;X;X;X-XZ.V.V.V.N.N.N.x.x.l.l.c.c.z.z.z.z.z.z.z.c.z.c.c.z.z.z.x.x.x.x.x.x.x.M.M.M.M.M.M.M.M.M.M.M.M.M.*XM.M.M.M.M.M.M.M.N.M.N.N.N.N.N.N.x.x.x.x.x.x.x.x.x.l.l.x.c.c.c.c.c.c.z.z.z.z.z.z.z.z.z.z.z.z.z.z.z.z.k.f.f.f.f.g.g.g.g.g.g.g.g.d.d.e.e.0.e.0.q.q.q.q.q.4.<.,.,.,.#.o.X.X.X.{ { { [ [ [ [ [ ! [ ! ! ! [ [ [ [ { [ { { { X.X.o.,.<.<.q.q.q.0.0.0.0.0.s.s.s.d.r.r.G.e.5.5.5.2.2.2.#.X.X.{ ] Q E S Z Z n n c z g g g d d d d d y y 8 8 8 8 8 8 8 8 8 8 8 8 r 6 6 6 6 6 6 r 6 6 6 6 1 1 1 1 1 1 1 1 1 1 1 1 > > > > > > 1 > > > > > > > > > > > > > > > > > > > > > > > > > > > > > > > > > > > > > > > > > > > > > > > > > > > > > > > > > ",
"e e e e 2 2 2 2 e 2 2 e 2 2 2 2 e 2 2 e 2 2 2 2 e e e e e e e 9 e e e 9 9 9 9 9 9 9 9 9 9 9 9 6 9 6 6 6 6 6 6 6 6 6 6 6 6 6 6 6 6 6 6 6 6 8 6 6 6 8 y y y y y y 8 y y d d d d g g z z z v v Z F S K K K K K K K K K D D A Z v v v z z z z c g g g g g g g g c c z g g g z c c n n Z Z S S H K } } O.O.<.<.9.9.g.g.d.Y.Q.Q.Q.Q.Q./.!.Q.Q.Q.Y.Y.Y.Y.f.f.f.f.d.d.d.d.r.r.r.r.9.r.9.9.p.h.h.h.j.l.l.x.N.N.N.V.V.V.Z.Z.-X;X;X;X;X-XZ.V.V.M.N.N.x.l.l.l.c.c.c.z.h.z.z.z.z.z.z.h.h.z.c.c.z.z.z.x.x.x.x.x.x.x.x.x.x.x.x.M.M.N.M.$XM.x.x.N.N.M.x.x.x.x.x.x.x.x.x.x.x.x.x.x.x.x.x.l.l.l.c.c.c.c.c.c.c.z.z.c.z.z.z.z.z.z.z.z.z.z.z.g.g.g.g.g.g.g.g.g.g.g.g.g.d.e.e.e.0.q.q.q.q.q.q.4.4.4.2.,.,.o.o.o.X.X.X.X.{ { { { [ [ [ [ [ ! [ [ [ [ [ [ { { { { { X.X.o.o.,.2.4.q.q.q.0.0.0.0.0.s.s.s.d.d.r.r.e.5.5.5.2.2.2.#.X.{ [ ! Q T S Z n n z z z g g d d d d g d y y y y 8 8 y y 8 8 8 8 y y r 6 6 6 6 6 6 6 6 6 6 6 6 1 1 1 1 1 1 1 1 1 1 1 > > > > > > > > > > > > > > > > > > > > > > > > > > > > > > > > 1 r > > 1 > > > > > > > > > > > > > > > > > > > > > > > > > > > > ",
"e e e 2 2 2 2 e 2 2 2 2 2 2 2 e 2 2 2 2 2 e 2 2 e e 9 9 e e 9 e e e e 9 9 9 9 9 9 9 9 9 9 9 9 6 9 9 9 6 6 6 6 6 6 6 6 6 6 6 6 6 6 6 6 6 6 8 8 6 8 y y 8 8 8 y y y y y d d d d d g g z z v v Z Z S D K K ) K K K K K D D Z Z A v v z z z z z g k k g g g k c k c c k g g g c c z n Z Z Z S S H K ( } { O.<.<.8.9.g.g.f.Y.Q.Q.Q.Q.Q./.Q.Q.Q.Y.Y.Y.f.Y.Y.f.f.f.d.d.d.g.r.r.r.9.9.r.r.9.p.p.h.h.h.j.l.x.N.N.N.N.B.V.V.V.Z.Z.-X-X;X-XZ.Z.V.V.M.N.N.x.x.x.l.c.c.c.z.z.z.z.h.z.h.h.h.h.c.c.c.c.c.c.c.c.z.x.x.x.x.x.x.x.x.x.x.x.x.x.x.x.x.x.x.x.x.x.x.x.x.x.x.x.x.x.x.x.x.x.x.x.l.l.c.c.z.c.c.c.c.z.z.z.c.z.z.z.z.k.k.h.h.g.g.g.g.g.g.g.g.g.g.g.g.r.e.e.8.e.e.8.q.8.8.q.8.<.<.4.4.,.,.,.,.o.o.X.X.X.X.{ { { { { [ [ [ [ [ [ [ [ [ [ [ [ { { { X.@.X.X.o.4.<.<.4.q.q.q.0.0.0.s.s.s.s.s.d.d.r.r.5.5.5.5.2.2.#.#.X.{ [ Q E E S Z n n c z g g g g d d d d k B y y y y 8 8 y y 8 8 6 8 6 6 6 6 6 6 6 6 6 6 6 1 6 6 6 1 1 1 1 1 1 1 1 1 1 1 > > 1 1 > 1 1 > > > > > > > > > > > > > > > > > > > > > > > > > > > > > 5 1 > > > > > > > > > > > > > > > > > > > > > > > > > > > ",
"e 2 2 2 e 2 e e 2 2 2 2 2 2 2 2 2 2 2 e 2 e e e e 2 9 e e e e e e e e 9 e 9 9 9 9 9 9 9 9 9 9 6 6 6 6 6 6 6 6 6 6 6 6 6 6 r 6 6 6 6 6 6 8 6 y y y y 8 8 8 8 8 8 y 8 y y y d d d d g g z z v v Z Z F K K K K K K K H H F S Z A C v v z c z g z c g g g z g g k g c g k k z z z z z n n Z Z S S H K ( { { O.<.1.9.r.g.d.f.Y.Y.Q.Q.Q.W./.Q.Q.Q.Y.Y.Y.Y.Y.Y.Y.Y.f.d.d.d.d.r.r.9.9.9.9.r.r.p.p.p.h.h.j.l.l.l.N.N.N.N.N.B.V.V.Z.Z.Z.-XZ.Z.Z.V.V.V.M.N.N.x.x.l.l.c.c.c.c.z.c.z.z.z.z.h.h.z.z.h.h.h.h.z.c.c.c.c.c.z.z.c.l.c.x.l.l.x.x.x.l.l.z.l.x.x.x.x.x.x.x.x.x.x.x.x.x.x.z.c.c.c.c.c.c.c.c.c.z.z.z.z.z.z.h.h.h.g.g.g.g.g.g.g.g.g.g.r.r.r.r.9.e.e.e.8.8.8.q.<.<.<.8.<.<.<.,.,.,.,.o.o.o.o.X.X.X.{ { { [ [ [ { [ [ [ [ [ [ [ [ [ [ { { { { X.X.o.o.,.,.4.4.4.q.q.q.0.0.0.s.s.d.s.d.d.r.r.r.5.5.5.2.2.#.#.X.{ { [ Q E T S Z n n c z g g g g d d d g d d g 8 8 y 8 8 y y 8 6 6 6 6 6 6 6 6 6 6 6 6 6 6 6 6 6 6 1 6 6 1 1 1 1 1 1 1 1 > > 1 1 > > > > > > > > > > > > > > > > > > > > > > > > > > > > > > > > > > > > > > > > > > > > > > > > > > > > > > > > > > > > > > ",
"2 2 2 2 2 e 2 e 2 2 2 2 2 2 2 2 2 2 2 e 2 2 e 2 9 9 2 9 e e e e 9 e e 9 9 9 9 9 9 9 9 9 9 1 6 6 9 6 6 6 6 6 6 6 6 6 6 6 6 6 6 6 6 6 6 y y 6 y y 8 8 8 8 8 8 8 y y 8 y d d d d d d g g g z z v Z Z Z D K K K K K K H S S S S Z Z n n v n c z z g g g z z g g k k c g g c g g z c z c n n n Z S S H K ( { O.o.<.9.8.e.g.d.f.Y.Y.Y.Q.W.W././.Q.Q.Y.Y.Y.f.Y.Y.Y.f.f.f.d.d.d.e.r.r.9.9.9.r.r.r.p.u.h.h.h.j.j.l.l.x.N.N.N.N.B.V.V.V.Z.Z.Z.Z.Z.Z.V.V.B.N.N.N.x.l.l.l.l.c.h.c.h.c.c.z.h.h.z.z.h.z.z.h.h.h.z.h.h.z.z.z.z.c.h.x.!.c.c.c.c.c.c.c.c.c.c.c.c.c.c.c.c.c.c.c.c.c.c.c.c.z.z.c.z.c.h.c.h.h.h.g.h.h.h.g.g.g.g.g.g.g.g.g.g.9.r.9.9.9.8.8.8.8.8.8.8.8.8.<.<.<.<.<.<.<.,.,.,.o.o.o.X.X.X.X.X.{ { { [ [ [ [ [ [ [ [ [ [ [ [ { { { { { X.X.o.o.,.2.2.<.q.q.q.0.0.0.0.0.s.s.s.s.d.r.r.r.6.5.3.2.2.#.#.@.X.{ { ] Q E S Z Z n n z z g g g d d d d d k d d 8 8 y 8 8 y 8 8 8 y y 6 6 6 6 6 6 6 6 6 6 6 6 6 6 6 6 6 1 1 1 1 1 1 1 1 1 1 1 1 1 1 > > > > > > > 1 > 1 > > > > > > > > > > > > > > > > > > > > > > > > > > > > > > > > > > > > > > > > > > > > > > > > > > > > ",
"2 : : 2 2 2 2 2 2 2 2 2 2 2 2 2 2 2 2 2 2 e e e e e 9 9 9 e e e e w e e 9 9 9 9 9 9 9 9 9 6 6 6 6 6 6 6 6 6 6 6 6 6 6 6 6 6 6 6 6 6 6 6 6 6 6 6 6 6 8 8 8 8 y y y 8 8 y d d d d d g g z z z v v Z Z F D K L K K K J H S D F Z Z v v n v c z z g g c c g k c k c c c g k g g g c c z c z n Z S S H Q K ( { O.O.<.8.8.e.g.g.f.Y.Y.Y.Q.W.W./.Q.Q.Q.Y.Y.Y.f.f.f.f.f.f.f.d.s.d.e.e.r.r.9.7.r.r.r.9.u.u.h.h.h.j.j.l.l.l.N.N.N.N.B.V.V.V.V.V.Z.Z.Z.V.V.B.B.N.N.N.x.x.l.l.l.c.h.c.h.h.h.h.h.h.h.h.h.h.h.h.h.h.h.h.h.h.h.h.h.h.h.h.h.c.c.h.z.h.z.z.z.h.h.c.c.c.c.c.c.c.c.h.h.h.h.h.z.h.h.h.h.h.h.g.g.g.g.g.9.g.g.g.r.g.r.9.r.r.9.8.9.8.9.8.8.8.8.8.8.<.<.<.<.<.<.<.<.,.,.,.,.o.o.o.#.X.X.{ X.{ { { { [ [ [ [ [ [ [ [ [ [ [ [ { { { { X.X.#.o.#.2.4.<.<.q.q.0.0.0.w.0.w.s.s.s.s.d.r.r.e.5.5.5.3.2.3.#.X.{ { ] Q E T S Z n n c z z g g g d d d d d d d d d y 8 8 8 y 8 6 6 6 6 8 y r 6 6 6 6 6 6 6 6 6 r 6 6 6 1 6 1 1 1 1 1 1 1 1 1 1 1 > 1 > > > > > > > > 1 1 1 > > > > 1 > > > > > > > > > > > > > > > > > 1 1 > > > > > > > > > > > > > > > 1 > > > > > > > > > > > > ",
"2 : : : e 2 : 2 2 2 2 : : 2 : 2 2 2 2 2 2 e e 2 2 e e e 9 9 e e e e 9 e 9 9 9 9 9 9 9 9 9 6 6 6 6 6 6 6 6 6 6 6 6 6 6 6 6 6 6 6 6 6 6 6 6 6 6 6 6 6 8 6 8 8 y d y 8 8 8 8 8 d d d d g g g z z v v Z F F K K K K K K F S F F F Z C v v n z z z g z g g g g c g g g g g g g z g c c z z z n n Z S S H H K } { { <.<.8.8.e.d.g.f.P.Y.Y.P.W.W././.Q.Q.Y.Y.Y.f.f.f.f.Y.Y.f.f.g.d.d.r.r.9.9.9.9.r.r.9.p.u.u.h.h.h.j.j.j.l.l.N.N.N.N.N.B.B.V.V.V.V.V.V.V.V.B.N.N.N.N.l.l.l.l.l.j.c.c.h.h.h.h.h.h.h.h.h.h.h.h.h.h.h.h.h.h.9.9.h.h.h.h.h.h.h.h.h.h.h.h.h.h.h.h.h.h.h.h.h.h.h.h.h.h.W.g.g.g.g.g.9.9.9.g.g.g.9.9.9.9.9.9.r.r.9.9.9.8.8.8.8.<.<.8.<.<.<.<.<.<.,.,.,.,.,.o.o.o.o.o.X.X.X.{ { { { { [ [ { [ [ [ [ [ [ [ [ [ { { { { X.X.X.X.#.#.2.2.4.4.<.q.q.0.0.0.0.s.s.s.s.s.s.r.e.e.5.5.3.3.2.2.#.@.X.{ [ Q Q E S S Z n n z z z g g g d d d d d d d d d y y 8 8 8 y y y 8 8 6 6 6 6 6 6 6 6 6 6 6 6 6 6 6 6 6 1 1 1 1 1 1 1 1 1 1 1 1 1 > 1 1 1 1 > 1 1 > 1 1 1 1 > > > > > > > > > > > > > > > > > > > > 1 > > > > > > > > > > > > > > > > > 1 1 > > > > > > > > > > > > ",
"e e 2 : 2 2 2 2 : : 2 2 2 2 2 2 2 2 2 2 2 2 2 2 2 2 e e e e e 9 e 9 9 9 9 9 9 9 9 9 9 9 9 9 6 6 6 6 6 6 6 6 6 6 6 6 6 6 6 6 6 6 6 6 6 6 6 6 6 6 6 6 8 8 y y y y 8 8 8 y 8 8 y d i d d g g z z v v Z Z F F K K K K K K K F F D F A Z b b z z z z g g g g g g g g g g c g g g g k z z z z n n n Z Z S H H K ] { { O.<.8.8.8.d.s.f.P.Y.Y.Y.W.W././.Q.Q.Y.Y.Y.f.f.Y.f.f.f.f.d.s.d.s.e.e.9.9.9.9.r.r.r.9.9.u.u.p.u.h.j.j.j.l.l.l.N.N.N.N.N.B.B.B.V.V.V.V.V.B.B.B.N.N.m.m.l.x.j.l.l.h.h.h.h.h.h.h.h.h.h.h.h.h.g.9.9.9.9.9.9.9.g.h.h.h.h.h.h.h.h.h.h.g.9.9.h.9.9.9.h.h.9.9.g.g.g.g.9.9.g.g.9.9.9.9.9.9.9.r.9.9.9.9.9.9.9.9.9.9.<.<.<.<.<.<.<.<.<.,.,.,.,.,.,.o.o.o.o.o.o.X.X.X.{ { { { { [ [ [ [ { [ [ [ [ [ { { { { { X.X.X.X.o.#.#.2.2.2.4.4.q.q.q.0.w.P.0.0.w.w.s.d.r.r.e.q.5.5.2.2.2.2.#.@.X.{ [ Q Q E S Z Z n n c z g g g g g g d g d d d d d y 8 y 8 y y 8 y y 8 6 8 6 6 r 6 6 6 6 6 6 6 6 6 6 1 6 1 1 6 1 6 1 1 1 1 1 1 1 1 1 1 > > > > > > > > 1 1 > 1 > > > > > > > > 1 1 1 > > > > > > > > > > > > > > 1 > > > > 1 > > > > > > 1 1 1 > > > > > > > > > > & > ",
"e 2 2 2 2 : : 2 : : 2 2 2 2 2 : 2 2 2 2 2 2 2 2 2 2 e e e e e 9 9 9 9 9 9 9 9 9 9 9 9 9 9 9 9 6 6 6 6 6 6 6 6 6 6 6 6 6 6 6 6 6 6 6 6 6 6 6 6 6 6 6 8 8 8 8 8 8 8 8 8 y 8 y y d d d d g g z z z v Z Z F F K K K K K K D D D D D A A m b v n z z z g g g k k g g g g c c k g g g g g g z c n n Z Z S S H H Q ] { { o.,.8.8.8.d.s.s.f.Y.Y.P.W.W.Q./.Q.Q.Y.Y.Y.Y.f.f.f.f.f.f.f.d.d.d.e.e.8.8.9.9.9.9.r.9.r.r.u.u.u.u.h.h.j.j.j.l.l.m.m.m.m.N.N.B.B.B.B.B.B.B.B.B.B.N.N.m.m.m.l.l.j.j.j.h.h.h.h.h.h.h.h.h.9.9.h.h.9.9.g.g.9.9.9.h.h.9.9.9.9.9.h.9.9.9.9.9.9.9.9.9.9.9.9.9.9.9.9.9.9.9.9.9.9.9.9.9.9.9.9.9.8.8.8.8.8.8.<.<.<.<.<.<.<.<.<.<.,.,.,.,.,.o.,.#.o.o.#.o.X.X.X.X.{ { { { [ [ [ [ [ [ [ [ { { { { { X.X.@.X.X.X.o.o.#.2.2.2.2.4.4.q.q.q.w.0.E.XXs.s.s.s.d.r.e.q.5.5.3.2.2.2.#.#.X.{ { ] Q E E S Z n n n z z g g g g g g d d d d d d y 8 8 8 8 8 8 8 8 8 8 8 y 6 6 6 6 y 6 6 6 6 6 6 6 6 1 1 1 1 1 1 1 1 1 1 1 1 1 1 > 1 1 1 > 1 > 1 > > > 1 1 1 > 1 1 1 > > > > > > 1 1 1 > > > > > > > > > > > > > > 1 > > > 1 > 1 > > > > > > > > > > > > > > > > > > > > ",
": 2 2 2 2 : 2 2 2 2 2 2 2 2 2 : 2 2 2 2 2 2 2 2 2 e e e 9 9 9 e e e e e 9 9 9 9 9 9 9 9 9 9 6 6 6 6 6 6 6 6 6 6 6 6 6 6 6 6 6 6 6 6 6 6 6 6 6 6 6 6 6 8 6 6 8 8 8 8 8 8 8 y d d d d d g g g z z v v Z Z F D K K K K K K K K F D D Z C m m m z z z z g g k c c g g g g g c c g g g g z c c c n n Z Z S S H H Q ] { { o.,.8.8.0.d.s.s.P.Y.Y.P.W.W.Q./.Q.Q.Y.Y.Y.f.f.f.f.f.f.Y.f.f.d.d.d.e.e.9.9.9.9.9.r.r.r.9.9.9.u.u.u.h.h.h.j.j.j.l.l.m.m.m.m.m.N.B.B.B.C.B.B.B.B.B.N.N.m.m.m.x.l.j.j.j.j.h.h.h.h.h.h.W.h.h.h.h.h.h.9.9.9.9.9.9.9.9.9.9.9.9.9.9.9.9.9.9.9.9.9.9.9.9.9.9.9.9.9.9.9.9.9.9.9.9.9.9.9.9.1.1.<.8.8.8.<.<.<.8.<.<.<.8.<.<.6.,.,.,.2.o.o.o.o.X.X.X.X.X.{ { { { { { { { [ [ [ [ [ { { { { { { X.@.@.@.#.#.#.2.2.2.4.4.4.4.q.q.q.q.0.s.s.P.P.s.s.d.r.e.e.5.5.3.2.2.2.#.#.X.{ { [ Q Q E S S Z n n c c z g g g g g d d d d d d k d y 8 8 8 8 8 8 y 8 8 8 8 8 8 8 6 6 y 6 6 6 6 6 6 6 6 6 1 1 1 1 1 1 1 1 1 1 1 1 1 1 1 1 1 1 1 > > > > > 1 1 1 1 1 > > > 1 1 > > > > > > > > > > > > > > > > > > > > 1 1 1 > > > > 1 > > > > > > > > > > > > > > & > > > > ",
": : 2 : : : 2 : 2 2 : 2 2 2 2 2 2 2 2 2 2 2 2 2 2 2 2 9 9 9 9 9 e e 9 9 9 9 9 9 9 9 9 9 9 6 6 6 6 6 6 6 6 6 6 6 6 6 6 6 6 6 6 6 r 6 6 8 6 6 6 8 6 6 8 8 6 6 6 6 8 8 8 8 8 8 8 d i i d d d g g z z v v Z C F K K K K K K J K K F D F A C b v z z z z g g g c c k g g g g ..^ d k k g z c c c c n n n Z Z S H K ] ] { { o.,.<.8.0.d.s.f.P.Y.P.P.P.W.Q.Q.Q.Q.Y.Y.Y.f.f.f.f.Y.Y.f.f.f.d.d.d.d.e.9.9.9.9.9.9.9.1.9.9.9.9.u.u.u.h.h.h.h.j.j.j.j.l.l.m.m.m.m.N.N.N.C.C.B.B.B.B.N.N.N.m.l.l.l.j.j.j.j.j.h.h.h.k.h.h.h.h.h.u.u.u.9.9.9.9.9.9.9.9.9.9.9.9.9.9.9.9.9.9.9.9.9.9.9.9.9.9.9.9.9.9.9.9.9.9.9.9.9.1.1.1.<.<.9.<.<.<.<.<.<.<.7.7.,.<.,.,.o.2.o.o.o.X.X.X.X.X.X.{ { { { { { { { { { { [ [ { { { { { @.@.@.#.#.#.#.2.2.2.2.4.4.4.q.q.q.0.0.0.0.s.L.s.d.s.e.e.q.5.5.5.3.2.2.#.#.@.X.{ [ [ Q E E S Z Z n c c z z g g g g g d d d d d d d d d d 8 8 8 8 8 y y y 8 8 8 8 y 8 6 6 6 6 6 6 6 6 6 6 6 1 1 6 1 1 1 1 1 1 1 1 1 > > 1 1 1 1 1 1 > > 1 1 1 > 1 1 5 1 > > > > 1 > 1 > > > > > > > > > 1 > > > > > 1 1 1 1 1 1 1 1 1 > > 1 > > > > > > > > > > > > > > > > > > ",
": : , 2 : : : : 2 9 2 2 2 : : 2 2 2 2 2 2 2 2 2 2 2 2 9 9 9 e e e 9 9 9 9 9 9 9 9 9 9 9 6 6 8 6 6 6 6 6 6 6 6 6 6 6 6 6 6 6 6 6 y 6 6 y 6 6 6 6 6 6 8 6 6 6 6 8 8 8 8 8 8 8 8 y 8 i d i d g g g z z v Z Z C F D K K K K K K K D F Z Z C C b v z z z z z z g g g g g g g B n g g g k k g k c c c n n n Z S S H K ] { { { o.,.8.8.0.d.s.s.P.Y.Y.P.P.W.Q.Q.Q.Q.Y.Y.U.f.f.f.f.Y.f.f.f.f.d.d.s.d.e.e.9.9.9.9.9.9.7.7.9.r.r.r.p.u.u.u.h.h.h.h.j.j.j.l.l.l.l.m.m.m.N.N.N.N.N.N.N.N.N.N.m.m.l.l.l.l.j.j.j.h.h.h.h.h.h.h.h.h.h.u.u.u.9.u.u.9.9.9.9.9.9.9.9.9.9.9.9.9.9.9.9.9.9.9.9.9.9.9.9.1.1.1.9.8.<.<.1.1.1.1.1.1.7.7.<.<.<.<.<.<.<.6.<.,.o.o.o.o.o.X.X.X.X.X.X.X.{ { { { { @.{  .{ { @.@.{ { X.@.@.X.@.@.#.#.#.2.2.2.2.2.4.4.4.4.q.q.0.0.0.0.s.s.s.P.s.e.e.e.q.5.5.3.3.2.#.#.@.X.{ { [ Q Q E T S Z n n n z z z g g g g g g c g d d d d d y d y 8 y y 8 8 8 8 y 8 8 8 8 6 8 6 6 6 6 6 6 6 6 6 6 1 6 6 1 1 1 1 1 1 1 1 1 1 ^ N > 1 1 1 1 1 > 1 1 > 1 1 > > > > 1 1 > > > > 1 1 > > 1 > > > > > 1 1 > 1 > > 1 1 > 1 > > 1 1 > > > > > > > > > > > > > > > > > > > > & > ",
": 2 2 2 : 2 2 : 2 2 , 2 , 2 2 2 2 2 2 2 2 2 2 2 2 2 2 9 9 9 9 e e 9 9 9 9 9 9 9 9 9 9 9 9 6 6 6 6 6 6 6 6 6 6 6 6 6 6 6 6 6 6 6 6 6 6 6 6 6 6 6 6 6 6 6 6 6 6 6 6 6 y 6 8 8 y 8 8 8 y d d g g g z z v v v Z C F K K K K K K K K D F Z C C b v z z z z z g g g g g g g g g g g g k g g g c g c c c n n Z Z S S H K ( ] { { ,.,.<.q.0.s.s.s.f.Y.Y.P.P.P.W.Q.Q.Q.Y.Y.U.f.f.f.f.f.f.Y.f.f.d.s.s.d.r.r.8.8.8.9.9.7.7.7.1.9.r.r.r.9.u.u.p.h.h.h.h.j.j.j.j.l.l.l.l.m.m.m.m.m.N.N.N.V.N.N.m.m.m.m.m.l.l.l.j.j.j.j.h.h.h.h.h.u.u.u.u.u.u.u.9.u.u.9.9.9.9.9.9.9.9.9.9.9.9.9.9.9.9.9.9.9.9.1.1.1.1.1.1.7.7.1.1.1.1.<.<.<.<.<.6.<.<.6.7.6.o.<.6.o.o.o.o.X.X.X.X.X.X.X.{ X.{ { {  .@.{  .{ { { { X.X.X.#.#.#.#.#.2.2.2.2.2.2.4.4.4.q.q.q.0.w.0.s.s.s.s.s.s.d.e.e.q.5.5.5.3.#.#.#.#.@.{ { [ Q Q E E T Z Z n n c z g g g g g g d d g c d d d i d d y y d y y y 8 8 y 8 8 y 8 8 8 8 6 6 6 6 6 6 6 6 6 6 6 6 6 6 1 1 1 1 1 1 1 1 1 1 ^ R > 1 1 1 1 1 > > 1 1 1 1 > > > 1 1 > > > > 1 1 1 > > > > > > 1 1 1 1 > 1 1 > 1 1 1 1 > 1 1 1 1 1 > > > > > > > > > > > > > > > > > > ; > ",
"2 2 2 2 2 2 : 2 2 2 : : 2 2 2 2 2 2 2 2 2 9 2 2 2 9 2 2 2 2 9 e 9 9 9 9 9 9 9 9 9 9 9 6 9 6 6 6 6 6 6 6 6 6 6 6 6 6 6 6 6 6 6 6 6 6 6 6 6 6 6 6 6 6 6 6 6 6 6 8 6 6 y 8 8 8 y y y y 8 d d d d g g z v v v Z C F F K | | J K K D D F C C C b b v z z z g g g g g g g g g g g g z c g g g g g c z c c n n n Z S S H K Q ] { o.o.<.8.0.0.s.s.s.s.P.P.P.P.P.P.Q.Q.Y.Y.Y.U.U.f.f.f.f.f.f.f.f.s.s.d.g.g.r.e.8.8.9.9.7.1.1.9.9.9.r.9.r.9.9.u.u.u.u.u.h.h.h.j.j.j.j.l.l.l.l.m.m.m.m.m.N.m.N.m.N.N.m.m.m.m.l.j.j.j.j.h.h.h.h.h.h.u.u.u.u.u.u.u.u.u.u.u.u.9.9.9.9.9.9.r.r.9.9.9.9.9.9.1.1.1.1.1.1.1.1.1.1.1.1.<.<.<.<.<.<.<.<.<.<.<.6.o.o.6.6.o.o.#.@.X.X.X.X.X.X.X.X. .{ { { { { { { { X.X.X.X.#.#.#.#.2.#.2.2.2.2.2.2.4.4.4.q.q.0.0.0.s.0.s.s.s.s.s.e.e.q.5.5.3.3.3.#.#.#.X.{ { [ [ Q E H S W T n n n c z z g g g z g g d d d d d d d y d d d y 8 8 8 8 y 8 y 8 8 8 8 8 6 6 6 6 6 6 6 6 6 6 6 6 1 1 6 6 1 1 6 1 1 1 1 1 1 1 1 1 1 1 1 1 1 1 1 > > 1 1 1 1 > 1 1 > 1 > > > > 1 > > 1 1 > 1 > > > > > 1 1 1 1 1 1 1 1 > > > 1 1 1 > > 1 > > > > > > > > > > > > & > > > > ",
": 2 2 2 2 : 2 2 2 , : : : 2 : 2 : 2 2 : 2 2 2 2 2 2 2 2 2 9 9 9 9 9 9 9 9 9 9 9 9 9 6 9 9 6 6 6 6 6 6 6 6 6 6 6 6 6 6 6 6 6 6 6 6 6 6 8 d y 6 6 6 6 6 8 8 6 6 8 6 8 6 8 8 8 y y y y 8 8 i d d g g z z v v v Z C F F ~ K K K K K F F D C C C C b z z z z g g g g g g g g g g g g g g g g g g g c c c c n n n Z Z S H H Q { { { o.,.<.q.0.0.s.s.s.P.P.P.P.P.P.P.Q.Y.Y.Y.U.U.f.f.f.f.f.f.f.f.f.s.g.d.g.e.e.e.8.8.8.8.8.9.7.1.1.9.9.9.9.9.9.9.u.u.u.u.u.h.h.u.j.j.j.j.l.l.l.l.l.l.m.m.m.m.m.C.m.m.m.l.j.l.j.j.j.j.j.j.j.h.h.u.u.u.u.u.u.u.u.u.u.u.u.u.u.u.u.u.p.9.9.9.9.9.9.1.1.1.1.1.1.1.1.1.<.<.<.<.<.<.<.<.<.<.<.<.o.<.o.o.o.o.o.o.o.o.X.X.X.X.X.@.X.X.X.X.@.X.{ { X.{ { @.@.X.#.#.#.#.#.2.2.2.2.2.2.2.2.2.4.4.4.q.q.0.0.w.s.s.s.s.s.s.s.w.w.q.5.3.3.3.#.#.#.#.X.{ { [ ] Q Q E S S E T n v z z z g g g g g c g d d d d d d d d d y y d 8 8 8 8 8 8 8 8 8 6 8 8 8 6 6 6 6 6 6 6 6 6 6 1 6 6 1 6 1 1 r 1 1 1 1 1 1 1 1 1 1 1 1 1 1 > > > 1 > > > > > 1 1 1 > 1 > > > 1 1 1 1 1 1 1 1 1 1 > > 1 1 1 1 1 1 1 1 1 > > 1 1 1 1 > > > > > > > > > > > > > > & & & > > > ",
": , : : 2 : 2 2 , : : , > : , 2 2 2 2 2 2 2 2 2 2 2 2 9 2 2 9 9 9 9 9 9 9 9 9 9 9 9 9 6 6 6 9 6 6 6 6 6 6 6 6 6 6 6 6 6 6 6 6 6 6 6 6 6 y 6 6 6 6 6 6 8 8 6 6 6 8 8 8 8 8 8 y 8 8 8 y 8 d d d d g g z v v v Z C C F K K K K K K F F D F F C C b v z z z g g g g g g g g k c g g g g g g g g g k c c c n n n n Z S S H E Q ] { { o.,.<.q.0.s.s.s.s.f.P.P.P.P.P.P.Y.Y.Y.Y.U.f.f.f.f.f.f.f.f.f.f.f.d.s.d.d.e.e.8.8.8.8.8.8.8.<.1.7.1.1.7.9.9.1.1.r.p.p.p.u.p.u.u.u.u.h.j.j.j.j.l.l.l.l.l.l.l.m.m.m.l.l.j.l.l.j.j.j.j.j.u.u.u.u.u.u.u.u.u.u.u.u.u.u.u.u.u.u.p.u.t.t.9.1.1.1.1.1.1.1.1.1.1.1.1.1.1.1.<.<.<.<.<.O.<.<.o.o.<.<.o.o.o.o.o.o.o.X.X.X.X.X.X.X.X.X.X.X.X.X.X.X.X.o.#.3.#.#.2.2.2.2.2.2.2.2.2.2.2.4.4.4.q.q.q.0.0.0.0.s.s.s.s.w.e.q.q.5.5.3.3.#.#.#.@.@.X.{ [ { Q Q E T S Z T ^ Z z c z g g g g g g g g d d d d d d i 8 8 y y y y y 8 y 8 8 8 8 8 8 8 8 8 8 6 6 6 6 6 6 6 6 6 6 6 1 6 6 1 1 r y 6 1 1 1 1 1 1 1 1 1 1 1 1 1 > > > 1 1 1 1 > > > > > > > > 1 > > > > > 1 > 1 > > 1 > 1 1 1 1 > 1 1 1 1 1 1 1 > > > 1 > 1 > > > > > > > > > & & > & > > & > & ",
", : : , : : 2 2 1 1 : ; ; : 2 2 2 2 2 2 2 1 2 2 2 2 2 9 2 2 9 9 9 9 9 9 9 9 9 9 9 9 9 6 6 6 6 6 6 6 6 6 6 6 6 6 6 6 6 6 6 6 6 6 6 6 6 6 6 6 6 6 6 6 6 6 6 6 6 6 6 6 8 8 8 8 8 8 8 8 y 8 d d d d g g g z z v Z Z C F F K K K K J F F D F F F C C n b z z z g g g g g g g k c g g g g g g g g g g g c c c c n n n Z S S H E Q ] { { o.,.<.8.q.0.s.s.s.s.L.P.P.P.P.P.P.Y.Y.P.U.U.f.s.s.f.f.f.f.f.f.f.s.d.P.d.e.e.e.8.8.8.8.8.8.<.<.<.<.7.7.7.7.1.1.9.9.9.u.u.u.u.u.u.u.u.u.u.u.j.j.j.j.j.j.j.j.j.j.j.j.j.j.j.j.j.j.j.j.i.i.i.i.i.i.u.u.u.u.u.u.u.u.u.u.u.u.t.u.u.u.p.u.u.u.1.1.1.1.1.1.1.1.9.K.1.1.1.1.<.<.<.<.6.6.<.<.o.o.o.o.o.o.o.o.o.o.X.X.X.o.X.o.o.o.X.#.o.#.#.#.2.2.2.3.#.#.2.#.2.#.2.2.2.2.2.2.4.4.q.q.q.w.0.0.0.s.s.s.s.w.w.q.q.5.5.5.3.2.#.#.@.X.{ { [ [ [ Q E E S Z Z Z Z Z z z c g g g g g g g d d g d d d d d i 8 d d y 8 8 8 y y 8 8 8 8 y 8 8 8 8 8 6 6 6 6 6 6 6 6 6 6 6 6 6 1 1 r 6 1 1 1 1 1 1 1 1 1 1 1 1 1 1 1 > > 1 > > 1 1 1 > > > > > > 1 1 > > > > 1 > > 1 1 > > 1 1 1 1 1 1 1 1 1 1 1 1 1 > > > > > > > > > > > > > > > > > > & & > > & & ",
": , : 1 > , : , 1 2 1 ; 1 1 1 1 2 2 2 2 2 2 2 2 2 2 2 2 2 2 2 9 9 9 9 9 9 9 9 9 9 9 9 6 6 6 6 6 6 6 6 6 6 6 6 6 6 6 6 6 6 6 6 6 6 6 6 6 6 6 6 6 6 6 6 6 6 6 6 6 6 6 6 6 6 8 8 y 8 8 y 8 d y d d d g g z z v v C Z C F F K L K K F F F F D F D Z v m v z z z g g g g g g g g g g g g g g c k k g g k g c c c n n n Z Z S T H Q ] { { o.,.4.<.q.0.s.s.s.L.P.L.P.P.P.P.P.Y.Y.P.U.U.U.s.s.s.s.s.f.f.f.f.Y.~.s.d.d.d.e.e.8.8.8.8.8.<.8.8.8.8.7.1.1.1.1.1.1.9.9.9.9.9.u.u.u.u.u.u.u.u.u.u.u.i.i.j.j.j.j.j.j.j.j.j.j.j.j.i.i.i.j.j.i.u.i.u.u.u.u.u.u.u.u.u.u.u.u.u.t.t.u.u.t.t.1.t.t.t.1.1.t.1.1.1.1.1.1.1.1.<.<.<.O.<.<.<.<.o.o.o.o.o.o.6.2.o.#.o.o.#.o.#.#.#.2.2.2.#.2.2.#.#.#.#.#.#.#.#.#.2.2.2.2.4.4.4.q.q.0.0.0.w.w.s.s.s.w.w.w.q.5.5.3.2.2.2.2.#.@.X.{ { [ [ ! Q Q E E E Z Z n n n c n z g g g g g g g d d d d d d d d d y y d d y 8 8 8 y d 8 8 y 8 8 8 8 8 8 6 6 6 6 6 6 6 6 6 6 6 6 6 6 1 6 r 6 1 1 1 1 1 1 1 1 1 1 1 1 1 1 1 > 1 > > 1 1 1 > 1 1 > 1 > > 1 1 1 > 1 1 1 1 > 1 > 1 > 1 1 1 1 1 1 > 1 1 1 > 1 1 1 1 > > > > > > > > > > > > > > > & & & > > & > ",
"2 > , > , : , 2 1 1 > ; > 3 ; 1 2 2 2 2 2 2 3 2 2 2 9 2 2 2 2 9 9 9 9 9 9 9 9 9 9 9 9 6 6 6 6 6 6 6 6 6 6 6 6 6 6 6 6 6 6 6 6 6 6 y y 6 k y 6 6 6 6 6 6 6 6 6 6 6 6 8 6 6 6 8 y 8 8 8 8 8 d d d d g g z z z v v v Z C F F K L K F / :.K F D F C C v v v m z z g g g g g g g g g g d g g c c g g g g g k c c c n n Z Z S S S H Q ] { { X.2.,.<.q.0.0.s.s.s.L.L.L.P.P.P.P.Y.Y.P.U.U.U.s.s.s.s.s.f.f.f.P.P.s.s.d.d.d.d.e.q.8.8.8.8.8.8.8.8.8.8.<.<.1.1.1.1.1.1.1.1.9.9.9.9.u.u.u.u.u.u.u.u.u.u.u.u.u.u.u.i.i.i.i.i.u.i.i.i.i.u.u.u.u.u.u.u.u.u.u.u.u.u.u.u.u.t.t.t.u.t.t.t.t.t.1.1.1.1.1.1.1.1.1.1.1.<.1.<.<.<.<.<.<.<.o.o.o.o.o.o.o.E.D.,.2.2.2.#.2.2.2.2.2.2.#.#.#.#.X.#.#.#.#.#.#.2.2.2.4.4.4.q.q.q.q.0.0.0.0.s.s.w.w.w.w.q.q.5.3.2.2.2.#.#.#.@.{ { [ ] Q Q E E S S Z Y n n n c c g z g g g g g g g d d d d d d d d d d y y 8 i y y 8 8 y 8 8 8 8 8 8 8 8 8 8 8 6 6 6 6 6 6 6 6 6 6 6 6 1 1 6 6 1 1 1 1 1 1 1 1 1 1 1 1 1 1 > 1 1 1 > > 1 1 1 > 1 1 1 1 1 1 > > 1 1 1 1 1 1 1 1 1 > 1 1 1 1 1 1 1 > > > 1 1 1 1 > > > > 1 1 > > > > > > > > > & > & & & > & > > ",
"> > 1 2 ; ; > ; 3 ; 1 1 1 > > , ; : , 1 2 2 2 2 2 2 2 2 2 2 9 9 9 9 9 9 9 9 9 9 9 6 6 6 6 6 6 6 6 6 6 6 6 6 6 6 6 6 6 6 6 6 6 6 6 y y 6 y 6 6 6 6 6 6 6 6 6 6 6 6 6 6 6 6 6 6 8 8 8 y y 8 y d d d d g g z z z v v Z Z S F F K L J :.vX~ F D F C C C b v z z z z z g g g g g d d g d g g k k g g g g g g k c c c n n n Z Z S S H Q ] ] { { o.,.<.<.q.0.s.s.s.L.L.P.P.P.P.P.P.Y.Y.P.U.U.U.s.s.s.s.s.s.s.s.s.s.s.s.s.P.d.0.0.8.q.q.8.8.8.8.4.8.8.8.8.<.<.<.7.1.1.1.1.1.1.1.1.1.1.9.1.9.u.u.u.u.u.u.u.u.u.u.u.u.u.u.u.u.u.u.u.u.u.u.u.u.u.u.u.u.u.u.u.u.u.u.u.u.u.u.t.t.1.1.1.1.1.1.1.1.1.1.1.1.<.<.<.<.<.6.<.<.<.O.<.,.,.o.2.2.2.2.2.3.2.o.2.2.2.#.#.#.#.#.#.#.X.X.@.X.X.@.#.#.#.#.2.2.4.4.4.4.q.q.q.0.w.w.s.s.s.s.w.w.q.q.5.5.3.2.3.2.#.#.@.@. .{ { [ [ Q E E S ! ..Z n n n c c g g g g g g g g g g d d d d d d d d d d d y y 8 y y 8 8 8 y 8 8 8 8 y 8 8 8 6 6 6 6 6 6 6 6 6 6 6 k B d 1 6 1 6 6 1 1 1 1 1 1 1 1 1 1 1 1 1 1 > 1 > 1 1 > 1 1 > > 1 1 > > 1 > > > > 1 > > 1 1 1 1 1 1 1 1 > 1 1 1 > 1 1 1 1 1 1 > 1 1 > > 1 1 > > > > > > > > > > & & & & & & > > ",
"> ; 1 1 1 2 1 ; 3 2 2 2 1 1 > > ; > 3 1 1 2 2 2 2 2 2 2 2 9 9 9 9 9 9 9 9 9 6 9 9 6 6 6 6 6 6 6 6 6 6 6 6 6 6 6 6 6 6 6 6 6 6 6 6 6 6 6 6 6 6 6 6 6 6 6 6 6 6 6 6 6 6 6 6 8 8 8 8 8 8 8 8 8 y d d i g g g z z z v v Z Z C F F L J ~ | J K F F C C A C b b z z z z g g k g g d g g d g g d d g g g g g g g z c c c c n n Z Z S S H E Q ] { { o.,.,.4.q.0.s.s.s.s.P.P.P.P.P.P.P.P.Y.P.U.U.U.s.s.s.s.s.s.s.s.s.s.s.s.s.d.s.e.e.q.q.8.4.4.4.4.4.4.8.8.4.8.<.<.<.<.<.1.<.<.1.1.1.1.1.1.1.1.1.1.1.1.9.9.1.u.u.u.u.u.u.u.u.u.u.u.u.u.u.u.u.u.u.u.u.u.u.u.p.t.u.9.1.u.1.1.1.1.1.1.1.1.1.1.1.r.7.<.<.<.<.<.<.<.6.6.o.<.6.,.,.,.2.2.2.2.2.2.o.#.#.#.#.#.#.#.#.#.X.#.#.X.@.@.X.@.#.#.#.#.2.4.4.q.q.q.q.0.0.w.w.w.w.w.w.w.w.q.q.5.3.3.2.#.#.#.#.@.X.@.{ [ ] Q Q Q E E S Z T ^ n n c c z g g g g g g g g g g d d d d d d d d d d d y d y y y 8 8 y y y 8 8 8 8 8 8 8 8 6 6 6 6 6 6 6 6 6 6 6 y k d 6 1 6 6 6 1 1 1 1 1 1 1 1 1 1 1 1 1 1 1 > 1 1 > 1 1 1 1 1 1 1 1 > 1 1 1 1 > > 1 1 1 1 1 1 1 1 1 1 > 1 1 1 1 1 1 1 > > > > 1 > 1 1 1 1 1 > > > > > > > > > & & > & & & & & ",
"> 2 , : 1 1 1 1 3 ; : 1 > ; ; ; > > > > 1 1 2 2 2 2 1 2 9 9 9 9 2 1 9 9 9 9 6 1 6 6 6 1 1 6 6 6 6 6 6 6 6 6 6 6 6 6 6 6 6 6 6 6 6 6 6 6 6 6 6 6 6 6 6 6 6 6 6 6 6 y 6 6 6 8 8 8 8 8 8 8 y 8 y d i d g g g g z z v v v C C A F D L L J J K J F F F A A b b z z z g g g g g g g g d d d d N >.c d g g g g g g g z z c c n n Z Z S S E H Q ] { { o.o.4.4.q.0.s.s.s.s.P.P.P.P.P.P.P.P.Y.P.P.U.U.U.s.s.s.s.s.s.s.s.s.s.s.s.s.d.s.0.0.0.q.q.4.4.4.4.4.4.4.4.4.2.,.,.<.<.<.<.<.<.<.<.<.<.1.1.9.1.1.1.1.1.1.1.1.1.1.1.1.1.1.1.1.1.1.1.1.1.1.1.1.1.1.1.1.9.1.1.1.1.1.1.1.1.1.<.1.<.<.<.<.<.6.7.6.<.<.6.6.6.6.6.,.G.J.2.2.2.2.2.#.#.#.#.#.#.#.#.#.X.X.X.X.X.X.@.@.@.X.X.@.o.#.#.2.2.2.2.4.q.q.w.w.w.w.0.w.w.w.w.w.w.q.q.q.5.3.3.2.#.#.#.@.@.X.{ { [ [ Q Q Q E T S S Z Z n v c c c c g g g g g g g g g g g d d d d d d d d d d 8 8 8 8 8 y y 8 8 8 y 8 8 y 8 8 8 8 6 6 6 6 6 6 6 6 6 6 6 1 1 1 6 6 6 6 6 6 1 1 1 1 1 6 1 1 1 1 1 1 1 1 1 > > > 1 1 > > > 1 1 > > > 1 1 1 1 > 1 1 1 1 1 1 1 1 1 1 1 1 1 1 1 1 1 1 1 > 1 r 1 > > 1 1 1 1 1 > > > > > > > > > > > > > & & & & ",
"1 > ; ; > 1 1 > : ; ; > 1 > ; > > > ; > > 1 2 2 1 2 2 2 1 9 9 9 2 2 2 1 2 6 6 1 6 6 6 y d 6 6 6 6 6 6 6 6 6 6 6 6 6 6 6 6 6 6 6 6 6 6 6 6 6 6 6 6 6 6 6 6 6 6 6 8 8 6 6 6 8 8 6 8 8 8 8 8 y 8 8 8 d d g g g g x z v v b C C C F K K K K K K F F F C A C b b x z z g g g g g g g d d d i >.CXc d g g g g g g g g z c c c n n Z Z S S S H Q ] { { X.o.,.4.4.q.0.s.s.s.s.L.L.P.P.P.P.P.P.P.P.U.U.L.s.s.s.s.s.s.s.s.s.0.0.s.s.s.s.s.e.0.q.q.q.q.4.4.4.4.4.4.2.2.2.2.,.<.<.<.<.<.<.<.<.<.<.1.<.<.9.7.<.<.<.<.<.<.<.1.1.1.1.<.1.1.1.1.1.<.<.1.1.1.1.<.<.<.<.<.<.<.<.<.<.<.<.<.<.<.<.6.o.2.2.2.2.2.2.#.2.2.2.#.D.D.#.#.#.#.#.#.#.#.X.@.@.@.X.@.X.X.X.X.@.@.X.@.@.@.X.#.#.2.2.2.4.4.q.w.w.w.w.w.0.0.w.w.w.w.w.q.q.q.5.5.3.2.#.#.#.@.@.{ { { [ ! Q Q E E E T S Z Z n n c c c z z c g g g g g g g g g d d d d d d d d d d d y 8 8 8 8 8 8 y y 8 8 8 8 y y 8 8 8 8 6 6 6 6 6 6 6 6 6 6 6 1 1 6 1 1 1 1 1 1 1 1 1 1 1 r r 1 1 1 1 1 1 1 1 1 > 1 1 1 > 1 1 > 1 > > > 1 1 1 1 1 1 1 1 1 1 1 1 1 1 1 1 1 1 1 1 1 1 1 1 > 6 N y > 1 1 1 > > > > > > > > > > > ; > > > > & & & & ",
", ; ; > ; : ; > ; ; 1 2 ; ; > 1 1 1 > ; 1 1 2 1 2 2 2 2 2 2 9 6 1 2 1 6 6 6 6 6 6 6 3 N / 1 6 6 6 6 6 6 6 6 6 6 6 6 6 6 6 6 6 6 6 6 6 6 6 6 6 6 6 6 6 6 6 6 6 y 8 6 6 8 y 8 8 6 8 8 8 8 y 8 y d i i i d d g g z x z b v C C C F D K K K K K F F F F Z C C b b z x z z g g g g d d d g g k B g d g g g g g g g g g z c c c n n Z Z S S S E Q Q ] { X.o.o.,.<.q.0.w.s.s.w.s.L.P.P.P.P.P.P.P.L.L.L.L.s.s.s.s.s.s.s.w.0.0.0.0.0.0.s.e.0.0.q.q.q.q.q.q.q.4.4.4.,.2.2.2.2.2.2.,.,.<.,.<.<.6.6.<.,.ZXXXo.6.<.<.<.<.<.<.<.<.<.<.<.<.<.<.<.<.<.<.<.<.<.<.6.6.<.o.o.<.o.o.6.o.o.#.#.#.#.o.o.#.2.#.o.#.#.o.o.#.#.#.o.o.#.#.@.#.@.@.@.@.X.@.X.{ { @.X.X.X.X.@.@.X.@.#.#.#.2.2.2.4.q.q.q.w.w.w.w.w.w.w.w.w.q.q.q.q.5.5.3.2.2.#.#.#.@.@.X.{ { [ [ Q Q E E T S S Z Z n n n c z c z g g g g g g g g g g d d d d d d d d d i d d y y 8 8 8 8 y y 8 8 y 8 8 8 8 8 y y 8 8 6 6 6 6 6 6 6 6 1 1 6 1 1 6 1 1 1 1 1 1 1 1 1 1 1 6 6 1 1 1 1 1 1 1 1 1 > 1 1 1 1 > > 1 1 > 1 1 > > > 1 1 1 1 1 1 1 1 1 1 1 1 1 1 1 1 1 1 1 1 1 1 1 r 1 > 1 1 1 > > > > > > > > > > & & ; ; & > & & & & ",
", 2 1 2 > 3 , 2 , 1 1 1 1 3 1 1 1 1 > > 1 ; 1 1 1 1 1 1 2 1 9 1 1 1 1 1 6 6 6 6 6 6 6 8 y 6 6 6 6 6 6 6 6 6 6 6 6 6 6 6 6 6 6 6 6 6 6 6 6 6 6 6 6 6 6 6 6 8 y y 8 6 8 8 6 6 6 6 8 8 8 8 d d B R d i i f d d g g x x z b b b C C F D D K L K F F D F C C C A b b x z z g g g g d d d d d g g g g g g d g g g g g g g c z c c n n Z Z Z S S T E Q ] { { X.o.,.<.4.q.w.s.L.L.w.s.P.P.L.P.P.P.P.P.L.L.s.s.s.s.s.s.s.w.w.0.0.w.0.0.0.0.0.0.0.0.q.q.q.q.q.q.4.4.4.4.2.2.2.2.2.,.,.,.,.o.<.6.6.o.o.G.D.o.o.o.o.<.o.o.<.<.o.o.o.o.o.<.<.o.o.o.o.o.<.o.o.#.o.o.o.o.o.o.o.o.o.o.o.o.#.o.o.#.#.#.#.o.X.X.X.X.#.#.@.@.@.@.@.X.X.X.@.X.@.@.@.X.X.{ @.@.X.X.X.@.#.#.#.2.2.2.4.4.q.q.q.q.w.w.w.w.w.w.w.q.q.q.q.5.5.5.2.#.#.#.#.@.#.@.{ { { [ [ Q Q E E T T Z Z Z n n n c z z z g g g g g g g g g g g g d d d d d d d d d d d d y y 8 y y 8 8 y 8 8 8 8 8 y 8 8 8 8 6 6 6 6 6 6 6 6 6 6 6 6 6 1 1 1 1 1 1 1 1 1 1 1 1 1 1 1 1 1 1 1 1 1 1 1 > > 1 1 1 1 1 1 1 1 > 1 1 1 > > > 1 1 1 1 1 1 1 1 1 1 1 1 1 1 1 1 1 1 1 1 1 1 > > > 1 1 1 1 > > > > > > > > > > > > & > > > & & & & ",
"1 2 1 > 2 1 3 2 > 1 1 1 1 1 ; 1 1 > 1 > > ; 1 1 1 1 1 1 1 1 1 1 6 6 1 6 6 6 6 6 6 6 6 6 1 6 6 6 6 6 6 6 6 6 6 6 6 6 6 6 6 6 6 6 6 6 6 6 6 6 6 6 6 6 6 6 8 8 6 8 6 6 y y 8 6 6 8 8 6 8 8 d d d g y d i f d d g g h x x x v b C C C F F K L K K F F F F C C A C b b z z z g g g g d d d d g g d d d g g g d g g d g g g k c c c c n n n Z S S T E Q ] ] { X.o.o.,.4.q.w.F.L.F.w.w.L.P.L.P.P.P.P.P.L.L.L.s.s.s.s.s.s.w.0.0.q.w.w.0.0.0.0.0.w.0.q.q.8.8.q.q.q.q.q.4.4.2.2.2.2.,.o.,.2.o.2.,.o.o.o.o.o.o.o.o.o.o.o.o.o.o.o.o.o.o.o.o.o.o.o.o.2.6.o.o.o.o.o.o.o.o.o.o.X.o.X.X.X.#.X.X.X.X.X.X.X.X.X.X.X.X.X.X.X.@.@.@.X.X.@.@.X.X.X.X.@.X.X.#.#.X.#.#.#.2.2.2.4.4.q.q.q.q.q.q.w.w.w.w.w.w.q.q.5.4.2.2.2.2.#.#.#.#.@.@.@.{ { { [ [ Q Q E E T T Z Z Z n n n c c c z g g g g g g g g g g g g d d d d d d d d d d d d d y 8 8 8 8 y y 8 8 8 8 8 8 8 8 y 8 8 6 6 6 6 6 6 6 6 6 6 6 6 6 6 6 1 1 1 1 1 1 1 1 1 1 1 1 1 1 1 1 1 1 1 1 1 1 1 1 1 1 > 1 1 > > > > > 1 1 1 1 > 1 1 1 1 1 6 r 1 1 1 1 1 1 1 1 1 1 1 1 1 1 1 1 1 1 1 1 > 1 > 1 1 > > > > > > > > > & > > > > > & & ",
": > 1 1 1 1 > ; > ; 1 1 1 1 3 1 1 1 1 ; 1 1 1 1 1 1 1 1 1 1 1 6 1 1 6 6 6 6 1 6 6 6 6 6 6 6 6 6 6 6 6 6 6 6 6 6 6 6 6 6 6 6 6 6 6 6 6 6 6 6 6 6 6 8 6 6 6 y 6 6 6 8 y y 6 6 6 6 6 8 6 8 8 8 8 8 y y 8 f f d d g h h x x b b b C C C F D K K L F K J F F C A C C b b z z g g g g d d d d d d d d d d d d d d d g g g g g g g c c n n n n Z S S S Q Q ] ] { X.X.o.,.,.4.w.w.F.F.w.w.w.L.P.P.P.P.P.P.L.L.L.L.s.s.s.s.w.0.0.q.q.q.q.q.0.0.0.0.0.0.q.q.q.q.8.q.q.q.4.q.4.4.4.q.5.,.o.o.,.,.,.o.o.o.o.o.o.o.o.o.o.o.o.o.o.o.o.o.o.o.o.o.X.o.o.o.o.X.o.X.X.X.o.o.o.X.X.X.X.X.X.@.#.X.X.X.X.X.@.X.X.X.X.X.X.X.X.@.{ @.@.X.@.@.@.@.X.X.X.#.#.#.#.#.#.2.2.2.4.4.5.q.q.q.q.q.q.q.q.q.q.q.q.q.q.5.4.2.2.#.#.#.#.#.@.@.X.{ { { [ [ ! Q E E T T T Z Z n n n c c c c z z z g g g g g g g g g d g d d d d d d d d d d d 8 d d y y 8 8 8 d d 8 8 8 8 y 8 8 8 8 8 8 6 6 6 6 6 6 6 6 6 6 6 6 1 1 6 6 6 1 1 1 1 1 1 1 1 1 1 1 1 1 1 1 1 1 1 1 1 1 1 > 1 1 1 1 1 1 1 > > 1 1 1 1 1 1 1 1 1 1 6 k y 1 1 1 1 1 1 1 1 1 1 1 1 1 1 1 1 1 > 1 1 > 1 1 > > > > > > > > > > > > > & > > > > ",
"> 1 > > 1 > > > > , > > 1 1 > 1 3 ; ; 1 1 1 1 1 1 1 1 1 1 1 1 1 1 1 6 6 6 6 6 6 6 6 6 6 6 6 6 6 6 6 6 6 6 6 6 6 6 6 6 6 6 6 6 6 6 6 6 6 6 6 6 6 6 8 8 6 y d 8 6 6 6 8 8 6 8 6 8 6 8 8 8 8 8 8 8 8 8 y y d f d h g g g z x b v b C C C F D L L K K F F F F F C C b b x z g g g g g d d d d d d d d d d d d d d d d g g g g g k c z c c n n Z Z S H E Q { [ ] { X.o.o.2.4.q.F.F.F.w.w.w.F.L.L.P.P.P.P.L.L.L.L.L.L.s.s.w.w.q.q.q.q.q.q.q.q.q.q.q.q.q.q.q.q.q.q.4.4.4.4.4.4.4.4.2.2.2.,.,.2.,.o.o.o.o.o.o.o.o.o.o.o.X.X.o.X.o.o.o.o.X.X.X.X.X.X.X.X.X.X.X.X.X.X.X.X.X.X.@.X.X.@.X.X.X.X.X.X.X.@.X.X.X.{ @.@.@.X.{ X.@.@.@.X.#.#.#.#.#.2.2.2.4.4.4.4.4.q.q.q.q.q.q.q.q.q.q.q.q.q.5.5.5.2.2.2.#.#.#.#.@.@.X.@.{ { { [ [ [ Q E E T T S Z Z Z n n n n c c c c c g g g g g g g g g g g d d d d d d d d d d d y y y y 8 y y 8 y y y d d d 8 y y 8 8 8 8 8 6 6 6 6 6 6 6 6 1 1 1 1 1 1 1 6 1 1 1 1 1 1 1 1 1 1 1 1 1 1 1 1 1 1 1 1 1 1 1 1 1 1 > > > 1 1 > > > 1 1 1 1 1 1 1 1 1 1 1 6 6 1 1 1 1 1 1 1 1 1 1 1 1 1 1 1 1 1 1 1 1 > > > > > > > > > > > ; > > > & & & & > > ",
"1 ; > 1 > > > 1 , > > 1 1 1 1 1 1 ; > 1 1 1 1 1 1 1 1 1 1 1 1 1 1 6 1 1 6 6 1 6 6 6 6 6 6 6 6 6 6 6 6 6 6 6 6 6 6 6 6 6 6 6 6 6 6 6 6 6 6 6 6 6 6 6 6 6 6 8 6 6 8 d 8 6 6 6 6 6 6 8 y 8 8 8 8 8 8 8 8 y i f f h g g g g z z z b b C C C F F L L K K K F F F C C C b b x z z g g g g d d d d d d d d d d d d d g d d d g g g g c c c c c n n Z Z S S E Q ] [ [ { { X.o.o.2.q.q.w.w.F.w.w.w.F.F.L.P.P.P.L.L.L.L.L.L.s.w.w.q.q.q.q.4.q.q.q.4.4.4.4.4.4.4.4.4.4.4.4.4.4.4.4.4.4.4.4.2.,.2.,.,.,.,.2.2.o.o.o.o.o.#.o.o.o.o.o.o.X.o.o.X.X.X.X.X.X.X.X.X.X.X.X.X.X.X.X.X.X.@.X.X.X.X.X.X.X.X.@.X. .X.X.X.X.X.@.X.X.X.@.#.#.#.#.#.2.2.2.2.2.4.4.4.4.4.q.q.q.q.q.q.q.q.q.q.q.5.5.5.4.3.2.2.#.#.#.#.@.@.X.X.X.{ { [ [ [ ! Q E T T S Z Z Z n n n n c c c c c g g g g g g g g g g d g g d g d d d d d d d d d d y y y 8 8 y y y d 8 8 d d y y 8 8 8 8 6 6 6 6 6 6 6 6 6 6 6 6 6 1 1 1 1 6 6 6 6 1 1 1 1 1 6 1 1 6 1 1 1 1 1 1 1 1 1 1 1 1 1 1 1 > > 1 1 > 1 1 1 1 1 1 1 1 > 1 1 1 1 1 1 1 1 1 1 1 1 1 1 1 1 1 1 1 1 1 1 1 1 1 1 > > > > > > > > > > > > > > > > > & & > ; > ",
"> > 1 1 1 1 1 1 2 1 1 1 1 > 1 1 1 1 > 1 1 1 1 1 1 1 1 1 1 1 1 6 6 1 1 6 6 6 1 6 6 6 6 6 6 6 6 6 6 6 6 6 6 6 6 6 6 6 6 6 6 6 6 6 6 6 6 6 6 6 6 6 6 6 6 6 6 6 8 8 6 8 6 6 6 8 8 6 8 8 8 8 8 8 8 8 8 8 8 y 9 f f i d h h h h x z b b b C C C F F L L J J F F F C C C C b b b z g g g g g d d d d d d g d d d d d d g d d g g g g k c c z c c n n n Z S T E E Q ] [ [ { X.X.o.2.4.q.q.w.q.q.w.w.F.F.F.L.P.P.P.L.L.L.L.s.s.w.w.q.q.q.4.4.4.4.4.4.4.4.4.4.4.2.2.2.2.4.4.4.4.4.4.4.4.4.4.4.4.2.2.,.2.2.2.2.,.o.,.2.#.#.o.o.o.o.o.o.#.o.o.o.X.X.o.X.X.X.X.X.X.X.X.X.X.X.X.X.X.X.X.X.@.X.X.X.X.X.X.X.X.X.X.X.#.#.o.o.#.#.#.2.2.2.2.2.2.4.4.4.4.4.q.q.q.q.q.q.q.q.q.q.4.4.4.4.2.2.2.2.#.#.#.@.@.@.@.X.X.{ { [ [ [ Q Q E E S T Z Z Z Z n n n n c c c z z z z g g z g g g g g g g d d d d d d d d d d d d d d d 8 y y y 8 y d d 8 g g 8 d 8 y y 8 8 8 6 6 6 6 6 6 6 6 6 6 6 1 1 1 1 1 6 6 6 6 1 6 6 1 1 1 6 1 1 1 1 1 1 1 1 1 1 1 1 1 1 1 1 1 > 1 1 1 1 1 1 1 1 1 1 1 1 1 1 1 1 1 1 1 1 1 1 1 1 1 1 1 1 1 1 1 1 1 1 1 1 1 1 1 1 > > > > 1 > > > > > > > > > > > > > > > > ; ",
"> 1 2 1 1 1 2 2 2 1 1 1 1 1 1 1 1 1 1 1 > 1 1 1 1 1 1 1 1 6 6 6 1 1 6 6 6 1 1 6 6 6 6 6 6 6 6 6 6 6 6 6 y 8 6 6 6 6 6 6 6 6 6 6 6 6 6 6 6 6 6 6 6 6 6 6 6 6 6 6 6 6 6 6 6 8 8 6 6 8 6 6 8 6 8 8 8 8 9 y 9 i 9 i i f h h h h h x x b b C C C F F L L J J F F F F C C b b v z z z g g g g g d d d d g d d d d d d d d d d g g g g g g g c c c n n n Z Z T T E Q Q Q ] { { X.X.o.2.4.q.q.q.q.q.q.q.F.F.F.P.P.P.P.L.L.L.L.L.s.w.q.q.q.q.4.4.2.2.2.2.2.2.2.2.2.2.2.2.2.2.2.2.2.2.2.2.2.4.4.2.4.4.2.2.,.2.,.,.,.,.o.o.o.o.o.o.o.o.o.#.o.o.o.o.o.o.o.o.o.o.o.o.o.o.X.X.X.o.o.X.X.o.o.o.o.X.o.o.X.#.o.o.#.#.2.2.2.,.,.,.2.4.4.4.4.4.4.4.4.4.4.4.q.q.q.q.q.4.4.4.4.4.2.2.2.#.#.#.#.#.@.@.@.@.X.{ { { [ [ [ ! Q E E T S W R Z n n n n n c c c z z c z z z g g g g g g g g g g g d d d d d d d d d d d d d 8 d y y y 8 i d d d 8 R ..i 8 8 8 8 8 8 8 6 6 6 6 6 6 6 6 6 6 6 6 6 1 1 1 1 1 6 6 6 6 6 1 1 1 1 1 1 1 1 1 1 1 1 1 1 1 1 1 1 1 1 1 1 1 1 1 1 1 1 1 1 1 1 1 1 1 1 1 1 1 1 1 1 1 1 1 1 1 1 1 1 1 1 1 1 1 1 1 1 1 1 > > > > > > > > > > > > > > > > > > > > > > > > ",
", , 2 1 > 2 2 2 2 1 1 1 1 1 1 1 1 1 1 1 1 1 1 1 1 1 6 6 1 1 1 1 1 1 6 6 1 6 1 1 6 6 6 6 6 6 6 6 6 6 6 6 6 6 6 6 6 6 6 6 6 6 6 6 6 6 6 6 6 6 6 6 y y 6 6 6 6 6 6 6 6 8 6 6 8 6 y y 6 6 6 8 9 8 6 8 8 8 9 y 9 8 y d d f f h h h x x b b b C C F F G L L L F F F F F C C v v b z z g g g d d d d d d d d d d d d d d d d d k c g g g g g k c c c n n n Z T T S E E E Q ] ] { X.X.X.o.2.5.q.q.q.q.q.q.w.F.F.F.P.P.P.L.L.L.L.s.s.w.w.q.q.5.4.5.2.2.2.2.2.2.#.#.#.#.#.#.#.#.#.#.#.#.2.2.2.2.2.2.2.4.2.,.,.,.,.,.,.,.,.,.,.,.o.,.o.o.o.o.o.o.o.o.o.o.o.o.o.o.o.o.o.o.o.o.o.o.o.o.o.o.o.o.o.o.o.#.2.o.o.2.2.2.2.2.2.,.,.2.<.4.4.4.4.4.4.4.4.4.4.4.4.4.4.4.4.4.2.2.2.2.#.#.#.#.@.@.X.X.X.{ { { [ [ Q Q Q E E E T T Z Z oXoXn n n n n c c c z g c z z g g g g g g g g g d d d d d d d d d d d d d d d d d d d d y y d d d d d d g g i 8 8 8 8 8 8 6 6 6 6 6 6 6 6 1 1 1 6 6 6 6 1 1 1 1 6 6 1 1 6 1 1 1 1 1 1 1 r 6 1 1 1 1 1 1 1 1 1 1 1 1 1 1 1 1 1 1 1 1 1 1 1 1 1 1 1 1 1 1 1 1 1 1 1 1 1 1 1 1 1 1 1 1 1 1 1 1 1 > > 1 > > > > > > > > > > > > > > > > > > > > > > > ",
", , 2 2 1 1 2 1 1 1 2 1 1 1 1 1 1 1 1 1 > 1 1 6 1 1 6 6 1 1 1 1 1 1 6 6 6 6 1 1 6 6 6 6 6 6 6 6 6 6 6 6 6 6 6 6 6 6 6 6 6 6 6 6 6 6 6 6 6 6 6 6 k y 6 6 6 6 6 6 6 6 6 6 6 6 6 8 y 8 8 6 6 6 8 8 8 8 8 9 y 9 y 8 i d f f i a h h x x x b b C C F F G L L L J F F F Z C C b b z z z g g g g g d d d d d d d d d d d d g d c c d g g g g g c c c c c c n Z Z Z Z S E E Q Q ] ] { X.X.o.2.2.4.4.5.q.q.q.q.w.F.F.F.P.P.L.L.L.L.s.s.s.w.q.q.5.5.4.2.2.2.2.2.#.#.#.#.#.#.#.#.@.#.#.#.#.#.#.#.#.o.2.2.2.,.,.2.o.#.,.,.,.2.,.,.2.o.o.o.o.o.#.o.o.o.o.o.o.o.o.,.o.o.o.o.o.o.o.o.o.o.o.o.o.o.o.o.o.,.,.,.,.,.2.,.,.,.,.,.,.,.,.4.<.<.,.<.4.4.4.4.4.4.4.4.2.2.2.2.#.o.o.o.o.X.X.X.X.X.{ { [ [ [ Q Q Q E E E T T S Z Z Z Z ^ ^ c c z c c c c z z g z g g g g g g g g g g g d d d d d d d d d d d d d d d d d d d i y d d d d d d d 8 8 8 8 8 8 8 8 6 6 6 6 6 6 6 6 6 1 6 1 1 1 1 6 1 1 1 1 6 1 1 1 1 1 1 1 1 1 1 1 N R > 1 1 1 1 1 1 1 1 1 1 1 1 1 1 1 1 1 1 1 1 1 1 1 1 1 1 1 1 1 1 1 1 1 1 1 1 1 1 1 1 1 1 1 1 1 1 1 1 > > 1 > 1 > > > > > > > > > > > > > > > > > > > > > ",
"> > > > > 1 2 1 1 1 1 1 1 2 1 1 1 1 1 1 1 1 1 1 1 6 1 1 1 1 1 1 1 1 1 6 6 6 6 6 6 6 6 6 6 6 6 6 6 6 k Y 8 6 6 6 6 6 6 6 6 6 6 6 6 6 6 6 6 6 6 6 6 8 6 6 6 6 6 6 6 6 6 6 6 8 y 8 8 8 6 6 9 9 8 8 8 9 8 9 9 9 9 9 i i f f i f h h h x x x b b C C F F D L L L J F F F C C C b v z z z g g g g d d g d d d d d d d d d d d d g g g g g g g k k k c c c c n n Z Z Z T T E E Q Q ] { { X.X.o.3.2.2.4.5.q.q.q.q.q.F.F.F.L.L.L.L.L.L.L.s.w.w.q.q.5.4.2.2.2.2.#.#.#.#.#.@.@.@.@.@.@.@.@.@.@.@.#.#.#.#.#.#.#.#.o.#.#.#.#.#.o.o.o.o.o.o.o.o.o.o.o.o.o.o.o.o.,.o.o.o.o.o.o.o.o.o.o.o.o.o.,.o.o.o.,.,.,.,.,.,.,.,.,.,.,.,.,.,.,.,.,.<.,.4.<.4.2.4.4.2.2.,.,.o.o.o.o.X.X.X.X.X.{ { { { [ [ Q Q Q Q E E E T S S Z Z Z n n n z z n c z c c c c g g g g g g g g g g g g g g g g d d d d d d d d d d d d d d d d d d d d d g g g d i d d 8 8 8 8 8 8 6 6 6 6 6 6 6 6 6 6 1 1 1 1 1 6 1 1 6 1 1 1 1 1 1 1 1 1 1 1 1 1 1 y t 1 1 1 1 1 1 1 1 1 1 1 1 1 1 1 1 1 1 1 1 1 1 1 1 1 1 1 1 1 1 1 1 1 1 1 1 1 1 1 1 1 1 1 1 1 1 1 1 1 1 > > 1 1 > > > > > > > > > > > > > > > > > > > > > ",
"> > : : 2 1 1 1 1 1 1 2 2 1 1 1 1 1 1 1 1 1 1 1 1 6 1 1 1 1 1 1 6 6 1 1 1 6 6 6 6 6 6 6 6 6 y 8 6 6 c ^ d 6 6 6 6 6 6 6 6 6 6 6 6 6 8 6 6 6 6 6 6 6 6 6 6 6 6 6 6 6 6 6 6 y 8 8 6 8 6 6 6 9 6 6 9 9 9 9 9 9 9 9 y 9 f f f f f h h h x x x b b C C F F G L L L K F F F C C b b v x z g g g g g g g d d d d d d d d d d d g g g d g g g g k g k c c c c c n n Z Z Z T T E E E Q ] { { { @.D.#.#.2.2.5.5.5.5.5.5.q.F.F.F.L.L.L.L.L.L.s.w.w.w.q.q.5.5.2.2.#.#.#.#.#.#.@.@.@.@.@.@.@.@.@.@.@.@.@.@.@.@.@.#.X.#.#.@.#.o.o.o.o.o.o.#.o.#.D.#.o.o.o.o.o.o.o.o.o.o.o.o.o.o.o.o.o.o.,.,.,.o.o.o.,.,.,.,.,.,.,.,.,.2.2.,.,.,.,.,.2.2.,.,.,.,.,.o.o.o.o.o.X.X.X.X.X.{ { X.{ { [ [ ] ] ] ] Q E E E T T T S Z Z Z n n n n c c c c c c c g g g g g g g g g g g g g g d d g g d d d d d d d d d d d d d d d d d d d g g g g g d d i d 8 8 8 8 8 6 8 8 6 6 6 6 6 6 6 6 6 1 1 1 1 6 6 1 1 1 1 1 1 1 1 1 1 1 1 1 1 1 1 1 1 > 1 1 1 1 1 1 1 1 1 1 1 1 1 1 1 1 1 1 1 1 1 1 1 1 1 1 1 1 1 1 1 1 1 1 1 1 1 1 1 1 1 1 1 1 1 1 1 > > 1 > > 1 > > > > > > 1 > > > > > > > > > > > > > > > ",
"> > 1 1 1 1 1 1 1 1 1 1 1 1 1 1 1 1 1 1 1 1 1 1 1 6 6 1 1 6 1 1 6 6 6 6 6 6 6 6 6 6 6 6 6 6 y y 6 6 6 6 6 6 6 6 6 6 6 6 6 6 y y 6 y y 6 6 6 6 6 6 8 8 6 6 6 6 6 6 6 8 8 6 6 6 6 8 8 8 8 6 8 6 8 9 8 8 9 9 9 9 9 9 9 f f f f f h x h h x x x b b C C F F D L L L J F F F F C b b x z z z g g g d g g d d d d d d d d g g d d g d d g g g g k k k k k k c c c n n n Z Y T T E E Q Q [ ] { @.{ X.o.#.2.2.2.2.4.5.5.5.q.F.F.F.F.L.L.L.L.s.s.w.w.q.q.q.5.3.2.2.#.#.#.#.@.@.@.@.@.@.@.@.@.@.@.@.@.{ @.@.@.@.@.@.@.@.@.@.@.@.@.X.X.@.X.;.bXJ.X.#.X.X.o.o.o.o.o.o.o.o.o.o.o.o.o.o.o.o.o.o.o.o.o.o.o.o.o.o.,.,.,.F.F.,.,.,.,.,.,.,.o.o.o.o.o.o.o.X.X.X.X.X.X.{ { { { { [ [ Q Q Q Q Q E E E S S T Z Z Z Z n n n n n c c c c z g g g g g g g g g g g g g g g g g g g k g d d d d d d d d d d d d d d d d d d d g g g g i i d i 8 8 8 8 8 8 6 6 6 6 6 6 6 6 6 6 6 1 1 6 1 6 1 6 1 1 1 1 6 1 1 1 1 1 1 1 1 1 1 1 1 1 1 1 1 1 1 1 1 1 1 1 1 1 1 1 1 1 1 1 1 1 1 1 1 1 1 1 1 1 1 1 1 6 1 1 1 1 1 1 1 1 1 1 1 1 1 1 1 1 1 1 1 1 > 1 > > > > > > 1 1 > > > > > > > > > > > > > > ",
"> > 1 1 1 1 1 1 1 1 1 1 1 2 1 1 1 1 1 1 1 1 1 1 1 1 1 1 1 1 1 1 1 6 6 6 1 6 6 6 6 6 6 6 6 6 6 8 6 6 8 6 6 6 6 6 6 6 6 6 6 6 y y 6 r y 6 6 6 6 6 6 6 6 6 6 6 6 6 6 6 6 6 6 8 6 6 6 8 6 6 8 9 8 9 9 6 9 9 9 y 9 9 9 9 9 9 9 f f h h h h h x x b b b C C F F G J L L F F F F C C b b b z z g g g g g g d d g g d d d d d g d d g d d g k g g g g g g g k k c c c n n n n Y T T E E E Q Q [ { { { { X.@.#.#.2.2.3.5.4.4.5.q.F.F.F.F.L.L.L.L.s.w.w.w.q.q.5.5.5.3.2.#.#.#.@.@.@.@.@.@. .@.@.@. . . . . . . .@.@. . . .@.@.@.@.@.X.X.X.@.;.$.X.X.X.X.@.X.X.X.X.X.o.X.X.o.o.o.o.X.X.X.o.X.o.X.o.o.o.o.o.o.o.o.o.5.5.o.o.o.o.o.o.o.o.o.X.X.X.X.X.X.X.X.{ { { { [ [ [ Q Q Q Q E E E E T T S S Z Z Z Z n n n n n c c c c c c g g g g g g g g g g g g g g g g g g g g g g g d d d d d d d d d d d d d d d g c g g g g d i i 8 8 8 8 8 8 6 6 6 6 6 6 6 6 6 6 6 1 1 6 1 1 6 1 1 1 1 1 1 6 1 6 1 1 1 1 1 1 1 1 1 1 1 1 1 1 1 1 1 1 1 1 1 1 1 1 1 1 1 1 r B k 1 1 1 1 1 1 1 1 1 1 1 1 1 1 1 1 1 1 1 1 1 1 1 1 1 1 1 1 1 1 1 1 > > 1 > > > > > > > > > > > > > > > > > > > > > > ",
"> > 1 1 1 2 1 2 1 1 1 1 1 1 1 1 1 1 1 1 1 1 1 1 1 1 1 6 1 1 6 6 1 1 6 6 6 6 6 6 6 6 6 6 6 6 6 6 6 6 6 6 6 6 6 6 8 y 6 6 6 6 y 8 6 6 6 6 6 r 8 6 6 6 6 y 8 6 6 6 6 6 6 8 8 8 6 6 8 6 6 6 8 9 9 9 9 9 9 8 9 9 9 9 9 9 f 9 f f i f f i h h h x x x b b C C F F G G L J F F F F C C b b b x z g g g g g g g g g d d d d d d d d g g d g g d g g g g g g k g k c c c c n n n n Y T T E E E ! Q [ [ { { X.X.X.X.#.2.2.2.2.4.5.5.5.q.F.F.F.L.L.L.L.s.w.w.w.q.q.5.5.4.3.2.#.#.#.@.@.@.@.@.@.@. . .{  . .{ {  . . . . . . . . . . . . .@.{ X.X.X.X.{ X.X.X.X.X.X.X.X.X.X.X.X.X.X.X.X.#.#.X.X.X.X.X.X.X.X.X.X.X.X.X.X.X.X.X.X.X.X.X.X.X.X.X.{ X.{ { { { [ [ [ ] Q ! Q Q E E E E E T T Z Z Z Z Z Z Z n n c c c c z c c c z c z g g g g g g g g g g g g g g g g g g d d d g g d d d d d d d d d d d d d g g n z g d d i i 8 8 8 8 8 6 6 6 6 6 6 6 6 6 1 6 6 6 6 1 6 6 6 6 6 1 1 1 1 1 1 1 1 1 1 1 1 1 1 1 1 1 1 1 1 1 1 1 1 1 1 1 1 1 1 1 1 1 1 1 ; R jXJ.r 1 1 1 1 1 1 1 1 r 1 1 1 1 1 1 1 1 1 1 1 1 1 1 1 1 1 1 1 1 > > > 1 > > > > > > > > > > > > > > > > > > > > > > > ",
"> > 1 2 1 1 1 2 1 1 1 1 1 1 1 1 1 1 1 1 1 1 1 1 1 1 6 6 6 6 1 1 1 6 6 6 6 6 6 6 6 6 6 6 6 6 6 6 6 6 6 6 6 6 8 6 r y 8 6 6 6 6 6 6 6 r 6 6 8 6 6 8 8 8 d 6 6 6 6 6 8 6 6 6 6 8 8 8 6 6 6 6 9 9 9 9 9 9 9 9 9 9 9 9 9 9 9 9 f f f i i f h h h x x x b C C C F F G J L F F F F F C C b b x x x z g g g g g d d d d d d d d d d g d d g d d g g g g g g g g k k k c c c n n n n Y T T T E E Q Q Q [ [ [ { { { X.X.#.#.2.2.2.4.5.5.5.q.F.F.F.F.L.L.L.s.w.w.w.q.q.q.5.5.3.2.#.#.#.#.@.@.@.@.@. .{  .{  .{ { {  . .{ [ { { {  . .{  . .{  .X.{ { { { { @.{ { @.$.{ X.{ { { X.{ { { @.@.{ @.X.{ X.X.X.X.X.X.X.X.{ { X.X.{ { { { { { { { { { { [ [ [ ] Q Q Q ! Q E E E E E T T T S Z Z Z Z n n Z n n c c c c z z c c c z g c g g g z g g g g g g g g g g g d g g g d d d d d d d d d d d d d d d g g g g g g d d d i 8 8 8 8 8 6 6 6 6 6 6 6 6 6 6 6 1 6 6 1 1 1 6 1 1 1 1 1 1 1 1 1 1 1 1 1 1 1 1 1 1 1 1 1 1 1 1 1 1 1 1 1 1 1 1 1 1 1 1 1 1 ; B E.J.y 1 1 1 1 1 1 1 1 r 1 1 1 1 1 1 1 1 1 1 1 1 1 1 1 1 1 1 1 1 > > > > > > > > > > > > > > > > > > > > > > > > > > > ",
"> > > 1 1 1 1 1 1 1 1 1 1 1 1 1 1 1 1 1 1 1 1 1 1 6 6 6 1 1 1 6 6 6 6 6 6 6 6 6 6 6 6 6 6 6 6 6 8 6 6 6 6 6 6 6 6 8 6 6 6 6 6 6 6 6 r 6 6 6 6 y y 6 6 8 6 6 6 6 6 6 6 6 6 6 6 8 6 6 6 6 6 9 9 9 9 9 9 9 9 9 9 9 9 9 9 9 9 9 f f i i f f h h h x x x b b b C F G G J G F F F F C C C b b v z z z g g g g d d g d d d d d d g d d g d g d g k d g g g g g g k k k c c c c n n Z Z T T T E E E Q ! [ [ [ [ { { { X.@.#.#.2.2.2.5.5.5.5.q.F.F.F.F.F.w.w.w.w.w.q.q.q.q.5.3.2.2.#.#.#.#.#.@.@.@. . . . .{ { { { { [ [ [ [ [ [ ..[ [ { {  . .{ { { { { { { { { { { { { { { { [ { { { { { { { { { { { { { { { { { { { { [ [ [ [ [ [ ] ] Q Q Q ! [ Q Q Q E E E E E E E T T Z Z Z Z Z n n n n n n n c c c c z c z z z z k g z z z z z g g g g g g g g g d d d d g g d d d d d d d d d d d d d g g g g g g g i d d d 8 8 8 8 6 6 6 6 6 6 6 6 6 6 1 1 6 6 6 6 1 1 6 6 1 1 1 1 1 1 1 1 1 1 1 1 1 1 1 1 1 1 1 1 1 1 1 1 1 1 1 1 1 1 1 1 1 1 1 1 1 1 1 1 d y 1 1 1 1 1 1 1 1 1 1 1 1 1 1 1 1 1 1 1 1 1 1 1 1 1 1 1 1 1 > > > > > > > > > > > > > > > > > > > > > > > > > > > > ",
"> > > 1 2 2 1 1 1 1 1 1 1 1 1 1 1 1 1 1 1 1 1 6 6 6 6 6 1 6 6 6 6 6 6 6 6 6 6 6 6 6 6 r 6 6 6 6 y 6 6 6 6 6 6 r 6 6 6 6 6 6 6 6 6 6 6 6 6 6 8 6 6 6 6 6 8 6 6 6 6 6 8 8 8 8 6 6 6 6 y y 8 6 6 9 9 9 9 9 9 9 9 9 9 9 9 9 9 9 9 9 i i i f h h h h x x b b b C C G G G G G F F F F C C C b b b x z z g z z g g g d d d d d d d d d d d d d d d g g g g g k d k c k k c c c c n n n Z Z T W T E E E Q ! ! [ [ [ [ { { X.X.@.#.#.2.2.2.3.5.5.5.q.F.F.F.F.w.w.w.w.w.w.q.q.5.5.5.3.2.2.#.#.#.#.#.X.@.@. .{ {  . .{ [ { [ [ [ [ [ [ [ [ [  .{ [ [ [ [ [ [ [ [ [ [ [ [ [ [ [ [ [ [ [ [ [ [ [ [ [ [ [ [ [ [ [ [ [ [ [ Q Q Q Q Q Q Q Q E E E E E Q K K Q E E E T T S T T Z Z Z n Z Z n n n n n n c c c c z c c c c g g z c z g z z g g g g g g g g g g g g g d d d d d d d d d d d d d d d d g g g g g g g d d d i 8 8 8 8 8 6 6 6 6 6 6 6 6 6 6 8 8 6 6 6 y 6 1 1 1 1 1 1 1 1 1 1 1 1 1 1 1 1 1 1 1 1 1 1 1 1 1 1 1 1 1 1 1 1 1 1 1 1 1 1 1 1 1 1 1 1 1 1 1 1 1 1 1 1 1 1 1 1 1 1 1 1 1 1 1 1 1 1 1 1 1 1 1 1 1 1 1 > 1 > > > > > > > > > > > > > > > > > > > > > > > > > ",
"> 1 1 1 1 1 2 1 2 1 1 1 1 1 1 6 6 1 1 6 1 1 1 1 1 6 6 6 1 1 1 6 6 6 6 6 6 6 6 6 6 6 6 6 6 6 6 6 r 6 6 6 y 8 6 y y 6 6 6 6 8 8 8 6 6 6 6 8 8 8 8 6 6 6 r 8 6 8 6 6 8 6 8 8 8 6 8 8 9 y y 9 9 9 y 9 6 9 9 9 9 9 9 9 9 9 9 9 9 9 9 9 i i i h h a h h x x x b b C C F G G G G F F F F F C C b b b x x x g g g g g g g g d d d d d d d d d d d d d d g g k k g g g g g k k c c c n n n Z Y T T T T E E E ! ! [ [ [ [ [ [ { { X.@.#.#.#.#.2.2.3.5.5.q.q.q.F.F.w.w.w.w.w.w.q.q.q.5.5.2.2.2.2.#.#.#.#.@.@.@.@. .{ { { { { [ [ [ ..[ [ [ ..[ [ [ [ [ [ ..[ [ [ [ [ [ [ ! ! ! ! [ [ [ [ [ [ [ [ [ [ [ ! ! [ ! ! Q Q Q E E E E E E E E E E T T S ^ oX:.H E T T T S Z Z Z Z Z Z n n n n n n n c c c c c c c c c z z z z z g z g g g g g g g g g g g g g g c g d d d d d d d d d d d d d g g g g g g g g g d d i i i 8 6 8 6 6 6 6 6 1 1 1 1 6 1 6 :.:.6 1 6 6 6 1 1 1 1 1 1 1 1 1 1 1 1 r 6 1 1 1 1 1 1 1 1 1 1 1 1 1 1 1 1 1 1 1 1 1 1 1 1 1 1 1 1 1 1 1 1 1 1 1 1 1 1 1 1 1 1 1 1 1 1 1 1 1 1 1 1 1 1 1 1 1 > 1 1 > > > 1 1 > > > > > > > > > > > > > > > > > > > > > > > ",
"> 1 2 1 1 1 2 1 2 1 1 1 1 1 1 ^ R 3 6 6 1 1 1 1 1 6 6 6 6 6 6 6 6 6 6 6 6 6 6 6 6 6 6 6 6 6 6 6 6 6 8 y y y 6 8 y 6 6 6 y y 8 8 6 6 6 6 8 8 6 8 6 6 8 6 8 8 6 6 6 8 y 8 8 6 8 y 9 6 6 9 9 9 9 y 9 9 9 y 9 9 9 9 9 9 9 9 9 9 9 9 9 i i i f h i h h h x x b b b C C C G G G G F F F F F C C C b b b x x x z g g g g g g g g g d d d d g d d d d g g g g g g g g g g g k k c c c n n n n Z Z Y Y T T E E E ! ! ! ! ! [ [ [ [ { { @.X.@.#.#.#.2.3.5.5.5.5.F.F.w.w.w.w.w.w.q.q.q.q.5.5.5.5.2.2.2.#.#.#.#.@.@.X.X.{ {  . .{  .{ [ [  .[ [ [ [ [ [ [ [ ..[ [ [ ! ! ! ! ! ! ! ! ! ! ! [ [ ! ! ! ! ! E ! Q E E E E E E E E E E T E T T T T T S ;.PXIXF T S Z Z Z Z Z n n n n n n n n n n c c c c c c c c c z z z c z g g g g g g g g g g g g g c g g g g g d d d d d d g d d d d d g g g g g z g g g d d i 8 8 y 6 6 6 6 6 6 6 6 1 1 1 1 6 6 6 / R 1 1 6 1 1 1 1 1 6 1 1 1 1 1 1 1 1 6 6 1 1 1 1 1 1 1 1 1 1 1 1 1 1 1 1 1 1 1 1 1 1 1 1 1 1 1 1 1 6 1 1 1 6 1 1 1 1 1 1 1 1 1 1 1 1 1 1 1 1 1 1 1 1 1 1 1 1 1 1 > > > 1 > 1 > > > > > > 1 1 1 1 > > > > > > > > > 1 > > ",
"> 1 1 1 1 1 2 1 1 1 1 1 1 1 3 R c 3 1 6 6 1 1 6 6 1 6 6 6 6 6 6 6 6 6 6 6 6 6 6 6 6 6 6 6 6 6 6 8 y y 8 8 r 6 6 6 6 6 6 6 6 y y y 6 6 6 6 y 6 6 8 8 y 8 8 6 6 6 6 y d y 6 8 y y 8 9 9 9 6 6 6 6 9 9 y y 9 9 9 9 9 9 9 9 9 9 9 9 9 9 i i i i i h h h h x x x b b C C C C G G G F F F G F C C b b b x x x z g g g g g g g d d d d d g d d d d d k g d d g g g g g g g g g k c c c c n n n B Z Y Y T T E E E ! ! Q ! ! ! ! [ [ { { { X.@.@.#.#.#.#.3.3.3.5.5.5.q.q.q.w.w.w.w.w.q.q.q.4.4.4.4.5.2.2.#.#.#.@.#.@.X.@.@.@.{  .{ { [ { [ [ [ [ [ [ [ [ [ [ ! ! ! ! ! ! ! Q Q E E E E ! ! ! W E E E E E E E E E T T E W E E E T T T T T T T Z R >.^ Z Z Z Z n n n n n n n n n n c n n c c c z z c c c c c z z g z z z z g g g g g g g g g g g g g g g g g d d d d d d d d d g z g g g g g g g g d i d d 8 8 8 8 6 6 6 6 6 1 1 6 6 6 6 1 1 1 1 3 3 1 1 6 1 1 6 6 1 1 6 1 1 1 6 1 1 1 1 1 1 1 1 1 1 1 1 1 1 1 1 1 1 1 1 1 1 1 1 1 1 1 1 1 1 1 1 1 1 1 1 1 1 1 1 1 5 6 1 1 r 6 1 1 1 1 1 1 1 1 1 1 1 1 1 1 1 1 1 > > > > 1 > > > > 1 1 > > 1 1 1 > > > > > > > > > > > > > ",
"1 1 1 1 1 1 2 1 1 1 1 1 6 1 1 3 3 1 1 1 6 6 6 6 1 6 6 6 6 6 6 6 6 6 6 6 6 6 6 6 6 6 y 8 6 6 6 6 8 y 8 8 y 8 6 6 8 6 6 y 6 6 y y y 6 6 8 y y 8 6 y y y 8 6 8 6 6 6 6 6 6 6 8 6 6 8 6 8 9 6 8 8 9 9 9 9 9 9 9 9 9 9 9 9 9 9 9 9 9 9 9 9 i i i f i f a a h x x x b b C C C G G G G G G G F F C C b b b b x x x h g g g g g g d d d d d d d d g k g d d d d d g g g g k k g k k c c c c n n n n Y Y Y Y T T E W W W E ! ! ! ! ! [ [ [ [ { { @.@.@.@.@.#.$.3.3.3.5.5.5.q.q.q.w.w.q.q.w.q.q.q.q.q.5.4.2.2.2.#.#.#.#.#.@.@.@.X.{  .{ { { { [ [ [ [ [ [ [ [ [ [ ! ! [ [ ! Q ! Q E E E E E E E E E E E E E E E E T T E ! E T T T T S Y Y Z Z Z Z Z Z Z Z n n n n n n n n c n n n c n c c c c c c z c c c z z z z z z c z g z g g g g z g g g g g g g g g d g d d d d d d g g g B c g g g g g g i i i 8 8 8 8 6 6 6 6 6 6 6 6 6 6 1 1 1 9 6 1 6 6 9 1 1 1 6 6 1 6 1 1 6 6 1 1 1 6 6 1 1 6 1 1 1 1 1 1 r 1 1 1 1 1 1 1 1 1 1 1 1 1 1 1 1 1 1 1 1 1 1 1 1 6 6 1 1 1 1 1 1 1 1 6 6 1 1 1 1 1 1 1 1 1 1 1 1 1 1 1 1 > 1 > > 1 > > > > > > > > > > > > > > > > > > > > > > > > ",
"1 1 1 1 1 1 1 1 1 1 1 1 6 6 6 6 6 6 1 1 1 6 6 6 1 6 6 6 6 6 6 6 6 6 6 6 6 6 6 6 6 r y 8 6 6 8 8 8 y y 8 8 y y y 8 6 y 6 r r 8 y 8 r y y 8 6 8 6 8 8 y 8 8 8 8 8 6 6 8 6 8 6 6 6 6 6 8 9 6 6 8 9 9 9 9 9 9 9 9 9 9 9 9 9 9 9 9 9 9 9 9 9 i i f f i i a a h h x x b b C C C C G G G G G G F F C C b b b b x x x z g g g g g d d d d d d d d d k k d d d g d d g k k c k k k k k c c c c n n n n n Y Y Y Y T T E E E E ! ! ! ! ! ! ! ! [ [ { {  . .@.@.@.@.#.#.#.3.3.3.5.5.q.q.q.q.q.q.q.w.w.q.q.q.5.4.2.2.2.#.#.#.#.#.#.X.X.X.X.X.{ { { { { { { [ [ [ [ [ [ [ [ [ [ ! Q Q Q Q E E E E E E E E E E E T T T T T E T T T S S T Z Z Z Z Z Z Z T Z Z Z n n n n n n n n c c c c z c c c c c c z c c c c c z z z z g c z g g g g g g g g g g g g g g g g d g d d d d g g g g g z g g g z g d i i 8 8 8 8 6 6 6 6 6 6 9 6 1 6 2 1 9 9 9 9 1 1 1 6 6 1 1 1 1 1 1 1 1 1 6 1 1 6 1 6 1 6 6 1 1 1 1 1 1 1 1 1 1 1 1 1 1 1 r r 1 1 1 1 1 1 1 1 1 1 1 1 1 1 1 6 6 1 1 6 r 6 1 1 1 6 6 1 1 1 1 1 1 1 1 1 1 1 1 1 1 > > > 1 1 1 1 1 > > > > > 1 1 > > > > > > 1 > > > > > > > > > ",
"> 1 1 1 1 1 1 1 1 1 1 1 6 6 1 6 6 6 1 6 6 6 6 6 6 6 6 6 6 6 6 6 6 6 6 6 6 6 6 6 6 6 y y 6 8 8 8 y y y y 8 y y y 8 8 y y r r y 8 y y y y y 8 y y 8 8 8 8 8 8 8 8 6 6 y y 6 8 6 6 8 8 8 6 6 6 6 9 9 9 9 9 9 9 9 9 y 9 9 9 9 9 9 9 w w 9 9 i i i i i i f a h h h x x b b C C C C G G G G G G F F C C b b b b x x x x g g g g g d d d d g g d d d d d d d d d d d g k k g g k k k k c c c n c n n n n T Y Y Y T T T T E E E W W ! E ! ! ! ! [ [ [ [  .{ {  . .@.@.#.#.#.#.3.3.5.5.5.q.q.q.q.q.q.q.q.q.q.4.4.4.2.2.2.#.#.#.#.#.X.X.X.X.X.{ { { { { { { { [ [ [ [ [ [ [ [ Q Q Q Q Q Q Q Q E E E E E E E T T T T T T T T T S S Z S S S Z Z Z Z T Z Z Z Z n n n n n n n c c c n n c n c c c z z c c z z c z z z z g g g g g g g g g g g g g g g g g g g d g g g g g g z z g z g g g g z g i 8 8 8 8 y y 6 6 6 r 6 6 9 9 1 1 2 2 9 9 9 2 1 1 1 1 1 1 1 1 1 1 1 1 1 6 6 1 1 1 1 6 1 1 6 1 1 1 1 1 1 1 1 1 1 1 1 1 1 1 r r 1 1 1 1 1 1 1 1 1 1 1 1 1 6 6 1 6 6 1 6 r 6 1 1 6 6 6 1 1 1 1 1 1 1 1 1 1 1 1 1 1 > > > > > 1 1 > > > > 1 1 r 1 > > > > 1 1 > > > > > > > > > > ",
"1 1 1 1 1 1 1 1 1 1 1 1 6 6 6 6 6 6 6 6 6 6 6 6 6 6 6 6 6 6 6 6 6 6 6 6 6 6 6 r 8 6 y 6 8 8 y y r y y y 8 8 8 8 8 6 6 y 6 8 y 8 8 6 6 8 y y 6 8 8 8 8 8 8 8 y 6 6 6 8 8 8 8 8 8 6 8 6 6 6 9 6 9 9 9 9 9 9 9 9 9 9 9 9 9 9 9 9 9 9 9 w f f i i i i i i i a h h x x x b b b C C C F G G G G F F C C C b b b b x x x g h g g g g g d d g d d g d d d d d d d d g g g g g g g g g g k k c c c c n Y n B B Y Y Y Y T T T T E W E E E E ! ! ! ! ! ! [ [ [ [ [ { { { @.@.@.@.#.#.#.3.3.3.5.5.q.q.q.q.q.q.q.q.5.4.4.4.4.2.2.2.#.o.o.o.o.X.X.X.X.{ { { { { { [ [ [ ] ] ] [ [ Q Q Q Q Q Q Q Q E E E E E H T E T S S S T S S S T S T S Z Z Z Z Z Z Z Z Z n Z n n n n n n n n n n n n v c n c c z c c z c z z z z z z g g g g g g g g g g d g g d d g g d d g g g c g g z z g g g g g g d i d 8 8 8 8 6 6 6 6 6 6 6 1 1 6 6 2 1 2 9 9 6 2 1 2 2 2 1 1 1 1 1 1 1 6 1 1 1 1 1 1 1 1 1 1 1 1 1 1 1 1 1 1 1 1 1 1 1 1 1 1 1 1 1 1 1 1 1 1 1 1 1 1 1 1 1 1 1 6 6 1 1 1 1 6 1 1 1 1 1 1 1 1 1 1 1 1 1 1 1 1 1 1 1 1 1 1 1 1 > > > > > > > > > 1 > > > > > > > > > > > > > > > > > ",
"1 1 1 1 1 1 1 1 1 1 6 6 6 6 6 6 6 6 6 6 6 r 6 6 6 6 6 6 6 6 6 r 6 6 6 6 6 6 r y y 6 6 6 8 8 y y 8 8 8 8 r y 6 y 6 6 y y 8 8 6 6 8 8 y y y 8 6 8 8 8 8 8 6 6 y 6 6 6 6 6 6 8 8 6 6 8 6 6 9 9 8 9 9 9 9 9 9 9 9 9 9 9 9 9 9 9 9 9 9 9 9 9 9 9 9 9 i i i i i a a h x x x b b C C C C F G G G G G C C C C C b b b x x x x g g g g g g g g d d d d d d d d d d d d g g g k k g g k k g g c c c c c n c n n B Y Y Y Y Y Y T T T E E W W ! W E E E ! ! ! ! ! [ [ [ [ { { {  .{ @.@.#.#.#.#.2.3.5.5.5.q.5.5.5.5.4.4.4.4.4.2.2.2.2.2.o.o.o.o.o.X.X.X.X.{ { { { { { { ] ] ] ] ] ] ] Q Q Q Q Q Q Q E H E E E Q ! E S S S S S S S Z Z S Z Z Z Z Z Z Z Z n n Z n v n n n n m v n n n n n c c n z z z c z z c z z z z g g g g g g g g g g g g g g d d d g d g g g g c z g g g g g g d d d i 8 y 8 8 8 6 6 6 6 6 6 6 1 1 9 2 9 9 2 1 2 2 9 9 1 2 2 1 1 1 6 1 1 1 1 1 6 1 1 1 1 1 1 1 1 6 1 1 1 1 1 1 1 1 1 1 1 1 1 1 1 1 1 1 1 1 1 1 1 1 1 1 1 1 1 1 1 1 6 1 6 1 1 1 1 6 6 1 6 1 1 1 1 6 1 1 1 1 1 1 1 1 1 1 1 1 1 > > 1 1 1 > 1 > > > > > > 1 1 1 > 1 1 > 1 > > > > > > > > > ",
"1 > 1 1 1 1 1 1 1 1 1 6 6 6 6 6 6 6 6 6 6 6 6 6 6 6 6 6 6 6 6 6 6 y 6 6 6 y y 8 y 8 y 8 8 8 y y y 8 y y 8 y 8 8 8 y y 6 y y 6 6 y r y y y y y 8 8 8 y 8 8 y 8 6 6 6 6 6 6 6 6 8 6 6 6 6 9 9 9 9 9 9 9 9 9 9 9 9 9 9 9 9 9 9 9 9 9 9 9 9 f 9 9 9 u u i i i i h h h h x x x b b b C C F F G G G G C C C C C C b b x x x x x h g g g g g g d d d d d d d d d d d d d g g g k g k k g k c c c c c c c n n n Y Y Y Y Y Y Y T T T E E E E E E E E E E W W ! ! ! ! [ [ [ [ [ [ { { {  .@.@.@.@.#.#.3.5.2.2.3.5.5.5.5.5.4.4.2.2.2.2.2.#.o.#.#.o.o.X.X.X.X.X.{ { { { { ] ] ] ] ] ] ] Q Q Q Q Q Q Q H E Q E E E H H S S S S S ! Q S Z Z Z Z Z Z Z Z Z Z Z n n n n n n n m n n n n v v n c n v z n z z z z z z z g g g g g g g g g d d g d g g d d g g g g g g g g g g g g d d d d 8 d y 8 8 8 y 6 6 6 6 6 6 6 2 1 2 2 1 2 2 1 2 2 9 2 2 1 2 2 2 2 9 6 1 1 6 1 6 6 1 1 1 1 6 1 1 1 6 1 1 1 1 1 1 1 1 1 1 1 1 1 1 1 1 1 1 1 1 1 1 1 1 1 1 1 1 1 1 1 r 6 6 6 6 6 1 1 6 6 6 6 1 1 1 1 1 1 1 1 1 1 1 1 1 1 1 1 1 1 1 > 1 1 1 > 1 > > > > > > > > 1 1 > 1 > > > > > > > > > > > ",
"> 1 1 1 1 1 1 1 1 1 1 6 6 6 6 6 6 6 6 6 6 6 6 6 6 6 6 6 6 6 6 6 6 y y 8 y y y y y y 8 y y y y y 8 y y y y y 8 8 8 y y y y 8 y y 6 8 6 8 y y y 8 8 y y y y 8 8 6 6 6 6 6 6 8 6 6 6 6 6 9 9 9 9 9 9 9 9 9 9 9 9 9 9 9 9 9 9 9 9 9 9 9 9 9 m h 9 9 w u i i i u h h a h x x x x b b b C C F G G G G F F C C C C C b b b b x x x g g g g g g g g g d d d d d d d d d d g g g k k g g k k c k c c c c c c n n n n n B B B Y Y Y T T T T T T E E E E E E E W E Q ! ! ! ! ! [ [ [ [ [ [ { { { @.@.@.@.#.#.#.2.2.3.3.3.2.2.2.4.2.2.2.2.2.#.#.o.o.o.o.o.o.X.X.X.X.X.{ { { { { { { ] ] ] Q Q Q Q Q Q Q Q E H H H H H S S S S S [ [ S Z S Z Z Z Z Z Z Z Z Z Z n n n m n n n n n n v v z c z n c z z z z z z z g g g g g g g g g d g d d g g g g g g g g g g g g g g g g d d i i d 8 8 8 8 8 6 6 6 6 6 6 6 6 6 6 2 2 2 2 2 2 1 9 2 2 9 2 1 2 2 9 2 9 9 6 1 1 6 1 1 6 1 1 1 6 k 6 1 1 1 1 1 1 1 1 1 1 1 1 1 1 1 1 r 1 1 1 r r 1 1 1 1 1 1 1 1 1 1 1 1 6 r 6 6 6 6 6 1 6 6 1 6 6 6 6 6 1 1 1 1 1 1 1 1 1 1 1 1 1 1 1 > 1 1 > > > 1 > > > > > > 1 > > > > > > > > > > > > > > > ",
"1 1 > 1 1 1 1 1 1 1 6 6 6 6 6 6 6 6 6 6 6 6 6 6 6 8 6 6 6 6 6 6 6 6 6 6 y 8 y y y 8 8 y y y y y y y y y y y y y 8 y y 8 y y y y 8 y 8 y y y y 8 8 8 8 8 8 8 y 8 8 8 8 8 6 6 6 6 6 6 6 9 6 6 9 9 6 9 9 9 9 9 9 9 9 9 9 9 9 9 9 9 9 9 9 9 f i 9 9 w u i u i u i u i h h h h x x x b b C C C C G G L K F C C C C b b b b b x x x z h g g g g g g d d d d d d d d d d d g g g g g k k c c k c c c k c c c c c n n n n B B Y Y Y Y T T E T T T T E T E E E E E E E E E ! ! ! ! ! [ [ [ [ [ [ { { { { { X.@.X.@.@.#.#.#.#.2.2.#.#.#.#.#.o.o.o.o.X.X.X.X.X.X.X.X.X.{ { X.X.{ { { ] ] ] ] ] Q Q Q Q K Q Q E E E H H H H S S S H S S S S S S Z Z Z Z Z Z A Z Z n n n v n n n n n n n z z n n z z z z z z g g g g g g g g g g g g d g g g g g g d z E n g g g g g g g d d 8 8 8 8 8 6 6 6 6 6 6 6 6 6 6 2 9 2 2 2 1 1 9 9 9 9 9 9 2 2 2 2 2 9 9 9 9 1 1 1 6 1 1 6 6 1 6 6 6 1 1 1 1 1 1 1 1 1 1 1 1 1 1 1 1 k k 1 1 1 y k 1 1 1 1 1 1 1 1 1 6 1 1 1 1 1 1 6 6 1 6 1 6 6 6 6 6 6 6 6 1 1 1 1 1 1 1 1 1 1 1 1 1 1 > 1 > > > > > > > > > > 1 r 1 > > > > > > > 1 > > > 1 > > ",
"1 1 1 1 1 1 1 1 1 1 6 6 6 6 6 6 6 3 6 6 6 6 6 6 6 6 6 y 6 6 6 y 6 6 8 8 y 8 y y 8 8 y y y y y y y y y y y y y y 8 y y y y y y y y 8 8 y y y 6 6 y 8 8 y 8 8 y 6 6 8 8 8 8 8 6 6 6 6 9 6 6 6 9 9 9 9 9 9 9 9 9 9 9 9 9 9 9 9 9 9 9 9 9 9 9 9 9 w u w w u u u u i i i h h a h x x x b b b b C C G L ~ F C C C C C b b b b b b z z x x g g g g g g g d d d d d d d k k d g g k g k k c k c B c k c k c c c c c c n n n n B B Y Y Y Y T T T T T T T T E T E T E W E ! W E E E ! ! ! ! ! [ [ [ [ [ [ [ { { { { { { {  .@.@.@.@.#.#.@.#.@.@.X.X.X.X.X.X.X.X.{ { { { { X.X.oX;.] ] ] ] ] ] ] ] Q Q Q Q Q Q E E E E H E H S S S S S S S S S Z Z Z Z Z A Z Z Z n n n n n n v n v n c z z n z z z z g g g g g g g g g g g g g g g d g g g g g g d [ ).D.s g g d i d d i 8 8 8 8 8 6 6 6 6 6 6 6 6 6 6 1 2 2 2 2 9 1 2 y k 6 9 9 9 9 9 2 2 9 9 9 6 2 2 1 1 1 6 6 6 6 1 6 6 1 1 1 1 1 1 1 1 1 1 1 1 1 1 1 1 1 6 6 1 1 1 6 6 1 1 1 1 6 6 6 6 1 1 6 6 1 B k 1 r 6 6 6 6 1 6 6 1 6 6 6 6 1 1 1 1 1 1 1 1 1 1 1 1 1 1 > 1 1 > > > > > > > > > 1 r 1 > > > 1 1 > 1 1 > > > > > > ",
"1 1 1 1 1 1 1 1 1 1 6 6 6 6 6 6 k B 6 6 6 6 6 6 6 6 6 6 6 6 r r 8 y 8 y y 8 y y 8 y y y y y y y y y y y y y y y y y y 8 y y y 8 y y y y y 8 B c 6 y 8 8 8 8 8 6 8 6 6 8 8 8 8 8 6 9 6 6 9 6 9 9 9 9 9 9 9 9 9 9 9 9 9 9 9 9 9 9 w 9 9 9 f f 9 w w 9 w w w u u i u i i a a a h x x x b b b C C C C C C F F C b C C b b b b b b x x x z g g g g g g g g g d d d d k k d g g g g g g g k k k k k k k k k c c c c c c c c n n B n Y Y Y Y Y T T T T T T T T T T T T W E E E E E E E E E ! ! ! ! Q ! ! ! ! [ [ [ [ [ [ [ [ { { { { { X.{ X.X.X.X.X.X.X.X.{ { { { { { { { oX$.] ] ] ] ] ] Q Q Q Q Q Q Q Q E E E E E E S S S S S S S S S S Z Z Z Z Z Z n n Z n n n n n n n c z z z z z z z z z g g g g g g g g g g d d d d d g g g g g g g g i ! (.$.i d i i i 8 8 y d 8 8 6 6 6 6 6 6 6 6 6 6 1 1 1 1 9 2 2 9 2 2 9 9 2 2 9 9 9 9 9 9 2 2 1 6 9 9 6 6 6 6 6 6 1 1 1 1 1 1 1 6 6 6 6 6 r 6 1 1 1 1 1 1 1 1 1 1 1 1 1 1 1 6 1 1 1 1 6 6 6 6 6 1 1 N B 1 6 1 6 1 6 6 1 1 1 1 6 6 6 6 6 1 1 1 1 1 1 1 1 1 1 1 > > 1 > > > > > > > > > > 1 1 > > > > > > > > > > > > > > > ",
"1 1 1 1 1 1 1 1 1 6 6 6 6 6 6 3 ^ >.6 6 6 6 6 6 6 6 6 6 6 6 6 r r y y y y y y y y y y y y y y y d y y y y y y y y y y y y y y y y y y y 8 d J.:.6 y 6 8 y 8 8 8 8 6 8 6 6 6 8 8 6 6 6 6 6 6 9 9 9 9 9 9 9 9 9 9 9 9 9 9 9 9 9 9 e 9 9 9 f f 9 w 9 w 9 w w u u u i i i i a a h h x x x x x b b C C C C C C ~ >.D b C C b b b b b x x x x x g h g g g g g g g d g d d g d g g g k g g g k g k c k k c c c c c c c c c c c c n n n n Z Y Y Y Y Y Y Y T T T T T T T T T T T T E E E E E W E E E E E E Q Q Q ! ! ! ! ! ! ! ! ! [ [ [ [ [ [ [ [ [ [ [ { { { { [ { { [ ] ] ] ] ] ] ] Q Q Q Q Q Q Q Q E Q Q H H H E S H S S S S S S S Z Z Z Z Z Z Z Z Z n n n n n n v v n c c z z z z z z g g g g g g g g g g g d d d d g d d d d g g g g g g i i z i 8 i i 8 8 8 8 8 y 8 6 6 6 6 6 6 6 1 6 6 1 6 6 2 2 2 2 2 2 2 2 9 2 2 2 2 9 9 9 9 9 2 2 9 9 9 9 2 1 6 6 6 y 6 6 6 1 1 1 6 6 1 1 1 1 r 6 1 1 1 1 1 1 1 1 1 1 1 1 1 6 6 6 1 1 1 1 6 6 6 6 6 1 1 6 1 6 6 6 6 6 1 1 1 1 1 1 6 1 1 1 1 1 1 1 1 1 1 1 1 1 1 > > > 1 1 > > > > > > > > > > > > > > > 1 > > > 1 > > > > > > ",
"1 1 1 1 1 1 1 1 1 1 6 6 6 6 6 6 y y 6 6 6 y 6 6 6 6 6 6 r 6 6 r y y y y y y y y y y y y y y y y y y y y y y y y y y y y y 8 8 y y y y y 8 8 c d 6 y 8 8 y 8 8 8 6 6 6 6 6 6 6 6 6 6 6 6 6 9 9 9 9 9 9 9 9 9 9 9 9 9 9 9 9 9 9 9 9 9 9 9 9 f f 9 9 w 9 w 9 9 9 i i i i i i h h h h x x x x b b b C C C G P | CX/ b C C b b b b b b b x x z g g g g g g g g g g d d d d g d g k k g k d k k k k k g c c c c c k k k c c c c c c n n n n n Z Y Y Y Y T W T T T T T T T T T T T T T T T T E T T T E E W E E E E E ! E E E E E ! Q Q Q Q ! ! ! Q Q Q Q Q ! ! ! ! Q Q Q Q ] ! Q Q Q Q Q Q Q Q Q Q E E Q H H H E S S S S S S S S S S Z Z Z Z Z Z Z Z n n n n n v n c c z z z z z z z z g g g g g g g g g g g d d d d g g g g g g g g g d i d d d i 8 8 8 8 8 8 8 8 6 6 6 6 6 6 6 6 1 1 1 1 6 6 6 9 2 1 1 9 2 2 2 2 9 9 9 9 9 9 2 2 9 9 2 2 9 9 1 1 1 1 1 1 1 8 y 6 1 1 1 1 1 1 1 1 1 1 1 1 1 1 1 1 1 1 1 1 1 1 1 1 1 1 6 6 1 1 1 1 1 1 1 6 6 6 6 6 1 6 6 6 6 6 1 1 6 r 1 1 1 1 1 1 1 1 1 1 1 1 1 1 1 > 1 1 > > > > > > > > > > > > 1 > > > > > > 1 > > > > > > > > > > ",
"1 1 1 1 1 1 1 1 1 1 6 6 6 6 6 6 6 6 6 6 y y 6 6 6 6 r 6 y y 8 y y y y y y y y y y y y y y y y y y y y y y y y y y y y y y y y y y y y y y y 6 6 y y y 8 y 8 8 6 8 8 8 8 6 6 6 9 6 y 8 9 9 6 9 9 9 9 9 9 9 9 9 9 9 9 9 9 9 9 9 9 9 9 9 9 9 u f 9 9 w w w 9 9 9 9 w i i i i i f h a a h x x x x b b b C C C F D C C C C C b b b b b b b x z z z h g g g g g g g g g g g g g g g g g g k B k k g k g g c c c c k g c c k k c c c c c c c n n B n n n Y R Y Y Y Y Y Y T T T T T T T T T T T T T T T T T T E E E T E E E E E E E E E E E E E E E E E E E E E E E E E E E E E E E E E E E E E E E E E E H H T T S S S S S S S S S Z Z Z Z Z Z n n n n n n n z c z z z z z z z z g z g g g g g g g g g g g g g g g g g g g g g g d g d d i d d d d 8 8 8 8 6 6 6 6 6 6 6 6 6 6 1 6 1 1 1 1 6 6 6 9 1 2 1 6 9 9 2 2 2 9 9 2 9 9 2 2 2 2 2 1 9 6 2 2 1 1 6 1 1 6 6 1 1 1 1 1 1 6 1 6 1 1 1 1 1 1 1 1 1 1 1 1 1 1 1 1 1 1 1 6 1 1 1 1 1 1 1 6 6 6 6 6 6 1 6 6 6 1 1 1 1 r 1 1 1 1 1 1 1 1 1 1 1 1 1 1 1 1 1 > > > > > > > > > > > > > 1 > > > > > > > > > > > > > > > > > ",
"1 1 1 1 1 1 1 1 1 1 6 6 6 6 6 6 6 6 6 6 6 6 6 6 6 6 6 r y y y y y y y y y y y y y y y y y y d d d y y y y y y y y y y y y y y 8 y y y y y y y 8 y y 8 8 y 8 6 6 8 8 8 8 6 6 6 8 y y 8 9 6 6 9 9 9 9 9 9 9 9 9 9 9 9 9 9 9 9 9 9 9 9 e 9 e e e 9 w w 9 9 9 9 9 9 9 9 9 u u i i a a a a a h x x x b b b C C C C C C C C C C C b b b b b b b x x x x g g g g g g g g g g g g g g g g k B B k g g k k k k k c k k k c k k k k c c k c c c c c n c n n n n n Y Z Y Y Y Y T Y Y Y T T T T T T T T T T T T T T T T T T T E T T T T T T T T T E E E E E E E E T T T T T T T T T T T T T T T T T T S T S S S S S Z Z Z Z Z Z Z Z Z Z Z n n n n n n n n n z z z z z z z z z z z z g g g g g g g g g g g g g d g g g g g g d d d g d d d d i i d d 8 8 8 8 8 6 6 6 6 6 6 6 6 6 1 1 1 1 1 6 1 1 1 6 9 2 2 2 1 6 9 9 9 2 2 2 9 9 2 2 2 2 2 2 2 9 9 9 2 1 1 1 6 6 1 1 1 1 6 6 1 1 1 1 1 6 1 1 1 1 1 1 1 r 6 1 1 1 1 1 1 1 1 1 1 1 1 1 1 1 1 6 1 1 1 1 6 6 6 1 6 6 6 6 1 1 1 6 6 6 6 6 6 6 6 1 1 1 1 1 1 1 1 > 1 1 > > > > > > > > > > > > > > > > > > > > > > > > > > > > > > ",
"1 1 1 1 1 1 1 1 1 6 6 6 6 6 6 6 6 6 6 6 6 6 6 6 6 8 8 r y y y y y y y y y y y d y y y y y d d d d d y y y y y y y y y y y y y y y y 6 8 y 8 6 6 6 y 8 8 8 8 6 8 8 8 y 6 8 y y 9 y 8 6 9 9 6 9 9 9 9 9 9 9 9 9 9 9 9 9 9 9 9 9 9 e 9 e e 9 e e e w 9 9 9 9 w 9 9 w w 9 w u u i i i a a a a a x x x b b b C C C C C C C C C C C b b b b b b b x x x x x x z g g g g g g g g g g g g k c g g k g k k k k k k k k k k g g k k k k k k k c c c c c c B n n n n Y n n n Z Z Z Z Y Y Y Y T T Y T T T T T T T T T T T T T T T T T T T T T T T T T T T T E W T S T T T T T S S S T T T Z Z Z Z Z Z Z Z Z Z Z Z Z Z Z Z Z Z Z Z Z n n n n n n n n n c c c z z z z z z z c z z g g g g g g g g g g g g g g g g g g g g g d i d d d d i i d 8 y d 8 8 8 8 6 6 6 6 6 6 6 6 6 6 1 1 1 1 1 1 6 1 1 1 1 2 2 1 2 1 2 9 9 9 2 2 2 9 9 2 2 2 2 2 2 2 9 9 1 9 1 1 1 1 6 6 6 1 6 6 1 1 1 1 1 1 6 1 1 6 1 1 1 6 6 6 1 1 1 1 1 1 1 1 1 1 1 1 1 1 1 6 6 1 1 1 1 1 6 6 1 6 r 6 1 1 1 6 6 6 1 6 6 6 1 6 1 1 1 1 1 1 1 1 1 1 1 > > > > > > > > > > > > > > > > > > > > > > > > > > > > > > ",
"1 1 1 1 1 1 1 6 6 1 6 6 6 6 6 6 6 6 6 6 6 6 6 6 6 6 8 r y 8 y y y y y y y y y y y y y y y y d d d y y y y y y y y y y y y y y y 8 y 6 8 y 8 y 8 8 8 8 6 8 8 6 6 8 8 6 6 8 y 8 6 6 6 6 9 f 9 9 9 9 9 9 9 9 9 9 9 9 9 9 9 9 9 9 9 9 9 9 w e w w e w w w w 9 w 9 9 9 9 9 9 w i i i i i i h a h h x x x b b b C C C C C C C C C C C b b b b b b b b x x x x x z g g g g g g g g g g g g g g g g g g k k k k k k k k k k g k g g k k k k g k k g k c c c n n Y B c n n n n n n Z Z Y Y Y Y Y Z Y T Y T T T T T T Y Y Y Y T T T T T T T Z T T T Y Z Z Y T Y Z S Z Z Z Z Z Z Z Z Z Z Z Z Z Z Z Z Z Z Z Z Z Z Z Z Z Z n n n n n n n n n n n n n n c c z z z z z z z z z z g g g g g g g g g g g g g g g g g g g g g d d d i d d d 8 8 8 8 8 8 8 8 6 6 6 6 6 6 6 6 1 6 6 6 1 1 6 1 1 1 1 1 9 2 2 1 9 9 2 1 1 1 2 2 2 2 9 2 2 2 2 2 2 2 2 9 9 9 9 9 9 9 9 6 2 6 6 6 1 6 1 1 1 1 6 6 6 1 6 6 1 1 1 1 1 1 1 1 1 1 1 1 6 6 1 1 1 1 1 1 6 6 6 6 6 6 1 1 1 6 r 6 6 6 1 6 1 6 6 6 6 1 1 1 1 6 r 1 1 1 1 1 1 > > > > > > > > > > > > > > > > > > > > > > > > > > > > > > > > > > ",
"1 1 1 1 1 1 1 1 1 6 6 6 6 6 6 6 6 6 6 6 6 6 6 6 6 6 8 y y y y y y y y y y y y y d d d y y d d d d d y y y y y y y y y y y y y y y y y y y y 8 8 8 y y 8 8 8 6 6 6 6 6 6 8 6 6 9 6 6 9 9 6 9 9 9 9 9 9 9 9 9 9 9 9 9 9 9 9 9 9 9 9 9 9 e e w w w w w w 9 w 9 9 w 9 9 9 9 w 9 i i i i i f a h h h x x x x b b b C C C C C C C C C b C b b b b b b b x x x x z z g g g g g g g g g g g g g c g g g k g g g g g g g g g g g g g k g g g g g g g g g k c c c n c c c c c n n n n n Z Z Z Y Y Y Y Y Y Y Y T S Z Y Z Y Y Y T T T T T Y Y Z Z Z Z Z Z Z Z Z Z Z Z Z Z Z Z Z Z n Z Z Z Z Z Z n n n n n n n n n n n n n n n n n n n n n n n n z c n c z z z z z z z g g g g g g g g g g g g g g g g g g g g g g g d d d d i i i i 8 8 8 8 8 6 6 6 6 6 6 6 6 6 6 6 1 1 1 1 1 1 1 6 1 2 1 1 1 2 1 1 1 6 9 2 1 1 1 1 2 9 9 9 9 9 2 2 2 2 2 2 9 9 9 2 9 6 9 1 1 1 6 6 6 6 6 6 1 1 6 6 1 6 1 1 6 6 1 1 1 1 1 1 1 1 1 1 1 1 6 1 1 1 1 1 1 1 1 1 6 6 1 1 6 6 6 6 1 r y 1 6 6 1 6 6 6 1 1 1 1 1 1 1 1 1 1 1 1 1 > > > > > > > 1 > > > > > > > > > > > > > > > > > > > > > > > > > ",
"1 1 1 1 1 1 1 1 6 6 6 6 6 6 6 6 6 8 8 8 6 6 8 8 6 6 8 8 y y y y y y y y y y y y d y d d y d d y d d y y y y y y y y y y y y y y y y y y y y 8 8 8 8 6 6 8 6 8 8 6 6 6 6 6 6 6 9 6 9 9 9 9 9 9 9 9 9 9 9 9 9 9 2 2 2 2 2 9 9 9 9 9 9 9 9 w w w w w e w 9 w 9 9 9 9 9 9 w u 9 9 i i i i i i h a a a a x x x b b b b C C C C C C C C C C C b b b b b b x x x x x z x h g g g g g g g g g g k g g k g g g g g g g g g g g g g g g g g d d g g g g g k g k k g c c c c c c c c n n n n n n Z Y T Z Z Y Y T T Y Y Y Z Z T T T S Z Z Z Z Z Z Z Z Z Z Z Z Z Z Z Z Z n Z n n n n n n n n n n n n n n n n n n n n n c c c c c c n n n z c c c z z c z z g g z z z g g g g g g g g g g g g g g n ^ z d g g g d d d d i d d i 8 8 8 8 8 6 6 6 6 6 6 6 6 6 6 6 1 1 1 1 1 1 1 1 1 1 1 1 2 9 2 1 1 1 1 6 6 2 9 9 2 1 1 2 2 9 9 9 9 9 9 2 9 2 2 9 9 9 1 1 1 1 d k 1 3 1 6 6 6 1 6 6 1 1 1 1 1 6 6 6 6 1 1 1 1 1 1 1 1 6 6 1 1 1 1 1 1 1 1 1 1 6 1 6 6 6 1 6 6 6 6 r r 6 1 1 1 6 6 1 1 6 6 1 1 1 1 1 1 1 1 1 1 1 > > > > > > > > > > > > > > > 1 > > > > > > > > > > > > > > > > ",
"1 1 1 1 1 1 1 1 6 6 6 6 6 6 6 6 6 6 8 8 8 8 y 8 6 6 y 8 8 y y y y y y y y y d d d d d d d d d d d d d y d d y y y y y y y y y y y y y y y y 8 8 8 8 8 8 y 8 8 8 6 6 6 6 6 9 6 6 6 9 9 9 6 6 9 9 6 9 9 9 9 2 2 2 9 2 2 2 2 2 9 9 9 9 9 e e w w w w w w w 9 9 9 9 9 9 w w w 9 9 9 9 i i i i i h a a a h x x x b b b b C C C C C C C C C C b b b C b b b b x x x x x x h x g g g g g g g g k z g k g g g g g g g c g g g g g d d d d d d d g g d d d d k k g g g g k k k k c c c c n n n n n n n Z Z Z Z Z Y Y Z Z Z Z Z Z Z S Y Z Z Z Z Y Z Z Z Z n Z Z Z n n n n n n n n n n n n n n n n n n n n c n c c c z z z c z z z c c z c c z z z c c z z z z z z g g g g g z g g g g g g g d n ..z d g d d d d d i i 8 8 8 8 8 6 6 6 6 6 6 6 6 6 1 6 1 1 1 1 1 1 1 1 1 1 1 1 1 1 1 2 2 2 1 1 1 1 d y 2 9 9 2 1 2 2 2 9 9 9 9 9 9 9 9 9 9 9 9 2 1 1 6 3 >.oX1 3 1 1 6 6 6 1 6 6 1 1 1 1 1 6 6 6 1 1 1 1 1 1 1 1 1 1 1 1 1 1 1 1 1 6 6 6 6 6 6 1 1 1 6 6 6 6 1 1 6 6 6 6 1 1 1 1 1 1 1 1 1 1 1 1 1 1 1 > > > > > > > > > > > > > > > > > > > > > > > > > > > > > > > > > > ",
"1 1 1 1 1 1 1 1 1 6 6 6 6 6 6 6 r 8 r 6 8 8 y 6 8 8 y 8 y y y y y y y d d d d d d d d d d d d d d d d d y y y y d y y y y y y y y y y y 8 y 8 8 8 8 8 8 6 8 8 8 6 6 6 6 6 6 6 9 6 6 6 6 9 9 9 9 1 9 9 9 9 9 9 2 2 2 9 9 9 9 9 9 9 2 e e e e e e e w w e 9 9 9 9 9 9 9 w 9 9 9 9 9 9 i i i i f h h a h x x x x x x b b b C C C C C C C b C C C A A b b b b b x x x x x x g g g g g g g g g g g g g d g k g g g g g d d d d d d d d d d 8 d g d d d d d d d d d d g g g k k g k c c c c n n n n n n Z Z Z Z Z Z Z Z Z Z Z Z Z Z Z Z Z Z Z n n Z Z n n n n n n n n n n n n n n n n n n n n c c n c c c c c z z z z z z z z c z z c z z z z z c z z z z z z g g g g g g g g g g g g g g i i d d d d i d d 8 8 8 8 8 8 6 6 6 6 6 6 6 6 6 6 1 6 6 6 6 1 1 6 1 1 1 1 1 1 1 1 1 1 1 2 1 6 1 1 1 y 6 2 2 9 2 2 2 2 2 2 9 9 2 2 9 9 2 9 2 2 2 9 6 6 1 3 B R 3 6 1 1 1 1 1 1 1 1 1 6 1 6 6 6 6 6 1 1 1 1 6 1 1 1 1 1 1 1 6 1 1 1 6 6 1 1 r 6 6 1 1 6 6 6 6 6 6 6 6 1 6 1 1 6 1 6 y 6 1 1 1 1 1 1 1 1 1 > > > > > > > > > > > > > > > > > > > > > > > > > > > > > > > > > > ",
"1 1 1 1 1 1 1 6 6 6 6 6 6 6 6 6 8 y 6 6 6 8 y y y 8 y y y y y y y y y y d y y d d d d d d d d d d d d d y y y y y y y y y y y y y y y y y 8 8 8 8 8 r 6 8 8 8 6 6 6 6 9 6 6 6 6 6 6 6 6 9 9 9 9 2 2 9 9 9 9 9 2 2 9 9 9 9 9 9 2 9 9 2 9 e e 9 9 e e 0 0 9 9 9 e 9 w w w w 9 9 9 9 9 i i i i f i i h h h h a a a x x b b b C C C C C C C C C C b C A A b b b b b m x x x z z h g g g g g g g g g g g g g g g d d g g d d d d d d d d d B k d d d d d d d d d d d d d d g g g g g g k c c c c c c n n n n n n Z Z Z Z Z Z Z Z Z Z Z Z Z Z n n Z Z n n n n n n n n n n n n n n z z n n n n z c z z z z c z z z z z z z z z z z z g g z z z z g g g z g g g g g g g g g g g g g g d d g d i d i d d d 8 8 8 8 6 6 6 6 6 6 6 6 6 6 6 1 1 1 1 1 1 1 1 1 1 1 8 y 1 1 1 1 1 1 1 1 2 2 9 1 1 1 1 1 1 1 2 2 2 2 9 2 2 2 9 2 2 9 9 9 9 2 2 2 1 6 6 6 1 9 3 3 6 6 1 1 1 1 1 6 1 1 1 6 6 6 1 1 1 6 1 1 1 1 6 1 1 1 1 1 1 6 6 1 1 6 1 1 6 1 6 6 6 6 6 6 r 6 6 6 6 6 6 1 6 6 6 6 1 B :.k 1 1 1 1 1 1 1 1 1 > > > > > > > > > > > > > > > > > > > > > > > > > > > > > > > > > > ",
"1 1 1 1 1 1 6 6 6 6 6 6 6 6 6 6 y y 8 y 6 y 8 y y 8 y y y y y y y y y d d d d d d d d k d d d d d d d d d d d y d y y y y y y y y y y y y 8 8 8 8 8 6 8 8 6 6 6 6 6 9 6 6 6 6 6 9 6 6 6 9 9 9 9 9 9 2 9 9 9 9 9 2 2 2 2 2 2 9 2 9 9 9 9 9 9 9 9 9 9 / h 2 e 9 9 9 w w w w w w 9 9 9 9 9 i i i i i i f a h a a a x x x b b b b C C C C C C C b b b A R b b b b b m b x x x x z x x g g g g c g g g g g d d g d d g d d d d d d d d 8 N CX^ 8 d d d d d d d d d d d d d d d d d g g g g g g k c c c n n c n n n n n n n n n Z n Z n n Z Z n n n n n n n n n n n n n n n n z z z z z c n n z z z c z c z z z z z z z z z z z z z T T g z z z g g g g g g g g g g g g g g g d d d d i d i i 8 8 8 y d 8 8 8 6 6 6 6 6 6 6 6 6 1 1 1 r y 1 1 1 1 1 1 1 1 1 6 6 1 1 1 1 2 1 2 2 2 9 9 9 1 1 1 1 1 1 2 1 2 2 2 9 9 9 9 2 9 9 9 9 9 2 2 2 2 9 6 6 6 6 9 9 1 1 1 6 1 1 6 6 1 1 6 1 1 1 6 1 1 1 6 1 1 6 1 1 1 1 1 1 1 1 1 6 6 1 1 1 6 6 6 6 6 6 6 r r 6 6 6 6 6 6 6 6 6 1 6 1 y B r 1 1 1 1 1 1 1 1 > > > > > > > > > > > > > > > > > > > > > > > > > > > > > ; > > > > > ",
"1 1 1 1 1 1 6 6 6 6 6 6 6 6 6 6 y 8 8 y y y 8 y y y y y y y y y d d y y d d d d d d d d d d d d d d d d d d d d y y y y y y y y y y 8 8 8 8 8 6 6 8 6 6 6 6 6 6 6 6 y y 6 6 6 9 9 9 6 6 1 1 9 9 9 9 2 9 9 9 2 2 2 2 2 2 2 2 2 2 9 9 9 9 9 9 9 9 e 9 >.B 2 9 9 e 9 9 9 w f 9 9 9 9 9 9 i 9 9 9 i i i i i i a a a a x z z x b b b C C C C C C C b b b b b b b b b b x b b x x x z x x h z z z g g g g g g g g d d d d d d d g d d d d g :.B d d d d d d d d d d d d d d d d d d d g g g g g g g g g c c c c c c c c n n n n n n n n n n n n n n n n n n n n Z n n n n n n v z z z z c c z n n z c z z z z z z z z z z z z z g z oX:.s z z g z g g g g g g g g g g g g g d d d d y 8 8 8 8 8 8 8 8 8 8 6 6 6 6 6 6 6 6 1 1 6 1 1 1 y y 3 1 1 1 1 1 1 1 1 1 1 2 1 1 2 1 2 2 2 2 2 9 9 2 1 1 1 1 1 2 2 2 2 9 9 9 9 2 2 9 9 9 2 2 2 2 9 9 9 9 6 6 6 6 6 6 1 1 6 6 1 1 1 6 1 1 1 1 6 6 6 1 6 1 1 1 1 6 1 1 6 6 1 1 1 1 6 6 6 1 6 6 6 6 1 6 r 6 6 6 6 6 6 6 6 6 6 6 6 6 6 6 1 1 1 1 1 1 1 1 1 1 1 > > > > > > > > > > > > > > > > > ; > > > > > > > > > > > ; > > > > > ",
"1 1 1 1 1 1 1 6 6 6 6 6 6 6 6 6 6 6 6 8 y 8 8 y y y y y y y y y y d d d d d d d d d d d d d d d d d d d d d d d y y y y y y y y y y 6 y y y y 8 6 8 8 8 6 6 6 6 6 6 6 6 6 9 y y 9 9 9 9 6 6 6 6 1 6 9 9 y 9 2 2 2 9 2 2 2 2 2 9 2 9 9 9 9 9 e 9 9 9 3 2 9 9 9 9 w 9 9 9 9 9 9 9 9 9 9 9 9 9 9 i i i i i i i a a a s s z z x b b b b b A A C C b b b b b b b b b b b b b b x x x x x z x z g z g g g g g g g d d d d d d d g d d d d d 8 d d d d d d d d d d d d d d d d d d d g d d d d d g g g g g k g g g c c c c c c c c n c c c n z c n n n n n n n v n n n c v n c n c c z c c z z n n c z z z z z z z z z z z z z z z z T Z g z z z g g g g g g g g g g g d d d d i i 8 8 8 8 8 8 8 8 6 6 6 6 6 6 6 6 6 6 1 1 1 1 1 1 1 1 1 1 1 6 1 3 1 1 1 1 1 1 2 1 1 2 1 1 2 2 1 9 2 2 9 9 1 1 1 1 2 2 2 2 2 9 9 9 9 2 2 2 2 9 2 9 9 9 9 9 9 9 1 9 9 9 6 6 1 1 1 1 6 6 6 1 6 1 1 1 1 6 6 1 1 1 1 1 6 1 1 6 1 1 1 1 6 1 1 1 1 1 6 6 6 6 6 6 6 6 6 6 6 6 6 6 6 6 1 6 1 1 6 6 1 1 1 1 1 1 1 1 > > > > > > > > > > > > > > > > > > & ; > & > > > > > > > > > ; > > > > > ; ",
"1 1 1 1 1 1 1 6 6 6 6 6 6 6 6 6 6 6 6 8 r 8 8 y y y y y y y y y y y d d d d d d d d d d d d d d d d d d d d d d y y y y y y y y y y 8 8 y y 8 8 6 6 8 6 6 8 6 6 6 6 6 9 9 6 6 9 9 9 9 9 9 y 6 9 1 1 2 9 9 9 2 2 1 2 9 9 2 2 2 9 2 2 2 9 2 2 w 9 9 9 9 9 9 9 9 9 9 9 9 9 9 9 9 9 9 9 9 9 9 9 9 9 i i i i i i i s a s a g h x x x x b b b C C C C C b b b b b b b b b b b b x x x x x x x x g g g g g g g g d d d g d d d d d d d d d d d d d d d d d d d d d y d d d d d d d d d d d d d d d g c g g k g g g c n c c c c c c c c c z z c c z c n c z z z z z z z z z c z c z z z z z z z c z c z z z z z z z z z z z z z z z z g g z z z z g g g g g g g g g d d d d d d i 8 8 8 8 6 8 8 6 6 6 6 6 6 6 6 6 6 6 1 1 1 1 1 1 1 1 1 1 1 1 6 6 1 1 1 1 1 1 1 2 1 2 2 1 1 1 9 2 2 1 2 1 2 2 2 2 1 2 2 2 2 9 9 2 9 9 2 9 9 2 2 2 9 9 9 2 9 6 9 1 9 9 9 6 6 1 1 1 6 6 1 6 1 6 6 1 1 1 6 6 1 1 1 1 6 1 6 6 6 6 1 1 6 1 1 1 6 6 6 6 6 6 6 6 6 6 6 6 6 r r 6 6 6 6 6 6 6 1 6 1 1 1 1 1 1 1 1 1 > > > > > > > > > > > > > > > > > > & & & & & > > > > ; > > > > > & > > & & ",
"1 1 1 1 1 1 1 6 6 6 6 6 6 6 6 6 6 6 6 8 y y 8 y y y y y y y y y y y d d y y d d d d d d d d d d d d d d d d d d d y y y y y y y y y y y y y y 8 8 8 6 8 8 y 8 6 6 6 6 9 6 6 6 6 6 6 9 1 6 9 9 9 1 1 1 1 2 2 2 2 1 2 2 2 9 2 2 2 9 2 2 2 2 9 9 9 9 9 9 9 9 9 9 9 9 9 9 9 9 9 9 9 9 9 w 9 9 9 9 i 9 9 i i i i i i h a s s h h h x x x b b b C C C C C b b b b b b b b b b b b b b b x x x x x x x h g g g g g g g g d d d d d d d d d d d d d d d d d d d d d d y y y y d y d d d d d d d d d g c d d d g g g g g g k g g g g g g g z c z z z z z z z z z z z z z z z c z c z z z z z z z z z z z z z z z z z z z g z g g g g g z z g g g g g g g d d d g d d d d d y 8 i 8 8 8 8 6 6 6 6 6 6 6 6 6 6 6 6 6 1 6 1 1 1 1 1 1 1 1 1 1 1 1 1 1 1 1 2 2 1 1 1 1 1 2 2 1 1 1 1 1 3 2 9 2 2 2 2 1 2 2 2 2 9 9 9 2 2 2 2 2 9 2 2 2 9 9 9 1 1 1 1 2 2 9 6 6 6 6 1 1 1 1 6 1 1 1 1 1 1 1 1 6 6 6 6 1 1 1 1 1 6 1 1 6 6 6 1 6 6 6 6 6 6 6 1 6 r 6 6 6 6 r r 6 6 6 6 6 6 6 6 1 1 1 1 1 1 1 1 1 1 1 > > > > > > > > > > > > > > & > > > & & & & & & & & & ; > & & ; > > & > ; ",
"1 1 1 1 1 1 6 1 6 6 6 6 6 6 6 6 6 6 6 8 y y 8 8 y y y y y y y y y y d d y y d d d d d d d d d d d d d d d d d d d y y y y y y 8 y 8 8 y y 8 8 y y 8 8 8 y 8 6 6 6 6 6 9 6 6 6 6 1 6 1 1 6 9 6 1 1 1 1 1 2 2 2 2 1 2 2 2 2 2 2 2 2 2 2 2 2 2 9 9 9 9 9 9 9 9 9 9 9 9 9 9 9 9 9 9 9 9 9 9 9 9 9 9 9 9 9 i i 9 i i a i i s s s s g h x x x b b b b C C b b b b b b b b b b b b b b b b b x x x x x x z z g g g g g g g d d d d d g d d d d d d y y d d d d d y y d y d y y d d d d d d d d d d d d d d d g d d d d g g g g g g g k g g g g g g g g g g z g z z g g g z z z z c c z z z z z z c z z z z z z g g g g g g g g g g g g g g d d d d d d d d i d d y 8 y 8 8 8 8 8 8 6 6 6 6 6 6 6 6 6 6 6 6 1 1 1 1 6 6 1 1 1 1 1 1 1 1 1 1 1 1 1 1 1 1 2 1 1 1 1 1 1 1 1 1 1 1 2 1 2 2 2 2 2 1 1 2 2 2 2 2 9 9 2 2 2 2 2 9 2 2 9 9 9 9 1 1 1 1 1 1 9 9 6 6 1 6 1 1 1 1 1 1 1 1 1 1 1 1 1 6 6 1 1 6 1 1 1 6 1 1 6 6 6 6 1 6 6 6 r r 6 6 6 6 r r 6 6 6 6 6 6 6 6 6 6 6 1 1 1 1 1 1 1 1 1 1 1 > > > > > > > > > > > > > > & & > > > > & & & & & & & & > > & & & > > > ; ; ",
"1 1 1 1 1 1 1 6 6 6 6 6 6 6 6 r 6 6 6 8 6 y 8 y y y y y y y y y y y y y d d d d d d d d d d d d d d d d d d d d d y y y y y y 8 y y 8 y y 6 6 8 8 6 6 8 8 8 6 6 6 6 6 6 6 6 6 9 6 9 9 1 1 6 9 2 9 1 1 2 2 2 2 2 2 1 2 2 2 2 2 2 2 2 2 2 2 2 2 2 2 9 9 9 2 2 9 9 9 9 e 9 9 9 9 e 9 9 9 9 9 9 9 9 9 9 9 9 i i i i i i i s s s a s g g h x x x b b b C C b b b b b b b b b b b b b b b b b x x x x x x h g g g g g g g g d d d d d d d d d d d d y d d d y y y y d d y y y d d y d d d d d d d d d d d d d d d d d d d g g d g d g d g g g g g g g g g g g g g g g g g z g g g g z g g g g g g g g z z g g g g g g g g g g g g g g g d d d d d d d y i 8 8 y 8 8 8 8 8 8 6 8 8 6 6 6 6 6 6 1 6 6 6 6 1 1 1 1 6 1 1 1 1 1 1 1 1 1 1 1 1 1 1 1 1 1 1 2 1 3 1 1 1 1 1 1 2 2 2 2 2 2 2 2 2 2 1 2 2 1 2 2 2 9 9 2 2 2 9 9 9 2 2 2 2 2 2 9 9 9 6 1 1 6 6 6 6 1 1 6 6 1 6 1 1 1 1 1 1 1 1 1 1 1 1 6 6 1 1 1 6 1 1 1 1 6 6 1 6 6 6 6 6 6 r 6 r r 6 6 6 6 6 6 6 6 6 6 6 6 1 1 1 1 1 1 1 1 1 1 1 1 > > > > > > > > > > > > > & & > > > > & & & ; > > & & > > & & & & ; ; ; ; ",
"1 1 1 1 1 1 1 1 6 6 6 6 6 6 6 r 8 8 y y y y y y y y y y y y y y y y y y d d d d d d d d d d d d d d d d d d d d d y y y y y y y y y y y y 8 8 6 8 6 6 6 6 6 6 6 6 6 6 6 6 6 6 9 9 9 6 6 6 6 9 2 2 6 1 2 1 1 1 2 1 1 1 2 2 2 2 2 2 2 2 2 2 2 2 2 9 9 9 9 2 2 9 9 2 9 e 9 9 9 9 9 9 9 9 9 9 9 9 9 9 9 9 9 9 9 9 i i i i i i i s a s g s z x x x b b b b b b b b b b b b b b b b b b b b b b b b x x x x x x z g g h g g g d g g d d d d d d d d d d d d y d y y y y y y y y y d y y d y d y d d d d d d d d d d d d d d d d d d d d d d d d d d d d d d d d g g d d g c g g g g g g g g g g g g g g g g g g g d d d d d d d d d d d d d d i i d y 8 8 8 8 8 8 8 8 6 6 6 6 6 6 6 6 6 6 6 6 1 1 6 6 1 1 1 1 1 1 1 y 6 1 1 1 1 1 1 1 1 1 1 1 1 1 2 1 1 1 1 1 1 1 1 1 3 2 1 2 2 1 2 2 1 1 1 1 2 2 1 2 2 2 9 2 2 2 2 9 9 9 2 2 2 2 9 2 9 9 9 6 1 1 6 1 1 1 1 6 6 1 1 6 6 6 1 1 6 1 1 6 1 1 1 6 6 6 1 1 1 6 6 1 6 6 1 6 1 1 6 6 6 6 6 6 6 6 6 6 6 6 6 6 6 6 6 6 6 6 1 B B 1 1 1 1 1 1 1 1 1 1 > > > > > > > > > > > > & & & > > & & & & > > > > & ; ; & & ; ; ; > > > > ",
"1 1 1 1 1 1 6 1 6 6 6 6 6 r r r r y y 8 y y y y y y y y y y y y y y y y y d d d d d d d d d d d d d d d d d y y d d y y y y y y 8 8 y y 8 6 6 6 6 6 9 6 6 6 6 6 6 6 6 6 6 6 6 6 9 6 9 6 6 2 1 1 2 2 1 1 1 1 1 1 1 1 2 2 1 2 1 2 2 2 2 2 2 2 9 9 2 2 2 2 2 2 9 9 2 2 9 9 9 9 9 9 9 9 9 9 9 9 9 9 9 9 9 9 9 9 9 8 i 8 i i i i i i i g g s s g z z x x b b b b b b b b b b b b b b b b b x b b b b b x x x x x z x h h g g g g k d d d d d d d d d d d d d y y y y y y y d d y d d d y y d y d d d d d d d d y d d d d d d d d d d d d d d d d d d d d d d d d d d d d d d d d d d d d d d d d g k d d d d g g d d d d d d d d i 8 d d 8 8 8 8 8 8 8 d 8 8 8 8 8 8 6 6 6 6 6 6 6 6 6 6 6 6 6 1 1 1 1 1 1 1 1 1 1 d 6 3 1 1 2 1 1 2 1 1 1 1 1 3 1 1 1 2 1 2 2 2 1 1 3 1 1 1 2 2 1 1 1 1 1 1 2 2 1 2 2 2 2 2 2 2 9 9 9 9 2 2 9 9 9 9 9 9 6 1 1 1 1 1 6 6 1 1 6 1 1 6 1 6 1 6 6 1 1 6 1 1 1 6 1 6 1 1 1 1 1 1 1 6 6 6 6 1 6 6 6 6 6 6 6 r r 6 6 6 6 6 6 6 6 6 6 6 1 B k 1 1 1 1 1 1 1 1 > 1 > > > > > > > > > > > & > & & > > & & & & > > & & & & & & > & ; ; & > > > ",
"1 1 1 1 1 6 6 6 6 6 6 6 6 6 6 r 6 y 8 y y y y y y y y y y y y d y y y y y d d d d d d d d d d y d d d d d d d y y y y y y 8 8 y y y r 6 6 6 6 6 6 6 8 8 6 6 6 9 6 6 6 6 6 9 6 6 6 6 9 6 6 2 2 1 1 1 1 1 2 1 2 2 1 1 1 2 1 1 2 1 2 2 2 2 2 2 2 2 2 2 9 2 2 2 2 2 2 e 9 9 9 9 9 9 9 u 9 9 w 9 9 9 9 9 9 9 9 9 9 9 8 8 i i i d i i i s s s s a s s x x x x b b b b b b b b b b b b x b x x b b b b b x x x x x x x x x z h h g g g g d d d d d d d d d d d d d y y y y y y y y y y d d y y d g d y d d d y d y y y y y y y d d y y d y d d y d d d y d d d d d d d d d d d d d d d d d d d d d d d d d d d d d d y d y y y 8 8 8 8 8 y 8 8 8 8 8 6 8 8 8 8 6 6 6 6 6 6 6 6 6 6 6 6 1 6 1 6 9 1 1 1 1 1 1 1 1 1 1 1 1 1 1 1 1 2 3 1 1 1 1 2 2 2 1 1 2 1 1 2 2 1 1 2 1 1 1 1 1 1 1 1 1 1 2 2 1 2 1 2 2 2 2 2 2 2 9 9 9 9 9 2 9 9 9 9 2 2 9 1 1 1 1 6 6 6 6 6 1 6 6 1 6 6 1 1 1 6 6 6 1 1 1 6 6 6 6 1 1 6 1 1 6 6 6 6 6 6 6 6 6 6 6 6 6 6 6 6 6 6 6 6 6 6 6 6 6 6 1 1 1 1 1 1 1 1 1 1 > > 1 1 > > > > > > > > > > & & & > & & > & & & ; & & & & & & & & & ; ; & > > ; ",
"1 1 6 6 1 6 6 6 6 6 6 r 6 6 6 6 6 6 8 8 8 y y y y y y y y y d d y y y y y y d d d d d d d d c k d d d d d d y d y y y y y y y y y 8 8 6 y 8 6 6 6 6 8 6 6 6 6 6 9 6 6 6 6 6 6 6 6 6 6 1 6 9 9 2 1 1 1 1 2 9 2 1 1 1 1 1 1 1 2 2 2 2 2 2 2 2 2 2 2 2 2 2 9 9 9 9 2 9 9 9 9 9 9 9 9 w 9 9 9 9 g i 9 9 9 9 9 9 9 8 8 8 8 i i i i i i i i i i s s s g a x z x x b b b b b b b b b b b b b b b b b b b b b b b b x x x x x h g g g g g g d g d d d d d d d d d d d y d d y y y 8 8 y y d y y y d d y y y y y y y y y 8 8 y d y y y y y y y y 8 8 d d y y y y y y y y y d y y d y y y y y 8 8 8 8 y y 8 8 8 y d 8 d 8 y 8 8 8 8 8 8 8 8 8 8 8 6 6 6 6 6 6 6 9 6 6 6 6 6 6 9 6 6 6 6 6 6 1 1 6 6 3 1 6 1 1 1 1 1 1 1 1 1 1 3 3 1 1 1 1 1 1 2 2 2 1 1 1 1 1 2 1 1 3 1 2 1 1 1 1 1 1 1 1 2 2 2 1 1 2 1 2 1 1 1 2 2 2 9 9 9 9 9 9 2 2 9 2 2 2 2 1 6 6 1 6 1 6 6 1 1 6 1 1 6 6 1 1 1 6 r 1 6 6 6 1 1 1 1 6 1 1 1 1 6 6 1 1 1 6 6 6 6 6 6 6 6 6 6 6 6 6 6 6 6 6 6 6 6 6 1 1 1 1 1 1 1 1 1 1 1 1 > > > > > > > > > > & > > & > & & & & > > & & & & & & & & > ; & > > ; ; & ; ",
"1 1 1 1 6 6 6 6 6 6 6 r 6 6 6 6 6 y 8 y y 8 y y y y y y y y d d y y y y y y d d d d d d y g J.;.d d d d d y y y y y y y y y y y y 8 y 8 8 8 6 6 6 6 8 6 6 6 6 6 6 9 6 9 6 6 6 1 1 1 1 1 6 9 1 1 1 1 1 1 1 2 1 2 1 1 1 1 1 2 2 2 2 2 2 2 2 2 2 2 2 2 2 2 2 9 9 9 2 2 9 9 9 9 9 9 9 9 9 w 9 / CX>.1 9 9 9 9 9 9 9 9 8 8 8 8 8 8 8 8 i i i i i i s s s g z x z x x x b b b b b b b b b b b x b x x b b b b b b x x x x x x x x g g g g g g g g d d d d d d d y d d d d d y 8 y y y y 8 y 8 y y y y y y y d y y y y y d d y y y 8 y 8 8 y y y 8 y y y y y 8 y y 8 y y 8 8 y y 8 y y y 8 8 8 8 8 y y 8 8 8 8 8 8 8 y 8 8 8 8 8 8 8 8 8 8 6 6 6 6 6 6 6 6 9 9 6 6 6 6 6 9 9 6 6 6 6 9 6 1 1 6 1 1 1 6 6 1 1 2 1 1 1 1 1 1 3 1 1 3 1 1 2 1 1 2 2 1 2 2 1 1 2 2 2 1 1 2 1 1 1 1 2 1 1 1 2 2 2 2 1 2 2 1 1 1 2 2 2 2 9 9 9 9 2 2 2 2 2 2 2 2 1 1 6 6 1 6 1 6 6 6 1 6 6 1 1 6 6 6 1 6 6 6 6 6 6 6 1 1 6 6 1 1 6 6 1 6 6 1 6 6 6 6 6 6 6 6 6 6 6 6 6 6 6 6 6 6 6 6 6 6 1 1 1 1 1 1 1 1 1 1 1 1 > > > > > > > > > > > > & & > ; & > > ; & > & & & & & & & & ; & & ; & ; ; ; ",
"1 1 1 1 6 6 6 6 6 6 6 r r 6 6 6 8 y 8 y 8 y y y y y y y y y y d y y y y d d d d d d d d y g ;...d y d d d d d y y y y y y y y y y 8 y 8 8 6 6 6 6 6 6 6 6 6 6 6 6 6 9 9 6 6 6 6 1 1 1 1 1 1 1 1 1 1 1 1 1 1 1 1 1 1 1 1 2 2 2 2 2 2 2 2 2 2 2 2 2 2 2 2 2 2 2 9 2 2 9 9 9 9 9 9 9 e 9 9 0 ^ DX>.8 9 9 9 9 9 9 9 9 8 9 9 8 8 8 8 8 8 8 i 8 i i i i s s s h g z x z x b b b b b b b b b b x x x x b b b b b b b b b x x x x x x x x x g h h g g g d d d d d d d d d d d d y y y y y y y y y y y y y y y 8 y y y y y y d k d 8 y y y 8 y y y 8 8 8 8 y 8 8 y y 8 8 d y y 8 8 8 y 8 8 8 8 8 8 d d 8 8 8 8 8 8 8 8 8 8 8 8 8 8 6 8 8 6 6 6 6 9 9 6 6 6 9 9 9 9 9 9 9 9 9 9 1 6 6 9 9 9 2 1 1 1 2 1 1 1 1 2 2 1 2 1 2 1 1 1 1 2 3 1 1 1 1 1 2 1 1 2 2 2 2 1 2 1 1 1 2 2 1 1 2 2 2 1 1 2 1 2 2 1 9 9 2 2 2 2 9 2 2 1 1 2 2 9 2 2 9 2 2 9 2 9 9 6 6 6 1 1 1 1 6 1 1 1 6 6 1 1 6 6 1 1 1 6 6 1 1 1 1 6 6 1 1 1 6 1 6 1 6 6 6 6 6 6 6 6 6 6 6 r 6 6 6 6 6 6 6 1 1 6 6 6 6 1 1 1 1 1 1 1 > 1 1 > > > > > > > > > > > > > > > > & & & & > > > & ; ; > > ; ; ; > ; ; & ; & & ",
"1 1 1 1 6 6 6 6 6 6 6 6 6 6 6 r y y y y y y y y y y y y y y y y y y y d d d d d d d d d d d i 8 y d y d d d y y y y y y r r 8 8 y 8 8 y 6 6 8 6 6 6 6 6 6 6 6 6 6 6 9 6 6 6 1 6 1 1 1 1 1 1 1 1 1 1 1 1 1 1 2 1 3 1 1 y 1 2 2 2 1 2 2 2 2 2 2 2 2 2 2 2 2 2 2 9 9 9 9 9 9 9 9 9 9 9 9 9 9 9 B f 9 9 9 9 9 9 6 9 6 9 8 8 6 6 8 8 8 8 8 8 8 8 i i i i i i a g g g z z z x x b b b b b b b b x x x b b b b b b b b b b x x x x m m x x z h g g h g g g d d d d d d d d d d d y y d y y y y 8 y y y 8 8 8 8 y y 8 8 8 8 8 k d 8 8 8 8 8 8 8 8 8 8 8 y y 8 8 8 y 8 8 y 8 8 8 8 8 8 8 8 8 8 8 8 d f 8 d c 8 8 8 8 8 8 8 8 9 9 9 9 9 9 6 6 9 9 9 9 9 9 9 9 9 9 9 9 9 9 2 9 9 2 1 1 9 2 2 3 2 2 2 2 1 1 2 2 2 2 1 1 2 2 2 2 3 2 1 2 3 1 1 1 2 2 1 2 2 2 1 2 2 2 2 1 2 1 1 2 2 2 2 2 1 1 1 1 2 2 2 2 2 1 2 2 1 1 2 2 2 1 2 6 9 9 6 1 2 2 9 2 2 2 9 9 6 6 1 1 1 1 1 6 1 6 6 6 1 1 1 1 6 6 1 1 1 1 1 1 6 6 1 6 6 1 6 6 1 6 6 6 6 6 6 6 6 6 6 6 6 6 6 6 6 6 1 6 6 6 6 6 6 1 1 1 1 1 1 1 1 1 1 1 > > > > > > > > > > > > > > > > > & & & > > > & ; & ; > ; ; & ; ; ; ; & & ; ",
"1 1 1 1 6 6 r 6 6 6 6 r r y y r y y y y y 8 6 y y y y y y y y d d y y d d d d d d d d d d d d d d d y d d y y y y y y y r r y r 8 8 r 6 6 6 6 6 6 6 6 6 6 6 9 9 9 6 6 6 6 6 6 6 1 1 1 1 1 1 1 1 1 1 1 1 1 1 1 1 1 1 1 y 2 3 1 2 2 2 2 2 2 2 2 2 2 2 2 2 2 2 2 9 2 2 9 2 9 9 9 9 9 9 9 9 9 9 2 0 9 9 9 9 9 9 6 6 6 6 9 6 6 6 6 6 6 8 8 8 8 8 8 i 8 i i i i s s s s s s x x x b b b b b b b b b b x x b b b b b b M M b x x b x x x x x x z g h h g g g d g g i d d d d d d i d i y y 8 y y 8 8 y y y 8 8 8 y d d y y y 8 8 y y y y y 8 8 8 8 8 8 8 8 8 8 8 8 8 d 8 8 8 8 8 8 8 8 6 8 8 8 d y 8 6 B / y 8 8 6 6 8 8 8 9 6 6 6 6 9 6 9 9 9 6 9 6 9 9 9 9 9 9 9 9 9 2 9 2 2 1 1 1 1 1 6 1 1 1 1 2 2 2 2 1 1 2 1 2 1 1 1 2 2 2 3 1 3 1 1 1 1 2 2 1 2 1 1 1 2 2 1 6 1 1 1 2 1 2 2 1 1 2 2 2 2 2 2 2 2 1 2 2 2 2 2 9 2 2 9 9 9 9 9 2 1 1 2 2 1 1 1 6 1 1 1 6 6 6 1 1 1 1 1 1 6 1 1 1 1 6 6 1 1 1 6 1 1 1 6 6 1 R Y 1 6 6 6 6 6 6 6 6 6 6 6 6 6 6 6 6 6 1 y B y 1 6 6 1 1 1 1 1 1 1 1 1 1 1 > > > > > > > > > > > > & > & > > & & & & > & & & > ; ; & & ; ; ; ; & & ; ; ",
"1 1 6 6 6 6 6 6 6 6 6 6 r y y y 8 y y y y y k y y y y y y y y d y y y d d y y d d d d d y y d d d d y y d y y y y y y y y 6 y y 8 8 6 y 6 6 6 6 6 6 6 6 6 6 6 6 9 6 6 9 6 6 9 1 1 1 6 1 1 1 1 1 1 1 1 1 1 1 1 1 1 1 1 3 1 1 3 3 1 2 2 2 2 2 2 2 2 2 2 2 2 2 2 2 2 2 9 2 9 9 9 9 2 9 9 9 9 9 9 9 9 9 9 9 9 9 6 6 6 6 6 6 6 6 6 6 6 6 6 8 8 8 8 8 8 8 i i i i i s s s g h x x x b x b b b b b b b b b b b b G b x b b b b x x x x x x x x x x z h h g g g g g i i d d i d i i d d d d d d d y y y y y y 8 y y d y 8 y d 8 y 8 8 y y d y 8 8 8 8 8 8 8 8 8 8 8 8 8 8 8 8 8 8 8 8 d k 8 6 6 M d 6 8 8 8 8 8 8 6 9 9 6 9 6 9 6 6 9 6 9 9 6 9 6 6 9 9 9 9 9 2 9 9 9 2 2 2 2 2 2 1 1 1 1 2 9 1 6 1 2 2 2 2 1 2 2 2 2 1 1 1 2 1 2 2 1 1 1 1 1 1 2 2 2 2 1 1 1 2 1 1 1 1 1 1 1 2 2 2 1 1 2 2 1 1 2 1 1 1 1 1 2 6 9 2 1 6 1 6 6 6 9 9 1 1 1 1 6 6 1 6 6 1 1 1 1 6 6 1 1 1 1 1 1 1 6 1 6 6 1 1 6 6 1 6 6 1 6 6 6 1 k k 6 6 6 6 6 6 6 6 r 6 6 6 6 6 6 6 6 6 6 6 y 6 6 6 6 1 1 1 1 1 1 1 1 1 1 1 > > > > > > > > > > > > > & > > & > & > > ; & ; ; ; > ; & > ; ; ; ; > ; ; & ",
"1 1 6 6 6 6 6 6 6 6 r 6 r 6 y y 8 y 8 y 6 B J.c 6 y y y y y y y y y y y y y d d y d d y y y d y d y y y y y y y y y y y r r y 8 y 6 6 6 6 6 6 6 6 6 6 6 6 6 6 6 6 6 9 y 6 6 6 1 1 1 1 1 1 1 1 1 1 1 1 1 1 1 1 1 1 1 1 1 1 1 1 1 1 9 1 2 2 2 2 2 2 2 2 2 2 2 2 2 2 2 2 2 2 2 9 9 9 9 9 9 2 9 9 9 9 9 6 9 9 9 9 9 1 6 6 6 6 6 6 6 6 6 6 6 6 8 8 8 8 8 8 8 8 i i i i g s g g s h x x x x x b b b b b b b b x b b x b x x M b b b b b b x x x x x x x g g h h a g a g d d d d i d d d d g d d i i i 8 d 8 8 8 8 8 8 8 y y 8 8 8 8 y 8 y 8 8 8 8 y 8 8 8 8 8 8 d 8 8 8 8 6 8 8 8 8 g c 8 9 6 8 8 9 8 6 9 9 9 9 9 9 9 9 9 9 6 6 9 6 6 9 9 9 9 2 9 9 9 9 9 2 9 2 2 2 9 9 2 2 2 9 9 1 2 1 2 1 1 2 2 2 2 2 2 2 2 2 2 2 2 1 1 1 1 1 2 1 1 2 1 1 1 2 2 2 2 2 2 1 1 1 1 2 2 1 2 1 2 1 1 1 1 1 2 1 1 1 1 1 1 1 1 1 1 1 1 1 6 1 2 6 6 1 1 1 1 6 9 6 6 2 1 1 1 1 1 6 6 6 6 1 1 1 6 6 1 1 1 6 6 1 6 6 6 1 6 6 6 6 6 6 1 1 1 6 6 6 6 6 6 r r r 6 6 6 6 6 6 6 6 6 6 6 1 1 6 6 1 1 1 1 1 1 1 1 1 1 > 1 1 > 1 > > > > > > > > > > > > > & & ; > & & & & ; & & > > ; : : : : > ; ; & ",
"1 1 6 6 6 6 6 6 6 6 r 6 y r y y 8 8 y y 8 d B d y y y y y y y y y y y y y y d y y y d y y d y y y y y y y y y y y y 8 y 6 r r 6 6 6 6 6 6 6 6 6 6 6 6 6 6 6 6 6 1 6 6 1 9 6 1 8 6 1 1 1 1 1 1 1 1 1 1 1 1 1 1 1 1 1 1 1 1 1 1 1 1 2 1 1 3 1 1 1 2 2 2 2 2 2 2 2 2 2 2 2 2 2 9 9 9 9 9 9 2 2 9 2 9 2 1 9 9 9 6 9 1 1 6 6 6 6 6 6 6 6 6 6 6 6 6 8 8 8 8 8 8 8 i i i i i i s a s a x x x x x x x x x b b b b x b b b b b b b b b b b b b b b x x x x x x x h a g a h h g h f i i d i i d i d i i d i i 8 i 8 8 8 8 y 8 8 8 8 8 y y 8 8 y y y y y d y 8 8 y 9 8 8 8 8 8 8 8 8 8 9 8 8 9 9 9 8 9 9 9 9 9 9 9 9 9 9 9 9 9 9 9 9 9 9 9 9 9 9 9 2 9 9 9 9 9 2 9 2 2 2 2 9 9 2 9 9 9 9 9 2 2 2 2 2 2 2 2 2 2 2 2 2 2 1 1 1 1 1 2 2 1 1 1 2 2 2 2 2 2 2 2 2 1 1 1 1 2 2 2 1 1 1 1 1 1 1 1 1 1 1 1 1 1 1 1 1 1 1 1 1 1 1 1 6 1 6 6 6 6 1 1 9 9 6 6 6 6 1 1 6 1 6 6 6 1 1 1 1 6 6 6 6 6 6 6 1 6 6 6 1 6 6 6 6 6 6 6 6 6 6 r 6 6 6 6 r 6 6 6 6 6 6 6 6 6 6 6 6 6 1 1 6 1 1 1 1 1 1 1 1 1 1 1 1 > > > > > > > > > > > > > > > > > & & > > & & & & & ; & ; ; & ; : : : * ; & & ",
"1 1 1 6 6 6 6 6 6 r 6 r r y y y y 8 y y y 8 6 8 y y y y y y y y y y y y y y y y y y d y y y y y y y y y y y y y y y y y r r y r 6 6 6 6 6 6 6 6 6 6 6 6 6 6 6 6 1 6 9 2 6 1 6 r 6 1 1 1 1 1 1 1 1 1 1 1 1 1 1 1 1 1 ; 1 3 3 1 1 1 1 1 2 1 1 1 2 2 2 2 2 2 2 2 2 2 2 2 2 2 9 2 2 9 9 9 9 9 9 9 9 2 1 9 9 6 6 1 1 1 1 6 6 6 6 6 6 6 6 6 6 6 6 6 6 8 8 8 8 8 8 8 8 i i i i i i s s s a x x x x x x x x x b b b b b b b b b b b b b b b b b b b b x x x x x h a h h h a s a a a i i f i d d i i i d i d i d i i 8 8 8 8 y y 8 8 8 8 8 8 y 8 8 8 8 y 8 8 8 8 8 8 9 8 8 8 9 8 8 8 9 9 8 8 8 8 8 9 9 9 9 9 9 9 9 9 9 9 9 9 9 9 9 9 9 9 9 9 9 2 9 9 9 9 9 9 9 9 2 2 9 2 9 9 9 2 9 9 9 9 2 2 2 2 2 2 2 1 2 2 2 2 2 2 1 1 1 1 1 1 2 2 2 2 2 2 2 2 2 2 2 2 2 2 1 1 1 1 2 1 1 1 1 1 1 1 1 1 1 1 1 1 1 1 1 1 1 1 1 1 1 1 1 1 6 6 6 1 6 1 1 1 1 9 6 1 6 1 1 y 6 1 1 6 6 6 6 6 6 6 6 6 6 6 6 6 6 6 6 1 1 6 6 6 6 6 6 6 6 6 6 6 6 6 6 6 6 6 6 6 6 6 6 6 6 6 1 1 6 6 1 1 6 6 6 1 6 1 1 1 1 1 1 1 1 1 1 1 > > > > > > > > > > > > ; > ; & & ; & > ; ; & & ; ; & > & & & & ; ; ; & ",
"1 1 1 6 6 6 6 6 6 6 6 r 6 y y y y y y y y y y y y 8 y y y y y y y y y y y y y y y y y y y y y y y y y y y y y y y y y r r 6 r 6 6 6 6 6 6 6 6 6 6 6 6 6 6 6 6 1 1 6 6 6 6 1 1 1 1 1 1 1 1 1 1 1 1 1 1 1 1 1 > > > 1 1 1 1 1 1 1 r 6 1 1 1 1 1 1 2 1 2 2 2 2 2 2 2 2 2 2 2 8 2 2 9 9 9 9 2 9 9 9 1 2 6 6 9 6 1 1 6 6 1 1 6 6 1 1 6 6 6 6 6 6 6 6 6 6 8 8 8 8 8 9 9 8 i i i i i i s s a a x h a x x x x x x x x x b b b b b b b b b b x x b m b x b x x x x x x h h a a a h a a a h a i i i f i i i i i f i d d i i f 8 8 i 8 i i 8 8 8 8 8 8 8 8 8 8 8 8 8 8 9 9 8 8 8 9 8 8 8 8 8 8 9 9 9 9 9 9 9 9 9 9 9 9 9 9 9 9 9 9 9 9 9 9 9 9 9 2 9 9 9 9 9 9 9 9 2 2 9 2 2 9 9 2 9 9 2 2 9 2 2 2 2 2 3 2 2 1 2 2 2 2 1 1 2 1 1 3 2 2 2 2 1 2 2 9 9 9 2 2 2 2 1 1 1 1 1 1 1 1 1 1 1 1 1 1 1 1 1 1 1 1 1 1 1 1 1 1 1 1 1 1 1 1 1 1 1 1 1 1 1 1 1 1 6 6 6 y 6 1 1 6 6 6 6 6 6 1 1 6 6 1 6 6 6 6 6 6 1 1 1 6 6 6 6 6 6 6 r 6 6 6 6 6 6 6 6 6 6 6 6 6 6 8 / d 1 6 6 6 6 6 6 1 1 6 1 1 1 1 1 1 1 1 1 > > > > > > > > > > > > > ; ; ; & > & & ; ; & ; ; ; ; ; ; & & & & ; & : * ",
"1 1 6 6 6 6 6 6 6 6 6 6 r r y y 8 y y y y y y y y y y y y y y y y y y y y y y y y y y y y y y y y y y y y y y y y y r 6 r 6 6 r r 6 6 6 6 6 6 6 6 6 6 6 6 9 6 1 1 1 6 1 1 1 1 1 1 1 1 1 1 1 1 1 1 1 1 1 1 1 1 > 1 > 1 1 1 1 1 1 1 1 > 1 1 1 1 1 1 2 2 2 2 2 2 2 2 2 2 2 2 2 2 2 2 2 2 2 2 2 9 9 2 1 1 6 6 1 1 1 1 6 1 1 1 1 1 1 6 6 6 6 6 6 6 6 6 6 6 6 8 8 8 9 8 8 8 8 i i i i d i s a s a h h x x x x x x x x x x b b b b b b b x b b b b b b b x x x x x x x h x x a a a a a h a a a i f i i i i i i f f i i f i i 9 i f i i i 8 8 8 8 8 8 9 8 9 8 8 y 8 9 9 9 9 9 9 8 8 8 8 9 9 8 9 9 9 9 9 9 9 9 9 9 9 9 9 9 9 9 9 9 9 9 9 9 9 9 9 9 9 9 9 9 9 9 9 2 2 2 2 9 9 2 2 2 2 2 2 9 2 2 2 2 6 f 9 2 2 1 2 2 2 2 1 1 2 1 1 2 2 2 2 1 2 2 2 y k 2 2 1 2 1 1 1 1 2 2 1 1 1 1 1 1 1 1 1 1 1 1 1 1 1 1 1 1 1 1 6 6 1 1 1 1 1 1 1 1 1 1 1 1 1 1 1 6 6 1 1 6 1 1 1 1 6 6 1 1 1 6 6 1 1 6 6 6 6 6 1 B B 1 6 6 6 6 6 6 6 6 6 6 6 y d 6 6 6 6 6 6 6 6 8 / k 1 6 6 6 6 6 6 1 1 6 1 1 1 1 1 1 1 1 1 1 > > > > > > > > > > > > > ; ; ; ; ; ; ; ; ; & ; ; ; , * & & & ; ; * & & ",
"1 1 6 6 6 6 6 6 6 6 6 6 6 y y y y y y y y y y y y y y y y y y y y y y y y y y y y y y y y y y y y y y y y 8 y y y y y 6 6 6 6 6 6 6 6 6 6 6 6 6 6 6 6 6 6 6 6 6 1 1 6 1 1 1 1 1 1 1 1 1 1 1 1 1 1 1 1 1 1 r 1 ; 1 1 1 1 1 1 1 1 1 1 1 1 1 1 1 1 1 1 1 2 2 2 2 2 2 2 2 2 2 2 2 2 2 2 2 2 9 2 9 9 1 1 1 1 2 1 1 1 1 1 1 1 1 1 1 6 6 6 6 6 6 6 6 6 6 6 6 6 6 6 6 8 8 8 8 8 8 8 8 i i i i i i s a h h a a a x x x x x x x x x b b x b b b x x b b b b b b b x x x x x x x x h h a a h a a a h h i f f f i i i i i i i i i f i i i i i i 8 9 9 9 9 9 9 8 8 9 f 8 9 9 9 9 9 9 8 9 8 9 9 9 9 9 9 9 9 9 9 9 9 9 9 9 9 9 9 9 9 9 9 9 9 9 9 9 9 9 9 9 9 9 9 9 9 2 2 2 9 9 9 9 2 2 2 2 2 2 9 9 2 2 2 y / f : 2 2 2 2 2 2 1 2 2 1 2 2 2 2 2 1 2 2 2 2 2 2 2 2 2 1 1 1 1 1 1 1 1 1 1 1 1 1 1 1 1 1 1 1 1 1 1 1 1 1 1 6 6 1 6 6 6 6 6 1 1 1 1 1 1 1 1 1 1 1 6 6 1 1 1 1 1 1 6 6 1 1 1 6 6 1 1 6 6 6 1 6 ^ R 1 6 6 6 6 6 6 6 6 6 6 1 B R 6 6 6 r r 6 6 6 6 1 1 6 6 6 6 6 6 1 1 6 6 1 1 1 1 1 1 1 > 1 1 > > > > > > > > > > > > > > ; ; ; ; ; > ; ; ; ; ; ; & * & & & : : * & & ",
"1 1 6 6 6 6 6 6 6 6 6 r 6 6 r 6 8 8 y y y y y y y y y y 8 y y y y y y y y y y y y y y y y y y y y y y y y y y y 6 6 r 6 r 6 6 6 6 6 6 6 6 6 6 6 6 6 6 6 6 6 6 6 6 6 6 6 1 1 6 1 1 1 1 1 1 1 1 1 1 1 1 > 1 1 > > > 1 1 > 1 1 1 1 1 1 ; 1 1 1 1 2 2 1 2 2 2 2 2 2 2 2 2 2 2 2 2 2 9 9 1 2 2 2 2 6 9 6 1 1 1 1 1 1 1 1 6 1 1 1 1 6 1 6 1 6 6 6 6 6 6 6 6 6 6 6 6 8 8 8 8 8 8 9 8 9 9 i i i i i h h a a a a a h h x x x x x x x b x x b b x b b b x b b x x x x x x x x x x x x a h h h h a a a a a a i i i i i i i i f i i i i i i i i i i 9 9 9 9 9 9 9 i 9 9 9 9 9 9 9 9 9 9 9 9 9 9 9 9 9 9 i 9 9 9 9 9 9 9 9 9 9 9 9 9 9 9 9 9 9 9 9 9 9 9 9 9 9 9 2 2 9 9 9 9 9 2 9 2 9 2 2 2 2 2 2 2 2 2 6 2 2 2 2 2 2 3 2 2 2 2 2 2 2 2 2 2 2 2 2 2 2 1 1 2 2 2 2 1 1 1 1 1 1 1 1 1 1 1 1 1 1 1 1 1 1 1 1 1 1 1 1 1 1 1 1 1 6 1 c ..d 1 1 6 1 1 6 1 1 6 6 k y 1 1 1 6 6 1 6 1 1 6 6 6 6 1 1 1 6 6 6 6 6 6 6 6 6 6 6 6 6 6 6 6 6 6 d d 6 6 6 6 6 6 6 6 6 6 6 6 6 6 6 6 6 1 1 6 6 1 1 1 1 1 1 1 > > > > > > > > > > > > > > > > ; > ; ; ; ; ; ; ; ; ; & & & & & : : : & * * & ",
"1 1 6 6 6 6 6 6 r 6 6 r 6 6 6 8 6 y y y y y y y y y y y y y y y y y y y y y y y y y y y y y y y y y y y y y y y r 6 6 6 6 r r 6 6 6 6 6 6 6 6 6 6 6 6 6 6 6 6 6 6 6 6 6 1 1 1 1 1 1 1 1 1 1 1 1 1 1 1 1 1 1 1 1 1 1 1 > 1 1 1 1 1 1 1 1 1 1 1 1 1 1 2 2 2 1 2 2 2 1 2 2 2 2 2 2 6 2 1 1 2 2 9 6 9 1 1 6 1 1 1 1 1 1 6 1 1 1 1 6 6 6 1 6 6 1 6 6 6 6 6 6 6 6 9 9 6 8 f 8 8 8 9 8 8 9 i i i i i i a a a a h h h h x x x x x x x x x x x b b x x x x b b b x x x x x x x x x x x x x x h a a a a a a a a a a a a i i i i i i i i i i i i i i i 9 9 i i i i i i 9 9 9 9 9 i 9 9 9 9 9 9 9 9 9 9 9 9 9 9 9 9 9 9 9 9 9 9 9 9 9 9 9 9 9 9 9 9 9 9 9 9 9 2 2 2 9 2 9 9 2 2 2 2 9 9 9 9 2 2 2 2 2 2 2 2 2 2 2 2 2 2 2 2 2 2 2 2 2 2 2 2 2 2 2 2 2 1 1 2 2 2 1 1 1 1 1 1 1 1 1 1 1 1 1 1 1 1 1 1 1 1 1 1 1 1 1 1 1 1 1 1 1 1 :.jX^ 3 6 6 6 1 6 1 6 6 1 y 6 6 1 1 1 6 6 6 1 1 1 6 6 6 6 6 6 6 6 6 6 6 6 6 6 6 6 6 6 6 6 6 r y 6 6 6 6 6 6 6 6 6 6 6 6 6 6 6 6 6 6 6 6 6 1 1 1 1 1 1 1 1 1 1 > > > > > > > > > > > > > ; ; > ; ; ; > ; > > > ; ; ; & & ; : ; * & : & & & & ",
"1 6 6 6 6 6 6 6 6 6 r y 6 6 r y 8 y y y y y y y y y y y y y y y y y y y y y y y y y y y y y y y y y y y y r r 6 r r 6 6 6 r 6 6 6 6 6 6 6 6 6 6 6 1 6 6 6 6 6 6 6 6 6 6 6 1 1 1 1 1 1 1 1 1 1 1 1 1 1 1 1 1 > 1 1 1 1 1 1 1 1 1 1 1 1 1 1 1 1 1 1 1 2 2 1 1 2 2 2 1 1 1 2 2 2 2 1 1 1 1 2 2 1 1 1 2 1 1 1 1 1 1 1 1 6 1 1 1 1 1 6 1 6 6 1 1 6 6 6 6 6 6 6 6 6 6 6 y f 6 6 8 8 8 8 8 9 8 i i i i f f i a h h h a a x x x x x x x x x x x x b x x x b / b x x x x x x x x x x x x x x a a x h a a a a a a a a a a a a i i i i i i i i i i i i i i i i 9 i i 9 9 9 9 i i i 9 9 9 9 9 9 9 9 9 9 9 9 9 9 9 9 9 9 9 9 9 9 9 9 9 9 9 9 9 9 9 9 9 9 9 9 9 9 9 2 2 2 2 2 2 2 2 9 9 9 9 9 2 2 2 2 2 2 2 2 2 2 2 2 2 2 2 2 2 2 2 2 2 2 2 2 2 2 2 1 1 1 1 1 2 2 1 1 1 1 1 1 1 1 1 1 1 1 1 1 1 1 1 1 1 1 1 1 1 1 1 1 1 1 1 1 1 3 ^ J.B 1 1 1 6 1 6 1 1 1 1 1 6 6 1 1 1 1 6 6 1 1 6 6 1 6 6 6 1 1 6 6 6 6 6 6 6 6 6 6 6 6 r r r y 6 y r 6 y 6 6 6 6 6 6 6 6 6 6 6 6 6 6 1 1 6 6 6 1 1 1 1 1 1 1 1 1 > > > > > > > > > > > ; ; > > > ; > > > ; ; , ; & & * : 2 : * : : * & & ; ",
"1 1 6 6 6 6 6 r 6 6 6 y r r r y 8 8 y y y y y y y y y 8 y 8 y y y y y y y y y y y y 8 y y y y y y y y y y y 6 6 6 6 6 6 6 6 6 6 6 6 r 6 6 6 6 6 1 1 6 1 6 6 6 6 6 6 1 1 1 1 1 1 1 1 1 1 1 1 1 1 1 > 1 1 1 1 1 1 1 1 1 1 1 1 1 1 1 1 1 1 1 1 1 1 1 1 1 2 1 2 2 1 1 1 1 1 2 1 2 1 1 1 1 1 1 2 2 1 1 1 1 1 1 1 1 1 1 1 1 1 1 1 1 1 1 1 6 6 1 1 6 6 6 6 6 6 1 6 6 6 6 9 6 6 9 6 8 8 8 8 8 9 9 9 9 i i i i i i a h a h h a a h x x M x M x x x x x x b b G b b b x b x x x x x x x x x x x x a a a a a a a a a a a a a a a a i i i i i i i i i i i i f i 9 i i i i i i i i 9 9 9 9 i 9 9 9 9 9 9 9 9 9 9 9 9 9 9 9 9 9 9 9 9 9 9 9 9 9 9 9 9 9 9 9 9 9 9 2 2 9 9 9 2 2 2 9 9 2 9 9 2 2 2 2 2 9 2 2 2 2 2 2 2 2 2 2 2 2 2 2 2 2 2 2 2 2 2 2 1 1 1 1 1 1 2 1 1 1 1 1 1 1 1 1 1 1 1 1 1 1 1 1 1 1 1 1 1 1 1 1 1 1 1 1 1 1 1 1 1 1 1 1 1 1 1 1 1 1 1 6 6 6 6 1 1 6 6 6 6 6 6 6 6 6 6 6 1 1 1 6 6 6 6 6 6 6 6 6 6 6 6 6 r 6 8 y y 6 y y r 6 6 6 6 6 6 6 6 6 6 6 6 6 6 6 6 6 6 1 1 1 1 1 1 1 1 > > > > > > > > > ; > > ; ; > ; ; ; > : ; ; : ; ; ; & & : : > : ; : * & * & ",
"1 1 6 6 6 6 6 6 6 6 6 y r 6 y y 8 y y y y y y y y y y y 8 8 y 8 8 y y y y y y y y y 8 8 y y y y r 6 y y r r 6 6 6 6 6 6 6 6 6 6 6 6 6 6 6 6 6 6 6 1 6 6 1 1 6 6 6 2 1 1 1 1 1 1 1 1 1 1 1 1 1 1 1 1 1 1 1 1 1 1 1 1 1 1 1 1 1 1 1 1 1 1 1 1 1 1 1 1 2 1 2 2 2 2 1 1 1 2 2 2 2 1 1 1 1 2 1 1 1 1 1 1 1 1 1 1 1 1 1 1 1 1 1 1 1 1 1 1 1 1 6 1 1 1 1 1 1 9 1 1 1 6 6 9 6 6 6 6 6 6 8 8 8 9 9 9 9 i i i i i i i a a a a a h h a a a x x x x x x x x x x x x M M b b M x x x x x x M x x x x a a a a a a a a a a a a a a a a a a i i i i i i i i h i i i i i i i 9 i 9 9 i i 9 9 i i 9 9 9 9 9 9 9 9 9 9 9 9 9 9 9 9 9 9 9 9 9 9 9 9 9 9 0 9 9 9 9 0 9 9 9 9 9 2 2 2 9 9 2 2 2 2 2 2 6 9 2 2 2 2 2 2 2 2 2 2 2 2 2 2 2 2 2 2 2 2 2 2 2 1 1 1 2 2 1 1 1 1 1 1 1 1 1 1 1 1 1 1 1 1 1 1 1 1 1 1 1 1 1 1 1 1 1 1 1 1 1 1 r 1 1 1 1 1 1 1 1 1 1 1 1 1 1 1 1 1 6 6 r 1 1 1 6 6 1 1 6 6 6 6 6 1 6 6 6 6 6 6 6 6 6 6 6 r 6 6 6 d y 6 r r 6 6 6 6 r 6 6 6 6 6 6 6 6 6 6 1 1 6 6 6 1 1 1 1 1 1 1 1 1 1 > > > > > > > ; ; ; > > ; > ; ; ; ; ; ; ; ; ; ; ; ; & & * & * : : * & & ",
"1 1 6 6 6 6 6 6 6 r y y y 8 y 6 r y y y y y y 8 y y y y 6 k R d 6 y y y y 8 y y 6 6 r y y y y y r 6 r r r r 6 6 6 6 6 6 6 6 6 6 6 6 6 6 6 6 6 1 6 6 6 6 1 1 1 1 1 1 1 1 1 1 1 1 1 1 1 1 1 1 1 1 1 1 1 1 1 1 1 1 1 1 1 1 > 1 1 1 1 1 1 1 1 1 1 1 1 1 1 1 1 1 1 2 1 1 1 1 2 2 1 2 1 1 2 1 1 1 1 1 1 1 1 1 6 6 1 1 1 1 1 1 1 1 1 1 1 1 1 1 1 1 1 1 1 1 1 6 1 6 1 1 6 6 6 6 9 9 6 6 6 6 9 9 9 9 8 9 9 9 9 i i i i h i h h a a a a a a a a a x x x x x x x x x b b x x x x x x x x x x x x x x a a a x a a a a a a a a a a a a a a a a i i i i i i i i i i i i i i i i i i i i i i i 9 i i 9 9 9 9 9 9 9 9 9 9 9 9 9 9 9 9 9 9 9 9 9 9 9 9 9 9 9 0 9 9 9 9 9 2 9 9 2 9 9 9 9 2 2 2 9 f 9 2 2 2 2 2 2 2 2 2 2 2 2 2 2 2 2 2 2 2 2 2 2 1 1 1 1 2 2 1 1 1 1 1 1 1 1 1 1 1 1 1 1 1 1 1 1 1 1 1 1 1 1 1 1 1 1 1 1 1 1 1 1 y 6 1 1 6 1 1 1 1 1 1 1 1 1 1 1 1 1 1 6 6 1 6 1 6 6 6 1 6 6 6 6 1 6 6 6 6 6 6 6 6 6 6 6 6 6 6 6 6 y y 6 6 r 6 6 6 6 6 6 6 6 6 6 6 6 6 6 6 6 6 6 6 6 1 1 1 1 1 1 1 1 1 1 > > > > > > > > ; > > > ; > ; ; ; ; : ; : : & * & & ; & & & & & : * & & ",
"1 1 1 6 6 6 6 6 6 6 y r r y y 8 r 8 y y y y 6 y y y y y 6 d k y r y 8 6 y y y 8 y r r r y 6 6 r r 6 6 6 6 r r 6 6 6 6 6 6 6 6 6 6 6 6 1 1 6 6 1 6 r 6 1 6 1 1 1 1 1 1 1 1 1 1 1 1 1 1 1 1 1 1 1 1 1 1 1 1 1 1 1 1 1 1 1 1 1 > 1 1 1 1 1 1 1 1 1 1 1 1 1 1 1 2 2 1 1 1 2 2 2 1 1 1 2 1 1 1 1 1 1 1 1 1 1 6 6 1 1 1 1 1 1 1 1 1 1 1 1 1 1 1 1 1 1 1 1 1 6 1 1 6 9 6 6 6 9 y 9 9 6 6 9 9 9 9 8 8 9 9 9 9 9 i i i i i h h i a a a a a a a a a x x x M M x x x x M x x x M M M M x x x x x x x x a a x a a a a a a a a a a a a a a a a a a i i i i i i i i i i i i i i i i i i i i 9 i i i i i 9 9 9 9 9 9 9 9 9 9 9 9 9 9 9 9 9 9 9 9 9 9 9 9 0 9 M 9 9 9 9 9 9 9 9 9 9 2 2 2 2 2 9 9 9 2 2 2 2 2 2 2 2 2 2 2 2 2 2 2 2 2 2 2 2 1 1 1 1 2 2 1 2 1 1 1 1 1 1 1 1 1 1 1 1 1 1 1 1 1 1 1 1 1 1 1 1 1 1 1 1 1 1 1 1 1 1 1 1 1 1 1 1 1 1 6 1 1 1 1 6 r 6 1 1 1 6 1 1 6 1 1 1 6 6 6 1 1 6 6 6 6 6 6 6 6 6 6 6 r 6 6 6 6 6 6 6 6 6 6 r 6 6 r 6 6 6 6 6 6 6 6 6 6 6 6 6 6 6 6 1 1 1 1 1 1 1 1 1 1 1 > > > > > > > > ; ; ; ; > > > : ; ; ; ; : : ; * : ; > : & * & & * & & * ",
"1 1 6 6 6 6 6 6 6 6 r 6 6 8 y y y y y y y y y r 8 y y y y 6 6 6 y 8 8 8 8 r r 6 y 6 r r r y r 6 6 r y 6 6 6 6 6 6 6 6 6 6 6 6 6 6 6 1 y k 6 1 1 1 1 1 6 6 1 1 1 1 1 1 1 1 1 1 1 1 1 1 1 1 1 1 1 1 1 1 1 1 1 1 1 1 > 1 1 1 1 > > 1 1 1 1 1 1 1 1 1 1 1 1 1 1 1 2 1 1 1 1 1 1 1 1 1 1 1 1 1 1 1 1 1 1 1 1 1 1 1 1 1 1 1 1 1 1 1 1 1 1 1 1 1 1 1 1 1 1 1 6 1 9 9 9 1 6 6 6 6 6 6 9 6 6 9 9 9 6 8 9 9 9 9 9 i i i i i i i i u a a a a a a a a a a a a x x x x x x M M x M M M M x x x x x x x x x x x x a a a a a a a a a a a a a a a a a a i i u i i i i i u i u u i i i i i i i i i u i i i i 9 i 9 9 9 9 9 9 9 9 9 9 9 9 9 9 9 9 9 9 9 9 9 0 f M 9 9 9 9 2 2 9 9 9 9 2 9 2 2 2 2 2 2 2 2 2 2 2 2 2 2 2 2 2 2 2 2 2 2 2 2 2 2 2 2 2 2 2 2 2 2 1 1 1 1 1 1 1 1 1 1 1 1 1 1 1 1 1 1 1 1 1 1 1 1 1 1 1 1 1 1 1 1 1 1 1 1 1 1 1 1 1 1 6 1 1 1 1 1 r 6 1 6 6 6 1 1 1 6 1 1 1 6 6 1 6 6 6 6 6 6 6 6 6 6 6 6 6 6 6 6 6 6 r y 6 6 r 6 y 6 r r 6 6 6 6 6 6 6 6 6 6 6 1 1 1 1 1 1 1 6 1 1 1 1 1 1 1 1 > > > > > > > > ; > > ; ; ; : ; ; ; ; ; ; : : ; ; ; : & * & & , : * & ",
"1 1 1 6 6 6 6 6 6 6 6 y y r 6 6 6 6 8 y y y y 8 y 8 y r y y y y y y 8 y y y r r 6 y r r r y r r r r r 6 6 r 6 6 6 6 6 6 6 6 6 6 6 6 1 y k 6 1 6 1 1 1 6 1 1 1 1 ; 3 1 1 1 1 1 1 1 1 1 1 1 1 1 1 1 1 1 1 1 1 1 1 1 1 1 1 1 1 1 1 1 1 1 1 1 1 1 1 1 1 1 1 1 1 1 1 1 1 1 1 2 1 1 1 1 1 1 1 1 1 1 1 1 1 1 1 1 1 1 1 1 1 1 1 1 1 1 1 1 1 1 1 1 1 1 1 1 1 1 6 6 6 6 9 6 6 6 6 1 6 6 6 6 6 6 6 6 9 9 9 9 9 9 9 9 9 9 9 u u u u i i i i i u a a a a a a a a a a a x x M M M M M M M x x x x x x M M M x a x x M x a a a a a a a a a a a a a a a a i i i i u i u i i i i i i i i i i i u u u i i 9 9 9 9 9 9 9 9 9 9 9 9 9 9 9 9 9 9 9 9 9 9 9 9 9 9 9 9 0 9 9 9 9 9 9 9 9 9 2 2 2 9 9 2 2 2 2 2 2 2 2 2 2 2 2 2 2 2 2 2 2 2 2 2 2 2 2 2 2 2 2 2 1 1 1 1 1 1 1 1 1 1 1 1 1 1 1 1 1 1 1 1 1 1 1 1 1 1 1 1 1 1 1 1 1 1 1 1 1 1 1 1 1 1 1 1 1 1 1 1 1 1 1 1 1 1 1 6 6 1 1 1 1 1 1 1 1 1 6 6 6 6 6 6 6 6 6 6 6 6 6 6 6 6 6 y 6 6 6 y y 6 y 6 6 r 6 6 6 6 6 6 6 6 6 6 6 6 6 6 1 6 6 6 1 1 1 1 1 1 1 1 1 1 > > > > > > > > ; ; ; ; ; : ; ; ; ; ; ; : : ; ; ; * ; & & & & & : & ",
"1 1 6 6 6 6 6 6 6 6 r y y 6 6 8 6 6 8 8 y y y y y 8 y y y y r y y y y y 6 6 6 r r 6 r r r 6 r 6 6 6 y r 6 6 6 6 6 6 1 1 6 6 6 6 6 6 6 1 1 1 1 1 1 1 1 1 1 1 1 1 d y 1 1 1 1 1 1 1 1 1 1 1 1 1 1 1 1 1 1 1 1 1 1 1 1 > 1 1 1 1 1 1 1 1 1 1 1 1 1 1 1 1 1 1 1 1 1 1 1 1 2 2 1 1 1 1 1 1 1 1 1 1 1 1 1 1 1 1 1 1 1 1 1 1 1 1 1 1 1 1 1 1 1 1 1 1 1 1 1 1 1 1 6 6 9 6 9 1 1 1 6 6 9 6 6 6 6 6 9 9 9 9 9 9 9 9 9 9 9 9 i u u i i i i i i i i i a a a a a a a a a a a a M M M M x x x x x x x x M x x x x M M M M a a a a a a a a a a a a a a a a i u u i u a i a i i i i u u i i i u u u i i i i 9 9 9 9 9 9 9 9 9 9 9 9 9 9 9 9 9 9 9 9 9 9 0 0 9 0 0 9 9 0 9 9 9 9 9 9 2 9 2 9 9 2 2 2 2 2 2 2 2 2 2 2 2 2 2 2 2 2 2 2 2 2 2 2 2 2 2 2 2 1 1 1 1 1 1 1 1 1 1 1 1 1 1 1 1 1 1 1 1 1 1 1 1 1 1 1 1 1 1 1 1 1 1 1 1 1 1 1 1 1 1 1 1 1 1 1 6 1 1 1 6 6 1 6 1 1 1 1 1 1 1 6 6 6 6 6 6 6 6 1 6 6 6 6 6 6 6 6 6 6 6 r 6 r 6 k d 6 6 8 y 6 6 6 6 6 6 6 6 6 6 6 6 6 6 6 6 6 6 6 r 6 6 6 1 1 1 1 1 1 1 1 > 1 > > > > ; ; > > ; ; > ; ; ; & ; : : : : ; ; & & ; & ; ; * * : * ",
"1 1 1 6 6 6 6 6 r 6 8 8 6 6 r 6 8 y 8 6 y y y y 8 6 y y 6 6 6 r y r r 6 6 6 6 6 6 r r r r 6 6 r 6 6 y y 6 6 6 1 6 6 1 1 6 6 1 1 6 6 1 6 6 1 1 1 1 1 1 1 1 1 1 3 ^ N ; 1 1 1 1 1 1 1 1 1 1 1 1 1 1 1 > > 1 1 1 1 1 1 1 1 1 1 1 1 1 1 1 1 1 1 1 1 1 1 1 1 1 1 1 1 1 1 2 1 1 1 1 1 1 1 1 1 1 1 1 1 y 1 1 1 1 1 1 1 1 1 1 1 1 1 1 1 1 1 1 1 1 1 1 1 6 k 6 3 1 6 6 6 9 6 1 9 1 1 6 6 1 6 6 6 9 9 9 9 9 9 9 9 9 9 9 9 9 9 0 u i i i i i i i i i i i i i a a a a a a a a a a a a a x x a M a a M M M M a a a M x a a a a a a a a a a a a a a a a a a a u u u a a a a i u u u u i i i i u u u p M h 9 9 9 9 9 9 9 9 9 9 9 9 9 9 9 9 9 9 9 9 9 9 9 9 9 9 9 9 9 9 9 9 2 9 9 9 9 2 2 2 2 9 2 2 2 2 2 2 2 2 2 2 2 2 2 2 2 2 2 2 2 2 2 2 2 2 2 2 2 1 1 1 1 1 1 1 1 1 1 1 1 1 1 1 1 1 1 1 1 1 1 1 1 1 1 1 1 1 1 1 1 6 1 1 1 1 1 1 1 1 1 1 1 1 1 1 1 1 1 1 6 6 1 6 6 6 1 6 1 1 1 6 6 6 6 6 6 6 6 6 6 6 6 6 6 6 6 6 6 6 6 6 y 6 6 c k 6 y 6 6 6 6 6 6 6 6 6 6 6 6 1 6 6 6 6 6 6 6 6 6 1 6 6 6 1 1 1 1 1 1 1 1 1 1 > > ; , > ; , ; > ; ; ; ; : : : : : : & & ; & & & & & * * * * ",
"1 1 6 6 6 6 6 6 6 6 6 6 6 6 r y 8 y 8 6 y y 6 6 6 r r 6 6 r 6 r r 6 6 r 6 6 6 6 6 6 6 6 r 6 6 6 r 6 6 1 6 6 6 6 6 6 1 1 1 1 1 6 6 1 1 1 1 1 1 1 1 1 1 1 1 1 1 1 6 6 1 1 1 1 1 1 1 1 1 1 1 1 1 1 1 > > > > 1 1 1 > 1 1 > 1 1 1 1 1 1 1 1 1 1 1 1 1 1 1 1 1 1 1 1 1 1 1 1 1 1 1 1 1 1 1 1 1 1 1 1 1 1 1 1 1 1 1 1 1 1 1 1 1 1 1 1 1 1 1 1 1 1 1 1 1 y 6 3 1 1 1 1 1 1 2 2 2 9 9 9 9 9 1 6 9 9 9 9 9 9 9 9 9 9 9 9 9 h c 9 9 i 9 9 i i u i i i i i i u a i i a h a a a a a a a a a a a a a a a a a a a a M M a a a a a a a a a a a a a a a a a a a a a u u a a a u u u u u i i i i u u u u h i w 9 9 9 9 9 9 9 w 9 9 9 9 9 9 9 9 9 9 9 9 9 9 9 9 9 9 0 0 9 9 9 9 2 2 9 9 2 2 2 9 2 2 2 2 2 2 2 2 2 2 2 2 2 2 2 2 2 2 2 2 2 2 2 2 2 2 2 1 2 1 1 1 1 1 1 1 1 1 1 1 1 1 1 1 1 1 1 1 1 1 1 1 1 1 1 1 1 1 1 1 1 1 1 1 1 1 1 1 1 1 1 1 1 1 1 1 1 1 1 1 1 1 6 6 6 1 1 6 1 6 6 6 6 6 6 6 6 6 1 6 6 6 6 6 6 6 6 6 6 6 6 6 6 6 6 6 r 6 6 6 6 6 6 6 6 6 6 6 6 6 6 6 6 6 6 6 6 6 6 6 6 6 6 1 1 1 1 1 1 2 1 1 1 1 1 > ; ; > > : ; , , : ; : : : ; & : * ; ; : & * : & & * * * : ",
"1 1 1 6 6 6 6 6 6 6 6 6 r 6 r 6 6 y r r y 6 6 6 r r y r r 6 r r r r r r r r r r 6 6 6 6 6 6 6 6 6 6 6 6 6 6 6 6 6 6 1 1 1 1 1 6 6 1 1 1 1 1 1 1 1 1 1 1 1 1 1 1 1 1 1 1 1 1 1 1 > 1 1 > > > > > 1 1 > > > 1 1 1 1 1 1 1 1 1 1 1 1 1 1 1 1 1 1 1 1 1 1 1 1 1 1 1 1 1 1 1 1 1 1 1 1 1 1 1 1 1 1 1 1 1 1 1 1 1 1 1 1 1 1 1 1 1 1 1 1 1 1 1 1 1 1 1 1 3 1 y 6 1 2 1 1 2 2 1 9 9 9 9 9 9 9 9 9 9 9 9 9 9 9 9 9 9 9 9 8 oX{.g 9 9 9 9 9 i 9 i i i i i i i i i i i i i i i a a x M a a a a a a a a a a a a a a a a a a a a a a a a a a a a a a a a a u a i a a u u u u u u i u u u i u u u i u w 9 9 w 9 9 9 9 9 9 9 9 9 9 9 9 9 9 9 9 9 9 9 9 9 9 9 9 9 0 0 9 9 2 2 2 9 9 2 2 9 2 2 2 2 2 2 2 2 2 2 2 2 2 2 2 2 2 2 2 2 2 2 2 2 2 2 2 2 2 1 1 1 1 1 1 1 1 1 1 1 1 1 1 1 1 1 1 1 1 1 1 1 1 1 1 1 1 1 1 1 1 1 1 1 1 1 1 1 1 1 1 1 1 1 1 1 1 1 1 6 1 6 1 1 1 1 1 1 6 1 6 1 6 6 6 6 6 6 6 6 6 6 6 6 6 6 6 6 6 6 6 6 6 6 6 6 6 6 6 6 6 6 6 6 6 6 6 6 6 6 6 6 6 6 6 6 6 1 1 6 6 6 6 1 1 1 1 1 1 1 1 2 2 1 1 > > ; > > 1 2 ; > ; : > ; ; : : : & & & : ; : : : * * * * * * * ",
"1 1 6 1 6 6 6 6 6 6 6 6 6 6 r y r r r 6 y r r 6 6 y r 6 6 6 8 r r r r 6 6 6 6 r r 6 6 6 6 6 6 6 6 6 6 1 6 6 6 6 6 1 1 1 1 1 1 1 1 1 1 1 1 1 1 1 1 1 1 1 1 1 1 1 1 1 1 1 1 1 1 1 > > > > > > > 1 1 1 1 1 > > 1 1 1 6 1 1 1 1 1 1 1 1 1 1 1 1 1 1 1 1 1 1 1 1 1 1 1 1 1 1 1 1 1 1 1 1 1 1 1 1 1 1 1 1 1 1 1 1 y d 6 1 1 1 1 1 1 1 1 1 1 1 1 1 1 1 1 1 1 y 9 3 2 1 9 1 2 2 1 2 9 9 9 9 9 9 9 9 6 9 9 9 9 9 9 9 9 9 9 ^ :.d 9 8 9 9 9 9 9 9 9 9 9 i i i i i i i i i i i i i h m a i i i a a a a a a a a a a a a a a a a a a a a a a a a a i a a a u a a u u u u u u u u u u a u u u i i u u u w 9 9 9 9 9 9 9 9 9 9 9 9 9 9 9 9 9 9 9 9 9 9 9 9 9 9 9 9 9 9 9 2 2 2 2 2 2 2 2 2 2 2 2 2 2 2 2 2 2 2 2 2 2 2 2 2 2 2 2 2 2 2 2 2 2 1 2 2 1 1 1 1 1 1 1 1 1 1 1 1 1 1 1 1 1 1 1 1 1 1 1 1 1 1 1 1 1 1 1 1 1 1 1 1 1 1 1 1 1 1 1 1 1 1 1 1 1 1 1 1 1 1 6 1 1 1 1 6 6 6 1 6 6 6 6 6 6 6 6 6 6 6 6 6 6 6 6 6 6 6 6 6 6 y 6 6 6 6 6 6 6 6 6 6 6 6 6 6 6 6 6 6 6 6 6 6 6 6 6 6 6 6 1 1 1 2 1 1 1 1 2 2 1 2 > , > , > > , > ; ; : ; ; ; 9 2 * & * * * & * : : * * * * * * * ",
"1 1 1 6 6 6 6 6 6 6 6 6 6 y r r 6 r r 6 r r r 6 6 r 6 6 y r 6 8 r r 6 6 6 6 r r 6 6 6 6 6 6 6 1 1 6 1 1 1 6 1 1 1 1 1 1 1 1 1 1 1 1 1 1 1 1 1 1 1 1 1 1 1 1 1 1 1 1 1 1 1 1 > > 1 1 1 > 1 > 1 1 1 > 1 1 1 1 1 1 1 1 1 1 1 1 1 1 1 1 1 1 1 1 1 1 1 1 1 1 1 1 1 1 1 1 1 1 1 1 1 1 1 1 1 1 1 1 1 1 1 6 6 1 1 1 6 6 1 1 1 1 1 1 1 1 1 1 1 1 1 1 1 1 1 1 1 1 1 1 1 2 2 2 2 2 1 6 1 1 1 1 2 9 6 9 1 1 9 9 9 9 9 9 9 9 9 1 1 9 9 9 9 9 9 9 9 9 9 9 9 9 9 i 9 i 9 9 9 i i i i i i i i i i i i i i a i i a i a a a a i i a a a a a a a a a a a i a a a i u u u u u u i i i i i i u u u u u i u w 9 w 9 w 9 9 9 9 9 9 9 9 9 9 9 9 9 9 9 9 9 0 9 0 9 9 9 9 9 0 9 0 9 2 9 9 0 2 2 2 2 9 2 2 2 2 2 2 2 2 2 2 2 2 2 2 2 2 2 2 2 2 2 2 2 2 1 1 2 2 1 1 1 1 1 1 1 1 1 1 1 1 1 1 1 1 1 1 1 1 1 1 1 1 1 1 1 1 1 1 1 1 1 1 1 1 1 1 1 1 1 1 1 1 1 1 6 1 1 1 1 1 1 6 1 6 1 1 1 1 6 6 1 1 6 6 6 6 6 6 6 6 6 6 6 6 6 6 6 6 6 6 6 6 6 6 6 6 6 6 6 6 6 6 6 6 6 6 6 6 6 6 6 6 6 6 6 6 1 6 6 6 6 6 1 2 1 1 1 2 1 1 1 2 2 2 , > 1 , > , ; ; : , , : ; ; y 1 * ; , : & : * & & * * * & & * * ",
"1 1 1 1 6 6 6 6 6 6 6 r 6 6 6 6 6 6 r 6 6 r 6 6 6 6 6 6 r 6 6 6 r 6 6 6 6 6 6 6 6 6 6 6 1 1 1 1 1 1 1 1 1 6 6 1 1 1 1 1 1 1 1 1 1 1 1 1 1 1 1 1 1 1 1 1 1 1 1 1 1 1 1 1 > > > > 1 > 1 1 1 1 1 1 1 1 1 1 1 1 1 1 1 1 1 1 1 1 1 1 1 1 1 1 1 1 1 1 1 1 1 1 1 1 1 1 1 1 1 1 1 1 1 1 1 1 1 1 1 1 1 1 1 1 6 1 1 1 1 1 1 1 1 1 1 1 1 1 1 1 1 1 1 1 1 1 1 1 1 1 1 1 1 2 9 8 9 1 1 6 1 1 1 1 2 2 6 9 9 6 6 6 6 6 9 9 9 9 9 9 9 9 9 9 9 9 9 9 9 9 9 9 9 9 9 9 9 9 i i 9 9 9 i i i i i i i i i i i i i i i i a i i i i a i i a i i i i i u i i i i a i i i i i i u u u u u i i i u u u u u i u 9 u w w 9 9 9 9 9 9 9 9 9 9 9 9 9 9 9 9 9 9 0 9 9 9 9 9 2 2 9 9 9 2 9 9 9 9 0 2 2 2 2 2 2 2 2 2 2 2 2 2 2 2 2 2 2 2 2 2 2 2 2 2 2 2 2 2 2 2 2 2 1 1 1 1 1 1 1 1 1 1 1 1 1 1 1 1 1 1 1 1 1 1 1 1 1 1 1 1 1 1 1 1 1 1 6 r 1 1 1 1 1 1 1 1 1 1 1 1 1 1 1 1 6 6 1 1 6 1 1 1 1 1 1 6 6 6 6 6 6 6 6 6 6 6 6 6 6 6 6 6 6 6 6 6 6 6 6 6 6 6 6 6 6 6 6 6 6 6 6 6 6 6 6 6 6 6 6 6 6 6 6 6 6 6 1 2 1 1 2 2 1 1 1 2 2 , , 2 2 2 > 2 > : , : : : ; ; ; & : ; : : ; ; & * * * * * & * * * ",
"1 1 1 6 6 6 6 6 6 6 6 6 6 r r r 6 6 r r 6 6 6 6 6 6 6 6 6 6 6 6 6 6 6 6 6 6 6 6 6 6 6 6 1 6 1 1 1 1 1 1 1 1 1 1 1 1 1 1 1 1 1 1 1 1 1 1 1 1 1 1 1 1 1 1 1 1 1 1 1 1 1 1 1 > > > > > > 1 1 1 1 1 1 1 1 1 1 1 1 > 1 1 1 1 1 1 1 1 1 1 1 1 1 1 1 1 1 1 y y 1 1 1 1 1 1 1 1 1 1 1 1 1 1 1 1 1 1 1 1 1 1 1 1 1 1 1 1 1 1 1 1 1 1 1 1 1 1 1 1 1 1 1 1 1 1 1 1 1 1 1 1 9 2 1 1 6 y y 6 6 6 1 9 9 9 9 9 6 9 9 9 9 9 9 9 9 9 9 6 6 9 9 9 9 9 9 9 9 9 9 9 9 9 9 9 9 9 9 9 9 9 9 9 9 i i i i i i i i i i f i i i i i i i i i i i i i i i i i i u u i u u u u i u u u u i i i i u u u i i i 9 w w w 9 9 9 9 9 9 9 9 9 9 9 9 9 9 9 9 9 9 9 9 9 9 9 9 2 2 9 2 9 2 9 9 2 2 9 9 9 9 2 2 2 2 2 2 2 2 2 2 2 2 2 2 2 2 2 2 2 2 2 2 2 2 2 2 2 2 2 2 2 1 1 1 1 1 1 1 1 1 1 1 1 1 1 1 1 1 1 1 1 1 1 1 1 1 1 1 1 1 1 1 1 1 1 1 1 1 1 1 1 1 1 1 1 1 1 1 1 1 6 1 1 1 1 1 6 6 1 1 1 6 6 6 6 6 6 6 6 6 6 6 6 6 6 6 6 6 6 6 6 6 6 6 r 6 6 6 6 6 6 6 6 6 6 6 6 6 6 6 6 6 6 6 6 6 6 6 6 6 6 6 6 6 6 2 6 1 1 1 1 2 1 1 2 2 2 2 > , , 2 , : ; ; ; ; ; ; : : * : : : & & & : & * * * & & & & & * ",
"1 1 1 1 6 6 1 1 1 6 6 6 6 6 r 6 6 r r 6 6 6 6 6 6 6 6 6 6 6 6 r 6 6 6 6 6 6 6 6 6 1 1 1 1 1 1 1 1 1 1 1 1 1 1 1 1 1 1 1 1 1 1 1 1 1 1 1 1 1 1 1 1 1 1 1 1 1 1 1 1 1 > 1 1 1 1 1 > > 1 1 1 1 > > 1 1 1 1 1 1 1 1 1 1 1 1 1 1 1 1 1 1 1 1 1 1 1 1 1 1 / / > 1 1 1 1 1 1 1 1 1 1 1 1 1 1 1 1 1 1 1 1 1 1 1 1 1 1 1 1 1 1 1 1 1 1 1 1 1 1 1 1 1 1 1 1 1 1 1 > 1 1 2 1 1 1 1 1 9 9 2 1 6 1 2 9 9 9 9 1 9 9 9 9 9 6 9 9 9 9 9 6 6 9 9 9 6 9 6 6 9 9 6 9 9 9 9 9 9 9 9 9 9 9 i 9 9 9 9 9 9 i i 9 9 9 i i i i i i i i i i i i i i i i i i i i i u u u u i i u u u w i i i i w u 9 9 9 9 w 9 9 9 9 9 9 9 9 9 9 9 9 0 9 9 9 9 9 9 9 0 9 0 9 9 9 9 2 2 2 2 2 2 2 2 2 2 9 9 9 9 2 2 2 2 2 2 2 2 2 2 2 2 2 2 2 2 2 2 2 2 2 2 2 2 2 2 2 2 2 2 2 2 1 1 1 1 1 1 1 1 1 1 1 1 1 1 1 1 1 1 1 1 1 1 1 1 1 1 1 1 1 1 1 1 1 1 1 1 1 1 1 1 1 1 1 1 1 1 1 1 1 1 1 1 1 1 1 6 1 1 1 6 6 6 6 6 6 6 6 6 6 6 6 6 6 6 6 6 6 6 6 6 r y 6 y 6 6 6 6 6 6 6 6 6 6 6 6 6 6 6 6 6 6 6 6 6 6 6 9 2 6 6 6 9 9 y r 1 2 1 1 1 1 1 2 1 1 1 > > , , , > : : ; ; ; : : ; & * : ; * * : * * : * & * * * * * ",
"1 1 1 1 1 1 6 k y 6 6 6 6 6 6 6 6 6 6 6 6 6 6 6 6 6 6 6 6 r r 6 6 6 6 6 1 6 6 6 6 1 1 1 1 1 1 1 1 1 1 1 1 1 1 1 1 1 1 1 1 1 1 1 1 1 1 1 1 1 1 1 1 1 1 1 1 1 1 1 1 1 1 1 1 1 > 1 > > 1 1 1 1 > > 1 1 1 1 1 1 1 1 1 1 1 1 1 1 1 1 1 1 1 1 1 1 1 1 1 1 6 6 1 1 1 1 1 1 1 1 1 1 1 1 1 1 1 1 1 1 1 1 1 1 1 1 1 1 1 1 1 1 1 1 1 1 > 1 1 1 1 1 1 1 1 1 1 1 1 3 1 2 1 1 1 1 1 1 1 1 1 2 1 6 9 6 9 9 2 2 2 2 9 9 2 6 2 2 9 9 9 1 6 6 9 9 9 6 9 6 6 9 6 9 9 9 9 9 9 9 9 9 9 9 9 9 9 9 9 9 9 9 9 9 9 8 9 9 9 9 9 i i i i i i i i i i i i i i i i i i i i u i i i i i w u i i i u w w w 9 9 w w 9 9 9 9 9 9 9 9 9 9 9 9 9 9 9 9 9 9 0 9 9 9 9 9 9 9 9 9 2 2 9 9 9 9 2 2 9 2 9 9 2 2 2 2 2 2 2 2 2 2 2 2 2 2 2 2 2 2 2 2 2 2 2 2 2 2 2 2 2 2 2 2 2 2 1 1 1 1 1 1 1 1 1 1 1 1 1 1 1 1 1 1 1 1 1 1 1 1 1 1 1 1 1 1 1 1 1 1 1 1 1 1 1 1 1 1 1 6 1 6 1 1 1 1 1 1 1 6 1 1 1 1 6 6 1 1 6 6 6 6 6 6 6 6 6 6 6 6 6 6 6 6 6 6 6 6 6 6 6 6 6 6 6 6 6 6 6 6 6 6 6 6 6 6 6 6 6 6 6 6 6 9 1 2 6 9 9 6 2 1 1 1 1 1 1 1 1 1 1 > 1 , , , , , ; : : : : : ; & * & & & * : : * & & * * * * * * ",
"1 1 1 1 1 1 y W k 1 6 6 6 6 6 6 6 6 6 r r 6 6 6 6 6 6 6 6 6 6 6 6 6 6 6 6 1 1 1 1 1 1 1 1 1 1 1 1 1 1 1 1 1 1 1 1 1 1 1 1 1 1 1 1 1 1 1 1 1 1 1 1 1 1 1 1 1 > 1 1 > > > > > > 1 > > > 1 > > > > 1 > > 1 1 1 1 1 1 1 1 1 1 1 > 1 1 1 1 1 1 1 1 1 1 1 1 ; 1 1 > 1 1 1 1 1 1 1 1 1 1 1 1 1 1 1 1 1 1 1 1 1 1 1 1 1 1 > 1 1 > 1 1 1 > 1 1 1 1 1 1 1 1 1 1 1 1 2 2 1 1 1 1 2 2 2 2 2 2 1 2 6 9 2 2 2 2 1 9 9 2 2 2 2 1 9 9 9 9 6 9 9 9 6 6 9 9 9 9 6 9 9 9 9 9 9 9 9 9 9 9 9 9 9 9 9 9 9 9 9 9 9 9 9 9 9 9 9 9 9 i i 9 i 9 9 9 i i 9 9 i i i i i i u 9 9 9 9 9 u i 9 i 9 w w w w w 9 w w 9 9 9 9 9 9 9 9 9 9 9 9 0 9 9 9 0 9 9 0 9 9 9 0 9 9 9 2 2 2 9 9 9 9 2 2 9 2 9 2 2 2 2 2 2 2 2 2 2 2 2 2 2 2 2 2 2 2 2 2 2 2 2 2 2 2 2 2 2 2 2 2 1 1 1 1 1 1 1 1 1 1 1 1 1 1 1 1 1 1 1 1 1 1 1 1 1 1 1 1 1 1 1 1 1 1 1 1 1 1 1 1 1 1 1 1 1 1 1 1 1 1 6 1 6 1 1 6 1 6 6 6 6 6 6 1 6 6 6 6 6 6 6 6 6 6 6 6 6 6 6 6 6 6 6 6 6 6 6 6 6 6 6 6 6 6 r 6 6 6 6 6 6 6 6 6 6 1 6 9 1 2 1 1 9 6 1 6 1 2 1 1 1 1 1 1 1 1 ; 2 2 1 > , , : ; : ; : : : : & : ; & & & & * * & & * * * * * * ",
"1 1 1 1 1 1 6 y 6 1 6 6 6 6 6 6 6 6 6 6 6 6 6 6 6 6 6 6 6 6 6 6 r r 6 r 6 6 1 1 1 1 1 1 1 1 r 1 1 1 1 1 1 1 1 1 1 1 1 1 1 1 1 1 1 1 1 1 > > > > > 1 1 1 1 1 1 1 > > > > 1 1 > > > > > > > 1 1 1 > > 1 1 1 1 1 1 1 1 1 1 1 1 1 1 1 1 1 1 1 1 1 1 1 1 1 1 1 1 1 1 1 1 1 1 1 1 1 1 1 1 1 1 1 1 1 1 1 1 1 1 1 1 1 1 1 1 > 1 1 1 1 1 1 1 1 1 1 1 1 1 1 1 1 1 3 1 2 1 1 1 1 1 1 1 2 2 2 2 1 1 1 2 2 2 9 2 2 2 1 1 2 9 2 6 1 9 9 1 1 1 6 9 9 9 9 9 9 6 6 9 9 9 9 9 9 9 9 9 9 9 9 9 9 9 9 9 9 9 9 9 9 9 9 9 9 9 9 9 9 9 9 9 9 9 9 9 9 9 9 9 9 9 9 9 i 9 9 w 9 9 9 9 9 9 9 9 w w 9 9 9 9 w 9 9 w 9 9 9 9 9 9 9 9 0 9 9 9 9 2 0 2 9 9 9 9 9 9 0 2 9 9 9 9 2 9 9 9 9 9 9 2 2 9 2 2 2 2 2 2 2 2 2 9 2 2 2 2 2 2 2 2 2 2 2 2 2 2 2 2 2 2 2 2 2 2 1 1 1 1 1 1 1 1 1 1 1 1 1 1 1 1 1 1 1 1 1 1 1 1 1 1 1 1 1 1 1 1 1 1 1 1 1 1 1 1 1 1 1 1 1 1 6 1 1 1 1 1 1 1 1 1 1 6 6 1 1 1 6 6 6 6 6 6 6 6 6 6 6 6 6 6 6 6 6 6 6 6 6 6 6 6 6 6 6 6 6 6 6 6 6 6 6 6 6 6 6 6 6 6 6 1 1 6 6 1 1 1 1 6 6 9 6 1 1 1 1 1 1 1 1 1 1 2 2 2 > ; > : ; ; : ; ; ; : : ; ; ; * & & & & & * * * * * * * ",
"1 1 1 1 1 1 1 1 1 6 6 6 6 6 6 6 6 6 6 6 6 6 6 6 6 6 6 6 6 6 1 1 6 6 6 6 1 1 1 1 1 1 1 1 1 1 1 1 1 1 1 1 1 1 1 1 1 1 1 1 1 1 1 1 > > > 1 > > > > > 1 1 1 1 > 1 1 > > > > > > > > > > > > > > > > > 1 > > > > 1 1 1 1 1 1 1 1 1 1 1 1 1 > 1 1 1 1 1 1 1 1 1 1 1 1 1 1 1 1 1 1 1 1 1 1 1 1 1 1 1 1 1 1 1 1 1 1 1 1 1 1 1 > 1 1 1 1 > 1 1 1 1 1 1 1 > 1 1 1 > 1 3 1 1 1 1 1 1 1 2 1 2 2 2 1 1 2 2 2 1 2 2 2 2 2 9 9 2 9 1 1 1 1 9 6 9 9 9 9 9 9 9 9 9 9 9 9 9 9 9 9 9 9 9 9 9 9 9 9 9 9 9 9 9 8 9 9 9 9 9 9 9 9 9 9 9 9 9 9 9 9 9 9 9 9 9 9 9 9 9 9 9 w 9 9 9 9 9 9 i 9 w w w w w w w w e 9 9 9 9 e 9 9 9 0 2 9 9 9 9 0 9 2 0 9 9 9 9 9 9 2 9 9 9 9 9 9 9 9 9 2 9 2 2 2 2 2 2 2 2 2 2 2 2 9 2 2 2 2 2 2 2 2 2 2 2 2 2 2 2 2 2 1 1 1 1 1 1 1 1 1 1 1 1 1 1 1 1 1 1 1 1 1 1 1 1 1 1 1 1 1 1 1 1 1 1 1 1 1 1 1 1 1 1 1 1 1 1 1 1 1 1 1 1 6 1 1 1 1 1 6 6 1 1 6 1 1 1 6 6 6 6 1 3 6 6 6 6 6 6 6 6 6 6 6 6 6 6 6 6 6 6 6 6 6 6 6 6 6 6 6 6 6 6 6 6 6 6 6 6 6 1 1 1 1 1 1 1 2 2 2 6 2 1 1 1 1 1 1 1 1 2 2 > 1 9 2 , ; > > : ; ; : : : : ; : & & * * & & * * * * * * * & * ",
"1 1 1 1 1 1 1 1 1 6 6 6 6 6 6 r 6 6 6 6 6 6 6 6 6 6 6 1 6 6 1 1 6 1 1 1 6 1 1 1 1 1 1 1 1 1 1 1 1 > > > 1 1 > > 1 > 1 1 > 1 1 1 > 1 > 1 > > > > > > > > > > > 1 > > > > > > > > > > > > > > 1 1 1 1 > > > > > 1 1 1 1 1 1 1 > 1 1 1 1 1 > > 1 1 1 1 1 1 1 1 1 1 1 1 1 1 1 1 1 1 1 1 1 1 1 1 1 > 1 1 1 1 1 1 1 1 1 1 1 > 1 1 1 1 1 > 1 1 1 1 1 1 1 > > > 3 3 1 1 1 1 1 1 1 1 1 2 2 2 2 2 1 2 2 2 9 2 9 2 2 2 6 9 9 9 9 9 1 9 1 1 9 9 9 9 9 9 9 9 9 6 9 9 9 9 6 9 9 6 9 9 9 9 9 9 9 8 9 9 9 9 8 9 9 9 9 9 9 9 9 9 9 9 9 9 9 9 9 9 9 9 9 9 9 9 9 9 9 9 w w 9 9 9 9 w w w w w w w w w w w 9 9 9 9 0 e 9 2 B / 9 0 9 9 9 9 9 2 2 9 9 9 9 2 2 2 2 9 9 2 2 2 2 2 2 9 9 2 2 2 2 2 2 2 2 2 2 2 2 2 2 2 2 2 2 2 2 2 2 2 2 2 2 2 2 2 2 1 1 1 1 1 1 1 1 1 1 1 1 1 1 1 1 1 1 1 1 1 1 1 1 1 1 1 1 1 1 1 1 1 1 1 1 1 1 1 1 1 1 1 1 1 1 1 1 1 1 1 1 6 6 6 6 1 1 1 6 6 6 6 6 6 6 6 6 1 B ^ r 1 6 6 6 6 6 6 6 6 6 6 6 6 6 6 6 6 6 6 6 6 6 6 6 6 6 6 6 6 6 6 6 6 6 6 6 1 6 6 1 6 6 6 9 9 2 1 1 1 9 1 2 1 1 1 3 1 2 > > 1 2 , ; ; : ; ; ; : : : : : : & & * * & * * * * & * * * & * ",
"1 1 1 1 1 1 1 1 1 1 6 6 6 6 6 6 6 6 6 6 6 6 6 1 6 6 6 1 1 6 6 1 1 1 1 1 1 1 1 1 1 1 1 1 1 1 1 1 1 1 > > > 1 > > > > > > > > > 1 > > > > 1 1 > > > > > > > > 1 > > > > > > > > > > > > > > > 1 > 1 > > 1 1 1 > 1 1 1 1 > 1 1 1 > > 1 1 1 > 1 1 > 1 1 1 1 1 1 1 > 1 1 1 1 1 > 1 1 1 1 1 1 1 1 1 1 1 1 1 1 1 1 1 1 1 1 1 1 1 1 1 1 1 > ; 1 > 1 1 1 1 1 1 > > > 1 1 2 1 1 1 1 1 1 2 1 9 2 2 2 2 2 2 2 9 9 1 1 2 9 9 2 9 9 9 6 9 9 9 9 9 9 9 9 9 9 9 9 6 9 9 9 9 9 9 9 6 9 9 9 6 9 9 6 9 9 9 9 9 6 6 9 9 9 9 9 9 9 9 9 9 9 9 9 9 9 9 9 9 9 9 9 9 9 w 9 9 w w 9 9 w w w w w w 9 w 9 9 9 9 9 e e 9 e 9 9 9 2 / oX9 2 9 2 9 2 2 2 9 9 9 9 9 2 9 2 2 2 2 2 2 2 2 2 2 2 9 9 9 2 2 2 2 2 9 2 9 2 2 2 2 2 2 2 9 2 2 2 2 2 2 2 2 2 2 2 2 1 1 1 1 1 1 1 1 1 1 1 1 1 1 1 1 1 1 1 1 1 r 1 1 1 1 1 1 1 1 1 1 1 1 1 1 1 1 1 1 1 1 1 1 1 1 1 1 1 6 6 6 6 6 6 6 1 6 6 6 6 1 1 6 6 6 6 6 3 ^ :.6 1 6 6 6 6 6 6 6 6 6 6 6 6 6 6 6 6 6 6 6 6 6 6 6 6 6 6 6 6 6 6 6 6 6 6 6 6 9 6 6 1 1 1 6 6 2 1 1 1 1 1 2 1 1 1 2 2 2 1 > : > > ; ; : : ; ; : : : ; * * * & * * * * * * * * * * * * & ",
"1 1 1 1 1 1 1 1 1 6 6 6 6 6 6 6 6 6 6 6 1 6 6 6 6 1 1 r 1 1 1 6 1 1 1 1 1 1 1 1 1 1 1 1 1 1 > 1 > > 1 > > 1 > > > > > > > > > > > > > > > > > > > > > > > > > > > > > > > > > > > > > > > > > > > > > 1 > 1 1 1 1 1 1 1 > > > 1 > > 1 1 > > 1 1 1 1 1 1 > 1 1 > > > 1 1 1 1 1 1 > 1 1 1 1 1 1 1 1 1 1 1 1 1 > 1 1 1 1 > 1 1 1 > > > ; > > > 1 1 > 1 1 > 1 1 1 1 1 3 1 1 1 3 3 2 2 1 2 2 2 2 2 2 2 2 2 1 1 1 2 2 2 2 1 1 1 2 9 9 1 9 9 9 9 9 9 9 9 9 9 6 9 9 9 9 9 9 9 6 9 9 9 9 6 6 9 9 9 9 9 9 9 9 6 9 9 9 9 9 9 9 9 9 9 9 9 9 9 9 9 9 9 9 9 9 9 9 w 9 w w 9 9 9 9 9 w w w w 9 9 w w 9 9 9 9 e 9 9 9 9 9 0 9 2 2 9 9 2 9 9 9 9 9 9 9 9 2 2 2 2 2 2 2 2 2 2 2 2 2 2 2 2 2 2 2 2 2 9 2 2 2 2 2 2 2 2 2 2 2 2 2 2 2 2 2 2 2 2 1 1 1 1 1 1 1 1 1 1 1 1 1 1 1 1 1 1 1 1 1 k r 1 1 1 1 1 1 1 1 1 1 1 1 1 1 1 1 1 1 1 1 1 1 1 1 1 1 1 6 1 1 1 6 6 1 6 1 1 1 6 6 6 6 6 6 6 1 6 6 1 6 6 6 6 6 6 6 6 6 6 6 6 6 6 6 6 6 6 6 6 y 6 6 6 6 6 6 6 6 6 6 6 6 6 1 1 1 2 9 9 2 2 6 1 1 1 1 1 9 2 2 2 2 1 1 1 1 1 1 ; : : ; ; ; ; ; ; & * : * * * * & & & * * * * & * * & * * * * ",
"1 1 1 1 1 1 1 1 1 1 1 1 1 1 6 1 6 6 6 6 1 1 1 1 1 1 1 r 1 1 1 1 1 1 1 1 1 1 1 1 1 1 1 1 1 > > > > > > > > > 1 > > > > > > > > > > > > > > > > > > > > > > > > > > > > > > > > > > > > > > > > > > 1 1 > > 1 1 1 1 > 1 1 > > 1 > > 1 1 1 > > 1 1 1 1 > 1 1 > > 1 > > > > 1 1 1 1 > > 1 1 1 1 1 1 1 1 1 1 > 1 1 1 1 1 1 1 1 1 > > 1 1 > ; 1 1 1 > > > > ; 1 1 1 1 > 1 1 1 1 ; 3 2 1 3 3 2 1 2 2 2 1 2 1 1 1 1 2 2 9 9 1 9 9 2 2 9 1 2 9 9 9 9 9 9 9 9 9 9 9 9 9 9 9 6 9 6 9 9 9 6 6 6 9 9 9 9 9 9 9 6 9 9 9 9 9 9 9 9 9 9 9 9 9 9 9 9 9 9 9 9 9 9 9 9 9 0 0 9 9 9 w w 9 9 w w 9 e 9 w w 9 e e e e 9 9 9 9 2 0 9 9 2 2 2 2 9 9 9 9 2 2 2 9 9 9 2 2 2 2 9 9 2 2 2 2 2 2 2 2 2 2 2 2 2 2 2 2 2 2 2 2 2 2 2 2 2 2 2 2 2 2 2 2 2 2 1 1 1 1 1 1 1 1 1 1 1 1 1 1 1 1 1 1 1 1 1 1 1 1 1 1 1 1 1 1 1 1 1 1 1 1 1 1 1 1 1 1 1 1 6 6 1 6 6 6 6 1 1 6 6 6 6 6 6 1 6 6 6 6 6 6 6 6 6 6 1 6 6 6 6 6 6 6 6 6 6 6 6 6 6 6 6 6 6 6 6 6 6 6 6 6 6 6 6 6 6 6 6 6 6 1 1 1 1 6 1 1 1 2 2 1 1 1 1 2 2 2 1 1 1 2 6 1 3 1 1 > > : : ; ; : : ; * : * & & * & & & * * * * * * * & & * * & & ",
"> 1 1 1 1 1 1 1 1 1 1 1 1 1 1 1 6 6 6 6 1 1 1 1 1 1 1 1 1 1 1 1 1 1 1 1 1 1 1 1 1 1 1 1 1 1 > > > > > > > > > > > > > > > > > > > > > > > > > > > > > > > > ; > > > > > > > > > > > > > > > > 1 1 1 1 1 1 1 1 1 1 > 1 1 > 1 1 1 1 1 1 1 > > 1 1 1 1 1 1 1 > 1 1 1 1 1 > 1 1 1 > > > > 1 1 1 1 1 1 1 1 1 > > 1 1 1 1 1 > 1 1 ; > 1 1 > ; 1 1 1 1 > > > 1 > > 1 > ; 1 2 2 3 1 1 1 1 2 2 1 2 2 2 2 2 2 2 2 1 1 9 9 9 9 9 9 9 9 2 9 1 1 9 9 9 9 9 9 9 9 9 9 9 9 9 9 6 6 6 6 9 9 9 9 6 6 6 9 6 9 9 9 9 9 9 9 6 9 9 9 6 6 9 9 9 9 9 9 9 9 9 9 9 9 9 9 w 0 u >.B 0 9 e w w w w 9 9 e e w w 9 e e e 9 9 9 9 9 9 9 9 9 2 2 2 2 2 2 2 9 2 2 2 2 9 9 2 2 2 2 9 9 9 2 2 2 2 2 2 2 2 2 2 2 2 2 2 2 2 2 2 2 2 2 2 2 2 2 2 2 2 2 : > 1 2 2 2 2 2 1 1 1 1 1 1 1 1 1 1 1 1 1 1 1 1 1 1 1 1 1 1 1 1 1 1 1 1 1 1 1 1 1 1 1 1 1 6 6 1 1 1 1 6 1 1 6 6 6 1 6 6 6 6 6 6 6 6 6 6 6 6 6 6 6 6 6 6 6 6 6 6 6 6 6 6 6 6 6 6 6 6 6 6 6 6 6 6 6 6 6 6 6 6 6 6 6 6 6 6 6 1 6 1 1 1 2 1 1 2 1 1 1 1 2 1 1 1 1 1 1 1 1 1 1 2 2 1 , ; ; > : : ; : : & : : : * * & * * * * : : * * * * * * * * * ",
"> > > 1 1 1 1 1 1 1 1 1 1 1 1 1 1 1 1 1 1 1 1 1 1 1 1 1 1 1 1 1 1 1 1 1 1 1 1 1 1 1 1 > > 1 > > > > > > > > > > > > > > > > > > > > > > > > > > > > > > > > > ; > > > > > > > > > > > > > > > 1 1 1 1 1 1 1 1 1 > 1 1 1 1 1 1 > 1 1 > 1 > 1 1 > > > > > > > 1 1 1 > > 1 1 1 1 1 > > > 1 1 1 1 1 1 1 1 1 1 1 > > > 1 1 > 1 1 > > 1 > > > > > 1 1 > > 3 > > 1 1 1 1 1 ; 2 3 2 2 1 3 1 6 2 2 2 2 2 1 2 2 1 6 6 6 9 2 9 9 9 9 9 9 9 1 9 9 9 9 9 9 9 9 9 9 9 9 9 6 6 6 6 6 6 9 9 9 9 6 6 6 8 6 6 6 6 9 9 9 9 6 6 6 9 9 9 6 6 9 9 9 9 9 9 9 9 9 9 9 9 9 0 M oX/ 0 w e 9 w e e 9 9 9 e e e 9 w e e 9 9 9 9 9 9 9 9 9 0 2 2 2 2 2 2 9 2 2 2 2 9 9 2 2 2 2 9 9 2 9 2 2 2 2 2 2 2 2 2 2 2 2 2 2 2 2 2 2 2 2 2 2 2 2 2 2 2 2 : 2 2 2 2 2 2 1 1 1 1 1 1 1 1 1 1 1 1 1 1 1 1 1 1 1 1 1 1 r 1 1 1 1 1 1 1 1 1 1 1 1 1 6 1 1 1 1 1 1 1 1 1 1 6 1 1 1 6 6 1 6 6 6 6 6 6 6 6 6 6 1 1 6 6 6 6 6 6 6 6 6 6 6 6 6 6 1 6 6 6 6 1 6 6 6 6 6 6 6 6 6 6 6 1 6 1 1 1 6 1 1 1 1 2 1 1 1 1 1 2 2 2 2 1 1 1 1 1 1 1 1 1 1 1 > > > ; ; ; : : : ; * * : * * * & * * * * * * * & & & * * * * * ",
"> > 1 1 1 1 1 1 1 1 1 1 1 1 1 1 1 1 1 1 1 1 1 1 1 1 1 1 1 1 1 1 1 1 1 1 1 1 1 > 1 > > > > > > > > > > > > > > > > > > > > > > > > > > > > > > > > > > > > > > > > ; > > ; > > > > > > > > > > > 1 > > > 1 1 1 1 > 1 1 1 1 1 > 1 1 1 1 1 1 1 1 > > > > 1 > > > 1 1 1 1 1 1 1 > 1 > 1 1 1 > > > > 1 1 > 1 1 1 1 > > 1 1 1 3 1 > > ; ; ; > > > > 1 > 1 1 > ; ; : , > 1 3 3 1 2 1 3 3 1 2 2 2 2 3 3 2 3 2 1 2 2 1 9 2 9 2 1 2 9 9 9 9 9 9 2 9 9 9 9 9 9 9 9 6 6 9 9 9 9 9 6 6 6 6 9 9 6 9 9 6 6 6 6 9 9 9 9 6 6 9 9 6 6 9 9 9 9 6 9 9 9 9 9 9 9 9 9 9 e 9 h 9 9 9 9 9 9 e e w w e e 9 9 9 9 9 9 9 9 9 0 9 9 9 9 2 2 9 9 2 2 2 2 2 2 2 2 2 9 2 2 9 9 2 2 2 2 2 2 2 2 9 9 2 2 2 2 2 2 2 2 2 2 2 2 2 2 2 2 2 2 , , 2 2 2 2 2 2 1 1 2 1 1 1 1 1 1 1 1 1 1 1 1 1 1 1 1 1 1 1 1 1 1 1 1 1 1 1 1 1 1 1 1 1 1 1 1 6 1 1 1 1 1 1 6 6 6 6 6 6 1 6 6 6 6 6 6 6 6 6 6 6 6 6 6 6 1 6 6 6 6 6 6 6 6 6 6 6 6 6 6 6 6 6 6 6 6 6 6 6 6 6 6 6 6 6 6 6 6 1 1 1 1 1 1 1 1 1 1 1 1 1 1 1 1 1 1 2 2 2 1 1 1 1 2 1 1 1 1 1 1 ; ; , ; ; ; : ; : : : * & * * * * * & & & & * * * * * * & * * ",
"> 1 1 1 1 1 1 1 1 1 1 1 1 1 1 1 1 1 1 1 1 1 1 1 1 1 1 1 1 1 1 1 1 1 1 1 1 1 1 > > > > > > > > > > > > > > > > > > > > > > > > > > > > > > > > > > > > > > > > > > > > > > > > > > > > > > 1 > > > > > 1 1 1 1 1 > > 1 1 1 > > > > 1 1 1 1 > 1 1 1 1 > 1 1 > > > 1 1 > 1 1 1 1 1 1 1 1 1 1 1 1 > > > > 1 > > > 1 > > > 1 > 1 ; > > 1 > > ; ; > > > ; > ; ; ; ; 1 1 > 3 2 1 1 3 3 1 3 3 ; ; 3 3 3 2 2 2 2 2 2 2 9 9 2 2 2 1 9 9 9 9 9 9 9 9 9 9 9 9 9 9 9 9 8 9 6 9 9 9 9 6 6 6 6 6 6 6 9 6 6 6 6 9 9 9 9 6 9 9 9 6 6 9 9 9 9 9 9 9 9 9 9 9 9 9 9 9 9 e 9 9 w 9 e 9 9 e e w w e e e 9 9 9 e 9 9 e 9 2 2 2 9 9 2 2 9 2 2 9 2 2 2 2 9 2 2 2 2 2 9 9 2 2 2 2 2 2 2 2 2 2 2 2 2 2 2 2 2 2 2 2 2 2 2 2 2 2 2 2 2 2 : 2 2 1 1 1 1 > 1 1 1 1 1 1 1 1 1 1 1 1 1 1 1 1 1 1 1 1 1 1 1 1 1 1 1 1 1 1 1 1 1 1 1 1 1 1 1 1 1 1 1 1 r 6 6 6 1 6 6 6 6 6 6 6 6 6 6 6 6 6 6 6 6 6 6 6 6 6 6 6 6 6 6 6 6 6 6 6 6 6 6 6 6 6 6 6 6 6 1 6 6 6 6 6 6 6 1 1 1 1 1 1 1 1 1 1 1 1 1 1 2 1 1 1 1 2 2 1 1 1 1 1 2 1 1 1 > ; > ; ; ; ; : , ; : : : : * * * * * * * * * & & * * & & * & & * & ",
"> 1 1 1 1 1 1 1 1 1 1 1 1 1 1 1 1 1 1 1 1 1 1 1 1 1 1 1 1 1 1 1 1 1 1 1 1 > > > > > > > > > > > > > > > > > > > > > > > > > > > > > > > > > > > > > > > > > > > > > > > > > > > > > > > > > > > > > > > > > 1 1 > > 1 1 1 > > > > > > 1 > > > 1 1 1 1 1 1 > > > 1 1 > 1 > > 1 1 > 1 > 1 > 1 > > 1 > > 1 1 1 > 1 > > 1 1 1 1 > ; 1 1 1 > ; ; ; ; ; > 1 1 1 > : 2 1 1 > > 2 1 1 3 3 3 3 / B ; 1 2 2 1 1 2 2 9 2 2 9 9 2 1 2 2 9 9 9 9 9 9 9 9 9 9 9 9 9 9 9 9 8 6 9 9 9 9 6 6 6 6 6 6 6 9 6 6 6 6 6 6 6 6 6 6 6 9 9 9 6 9 9 9 9 9 9 9 9 9 9 9 9 9 9 9 9 9 9 9 9 9 9 9 9 9 9 9 9 e 9 9 9 e 9 0 9 9 9 0 9 2 2 2 9 2 2 2 2 9 9 2 2 2 2 2 2 2 2 2 2 9 2 2 2 2 2 2 2 2 2 2 2 2 2 2 2 2 2 2 2 2 2 2 2 2 2 2 2 2 2 2 2 2 2 2 , 2 1 > > 1 1 1 1 1 1 1 1 1 1 1 1 1 1 1 1 1 1 1 1 1 1 1 1 1 1 1 1 1 1 1 1 1 1 1 1 1 1 1 1 6 1 6 6 6 6 1 6 6 6 6 6 6 6 6 6 6 6 6 6 6 6 6 6 6 6 6 6 6 6 6 6 6 6 6 6 6 6 6 6 6 6 6 1 1 6 6 6 6 1 6 6 1 6 1 1 1 1 1 1 1 1 1 1 1 1 1 1 1 1 1 2 1 1 1 1 1 1 2 1 1 1 1 1 1 1 1 ; ; ; ; > : ; ; : : : : : * * * * * * * * * * * & * * & * * & * & & ",
"> > > 1 1 1 1 1 1 1 1 1 1 1 1 1 1 1 1 1 1 1 1 1 1 1 1 1 1 1 1 1 1 1 1 > > > > > > > > > > > > > > > > > 1 > > > > > > > > > > > > > > > > > > > > ; > > > > > > > > > > > > > > > > > > > > > > > > > > > > > > > > 1 1 > > > > > > > > > > > > 1 1 1 > > 1 1 1 1 1 > > > 1 1 > > > > 1 1 1 > > 1 > > > 1 1 > > > > 1 > 1 > > > > 1 1 > ; ; ; > ; ; > > ; ; ; 1 ; > 1 > > > 3 3 1 ; 3 / B ; 3 1 2 2 2 2 2 2 2 2 9 9 2 2 2 2 9 9 9 9 9 9 9 9 9 9 9 9 9 9 9 9 9 9 9 9 0 0 6 6 6 6 9 6 6 6 9 9 9 6 6 6 6 6 6 6 9 9 6 6 9 9 9 9 6 9 9 9 9 9 9 9 9 9 9 9 0 9 9 9 9 9 9 9 9 9 9 9 9 e 9 9 e 9 9 0 9 2 2 0 2 2 2 9 9 2 2 2 2 2 2 2 2 2 2 2 2 2 2 2 2 9 2 2 2 2 2 2 2 2 2 2 2 2 2 2 2 2 2 2 2 : 2 2 2 2 2 2 2 , 2 2 2 2 2 , , 1 2 1 1 1 1 1 1 1 1 1 1 1 1 1 1 1 1 1 1 1 1 1 1 1 6 1 1 1 1 1 1 1 1 1 1 1 1 1 1 1 1 6 1 1 1 6 6 6 6 6 6 6 6 6 6 6 6 6 6 6 6 6 6 6 6 6 6 6 6 6 6 6 6 6 6 6 6 6 6 6 6 6 6 1 6 1 6 1 6 6 6 6 1 1 1 1 1 1 1 1 1 1 1 1 1 1 1 1 1 1 1 1 1 2 2 1 1 1 1 1 2 1 1 2 1 2 1 1 1 ; ; ; > ; ; , > : ; : : * * : * * * * * * * * * * * * * * * * & & & & ",
"> > 1 1 1 1 1 1 1 1 1 1 1 1 1 1 1 1 1 1 1 1 1 1 1 1 1 1 1 1 1 1 1 1 > > > > 1 1 > > > > > > > > > > > > > > > > > > > > > > > > > > > > > > > > > ; ; > > ; & ; ; > > > > > > > > > > > > > > > > > > > > > 1 > 1 1 > > > 1 > 1 1 1 > > > 1 1 1 > > > > 1 1 1 1 1 > > > 1 1 1 1 > > 1 1 1 1 > > 1 > > > 1 1 > > > > 1 > 1 > 1 > > > > > ; ; ; ; ; > > > > ; 1 1 ; ; ; 1 3 ; ; 2 1 1 2 ; ; 3 3 2 2 2 2 2 2 2 2 9 9 2 2 2 9 9 9 9 9 9 9 9 9 9 9 9 9 9 9 9 9 9 9 9 9 6 B g 1 6 6 6 6 6 6 6 6 9 9 9 9 9 9 6 6 6 9 9 6 9 6 9 9 9 9 9 9 9 9 9 9 9 9 9 9 9 9 9 9 0 9 9 0 0 2 9 0 e e e 9 0 e 2 9 9 9 9 9 9 2 2 9 9 2 2 2 2 2 2 2 2 2 2 2 2 2 2 2 2 2 2 2 2 2 2 2 2 2 2 2 2 2 2 2 2 2 2 2 2 2 : ; : 2 2 2 2 2 2 : : 2 2 2 , , > 2 2 2 , > 1 1 1 1 1 1 1 1 1 1 1 1 1 1 1 1 1 1 1 y r 1 1 1 1 1 1 1 1 1 1 1 1 1 1 1 1 1 1 1 6 6 6 6 6 6 6 6 6 6 6 6 6 6 6 6 6 6 6 6 6 6 6 6 6 6 6 6 6 6 6 6 6 6 6 6 6 6 1 6 6 6 6 6 6 1 1 6 6 1 6 1 1 1 1 1 1 1 1 1 1 1 1 1 1 1 1 2 2 2 2 1 1 1 1 1 2 1 1 1 1 3 1 3 > > > ; ; ; > > ; : : : * * * : * * * * * * * * * * * * * * * * * * * ",
"> > 1 1 1 1 1 1 1 1 1 1 1 1 1 1 1 1 1 1 1 1 1 1 1 1 1 1 1 1 1 1 1 1 > > > > > > > > > > > > > > > > > > > > > > > > > > > > & > > > > > > > > ; > > > > & 6 c y ; ; > > > > > > ; ; > > > > > > > > > > > 1 1 1 1 > > > > > > > > > 1 > > 1 1 1 > > > > 1 1 1 1 1 1 1 > 1 1 1 1 > > > > > > > > 1 > > > > > > 1 1 1 1 > > > ; ; > ; ; > ; ; ; > > ; > > > 1 > > ; 3 3 > > 3 > 2 3 3 1 3 3 3 3 2 2 1 2 2 2 2 2 2 2 9 2 2 9 9 9 9 9 9 9 9 9 9 9 9 9 9 9 9 9 9 9 9 9 1 :./ 3 6 6 6 6 6 6 9 9 6 6 6 9 9 9 6 6 9 9 9 9 6 9 9 6 9 9 9 0 0 9 9 9 9 9 9 9 9 9 9 9 9 9 9 9 0 9 9 9 0 2 2 9 9 2 2 0 9 9 9 9 9 2 9 2 2 2 2 2 2 1 2 2 2 2 2 2 2 2 2 2 1 2 2 1 2 2 2 2 2 2 1 2 2 2 2 2 2 2 2 : : : M / 1 ; 2 : : 2 , , 2 2 2 , , > 1 2 2 2 1 > 1 1 1 1 1 1 1 1 1 1 1 1 1 1 1 1 1 1 1 6 r 1 1 1 1 1 1 1 1 1 1 1 1 1 6 1 1 1 1 6 6 6 6 6 6 6 6 6 6 6 6 6 6 6 6 6 6 6 6 6 6 6 6 6 6 6 6 6 6 6 6 6 6 6 6 6 6 1 1 6 6 6 6 6 1 1 1 6 6 6 6 1 1 1 1 1 1 1 1 1 1 1 1 1 1 2 1 2 1 1 1 1 1 1 2 1 1 1 1 1 1 1 1 > > ; ; ; ; ; ; ; , : : & & * * : * * * * * * * * * & * * * * & * * * * ",
"> > > 1 > > 1 1 1 1 1 1 1 1 1 1 1 1 1 1 1 1 1 1 1 1 > > 1 1 1 1 1 1 > > > > > > > > > > > > > > > > > > > > > > > > > > > > > > & & & > > > > > > > > > & R {.^ ; ; > > > > > > ; > > > > > > > > > > > 1 1 1 1 > > > 1 > > > > > > > > > > > > 1 1 > > > > 1 1 1 1 > > 1 1 1 > > 1 > > > > > > 1 > > > > > > 1 1 1 1 > > > ; ; ; ; ; > > > ; ; > ; ; > ; ; > > 1 3 > > 1 1 ; 3 3 1 3 1 1 3 2 2 2 2 2 2 2 2 2 2 2 2 2 2 9 9 9 9 9 9 9 9 9 9 9 9 9 9 9 9 9 9 9 9 9 6 h f 9 9 6 6 6 6 6 6 6 9 9 6 6 6 6 9 9 6 6 9 9 9 1 1 9 6 9 9 9 9 9 9 9 0 9 9 9 9 9 9 9 0 9 0 0 2 9 9 0 9 9 2 9 9 2 2 9 9 2 2 9 9 2 2 2 2 9 9 2 2 1 2 2 2 2 1 2 2 2 1 2 2 2 2 1 2 2 2 2 2 2 2 2 2 ; 2 2 2 2 2 2 2 & B :.6 ; 2 , 2 2 2 2 2 2 2 , 2 , 1 , 2 2 , > 1 1 1 1 1 1 1 1 1 1 1 1 1 1 1 1 1 1 1 1 1 1 1 1 1 1 1 1 1 1 1 1 1 1 1 1 1 1 6 6 6 6 6 6 6 6 6 6 6 6 6 6 6 6 6 6 6 6 6 6 6 6 6 6 6 6 6 6 6 6 6 6 6 6 6 6 6 1 1 1 6 1 1 1 1 1 1 1 1 1 6 1 1 1 1 1 1 1 1 1 1 1 1 1 1 1 1 1 1 1 1 1 1 1 1 1 1 2 1 1 3 1 > 1 > ; ; ; ; ; ; ; , : : * * * * * * * * * * * * * * * * * & * * * * & & ",
"> > > > > > 1 1 1 1 1 1 1 1 1 1 1 1 1 1 1 1 1 1 1 1 > 1 > > 1 1 1 1 > > > > > > > > > > > > > > & > > > > & > > > > > & & & > > > > > > > > > > > > > > & k :.B ; > > > ; > > > > > > > > > > > > > > > 1 1 > > > > > > > > > > > > > > > > > > > > > > > > 1 > > > > > > > > > > 1 1 > > > > > > > > > > > > > > 1 > > > > > ; > ; ; > > > ; > ; ; ; > ; ; ; ; 1 > > > 1 1 1 1 ; ; 3 3 3 2 2 3 2 2 2 2 2 2 2 2 2 2 2 2 2 9 9 9 9 9 9 9 9 9 9 9 9 9 9 9 9 9 9 9 9 9 0 0 9 9 6 6 6 9 6 6 6 6 6 9 6 6 9 6 6 9 6 9 9 6 c f 1 9 9 9 9 y 9 2 9 9 9 9 9 9 9 2 2 2 9 2 9 9 0 9 9 9 2 2 e 9 2 2 2 0 2 2 2 9 2 2 2 2 9 9 2 2 2 2 1 2 2 2 2 1 2 1 2 2 1 2 1 2 2 2 2 2 2 2 2 2 2 2 2 2 2 2 2 2 : 2 1 ; : : : 2 2 2 2 , 2 2 2 2 > > 1 2 2 1 1 1 > 1 > 1 1 1 1 1 1 1 1 1 1 1 1 1 1 1 1 1 1 1 1 1 1 1 1 1 1 1 1 1 6 6 1 6 1 6 1 6 6 6 6 6 6 6 6 6 6 6 6 6 6 6 6 6 6 6 6 6 6 6 6 6 6 6 6 6 6 6 6 6 6 6 6 6 6 1 6 1 1 1 1 1 1 1 1 1 1 1 1 1 3 1 1 1 1 1 2 2 1 1 1 1 1 1 1 1 1 1 1 1 1 1 1 1 1 2 1 1 1 , 3 > ; ; ; ; ; ; ; ; : * * & * * * * * * * * * * * * * * * * * * * * & $ ",
"> > > > > > > 1 1 1 1 1 1 1 1 1 1 1 1 1 1 1 1 1 1 > > > > > > > > > > > > > > > > > > > > > & > > > > > > > > > & & & > > > > & & > > & > > > & > & & > & & & & > > > > > > > > > > > > > > > > > > > > > > > > > > > > > > 1 1 1 > > > > > > > > > > > > > > > > > > > > > > > > > > > 1 1 > 1 1 > > > > > > > ; > > > > > > > ; ; ; > > ; ; > > ; ; > ; > > 1 > ; > > ; 1 6 1 ; : : 2 2 2 2 2 2 2 2 2 2 2 2 2 2 2 2 2 2 9 9 9 9 9 9 9 9 9 9 9 9 9 9 9 9 9 9 9 9 9 9 9 9 9 9 6 6 6 6 6 6 6 6 9 9 6 6 6 6 6 9 6 9 1 c M 1 9 6 9 9 9 9 9 9 9 9 9 9 9 9 0 2 9 2 9 9 9 9 9 2 2 9 9 2 2 2 2 2 9 2 2 2 2 2 2 2 2 2 2 2 2 2 2 2 2 2 2 2 1 2 1 3 1 2 1 1 2 2 2 2 2 2 2 : 2 2 : 3 2 2 2 3 : 2 2 : 2 2 : 2 2 , , : 2 , : : : , 2 > ; > > > > 1 1 1 1 1 1 1 > 1 1 1 1 1 1 1 1 1 1 1 1 1 1 1 1 1 1 1 1 1 1 1 1 6 6 1 6 6 6 6 6 6 6 6 6 6 6 6 6 6 6 6 6 6 6 6 6 6 6 6 6 6 6 6 6 6 6 6 6 6 6 6 6 6 6 6 9 9 6 6 1 6 1 1 1 1 1 1 1 1 1 1 1 1 1 1 2 1 1 1 3 1 1 1 2 1 1 1 1 1 2 1 1 1 1 1 1 > 1 1 > ; ; > ; ; ; ; ; : * & : * : * * * * * * * * * * * * * * * * * * * & & & & & ",
"> > > > > > 1 1 1 1 1 1 1 1 1 1 1 1 1 1 1 1 1 1 1 1 1 > > > 1 > > > > > > > > > > > > > > > > > > > > > > & & & & ; & > > > > > & > > > > > > > & > & > > > > & > ; ; > > > > ; > > > > > > > > > > > > > > > > > > > > > > > > > > > > > > > > > > > > > > > 1 > 1 > > > > > > > > > 1 > > > 1 1 > > > > > > > ; ; ; ; > > > ; > ; > > > ; > > ; 1 ; ; ; ; > > ; ; > > ; ; 3 ; 2 2 2 2 2 2 2 2 2 2 2 2 2 2 2 2 2 2 2 2 2 9 9 9 9 9 9 9 9 9 9 9 9 9 9 9 9 9 9 9 9 9 6 9 9 9 6 6 6 6 6 6 6 6 6 9 6 9 6 6 6 6 6 6 9 9 3 1 6 6 9 1 9 9 9 2 9 9 9 9 9 9 9 9 2 2 2 2 9 9 9 9 2 2 2 9 2 2 2 2 2 9 2 2 2 2 2 2 2 2 2 2 2 2 2 2 2 2 1 1 2 2 1 1 1 1 1 1 1 1 1 2 2 2 2 2 2 2 > ; 2 3 3 2 1 ; 2 > 2 2 2 : 2 2 2 2 , 2 : 2 , , 2 1 > 1 1 1 > > 1 1 > > 1 1 > 1 1 1 1 1 1 1 1 1 1 1 1 1 1 1 1 1 1 1 1 1 1 1 1 1 6 1 1 6 6 6 6 6 6 6 6 6 6 6 6 6 6 6 6 6 6 6 6 6 6 6 6 6 6 6 6 6 6 6 6 6 6 6 6 6 6 1 9 9 9 9 6 1 1 1 1 1 1 1 1 1 1 1 1 1 1 1 1 1 1 1 1 1 1 1 1 1 2 1 1 1 1 2 3 3 1 1 1 1 1 1 > ; > ; ; ; ; ; ; ; ; * & & & * * * * * * * * * * * * * * * * * * * & & & & & $ ",
"> > > > > > 1 1 1 > 1 1 1 1 1 1 1 1 1 1 1 1 1 1 1 1 > > > > 1 > > > > > > > > > > > > > > > > & > > > > & & & & > > & & > > > > & > > > > > > > & > > > > > > > ; > ; > & > > > > > > > > > > > > > > > > > > > > > > > > > > > > > > > > > > > > > > > > > > 1 1 > > > > 1 > > > 1 > 1 1 ; 1 1 > > > > > > > > > ; 3 3 > > ; ; ; ; > > > ; ; ; ; > > ; ; ; ; ; ; > ; ; > ; ; ; 2 2 2 2 2 2 2 2 2 2 2 2 2 2 2 2 2 2 2 2 9 9 9 9 9 9 9 9 9 9 9 9 9 9 9 9 9 9 9 9 9 6 9 6 9 9 9 6 6 6 9 9 9 9 9 9 6 9 9 9 6 9 6 9 9 9 9 9 1 6 9 9 9 9 9 2 9 9 2 2 0 2 9 2 2 2 2 2 2 9 2 2 2 2 9 9 2 2 2 2 2 9 9 9 2 2 2 2 2 2 2 2 2 2 2 2 2 2 2 1 2 2 2 2 2 1 1 1 2 2 2 2 2 2 2 2 2 , ; 3 , 2 : 2 2 2 2 2 2 , 2 2 2 : : 2 , , , > , 1 > 1 1 1 1 > > 1 1 1 1 > > > > 1 1 1 1 1 1 1 1 1 1 1 1 1 1 1 1 1 1 1 1 1 1 1 1 1 1 6 6 6 1 6 6 6 6 6 6 6 6 6 6 6 6 6 6 6 8 6 6 6 6 6 6 6 6 6 6 6 6 6 6 6 6 9 9 6 1 6 9 9 6 1 2 1 1 1 1 1 2 2 1 1 1 1 1 2 1 1 1 1 1 1 1 1 3 1 1 1 : 1 > 1 > 2 2 2 ; 1 1 > 1 1 > ; ; > > > > ; ; ; ; * & & & * & * * * * * & * * * * * * & * * * * & & * * & * ",
"> > > > > > 1 1 > 6 y 1 1 1 1 1 1 1 1 1 > 1 1 > 1 1 > > > > > > > > > > > > > > > > > > > > > > > > > > & & & & > > & > > & > > > > > > > & > > & > > & > > > > > > > > > > > > > > > > > > > > > > > > > > > > > > > > > > > > > > > > > > > > > > > > > > > > > > > > > > > > > > ; 1 y 1 > > > > > > > ; > > ; 3 ^ R & > > > > ; ; ; > ; ; ; ; ; ; ; > ; ; ; ; > ; ; ; ; ; : 2 : 2 2 2 2 2 2 2 2 2 2 2 2 2 9 9 9 2 2 2 9 9 9 9 9 9 9 9 9 9 9 9 9 9 9 9 9 9 9 9 6 6 6 9 9 6 6 6 6 9 9 6 9 9 9 9 6 6 9 9 9 9 6 6 9 9 9 1 6 9 9 3 1 9 2 2 2 2 2 2 2 2 9 9 2 2 2 2 2 2 2 2 2 9 2 9 2 2 2 2 9 9 2 2 2 2 2 2 9 2 2 9 9 2 2 1 1 1 1 2 2 3 2 2 2 1 1 2 2 2 2 2 2 2 1 2 ; ; ; ; : : : 3 : ; 2 : : 2 2 2 2 : 2 2 , , , ; > > > > > > > > 1 1 1 1 1 > > > > 1 1 1 1 1 1 1 1 1 1 1 1 1 1 1 1 1 1 1 1 1 1 1 1 1 1 1 6 6 6 6 6 6 6 6 6 6 6 6 6 6 6 6 6 y 6 6 6 6 6 6 6 6 6 6 6 6 6 6 9 6 6 9 6 6 6 2 9 2 1 9 9 2 2 1 1 2 2 2 2 2 2 1 2 1 1 2 1 2 1 1 1 ; 1 1 2 ; ; > > ; ; 1 1 > ; ; > > 1 ; ; ; ; ; > , ; ; ; & * & & & * * * * * * * & * * * * * * * & & * * * & * * * * ",
"> > > > > 1 > > > r t 1 1 1 1 1 1 1 1 > 1 1 1 > > 1 1 1 > > > > > > > > > > > > > > > > > > > > & & & & & & & & & > > > > & & & & & > > > > > & & & & & & > > > > & > ; > > > > > > > > > ; > > > > > > > > > > > > > > > > > > > > > > > > > > > > > > > > > > > > > > > > > > > > > > 1 1 > > > > > > > > > ; ; 1 R k ; ; > > > ; ; > > ; > ; > > ; > ; ; > > ; ; > > ; 2 ; ; ; : : : 2 2 2 2 2 2 2 2 2 2 2 9 2 2 2 2 9 9 9 9 9 9 9 9 9 9 9 9 9 9 9 9 9 9 9 9 9 9 9 6 9 9 6 6 9 9 9 6 6 6 9 9 6 6 6 9 9 9 9 6 6 6 1 1 3 6 9 9 1 2 9 9 9 9 9 2 2 2 2 2 2 2 2 2 2 2 2 2 2 2 2 2 9 9 2 2 9 2 2 2 2 2 9 2 2 2 2 2 2 2 2 2 2 1 2 2 1 2 3 1 3 2 2 2 2 3 2 , 2 2 1 1 ; > ; : 2 2 : : 2 , 2 2 2 2 2 : : 2 > > , , > , : : : 2 > 1 1 > > > > > > > > > > 1 1 1 1 1 1 1 1 1 1 1 1 1 1 1 1 1 1 1 1 1 1 1 1 1 1 1 6 6 6 6 6 6 6 6 6 6 6 6 6 6 6 6 6 6 6 6 6 6 6 6 6 6 6 6 6 6 6 6 6 6 6 6 6 6 9 6 1 1 1 9 2 2 1 1 1 2 1 1 2 1 1 2 1 1 1 1 2 2 1 1 1 1 3 > 1 ; ; > > : > 2 1 3 > > ; ; > > ; > > ; ; ; ; ; ; ; : & & * * * * * * * * * * * & * * * * * * * * * * * $ $ & * ",
"> > > > > > > > > > > 1 1 1 1 1 1 1 1 1 1 > > > > > 1 > > > > > > > > > > > > > > > > > > > > > > & & & & & & & & & & & & & & & & & > > > > > > & > & > > & > > > > > & > ; & > > ; > > > > > > > > > > > > > > > > > > > > > > > > > > > > > > > > > > > > > > > > > > > > > > > > > > > > > > ; > > > > > > > > > ; ; > > > > ; > ; ; ; > ; ; ; > ; > ; ; ; ; ; ; > ; ; : ; 2 : ; : 2 2 2 2 2 2 2 2 2 2 2 2 9 2 9 2 2 9 9 9 9 9 9 9 9 9 9 9 9 9 9 9 9 9 9 9 9 9 9 6 9 9 9 9 6 9 9 6 9 6 6 9 9 6 6 6 6 9 9 6 9 1 3 1 1 6 9 9 9 2 2 2 2 9 9 2 2 2 2 2 2 2 2 2 2 2 2 2 2 2 2 2 2 2 2 2 2 2 2 2 2 2 2 9 9 2 2 2 2 2 1 2 2 1 1 2 1 1 2 3 2 1 1 2 2 1 2 2 , 2 2 1 > ; ; > 1 2 3 ; ; 2 , ; 2 > > : ; 2 , > ; , ; ; ; : , ; 2 > > > > > > 1 1 > > > > > 1 > > > 1 1 1 1 1 1 1 1 1 1 1 1 > 1 1 1 1 1 1 1 1 6 6 6 6 6 6 6 6 6 6 6 6 6 6 6 6 6 6 6 6 6 6 6 6 8 6 6 6 6 6 6 6 6 6 6 6 6 6 9 9 9 9 1 1 1 1 2 1 1 1 2 2 1 1 1 1 2 2 2 1 1 1 1 > 1 1 > > > ; > > ; ; 1 ; ; > 3 > > > ; > > > 1 ; > ; ; ; ; ; & & : & & * * * * * * * * * * * & * & * * * & * * & & * $ $ & & ",
"> > > > > > > 1 > > > > 1 1 1 1 1 1 1 1 1 > > > > > > > > > > > > > > > > > > > > > > > > > > > & 5 5 & > & & > & & & & & & & & & & & > & & > & > > > > > > > > > & & & > > > > > ; > > > > > > > > > > > > > > > > > > > > > > > > > > > > > > > > > > > > > > > > > > > > > > > > > > > > > > > > > ; > ; ; ; ; ; > > > > > ; ; ; ; ; ; > ; ; ; > ; > ; > > ; ; ; ; ; , : > 2 : 2 2 2 2 2 2 2 2 2 2 2 2 2 2 2 2 9 9 9 9 9 9 9 9 9 9 9 9 9 9 9 9 9 9 9 9 9 9 9 9 9 9 9 9 9 9 6 6 6 9 9 9 6 6 6 9 9 6 6 6 9 9 6 9 9 9 9 6 9 9 9 2 2 2 2 1 2 2 2 2 2 2 2 2 2 2 9 9 2 2 2 2 2 2 2 2 2 2 2 2 2 2 2 2 2 2 2 2 2 2 2 2 9 2 1 1 2 1 2 2 1 1 1 3 1 2 2 1 2 2 2 ; > 1 ; ; ; 2 2 ; > : 2 2 : : 2 > > ; ; 2 , > , > ; ; ; > > > > > > > > > > > > > > > > > 1 1 1 > > 1 1 1 1 1 1 1 1 1 1 r 1 1 1 1 1 1 1 1 1 1 6 6 1 6 6 6 6 6 6 6 6 6 6 6 6 6 6 6 6 6 6 6 6 6 6 6 6 6 6 6 6 9 9 9 9 6 9 6 9 6 9 9 2 2 1 1 2 1 2 2 2 2 1 2 2 1 1 1 1 1 ; ; ; ; 1 1 > ; ; 2 1 1 > > ; ; ; > > > ; > 1 ; ; 1 > ; ; ; : ; ; ; ; & * * * * * * * * * * * * * * & & & & & & & * * & $ & & & & ",
"> > > > > > > 1 > > 1 > 1 1 1 1 1 > 1 > 1 > 1 > > > > > > > > > > > > > > > > > > > > > > > > & & 1 > & > & > & & & & & & & & & & & & & & & & & > > > > > > > > & ; & & & > > ; > > > > > > > > > > > > > > > > > > > > > > > > > > > > > > > > > > > > > > > > > > > > > > > > > > > > > > > > > > ; > > ; > > ; > > > > > > ; ; ; ; > > > ; ; > > ; > ; > ; ; ; ; ; : : : : 2 2 2 2 2 2 2 2 2 2 2 2 2 2 2 2 2 9 9 9 9 9 9 9 9 9 0 9 9 9 9 9 9 9 9 9 9 9 9 9 9 9 9 9 9 9 9 9 9 6 9 9 9 9 6 6 6 9 6 9 9 6 9 9 9 9 2 9 9 1 9 9 9 2 1 1 2 2 2 2 2 2 2 2 2 2 2 2 2 2 2 2 2 2 2 2 2 2 2 2 2 2 2 2 2 2 2 9 2 2 2 2 2 2 9 2 1 1 1 1 1 1 1 1 3 3 1 1 1 1 1 2 3 ; ; > 3 > 2 ; > 1 > ; : > 2 ; 1 ; > ; ; , 2 , ; , , > ; > ; ; ; > > > > > > > > 1 > > > > > > > 1 1 1 1 > 1 1 1 1 1 1 y B y > 1 1 1 1 1 1 1 1 1 1 6 1 6 6 6 6 6 6 6 6 6 6 6 6 6 6 6 6 6 6 6 6 6 6 6 6 6 9 9 6 9 9 9 9 9 6 9 9 2 9 2 9 9 1 2 2 2 1 2 2 2 1 2 1 1 1 1 > > ; : > 1 > > ; ; ; 1 ; > > ; ; ; > > ; > > ; ; > > > ; ; 2 1 ; ; ; & & * * & & & & * * * & * * * & & & & & & & * * & & & & & $ $ ",
"> > > > > > > > > > > > > 1 1 1 1 1 1 1 1 1 1 > 1 1 1 > > > > > > > > > > > > > > > > > > > > & > & & > > & & & & & & & & & & & & & & & & & & > > & > > & > > > & & & > & & & & ; ; ; > > > ; > > > > > > > > > > > > > > > > > > > > > > > > > > > > > > > > > > > > > > 1 > > > > > ; ; ; > > > ; > ; ; > > > ; ; ; > > > > > ; ; ; > > ; ; > > > > ; ; ; ; ; ; ; ; ; ; ; : : 2 : : 2 2 2 2 2 2 2 2 2 2 2 2 2 2 2 2 e 9 9 9 9 9 9 9 9 9 9 9 9 9 9 9 9 9 9 9 9 9 9 9 9 6 9 9 9 9 9 6 9 6 6 9 9 6 6 6 6 1 1 1 9 9 9 9 9 6 9 9 9 2 1 2 2 1 2 2 2 2 2 2 2 2 2 2 2 2 2 2 2 2 2 2 2 2 2 2 2 2 9 2 2 2 9 2 9 2 2 2 2 2 2 2 2 2 2 2 2 2 1 2 3 3 3 1 1 1 2 2 1 2 2 > ; 2 2 > > > 3 2 2 > 1 ; , , 1 , > 1 ; : ; > > > > > > > > ; ; > > > > > > > > > > > > > > > 1 > 1 > 1 1 1 1 1 1 1 r 1 1 1 1 1 1 1 1 1 1 1 1 1 6 6 6 6 6 6 6 6 6 6 6 6 6 6 6 6 6 6 6 6 6 6 6 6 6 6 6 6 9 9 9 6 9 9 1 6 1 2 9 2 6 6 2 2 2 1 2 2 2 2 2 2 2 1 1 3 1 3 : 3 ; > ; ; ; ; > ; ; ; ; ; ; > > ; ; ; ; ; ; ; > ; ; ; > ; ; ; ; & & ; & & & & * * * * * & & & & & & & & & & & * & $ $ * * $ $ ",
"> > > > > > > > > > > > 1 1 1 1 1 1 1 1 1 1 1 > > 1 1 > > > > > > > > > > > > > > > > > > > > & > > & > > & & & & & & & & & & & & & & & & & > > & & > > > > > > & & ; > & & & & > > > > > & > > > > > > > > > > > > > > > > > > > > > > > > > > > > > > > > > > > > > > > > > > > > ; ; ; ; ; > ; > > > > > > > ; ; ; ; > > > > ; ; ; ; > ; > > > ; ; ; ; ; ; ; ; ; ; ; ; ; : : : : 2 2 2 2 2 2 2 2 2 2 2 2 2 2 2 2 9 9 e 9 9 9 9 9 9 9 9 9 9 9 9 9 9 9 9 9 6 6 9 6 6 9 9 6 9 9 9 9 9 6 6 9 9 9 6 6 6 6 1 1 2 2 9 1 2 9 6 1 2 2 2 2 2 2 2 1 1 1 2 2 2 2 2 2 2 2 2 2 2 2 2 2 1 2 2 1 2 2 1 2 9 2 2 2 2 2 2 2 1 2 2 2 1 1 3 3 3 6 3 2 2 2 3 1 2 1 3 ; 3 3 1 1 ; ; 1 1 1 > > ; 2 2 ; 2 2 2 2 ; > 1 > : ; : ; > > > ; > > > ; ; > > > > > > > > > > > > > > > 1 > > > > 1 1 1 1 1 1 > 1 1 1 1 1 1 1 1 1 1 6 1 1 1 1 6 6 6 6 6 6 6 6 6 6 6 6 6 6 6 6 6 6 6 6 6 6 6 6 6 9 9 9 9 9 6 6 6 6 1 2 9 1 6 1 2 2 1 2 2 1 2 2 2 2 2 1 1 1 2 2 2 3 1 > ; ; ; ; 2 2 ; > > > > > > ; ; > > ; > > ; ; ; ; 2 > & ; * & & & ; & * & * & & * * & * * * * * & & & * * * & & $ & $ $ * ",
"> > > > > > > > > > > > 1 1 1 1 > > > 1 1 1 > 1 1 1 > > > > > > > > > > > > > > > > > > > > & & > > & & & & & & & & & & & & & & & & & & & & > > & & & > & > > > & & ; > > ; ; ; ; > > > > > 1 > > > > > > > > > > > > > > > > > > > > > > > > > > > > > > > > > > > > > > > > ; ; > > > > > ; ; ; > ; > > ; > ; ; > > ; > > > ; > ; ; > > ; ; > > > ; ; > ; ; ; ; ; ; ; ; ; : : : : : : 2 2 2 2 2 2 2 2 2 2 2 9 2 2 2 9 9 e e 9 9 9 9 9 9 9 9 9 9 9 9 9 9 9 y 9 9 9 6 9 6 9 9 9 9 9 6 6 9 9 9 9 1 1 9 6 9 9 1 2 1 2 1 1 1 1 2 2 1 1 2 2 2 2 1 2 2 2 1 2 2 1 2 2 2 2 2 9 1 2 3 3 2 1 1 2 2 2 2 2 2 2 2 2 9 1 1 1 2 2 2 2 1 3 6 :.B ; 2 2 1 2 1 1 1 1 2 1 1 > ; > ; 1 2 1 ; > ; ; ; > > ; 1 ; > ; > > ; : ; ; > > > > > > ; ; ; ; > > > > > > > > > > > > > > > > > > 1 1 1 1 1 1 1 1 1 1 1 1 1 1 1 1 1 1 1 1 1 6 6 6 6 6 6 6 6 6 6 6 6 6 6 6 6 6 6 6 6 9 6 6 6 6 6 6 9 9 6 6 6 6 9 9 9 9 9 2 2 1 2 2 1 2 2 1 1 1 1 1 > > ; > 2 2 2 : ; ; ; > ; ; > > ; ; ; > > ; > ; > ; ; ; > ; ; ; ; ; , ; & & & & & & & & * * & * & & * * * * & & * * * * & & * * & & & & & * ",
"> > > > > > > > > > > > > > 1 1 > > > 1 1 1 > > > > > > > > > > > > > > > > > > > > > > > > & & > & & & & & & & & & & & & & & & & & & & & & & > & & & & & & > > > > > > > > ; > > > > > > ; > > ; > > > > > > > > > > > > > > > > > > > > > > > > > > > > > > > > > ; > > > > > > > > > > > > ; ; ; ; ; ; ; > ; > > ; > > > > ; ; ; > > ; ; ; ; > > ; ; ; ; ; ; ; ; ; : ; ; : : : : : : 2 2 2 2 2 2 2 2 2 2 9 9 2 2 e 9 e e 9 e 9 9 9 9 9 9 9 9 9 9 9 9 9 0 f y 2 9 6 9 9 9 6 6 9 6 6 9 9 6 6 6 1 1 6 6 9 9 1 1 1 1 1 1 1 6 1 2 1 1 2 2 3 1 1 3 1 1 1 1 1 3 2 2 3 2 2 2 1 1 3 2 3 1 1 2 2 3 2 2 2 2 1 2 2 1 2 2 2 2 1 1 1 2 6 / M ; 1 2 2 2 1 2 1 2 1 1 1 > 3 1 > 1 1 > ; ; 3 3 > > > ; > ; ; ; ; ; ; ; ; ; ; > > > ; > ; ; > ; > > > > > > > > > > > 1 > > > > > > 1 1 1 1 1 1 1 1 1 1 1 1 1 1 1 1 1 1 1 1 1 6 6 6 6 6 6 6 6 6 6 6 6 6 6 6 6 6 6 6 6 6 6 6 6 9 6 6 6 6 9 9 6 6 9 9 9 9 9 2 2 2 2 2 1 2 2 2 1 2 2 3 > > ; ; 3 1 2 : 6 6 ; > ; ; ; ; ; ; ; ; ; ; ; ; ; ; ; ; ; ; > ; ; ; ; ; ; & & * & & & & & * * * & * * & * * & & * * & * * $ * & & & & * * & ",
"> > > > > > > > > > > > > > > > > > > 1 > 1 > > > > > > > > > > > > > > > > > > > > > & & > > & > & & & & & & & & & & & & & & & & & & & & & & & & > & > & & > > > > > > > > > > > ; > > ; > > > ; > & > > > > > > > > > > > > > > > > > > > > > > > > > > > > > > > > > > > > ; > ; > > > > > > > ; > ; ; ; ; ; > ; ; ; ; ; > > ; ; ; ; ; ; ; ; ; ; ; ; ; ; ; ; ; ; ; ; ; ; : : : : 2 2 : 2 2 2 2 2 2 2 2 2 2 2 2 9 9 e 9 e e 9 9 9 9 9 h f 0 9 9 9 9 9 9 9 9 9 9 6 9 2 9 6 9 9 2 1 1 6 9 9 9 9 9 9 9 9 6 2 9 2 2 1 2 1 1 2 2 2 1 1 1 1 1 1 1 2 1 2 2 2 3 3 2 1 3 3 3 3 2 2 2 2 1 3 1 2 2 2 2 2 2 1 1 2 2 2 2 2 2 2 1 1 1 1 3 ; ; 1 1 1 1 2 1 3 1 2 1 1 1 1 1 ; > > > ; 3 1 3 ; > > ; ; > ; ; > > > ; ; ; ; ; ; > ; > ; > > > > > ; ; > > ; > > > > > > > > > > > > > > 1 1 1 1 1 1 1 1 1 1 1 1 1 1 1 1 1 1 6 6 6 6 6 6 6 6 6 6 6 6 6 6 6 6 6 6 6 6 6 6 6 6 9 9 6 6 6 6 6 9 9 9 9 9 2 9 9 2 2 2 2 1 2 1 1 1 1 1 1 2 : : > 3 2 2 : : k k ; ; ; ; ; ; > ; ; ; ; ; ; ; > ; ; ; ; ; > > ; ; ; ; ; & & & & * & & & * * * * * * * * * & * * * * * * * * & & $ & & & $ ",
"> > > > > > > > > > > > > > > > > > > > > > > > > > > > > > > > > > > > > > > > > > > & > > > > & & & & & & & & & & & & & & & & & & & & & & & & & > > > & & & ; > ; > > ; > > > ; > ; > > > > > > > > > > > > > > > > > > > > > > > > > > > > > > > > > > > > > > > > > > > > > > > > > > > > > > > > > > ; ; > > ; ; ; ; ; ; ; ; ; ; ; ; ; ; ; ; ; ; ; ; ; ; ; ; ; ; ; ; ; : : 2 : : 2 2 2 2 2 2 2 2 2 2 2 2 e 9 0 0 0 9 9 e 9 0 9 9 9 9 9 9 9 9 9 9 9 9 9 9 9 9 9 9 2 9 9 6 6 9 9 2 1 6 6 1 2 2 1 6 2 1 6 6 9 2 9 1 1 1 1 2 2 1 1 1 1 1 1 3 1 3 3 3 3 1 3 3 2 3 3 1 3 2 2 2 2 1 1 1 3 2 2 2 2 1 1 1 1 2 1 2 2 2 2 1 1 1 1 1 1 1 1 1 1 1 3 1 1 1 3 > > 1 1 > ; ; ; ; > 1 1 1 1 > ; ; ; > ; ; ; > > ; ; ; ; ; ; > > > ; > ; > > > ; ; > > > > > > > > > > > > > > > > > > 1 1 1 1 1 1 1 > 1 1 1 1 1 1 1 1 1 6 6 1 6 6 6 6 6 6 6 6 6 6 6 6 6 6 6 6 6 6 6 6 6 9 9 6 6 6 6 6 6 9 9 2 2 2 2 9 2 2 2 2 2 2 1 1 1 1 1 ; > > ; 1 ; 1 2 ; ; 1 1 ; ; ; ; ; ; ; ; ; ; ; ; ; ; ; ; ; ; ; ; > ; & ; & ; & & & & & & & & & & & & * * * * * * & & * * & * $ $ * * & $ & & $ $ ",
"> > > > > > > > > > > > > > > > > > > > > > > > > > > > > > > > > > > > > > > > > > > > > > > > > & & & & & & & & & & & & & & & & & & & & & & > > > > > > > & & ; > > & > > > > & > & ; > ; > > & ; & > > > > > > > > ; > > > > > > > > > > > > > > > > > > > > > > > > > > > > > 1 1 ; > > > > > > ; ; > > > ; ; > ; ; ; ; > ; ; ; > > ; ; ; ; > ; ; ; ; ; ; ; ; ; ; : ; : : : : : 2 2 2 2 2 2 2 2 2 2 2 2 2 2 2 2 e e 9 9 9 9 0 9 9 9 9 9 9 9 9 9 9 9 9 9 9 9 2 2 2 2 9 9 6 6 9 9 1 1 1 6 1 9 1 1 1 1 6 1 1 1 1 1 1 1 1 1 3 1 1 2 1 1 3 3 3 1 1 3 3 3 3 3 ; 1 3 3 1 1 1 2 2 2 1 3 1 3 2 1 1 2 2 1 1 1 1 1 2 2 1 1 1 1 1 1 1 1 1 1 1 1 1 1 1 1 1 3 1 3 1 1 > ; > ; ; 1 > ; > > ; ; ; ; > ; ; 1 > ; ; ; 1 > > > > > ; ; ; ; > ; > > ; > ; > > > > > > > > > > > > > > > > > > 1 > > 1 1 1 1 1 1 1 1 1 1 1 1 6 1 1 1 6 6 6 6 6 6 6 6 6 6 6 6 6 6 6 6 6 6 6 6 6 6 6 9 6 9 6 6 9 9 1 1 1 1 2 2 2 1 1 1 1 2 1 1 2 2 ; ; ; : ; > 1 3 ; ; ; ; ; ; ; ; ; ; ; ; ; ; ; ; ; ; ; ; & & & ; & & & & & & & & & & & & & & & & & & * * * * & * * * * * & & & & * * & & & & $ $ ",
"& > > > > > > > > > > > > > > > > > > > > > > > > > > > > > > > > > > > > > > > > > & > > > > > & & & & & & & & & & & & & & & & & & & & & & & & & > > > > > & ; ; ; ; ; & > & & & > > > > > > & > > & > > > > > > > > > > > > > > > > > > > > > > > > > > > > > > > > > > > > > > > > ; > > ; ; ; ; ; ; > > ; ; ; ; ; ; ; > > ; ; ; ; ; ; ; ; ; ; ; ; ; ; ; ; ; ; ; : : ; : : : : : 2 2 2 2 2 2 2 2 2 2 2 2 2 0 2 2 0 e 2 9 0 9 9 9 0 2 9 9 9 0 9 9 9 9 9 9 9 1 2 2 1 2 9 6 6 9 2 1 2 1 1 1 6 2 1 1 1 1 1 6 1 1 1 1 1 1 1 6 1 1 1 3 1 1 1 1 1 3 1 3 3 3 3 3 1 3 1 1 1 1 3 3 3 3 3 3 1 1 1 1 1 1 1 1 1 1 1 1 1 1 1 1 1 1 1 1 3 1 1 1 1 1 1 1 1 1 1 ; 3 ; > ; 3 > > > > > 1 1 > ; > > ; ; 1 > ; > ; ; > ; 1 > > > ; ; ; > > ; > ; ; > > ; & ; > > ; ; > > > > > > > > > > > > > > > > > > 1 1 1 1 1 1 1 1 1 1 1 1 1 1 1 6 6 6 6 6 6 6 6 6 6 6 6 6 6 6 6 6 6 6 6 6 6 9 9 9 6 1 9 2 1 1 1 1 2 2 1 1 1 2 1 1 1 1 1 2 ; ; ; : > ; ; ; ; ; ; ; ; ; ; ; ; ; ; ; ; ; ; ; & ; & & & & & & & & & & & & & & & & & & & & & & & & & * & & & & * * & * & * & & $ & & $ & & $ $ ",
"> > > > > > > > > > > > > > > > > > > > > > > > > > > > > > > > > > > > > > > > > & & & > > & & & & & & & & & & & & & & & & & & & & & & & & > > & & & > > > > & & & & > > & & & & & & > ; > & & > ; & & ; > > > > > > > > ; > > > > > > > > > > > > > > > > > > > > > > > > > > > > > ; ; ; ; > ; ; ; ; ; ; > ; ; ; ; ; ; ; > ; ; ; ; ; & ; ; > ; ; ; ; ; ; ; ; ; : : : : : : : : : : : : 2 2 2 2 2 2 2 2 2 2 2 2 2 2 9 9 9 0 0 9 9 9 9 9 9 9 9 9 9 9 9 9 9 2 1 2 9 6 9 6 1 2 2 6 1 1 1 1 1 6 6 1 1 1 1 1 1 1 1 1 1 1 1 1 1 1 1 3 3 1 3 1 1 3 3 3 3 ; 3 3 3 1 3 1 1 3 2 3 3 3 1 3 3 1 1 1 1 1 1 2 3 3 1 1 1 1 1 1 1 1 1 1 1 2 1 1 1 1 1 1 1 3 1 3 1 1 1 > ; > > > 1 > ; > > > > ; ; > ; > ; > > > > > > ; ; > > > ; ; > ; ; ; ; ; ; > > > ; ; > > > > > > > > > > > > > > > > > > > 1 1 1 1 1 1 1 1 1 1 1 1 1 1 1 1 1 6 6 6 6 6 6 6 6 6 6 6 6 6 6 6 6 6 6 6 6 6 6 1 9 9 9 9 1 1 1 1 2 2 2 2 1 1 1 1 1 1 1 1 2 3 ; 3 ; ; 3 ; 3 3 ; ; ; ; ; ; ; ; ; ; ; ; ; ; ; & & & ; & & ; & & & & & & & & & & & & & & & & & * & & * & & & & & & & & & & & & & & & & & & & $ $ ",
"> > > > > > > > > > > > > > > > > > > > > > > > > > > > > > > > > > > > > > > > > & & & > > > & & & & > & & & & & & & & & & & & & & & & & & > > & & & & > > > > & ; > ; > > & > & & & & & > > > > & & > > > > > > > > > > > > > > > > > > > > > > > > > > > > > > > > > > > > > > > > > > > ; ; > ; ; > ; > > > > > ; ; > > > > ; ; ; > ; ; > ; ; ; ; ; ; ; ; ; ; ; ; : : : : : : : : : : 2 2 2 2 2 2 2 2 2 2 2 2 2 2 2 2 9 9 9 2 2 9 9 9 9 0 2 2 9 9 2 9 9 9 2 9 2 1 6 2 6 2 2 9 6 1 1 1 1 6 1 1 1 1 1 1 1 2 2 1 1 1 1 1 1 1 1 1 3 1 1 1 1 1 3 3 3 1 1 3 1 3 3 1 3 3 2 1 1 3 1 3 3 1 2 3 1 1 1 3 1 1 1 1 1 1 2 1 1 1 1 1 1 2 1 1 1 1 1 1 1 > 1 1 > 1 1 > 1 > > > 1 > 1 > > > > > > ; > ; ; > > > > ; > > > ; ; ; ; ; ; ; ; ; ; > > > > > > > ; > > > > > > > > > > > > > > 1 > > > 1 1 > 1 1 1 1 1 1 1 1 1 1 1 1 1 6 6 6 6 6 6 6 6 6 6 6 6 6 6 6 6 6 6 6 6 6 6 1 9 6 2 1 6 2 2 1 1 2 2 2 2 1 1 2 2 2 1 1 1 2 , 3 ; 1 2 ; ; ; ; ; ; ; ; ; ; ; ; ; ; ; ; ; ; ; ; & & & & & & & & & & & & & & & & & & & & & & & & & & & & & & & & & * & & & & & & & & & & & & $ $ ",
"& & & & & > > & & > > > > > > > > > > > > > > > > > > > > > > > & & > > > & > > & & & & & & & & & & & & & & & & & & & & & & & & & & & & & & & & & & & & & & & & & & & & & & & & & & & & & & & & & & & & & & ; ; ; & & & ; ; ; ; ; & ; & & ; > > & & & & ; ; ; ; ; ; ; ; ; > ; ; & ; ; ; ; ; & & ; ; & & & & & & & & & & ; ; ; & & & & & & & & ; & & & & ; ; ; ; ; ; ; ; ; ; : : : : : : ; : 2 2 2 2 2 2 2 2 2 2 2 2 2 2 2 2 2 2 2 2 2 2 2 2 2 2 2 3 2 2 0 9 0 3 3 3 3 3 1 1 1 3 1 1 3 1 1 1 1 1 3 3 1 1 1 3 1 3 3 3 3 3 1 1 3 1 3 ; 3 1 ; ; ; ; ; ; 3 ; ; ; ; ; 3 ; 3 3 ; ; ; ; 3 3 3 3 3 3 3 3 3 3 3 1 3 3 3 3 3 3 3 3 1 1 1 3 3 3 3 ; ; ; ; ; ; ; ; ; ; ; ; ; ; ; > ; ; ; ; ; ; ; ; ; ; ; ; ; ; ; ; ; ; ; ; ; ; ; ; & & & & & & & & & & & & & & ; ; ; & & ; ; ; ; > ; > > > > > > > > > > > > > > 1 1 1 1 1 1 1 1 1 1 1 1 1 6 1 1 6 6 6 6 6 1 6 6 6 6 1 1 1 1 3 1 1 1 3 3 1 3 1 2 2 2 1 1 1 3 3 1 3 ; > ; ; ; ; ; ; ; ; ; ; ; ; ; ; ; ; ; ; ; ; & & & & & & & & & & & & & & & & & & & & & & & & & & & & & & & $ $ & & $ $ & & $ $ $ $ & & $ $ $ $ $ $ $ $ $ $ ",
"> > > > > > > > > > > > > > > > > > > > > 1 1 > > 1 > 1 > > > > > > > > > > > > > > > > > > & > > > > > & > & > > > > & & & > > > > > > > > > > > > & > > > > > > > > > > > > > > > > > > > > > > > > > > > > > > > > > > > > > > > > > > > > > > > > > > > > > > > > > > > > > > > > > > > > > > > > > > > > > > > > > > > > > > > > > > > > > > > > > > , > > , , , , , , , 2 2 2 2 2 2 2 2 2 2 2 2 2 2 2 2 2 9 2 2 2 9 9 9 2 2 2 9 9 9 9 9 9 9 9 9 2 9 9 9 2 9 9 9 9 2 9 2 2 9 2 2 2 9 9 2 2 2 2 2 2 2 2 2 2 2 2 2 2 2 2 2 2 2 2 1 2 1 1 2 2 1 1 2 2 2 > 1 2 2 2 2 2 2 2 2 1 2 2 2 2 2 1 2 2 2 2 2 2 2 2 2 2 2 2 2 2 1 2 2 2 2 2 2 2 1 1 1 2 2 2 1 2 > 1 1 1 1 1 2 2 > 1 1 > 1 1 > > > > > > > > > , > > > > > > > > > > > > > > > > > > > > > > > > > > > > > > > 1 1 1 1 1 1 1 1 1 1 1 1 1 1 1 1 1 1 1 1 1 1 1 6 6 6 6 6 6 6 6 6 r 6 6 6 9 9 9 9 9 9 6 2 2 2 9 9 2 2 9 2 2 2 9 9 2 2 2 2 2 2 2 2 2 2 2 2 2 2 2 2 2 2 1 > , , , , , , > , , > > > > , , , , > > > > > > > > > , > - & & & & * * - - & & - - * - * * - * * * * * * * & * - * * * * & - - * * "
};
