/* XPM */
static char *blank_concrete_white_wall_texture_background[] = {
/* columns rows colors chars-per-pixel */
"64 64 67 1 ",
"  c #8D8D8D",
". c #959595",
"X c #979797",
"o c #989898",
"O c #9D9D9D",
"+ c #A0A0A0",
"@ c #A1A1A1",
"# c #A2A2A2",
"$ c #A3A3A3",
"% c #A4A4A4",
"& c #A5A5A5",
"* c #A7A7A7",
"= c #A8A8A8",
"- c #A9A9A9",
"; c #AAAAAA",
": c #ABABAB",
"> c #ACACAC",
", c #ADADAD",
"< c #AEAEAE",
"1 c #AFAFAF",
"2 c #B0B0B0",
"3 c #B1B1B1",
"4 c #B2B2B2",
"5 c #B3B3B3",
"6 c #B4B4B4",
"7 c #B5B5B5",
"8 c #B6B6B6",
"9 c #B7B7B7",
"0 c #B8B8B8",
"q c #B9B9B9",
"w c #BABABA",
"e c #BBBBBB",
"r c #BCBCBC",
"t c #BDBDBD",
"y c #BEBEBE",
"u c #BFBFBF",
"i c #C0C0C0",
"p c #C1C1C1",
"a c #C2C2C2",
"s c #C3C3C3",
"d c #C4C4C4",
"f c #C5C5C5",
"g c #C6C6C6",
"h c #C7C7C7",
"j c #C8C8C8",
"k c #C9C9C9",
"l c #CACACA",
"z c #CBCBCB",
"x c #CCCCCC",
"c c #CDCDCD",
"v c #CECECE",
"b c #CFCFCF",
"n c #D0D0D0",
"m c #D1D1D1",
"M c #D2D2D2",
"N c #D3D3D3",
"B c #D4D4D4",
"V c #D5D5D5",
"C c #D6D6D6",
"Z c #D7D7D7",
"A c #D8D8D8",
"S c #D9D9D9",
"D c #DADADA",
"F c #DBDBDB",
"G c #DCDCDC",
"H c #DDDDDD",
"J c #DEDEDE",
/* pixels */
"VVVvVVVVVVVVVVVVVVDVVVDvsvtvV1tVVVvVDVs888t11svvvvststs8111ttt88",
"VVVvVVVVVVVvVVVVDVVVDVVvssssvsttvsVVVvstt118tsvvsvtsstst18tttt%O",
"VVvvVVVvvvVvvVVVVVVVvvDsssssttttstvDvt8vvt88tvvvvvsttts888tts81%",
"VVVvVVVVvvvvvVVVVVDDssDvvssvtsvtsvvvvtsVsttttvsss8ststsstttss8t8",
"VVVvVvVVVvvvVVVVVVVVDvVVVvsvsvssVVvvvVDVsttsvvsvvtvsvtsv8t8st1ss",
"VVVVVVVVVvvVVVVVVVVVDvsVvVst8tsVt8sVVVvvs8tsvvsvvtvsstsstttt18tt",
"VVvVvVVVVVVvVVVVVDVVVvsttVts88vVt8sDVvvvstsvVVsssssssssststt11tt",
"VVvvVVVVVVVvVVVVVDDvDvssvssstttsssvVVVvvvsvvssttstvvvssvstss88t8",
"VVvvVVVVVVvvVVVVVVVDVVVvVs8sstttvvVvVVvvvtt8ts8tt8tsvstsssst%18t",
"VVVsVVVVVvvvVVVVVVDDvVVvsvsss8vssvVVvvVVs818vs88t8svvttstttt8188",
"VVVsVDVVVVvVVDVVVDVVVVvttvsssvvvssVvtsvvvstsv88tttssvttstttts888",
"VVVvVDVVVvvVVVVVVDVVVvtttvsttvvsvVVVvsVVsss8stss8s8tvtttttstt888",
"VVVvvDVVVVVDVVVVVVVVVVtt8ttstvVVVVVVVVVvtst8tvvstvsstt888tttt888",
"VVvvsDDVVVvVDVVVVVVVvstt811sstssvVVVVvvvsVs8tttvsssstt888stst888",
"vvVVvvDVVVvVVVVVVVvssvt1sst8vt8svVVVVVvVvVVtsvtvstttttt888st8888",
"VVVVDVDVVVVVVVVVVVvvsvt1tvstsstssvVVvvvvVvvssstvsvt8ststttstt888",
"VVvVVVVVDVVVVVVVVVDVsss8tsss8ttsvvVDssvvsVvsvvvvstt8tttt8tsst888",
"VVVVVVsVDVVVVVVVvVDvssstssvttstsvVVVVvVvsvstsvVvtttttt8tttsst8ts",
"VVVVVsvDDVDDDVVDvVDVvvVtssVstttVVvsDVVvvVvvtvstttttss88ttssst8sv",
"VVVVDssDDVDVVDVVvvVVVVVvtsvttssVvssVVVvsvvvsts1ttt8ssttstssvsstt",
"VVVVVVVVDVVVVVVVVVVVDDVsttststsvVDVVVVVvvvvstvsvsstsst8stssstttt",
"VVVVVVVVVDVVvVvvVvsvVDvtttsttttvVVVVvVVvvvvsvVsvttssst8stsst88tt",
"VVVvvDVVvvVvvVvvsssVVVtstt8888ttvVVVvVVvvVvssvsttssssttttvvtt888",
"svvvVDVVVVvtvvtsvssvVttsttt81888svVVvvVVVvVs8vsstssvvs8ttvst8818",
"sssVVVVVVvsssvvttsst81sssts8t88tsVvVvtsvvvVstvsstssvvstttvsstt88",
"ssVvVVVvvVvvstVV8vtttttsst88t8ttsvVVVttvvsVssvsvtsvvvttttVvt%t8t",
"ssvVvVVvsvssttVv8sssst888t8888ttsvVVVvVVVVVs8tssssvvvt8ttvvs%tt8",
"vvVVsssssvt8svvsst8ststts8tttt8tsvVVvvVVvVvvttsssssvVstttsvt1ts8",
"VDVVvvvsssttsVssvt8t88st8888ttt1ttvvvvVvvvvsttttsssssssssvst8svs",
"VVDVDDVVssvvsvvVVtttss88ttt888s8ttvVVVV8tvvtss88sssvsssttsst1sts",
"DVVDDDDDvvvvvvVVvstssssst88888tttvVVVVv8tVV8vt8tvssssssttstt%88s",
"VVVVVDDVvsVvVVVVvvsttssttt88tttsssvVVVVtVvvvvssvvsssssstss188tss",
"VVVVVVVVVvVsvvvvvvVtttsttt888tttttsVvvVvsvvVVvvvvvstttstvs8tttss",
"VVVVVVVVVvVssvvVVVV8tstttss888stsvvVVVVvsvVVVvvvVvtt8tttsvsst8st",
"VvVDVVVVvvVvvsvVvVVttsssttstttttvvVVVVVvVtvVVtssss18tttttvvtstss",
"VVVVVVDVvvVvVvsVsvVstssst8tt8st8svVVVVVVVtvvv1stss8tttttvvstttt8",
"VVVVVDDVvvvvvststvDvtttss88t8ss8tvvvVvVVsOVvstsvvsttttttttst88ts",
"VVVVDDDVvsvVvst8tVDvtttVvtttttss8tstvv8vv1vsVvvsvsttttttsvst88ts",
"tvDVVDVvvVvvvvvsvVDDv8sVvttt8tt8vssssv18s1sstvVstt8stttsVs8118ts",
"tVVVDDVvsvssvvsvvvDvsvsss8tt8ttsvvvVs888ttvs1vVst88sttttvs888tts",
"VVVVDDDVssvvsvsvvvVvvstvtttttttsssVvvtttsVvtvssvts8ttttsVs8tt8tt",
"VVVVVVDvsvvvvvvvvtVVVssvvttssttttssssststsstsstssstt8tttvs188888",
"VVvvVVDvssvvvvvvVsVVVVVDv8tssssstssvttsttsss8stsstttttttvt8t8tt8",
"VVVVVVDVssssvvvvvvvVDvssvsvvVvvvssvvttstttvvt8vVst88tsssvssvsttt",
"VVVVVVDvsssvvvsvvvvsvVvtvvssvVvssssstsstt8t8stVv8ttt1tttsststtss",
"VVVVVVDvsvvvssvstvvttVVsssssvvsvststssstvstv8Oss11tststtstst8tst",
"VVVVVVDvssvvsssssVDvtvvssssvvvstststsvvsstsv%%s81ssttttvvssts8ts",
"VVVVVVDvsvvsssvvsVDVvsttstsvVvstsssvsvvvt8ts88tsssst8ttvvsttt88s",
"VVVVVDVVvssssssvvVDVDvsvsttsVvssssvvsvvttvvtv1%stsstttttvsttttt8",
"DVVVVDVsttsssssvsVVsvvstt8tvVssstssssssvvs8st11ttss88t8svt8ttt8t",
"VVDVVVVssvsssvvssvssVvv8ssvvvvvsstsvsssVvt8st88tt81tttttsstttttt",
"VDVDVstsstvvsssvsvvVVvvssvvvt1ssssvvvsssssstt.8vtt8t8ttstvssssvt",
"DVVDvsttstsssssssvsvvssssssssssvvssvsssvsstts.8stsstttO8sstsstss",
"VVvVvtvtsvsssstssvVvVVvttssssssvstssstssssstttttt8sstt8tvst8tstt",
"VVVvvtstvssssssvvVvvvs8ttsss8ssssssssssstsstttsss8sttsssvss8ttst",
"sVttstsssvsssssvvssvvttsssssstsssssssststttttssss18stvssvvstt8tt",
"O88ststsvsssssssss8vsststsstsssssstssttstt8t88vssttstssvvststttt",
"%.8tt8tsvsvssssssststsssststssvssssssssttttt8ttt88tstttssvt18t88",
". 8sst8sssvsssssstssstsss8ts1tsssssssssttsttt8ss8t8tttsssvtttst8",
"t88t8sssvvvssvssssvvstsst%1t8tsssstsvsstssst88sst8sstsssst8ttsst",
"vt88ttsvvsssvvsssssvvvsss8888tsvvsvssvssssst881t88vvvvssvs88ttts",
"tttssvsvssssssvvsssVVvvsv1188tvVVvvssvvssssttttt81sssvvsvssst88t",
"stss8vvssssvvvvssssVVVvsst1tvsvVvVvvvvvvssss88s111ttstvsssttt88t",
"st8ts1ttvvvsvvstsssvVVssssttsssVVVsvvvsssttt81t188sstssvssst8118"
};
