/* XPM */
static char *cartoon_bricks[] = {
/* columns rows colors chars-per-pixel */
"512 512 256 2 ",
"   c #0B0605",
".  c #0D0906",
"X  c #0B0709",
"o  c #0D0A0B",
"O  c #060607",
"+  c #130C0B",
"@  c #1A0D0C",
"#  c #140906",
"$  c #1B110E",
"%  c #15100D",
"&  c #0D0D11",
"*  c #130E11",
"=  c #1A0E11",
"-  c #141214",
";  c #1C1313",
":  c #19181B",
">  c #0E1114",
",  c #230E0B",
"<  c #23120D",
"1  c #2B140D",
"2  c #231412",
"3  c #2C1A15",
"4  c #281917",
"5  c #341B14",
"6  c #3B1C14",
"7  c #361C18",
"8  c #35160D",
"9  c #39221B",
"0  c #2C211C",
"q  c #1B1D23",
"w  c #241E22",
"e  c #331F21",
"r  c #1D2228",
"t  c #1E2831",
"y  c #272529",
"u  c #392825",
"i  c #292C33",
"p  c #2C323A",
"a  c #35353A",
"s  c #342E32",
"d  c #1D201E",
"f  c #441D15",
"g  c #491B0C",
"h  c #44231B",
"j  c #4B251B",
"k  c #492518",
"l  c #542A1C",
"z  c #5B2B1C",
"x  c #552618",
"c  c #582A16",
"v  c #632D1C",
"b  c #682C19",
"n  c #69321D",
"m  c #75351D",
"M  c #712D16",
"N  c #442B24",
"B  c #4B2D25",
"V  c #472C27",
"C  c #572D22",
"Z  c #4D322B",
"A  c #493128",
"S  c #53342C",
"D  c #5A352A",
"F  c #473836",
"G  c #5C3B33",
"H  c #563933",
"J  c #442F30",
"K  c #642E21",
"L  c #643323",
"P  c #6C3423",
"I  c #69392A",
"U  c #733523",
"Y  c #743925",
"T  c #7B3B24",
"R  c #7B3D2A",
"E  c #753B29",
"W  c #623E34",
"Q  c #673E35",
"!  c #753D30",
"~  c #5A423A",
"^  c #7B412C",
"/  c #644136",
"(  c #65433A",
")  c #6B453B",
"_  c #6D493D",
"`  c #6A4336",
"'  c #734A3E",
"]  c #784738",
"[  c #754A37",
"{  c #373B44",
"}  c #2D3844",
"|  c #433D43",
" . c #3B424A",
".. c #3C4754",
"X. c #354855",
"o. c #3C4E61",
"O. c #45454A",
"+. c #464B55",
"@. c #4A525B",
"#. c #56555A",
"$. c #574A4A",
"%. c #6B4A42",
"&. c #744C42",
"*. c #7A4E42",
"=. c #744A44",
"-. c #7C5144",
";. c #7A5348",
":. c #6D5854",
">. c #78635B",
",. c #4B5764",
"<. c #555B65",
"1. c #4C586C",
"2. c #5A636B",
"3. c #5B6875",
"4. c #566875",
"5. c #66666A",
"6. c #656B76",
"7. c #69727B",
"8. c #767679",
"9. c #776A6A",
"0. c #665D62",
"q. c #833D26",
"w. c #843F2F",
"e. c #85391D",
"r. c #84432B",
"t. c #8B442C",
"y. c #894529",
"u. c #944A2D",
"i. c #97492C",
"p. c #8C4B33",
"a. c #874A36",
"s. c #944C32",
"d. c #9B4E32",
"f. c #934C38",
"g. c #8E523C",
"h. c #87513B",
"j. c #9C5234",
"k. c #94533D",
"l. c #9C543A",
"z. c #975438",
"x. c #9B512E",
"c. c #A35335",
"v. c #AA5635",
"b. c #AC5936",
"n. c #A4563A",
"m. c #AA5639",
"M. c #A5593B",
"N. c #AC5B3B",
"B. c #A55936",
"V. c #B35D3C",
"C. c #B95F3C",
"Z. c #B35B36",
"A. c #A34F30",
"S. c #B6613E",
"D. c #BA623E",
"F. c #BA653A",
"G. c #AD613D",
"H. c #8F4420",
"J. c #C2653E",
"K. c #C6693E",
"L. c #CA703F",
"P. c #C25E3C",
"I. c #835445",
"U. c #845549",
"Y. c #86594A",
"T. c #8B5A4A",
"R. c #8B5645",
"E. c #955C4A",
"W. c #975A45",
"Q. c #85574B",
"!. c #A85D42",
"~. c #B45E41",
"^. c #9A624C",
"/. c #986655",
"(. c #8A6457",
"). c #A96449",
"_. c #B56242",
"`. c #BC6541",
"'. c #BD6944",
"]. c #B86A4A",
"[. c #A86A53",
"{. c #B66D53",
"}. c #BA7456",
"|. c #B07356",
" X c #8C746F",
".X c #AE7A67",
"XX c #C26642",
"oX c #C46943",
"OX c #CB6C44",
"+X c #C46D4A",
"@X c #CA6D49",
"#X c #D16F45",
"$X c #D16E49",
"%X c #CD7146",
"&X c #CC724B",
"*X c #C5724B",
"=X c #D37146",
"-X c #D4744A",
";X c #D9764A",
":X c #DB794B",
">X c #D7774A",
",X c #C87855",
"<X c #D67C54",
"1X c #C26E51",
"2X c #E27D4E",
"3X c #C77C61",
"4X c #B18674",
"5X c #96827B",
"6X c #DB8357",
"7X c #CF8158",
"8X c #E68757",
"9X c #EB8853",
"0X c #D08C6C",
"qX c #E89467",
"wX c #EA956A",
"eX c #EDA479",
"rX c #6A7886",
"tX c #757C86",
"yX c #6B7A8E",
"uX c #5C7285",
"iX c #857D84",
"pX c #79838B",
"aX c #798795",
"sX c #708694",
"dX c #7A91A3",
"fX c #878689",
"gX c #858C95",
"hX c #89939B",
"jX c #989699",
"kX c #978B89",
"lX c #AB9690",
"zX c #8998A5",
"xX c #959CA5",
"cX c #8B96AA",
"vX c #98A3AB",
"bX c #99A8B6",
"nX c #95AAB6",
"mX c #A7A6A9",
"MX c #A6ACB5",
"NX c #A7B3BB",
"BX c #B7B1B1",
"VX c #AEA19E",
"CX c #D1A793",
"ZX c #CBB6AF",
"AX c #DDA88F",
"SX c #E3C3B0",
"DX c #A9B9C6",
"FX c #B4BCC6",
"GX c #9CB2C3",
"HX c #B9C9D5",
"JX c #B5C4CD",
"KX c #BBD3E1",
"LX c #C8CDD4",
"PX c #C9D8E3",
"IX c #DFE1E4",
"UX c #C2BDC2",
/* pixels */
"V.S.`.`.`.`.`.`.`.`.D.`.C.C.`.`.XXoX+X@X@XoXoXoXoXOXOXOXOXOX@X@XOXOXOXOX+X@X@X@X@X@X@X@XoXoXoXoXoXoXoXoXoXoXXXXXoX+XoXoXoXoXoXoXoXoXoXoX`.`.`.'.G.T U P P U Y j # = y y u k.M._.,X,X<X,X'.'.*X].'._._.`.'.].].`._._._._._.!.n.d.p.v p.+X+X*X*X,X*X,X,XM.u.p.W < . # : w w y : o 5 C x t.].N.n.t.r.t.p.s.j.j.l.l.M.M.M.M.!.!.l.l.l.l.l.l.k.l.f.s.f.f.p.w.Y E Y L v v v v v j.<X%X~.c.s.r.R j < < 3 y tXtXa 4 C ).`.XXoXOXoXoXoXOXOXOXOXOXOXOX#X#XOXOXoXK.oXOXOXoXXXXXXXXXXXXXXXXXXXXXXXXXXXXXXXXXXXXXXXXXXXXXXXXXXXXXXXXXXXXXXXXXXXXXXXXXXX`.`.XX`.`.D.C.`.C.C.C.C.C.C.V.V.V.V.V.b.b.N.N.N.N.N.N.N.V.V.V.V.V.V.V.C.C.D.D.D.D.D.D.D.D.D.D.D.D.D.D.D.D.D.D.D.D.D.D.D.D.D.D.D.D.D.D.D.`.`.x # w 2.6.<.; 1 l.N.b.b.b.c.c.A.A.c.c.A.A.d.d.s.u.i.d.A.A.c.c.c.c.b.b.c.c.c.c.b.b.b.b.b.b.b.c.c.b.b.b.b.b.b.b.N.V.N.N.N.V.V.V.V.V.V.N.t.e.t.N.b.N.N.N.N.N.V.V.N.N.N.N.N.N.N.N.N.N.N.N.b.b.b.b.b.b.b.b.b.b.b.b.N.b.l.B = | O.| - u [.qX,XXXK.K.K.K.K.K.XXXXK.K.K.K.K.K.K.K.XXXXXXXXD.XXXXXXK.K.K.K.XXXXK.K.K.K.K.K.D.D.C.C.D.C.C.C.C.C.C.C.C.C.g.ZXiXO.w w 2 3 B U.^ I D V ",
"N.N.N._.`.`.`.~.V.N.N.N.V.~.`.`.`.XX+X+X+X@X@XoXoXoXOXOXoXoX@X@XOXOXOXOXOXOXOXOXOXOXoXoXXXXXXXXXXXXXXXXXXXXXXXXXK.XXXXOXoXoXoXoXoXoXoXXXXXXX'._.t.m U P Y Y Y h . ; y y 9 W.M._.,X,X<X,X`.].].+XoXoX+X+X'.`._._.G.N.S._._.N.n.l.g.v W.+X+X*X*X*X%X*X].d.p.p.H @ o % : w y y : % 7 C v }.*X'.*X,X*X*X*X*X-X-X-X-X-X-X-X-X-X-X-X-X-X-X-X-X-X-X-X-X*X>X<X<X>X-X,X+XM._._.N.N.+X-X+XN.d.t.^ E 6 < 3 3 s gXtXa 2 B ).'.'.oXoXOXOXOXOXOXOXOXOXOXoXXXD.C.Z.Z.Z.C.OXXXXXXXXXXXXXXXXXXXXXXXXXXXXXXXXXXXXXXXXXXXXXK.K.K.K.K.K.K.K.K.K.K.K.K.XXXXXXK.K.K.K.`.`.`.`.`.`.~.~.C.V.V.V.N.b.b.b.b.b.b.N.N.N.N.N.V.V.V.V.V.V.V.V.C.C.D.D.D.D.D.D.D.D.D.D.D.D.D.D.D.D.D.D.D.D.D.D.D.D.D.D.D.D.D.D.D.~.`.L # w 2.6.,.; 1 l.N.b.b.b.b.b.b.N.N.N.N.N.N.N.N.N.b.N.b.b.b.b.b.b.b.N.V.N.N.N.N.N.m.m.m.m.N.b.b.N.V.V.V.V.b.N.N.N.N.N.V.V.V.V.N.V.c.H.i.m.N.N.N.N.m.N.N.m.m.m.N.N.N.m.N.N.b.b.b.b.N.N.b.b.b.b.b.b.b.b.b.b.b.b.N.b.l.h = | | | - 6 [.8X,XXXK.K.K.K.D.XXXXXXXXK.K.K.K.K.K.K.XXXXXXXXK.K.K.K.K.K.K.K.K.K.K.K.K.K.P.C.K.D.C.C.C.C.C.C.V.V.V.V.C.C.W.ZXiX| 2 2 2 3 Z g.).E.h.[ ",
"l.M.M.n.n.n.n.d.d.s.s.s.s.d.c.m.m.m.N.V.V.V.`.oX+X+XoXoXoXoXoXoXoXoXoXoXoXoX@X@X@X@XOXoXoXoXXXXXoXoXoXoXoXoXoXoXoXoXoXoXXXXXXXXXoXXXXXoXoX'.!.p.m U U Y Y Y I 9 . : y w 9 W.M._.,X,X<X,X`.].].+X+X].+X].{._.!.M.M.n.n.M.!.n.s.k.I n {.+X,X*X,X,X*X].n.u.p.^ h # o - 2 2 w 2 - % 7 C P 3XoXoXOXOX$X$X$X$X%X%X%X%X@X@X@X@X@XoXoX+X@X@XoXoX+XoXoXoXoXoXoXoXoX+X].m.v.F.oXoX*X=X-X'.n.s.r.^ L 1 4 3 3 O.hXtX{ 4 B )._.'.oXoX@X@XoXXXXXD.D.V.N.m.m.b.c.b.b.b.`.oXXXXXXXXXXXXX`.XX`.`.XX`.XXXXXXXXXXXXXXXXXXXXXXXXoXoXoXXXXXXX`.XXXX`.`.`.`.`.`.`.`.`.`.`.`.`.`.~.V.V.m.m.m.m.b.b.b.b.b.b.b.b.V.V.V.V.V.V.V.V.V.V.V.C.D.D.D.`.D.D.D.D.D.D.D.D.`.`.`.`.D.D.D.D.D.D.`.`.D.D.D.D.D.D.D.D.D.`.`.I # : 2.6.,.; 1 l.V.N.b.b.b.b.b.b.N.N.m.m.b.b.b.b.b.b.b.b.b.b.b.b.b.m.m.b.b.m.b.b.m.b.b.b.b.b.b.b.b.Z.Z.Z.b.b.N.V.N.N.b.b.Z.b.b.b.b.V.V.N.b.m.b.m.N.m.m.m.b.b.N.N.m.m.N.N.b.b.b.b.b.b.b.b.b.b.b.b.b.b.b.b.b.b.b.b.f.6 = a a a - 9 [.6X,XXXK.XXK.K.`.~.`.`.`.XXK.K.K.K.K.K.`.`.XXXXXXXXXXXXXXXXXXXXXXXXXXXXXX`.`.`.`.D.D.D.D.D.C.Z.Z.Z.Z.V.C.Z.^.ZX9.F 3 2 4 5 C p.!.|.[.[.",
"r.r.r.r.r.t.p.t.p.s.s.s.s.d.n.m.!.N.N.N.~.N.N.N.V.S.`.XX+X+X+X+X+X+X+X+X+X].].]._._.~.~.~.!.!.!.!.!.!.!.N.N.N.!.V._._._._.`.`.`._._._.S.M.f.^ P P U E Y E Y I 9 . : w w V W.c._.,X,X<X,X_.].{.{._.!.!.l.p.r.r.R R ^ ^ r.f.f.h.` x f.|.}.{.].{.!.l.s.t.r.r.I 1 # o - 2 2 w 2 % % 5 C K ).].'.oXOX-X*XOXOX%X*X*X%X%X%X%X%XOX@XOXOXOXOXOXOXOXoXoXXX'.`.'.'.'.].M.u.c._._._.`.oXoXN.d.t.R E l 1 4 3 3 #.vXpXO.; B ^._.].].+X].].`.`._.!.N.N.!.n.n.n.n.n.m.m.`.+X+X+XoXoXoXXXXXXXXXXXXXXXXXXXoX'.`.`.`.`.~.V.!.N.N.N.n.n.c.d.d.d.d.d.c.c.n.c.c.c.c.c.c.A.A.A.A.A.c.c.b.m.m.V.b.b.b.b.Z.b.b.V.V.V.V.V.V.V.V.V.V.V.C.`.`.`.`.`.`.`.D.D.D.D.`.`.`.`.`.`.D.D.D.D.`.`.`.`.`.D.`.D.D.`.D.D.`.V.m.L @ : 2.6.,.; < k.V.b.N.V.V.V.Z.b.b.N.b.b.b.b.b.b.m.m.m.m.b.b.b.b.A.c.b.b.b.b.b.m.b.b.b.b.b.b.b.b.b.b.b.b.N.b.b.b.b.b.b.b.b.b.b.b.Z.b.b.b.m.m.m.b.m.m.b.b.N.N.N.N.m.m.m.m.b.b.b.b.b.b.b.b.b.b.b.b.b.b.b.b.b.b.b.b.p.8 = s a s # 9 !.<X+XD.XXXXXXXXP.XXXXXXXXXXXXK.K.XXXXXXXX`.C.C.~.~.~.V.V.N.b.b.m.m.n.c.c.c.c.c.c.c.c.b.b.Z.V.V.Z.Z.Z.Z.C.A./.jX$.F 2 2 4 7 I u.M.{.}.}.",
"P P P E R ^ ^ r.r.r.r.r.r.t.p.s.s.s.s.s.s.s.p.t.t.t.t.u.s.d.d.j.j.s.s.s.s.t.t.t.r.q.q.r.r.r.r.q.R R T T T T R R q.q.r.q.t.p.p.p.p.p.r.^ E P P P Y E E E Y Y I 3 o : y 2 h W.l.].,X,X,X{.l.k.p.r.^ Y P P L L L L K K K K z z z f C h.h.r.^ ^ R R E R ^ R ` B @ # o ; 2 : 2 : # % < h z Y l._.].oX@X@X+X+X@X@X@X@X@XOX@XOXoX+X+XoXoXoXoXoXoXoX'.'.`.`.D.D._._.i.y.c.!.~.~.D.`._.s.t.r.T I f 1 4 3 y 6.bXaX@.2 h R.W.!.!.!.!.n.l.k.s.p.t.q.R U U U U M U T t.s.s.s.s.s.s.s.d.j.l.l.n.n.j.j.s.s.t.q.q.U U M n n n n n n n n n n U U T q.q.q.r.r.r.r.q.q.q.t.t.u.d.d.c.N.V.V.V.b.b.V.b.V.m.N.b.V.V.Z.V.V.V.V.C.C.C.D.D.D.D.D.C.C.C.C.D.D.D.D.D.D.D.D.D.D.D.D.D.D.D.D.D.`.`.`.D.`.D.D.N.u.p.z , q <.6.,.: < W.N.m.N.b.m.m.m.m.m.m.m.b.b.b.m.m.m.m.m.m.m.b.m.N.t.e.e.e.A.c.b.b.b.b.m.m.m.b.b.b.b.b.b.b.m.m.m.m.b.b.b.b.b.b.b.m.b.b.b.c.m.m.m.m.N.N.m.m.m.m.m.m.m.m.m.m.b.b.N.b.b.b.b.b.b.b.b.b.m.m.m.m.b.b.m.m.r.8 - s a s # 9 !.:X'.~.b.m.d.u.u.u.i.d.A.m.~.`.~.V.m.c.i.y.q.q.q.q.q.m T U T U U U U U U U U U U U U q.q.H.i.Z.b.Z.Z.Z.V.t.&.5.O.J 2 2 4 9 ^ s.M._.].}.",
"f f f x z v v v n n n P n P P P U m U U U U U U U U U U n n n n n n n n n n n U Y Y Y U U U U U P P P P Y Y Y Y Y Y Y Y Y Y Y P U U U P P P P P P P I E U E H 1 # : y 2 V ' g.k.l.p.r.Y P P L L L C z C C C j j j j j j j j k j K v P U E ^ ^ E T R E ! C < . o o - : : : ; % % $ 3 j l n R p.p.u.u.t.t.t.t.t.p.p.p.t.t.r.r.r.r.r.r.r.r.p.p.p.p.s.k.k.f.l.k.r.r.j.M.!.!._._.l.t.R Y E C 1 1 4 3 s pXvXaX#.w 6 C v v v v v v z z c c c x k k k k f f f f f x f f f f f f f f f f j x x l c x c z v v v v v v K K K L L P P I U U Y Y U U U P P P U m U U q.t.t.q.t.i.A.A.Z.Z.V.b.Z.V.V.V.~.N.N.!.M.M.M.M.V.~.`.D.D.D.D.K.D.D.D.D.D.D.D.D.XXK.K.K.D.D.D.D.D.D.C.D.D.D.K.K.P.C.`.N.t.T ^ j , q 2.6.@.* 1 k.V.b.b.Z.Z.b.b.Z.Z.b.b.b.b.b.b.b.b.b.N.N.N.n.n.n.l.s.s.l.c.c.c.c.c.n.c.d.c.m.N.N.b.b.b.b.b.b.b.b.b.b.Z.Z.Z.V.m.m.n.n.n.j.c.c.N.N.m.V.V.m.m.m.N.m.m.m.b.V.N.b.N.N.b.b.b.b.b.b.b.b.N.N.m.m.b.b.m.c.Y 1 - s a i # 9 !.>XD.b.A.d.q.q.U Y U U m m m m m m m m m n P U U Y E U U U U U Y Y Y Y U U U Y Y m T q.t.q.u.N.N.b.c.n.f.I F O.$.s 2 2 < j ^ u.N._.].1X",
"h h h j l l z l C C C C C C C C L L L L L C C C C C C L L L L I P I P P L I L L L L L L z C z K L L L L L L L L L L L L L L L L L L L L P P P L L P I I I L h @ # q y y u D Z C l l C C C j j j h h 9 9 9 6 6 6 6 6 6 6 6 6 6 B H Q ` ` ] ] ` ! I L C f , . o o o - : : : - % % - $ 3 h C P R R R E E Y P P L L L K K K K C C C z l l l z z z x x l z z z v z v n n U Y Y E E I I I H 5 1 3 3 y { zXvXpX#.w 7 f f h j k j j j j k j k k f f f f j j j j k k x x j j j j h h h h h j j x C j C C C C C C z z z z z z z C z z z x x x x z z K K C v v K P R r.q.q.q.q.t.s.n.!.!.!.N.n.j.s.r.T n n z g g g v r.l.!.!.!.!.!._._._._.!.!.!.!.!.!.!.!.!.!.!.!.M.M.M.!.M.M.N.N.!.!.l.t.E Y C 7 $ q 2.3.@.: < ` l.l.l.n.n.n.n.n.n.n.l.f.s.n.N.N.N.n.d.t.r.q.q.T T T T T r.r.t.p.p.T v v M m r.s.d.l.l.l.j.j.c.n.n.n.n.n.n.s.q.q.U U U U m q.t.t.s.d.l.j.j.j.j.j.d.j.l.l.j.j.d.j.j.j.j.d.d.d.d.d.d.d.d.d.i.s.u.q.z < & s { y * 7 E.+XV.m.m.n.q.T U U U U P P P P n n L L K z C z z C L L L L L L P P P P U U Y Y T T T q.q.q.r.r.U n P L l V F ~ J 3 ; 4 1 Z ^ p.M.!._.[.",
"6 6 6 f f f f f f f f f f f f f f f f f h f f f h h h f h j j j j l l l l C C x l j j l j j l l l l l l l C C C C C L C K C L L L L L L L L L L L L L L C j < # * q y y y h 9 9 9 9 6 6 5 5 3 3 3 3 3 3 1 2 2 2 1 2 2 2 1 1 1 1 3 5 5 5 1 1 1 1 1 2 < # # o o o % : : : : d - % - @ , 1 9 j C L I P L L L L L L C C L L C C C C C C z z C C C l C C C C l C C C j j j j j j C H D l 8 1 4 3 3 y @.aXpX8.#.2 7 9 h h h h f j j j j j j k j j h h h h f f 6 6 6 5 1 1 1 < 1 1 1 1 < 1 5 f f j j j j x j j k k j k k k k f k f f k k x x z v K L L K L L L L L K K L L U R E U P n v v z c x x f f 6 6 6 f 6 f x x l x x x x x x x x x x x x x x x x x x x x x x l z z z z z z z v C l 9 2 ; y 2.3.@.; 2 f f x x c x z c x c x x x g v T r.T m n n n n n n n n n n K L v v x k k k k k c v v P P P P P P P P P P P P v v v C L K v v v v n n P P P n n n n n n n n m U n U U U U P P n P P m U U U U U U n j 2 & s { y * 2 L u.s.j.!.l.q.T U U U U U P P U U U P v z z z x x z z z v v K L n n U U U T R q.q.q.q.t.t.q.Y P L l h 6 u u F F s ; ; 4 3 h C v n n n v ",
"1 1 5 5 5 5 5 5 5 5 5 5 5 5 7 7 6 6 6 6 6 6 6 6 6 6 6 6 6 6 6 9 9 9 9 9 6 9 9 9 9 9 h h 9 h 9 9 9 9 9 h h h h h j j j j j j j j C C C C C C Z Z C C l j 9 < @ ; * y p y ; ; ; 2 $ $ 2 2 ; $ $ ; ; ; @ # # # @ # # # # # @ @ @ @ @ # @ $ @ # # # # # # o o o o o - : y y y y : # # % # @ , < 1 1 8 8 8 8 5 5 5 5 5 5 5 5 5 5 5 5 6 6 6 6 6 6 6 6 6 6 6 6 f h h h h h h h 9 9 9 7 3 < < 3 3 2 y s @.2.@.{ a : 3 7 7 7 9 9 6 6 6 6 6 5 8 8 1 1 < < < @ @ @ # # . . # # o . . . . . # @ , 3 5 6 6 6 6 6 6 6 h h h h h 9 9 h h h h j j x C L I E E E ! E P L C j f f f f f x x x x x x x z z z l f f f f f f h h h h h h j j j j j j j j j j j j j j j j j h h j j j x x C C l C l C h 5 < ; % p 3.6.,.: 2 5 5 5 5 5 5 6 6 6 6 6 5 5 f C K n P P P n v v v v v v v v z c c c z z z z z z z z v v v v v v v v v n v z z z C C C C l l z z K K K K v v v v v v v v v v z z z z v v v v v v v n n n n n n P C f 1 ; # y O.a : # , f L E R r.U U P P P L K v v K K K K K L C C C z z z z K K K L P P P I I I I I I P P L n z j 6 5 1 1 u s s s 2 * # % 4 9 V C l z C C C ",
"@ @ @ $ $ $ $ $ < < < 2 2 2 2 2 2 2 2 2 1 1 1 1 2 2 2 1 3 3 2 2 2 2 2 < < < < < 2 2 < < 2 2 < < < 2 2 2 2 2 2 2 < < < < < < < < < < 1 1 1 1 2 2 2 2 2 2 < $ - - : {  .y * * @ @ # % # # # # # # # # # # . . . . o o o o # # # # # # # # # # # # . . . . . . o - y i s a a a a y - o % # # # . . . # . # @ @ @ @ # # # # # # # # @ @ @ @ @ @ @ @ @ @ @ @ @ , , @ , , , @ @ @ @ @ @ @ 2 3 4 2 y a 2.3.6.{ : : ; @ # # # # @ @ @ @ # # # # # # # # # # # # # # # # # # # # # . . . . # . @ # @ @ = 2 2 2 1 1 3 1 1 5 1 3 7 3 3 3 7 3 7 7 9 9 9 9 h h 9 5 5 5 7 9 9 9 9 h h B B B B C x C C C B 9 6 7 7 7 3 3 7 7 7 5 5 9 9 9 9 9 9 9 9 9 9 9 9 6 6 9 9 9 9 6 6 6 6 5 6 9 9 9 9 9 5 < @ # % o { 3.2.@.: # @ @ @ @ @ @ @ @ @ @ @ @ # @ < 5 5 f h j l C C C C C C C C C C C C L L L L C C C C z z z z z z l l l C l j j h h f 6 6 f j x l C z l l l l l l j j j j j j h h h h h h h h h h h h j j j B j 9 < @ # * * & { #.O.* o . , 6 f j f f f f f 6 6 6 6 6 6 6 6 f 6 6 6 6 6 6 6 6 6 6 6 6 5 5 8 8 1 1 1 1 < < , , , @ @ = = ; ; : - - # X o # - $ 3 3 5 6 5 5 5 5 ",
". . . . # . o o # # # . # # # # # # # # # # # # # # # # # # . . o o o o . . . . . . . . o o o o           . o o   . . o X o # o   o o o # # # # # # - % % - - > q +.+.p - * # # o o o o o o o o o o o o o o o o o o o o o o o o o o o o o o o o . . . . + - r i a { {  . .{ { { a r & > o o o o . o . o o o o o . . . . O O O O O O O O O O O O o o . o # # o o o o o o # # # # @ ; 2 2 2 y y O.2.3.rX7.{ q - o o o o o # # # # * * * * # o o o # # o o o o o o o o o o o o o o o o o o & & & & * & & & o o o o o o o o # o X X o o o o o o     . o o # # . . . . . # # # @ @ @ # # @ @ % % % # # # # # # # # o . . # # . . . # . . . . # . . . . . . . . . . . . . . . . . . . . # # o : ,.2.2.<.y X # o o o o o o o o o o o o o o o . . . . @ @ @ @ @ , , , , , < 1 1 < < < < $ $ $ $ ; ; ; ; ; ; ; ; < < < @ , 2 2 2 3 0 3 3 2 1 1 1 1 1 1 1 2 < < < < @ @ @ $ @ # . # # # # # # # # @ @ @ @ # # * - > o q { <.2.<.y > & X . . . # # @ @ @ @ @ @ @ @ @ @ @ @ @ @ @ . . # . . # . # # # # # # # # # # * * # o o o & & o & & o o o o o o o o * # # # # # # # # ",
"- - # # # # X X # # # # o o o o o o o # o # # # # # # # # o o o . . o # . . . .   . . . o o o . . . . . . . . . . . . . X o o o         o o o o o o # o # * - : { +.,. .: o o o o o o * & & & & o o o o o o o o o o o o o o o o o o o o o o o o o & - : r i a {  .{ {  . . . .{  .{ s r : - o o . . .             . . .         o o o o o o o o o o o o # # # # o + % % # # # ; ; : 2 w y y i p  ...,.6.7.{ i : - * & & o o o o o o o o & & & * * o o & & & & > > : : q : : : : - * & & & & & & & & & & o o o # o o o o o o o o * & & o o o o o o o o o o & & & o & & o & & & o o & & o * * o o * * * # o o o o o o # # o o o o o o o o # # o o o o o o o o o o o o o o # # o # # # # # { 2.4.2.2.@.i & o o o o o o o o o o * - # # - - - - - - - - - - - & & - - - - - * * - - ; ; - - * ; ; ; ; - - - * - : y s {  . .+.+.O.a r q : : : : : : - - - - - - - - - # o o . . . # # # # # # # # # # # o X : +.tXaXrX6.2.<.i * o # o o o o . . o o . . . . # . # # # # # # . . . . # # . # # # o o # o o o # # # o . o o o o o o o & o o o & - : : : : q q q q : : ",
"p p p i y y y y y w w w w q q q q q : 2 : : w w w q r y y y y y i i i i i s s s s s s s s s s s s s i i s s s s s s s s a a a a a a s s s s s i i s s s s a a { +.,.<.<.@. . .O.O.O.O. .O.O.+.+.+.+.+.+.+.+.+.+.+.+.+.+.+.+.+.+.O.O.O.O..... . ...+.+.,.<.2.6.7.rX2.@.2.3.2.6.rX3.2.,.@.@.O.a y y : : : ; : : : : : : : : : : ; : - - - - - - - - - - : : : - - - : : : : : : 2 y y i i p { { {  .+.+.2.tX7.2.#.+.O.{ a p p p p p p p } p } { { p p y : : w y i { { } } } } } } i r r r r r q q q q q q r r q q q q > > > > > > > > > > & > & > > > & & & & & & o o > & & & & > & * > > : : : : - & & & > & * * * - > > - - - - - - - - : - - - - - - - - - - - - - - - - - - - - - : { 6.3.2.6.6.2.<.,.{ y : - - * * - - - > > > & & & & > & & & & & & & & & > > > > > & & & & & & & & o o & & * : - : q s +.<.,.,.1.<.2.<.<.@.X.} } } p p p p a a a a s i i i i i i i i y y y y y w w w w 2 2 : w q a tXzXgXaXtXrX6.2.<. .w o o o o # o o . .         .                               X X o . # # # # # # # # # # # # # o o o o o & > q r r r r r r r r q q q ",
"2.2.2.2.<.,.,.@.+.+.+. . . . . .{  .{ {  . . . . . ...+.+.+.+.+.+.@.@.,.,.<.<.2.2.2.2.4.2.2.2.2.<.<.<.<.,.,.@.@.@.@.@.@.,.,.,.@.@.@.@.+.@.@.+.+.+.+.+.+.+.+.@.,.rXgXzXzXzXaXaXgXhXhXzXzXzXzXxXxXxXzXzXzXzXzXzXzXzXzXzXhXhXhXgXgXaXaXaXaXsXaXsXsXpXaXhXhXzXzXzXzXhX7.,.2.4.3.3.yXsXsXrX6.rX6.6.<.+.+.O.O.+.{ { { { { {  .O.O.O.O.O.{ { O.+.+.+.+.+.+.$.$.@.+.+.+.#.#.#.,.,.,.<.<.2.3.6.rXrXrXpXsXsXaXaXzXxXxXzXgXgXaXaXaXaXaXsXsXsXtXyXyXyXyXyXyXyX6.s 3 u u u F pXaXpXrXrXrXrX3.1.,...X.X.X.X.X.} } } } } } X. .} X.X.X.X.X.X.X.....o.o.o.o.o.o... . . .{ {  .{ { { { { {  .X.....+.@.@.@.@.+.+.+. .{ { a p p i i i i i p p p p p p p p i i i i p p p i i i i i i i i i i p p p a  .,.rXsXaXxXnXnXcXyXrXrX6.<.+. .{ { { { { +.+.+.@.,.<.2.2.2.2.2.<.,.,.+.+.+.+.+.+.+.@.,.<.2.6.6.6.6.7.6.6.6.6.<.<.<.@.@.2.6.3.2.3.6.rX6.3.4.1.,.+.+. . . .+.+. . . .+.+.+.+.+.+.@.,.<.<.<.2.2.2.6.6.2.2.2.2.6.6.rXyXaXgXgXgXaXsXyX3.1.<.<.,.{ i y y y y y y y y y y y u u u s y y y y y y y y y y y y 0 3 2 2 w w w w q q q : q q q q q r i i p } } X. ...+.,.,.,.,.+.+.+... .",
"pXpXsXaXsXtXtXtXtXtXtXrXrXrXrXrXrXrX7.7.7.7.3.3.uXuX3.uXuXuX3.6.6.6.5.5.8.8.iXiXiXiX8.8.iX X8.6.5.9.8. X9.9.0.#.#.#.#.#.#.#.#.#.#.#.#.#.#.@.@.+.+.+.+.#.#.<.2.7.zXbXNXDXDXJXHXHXLXLXLXLXLXLXLXPXPXLXLXLXHXHXLXHXHXHXHXHXLXHXHXHXHXHXHXHXHXHXHXHXJXJXHXHXLXHXHXHXJXvX2...,.2.4.4.yXyX1...1.4.2.2.<.,.<.<.2.7.yXpXsXsXsXsXyXyXyXyXyXsXnXbXbXbXbXMXbXbXbXbXbXvXvXvXbXvXvXvXnXnXnXnXbXbXbXnXvXvXvXxXxXxXzXxXnXbXMXMXNXNXDXNXDXDXDXDXNXDXDXFXJXJXHXHXPXfXF G G G H %.mXBXNXBXMXMXMXNXNXDXNXDXNXNXNXbXbXbXnXbXnXnXbXbXbXbXbXbXbXbXMXMXMXGXDXDXFXFXJXJXHXHXHXLXLXPXPXFXmXxXgXtXrXrX7.3.3.2.2.<.#.#.$.$.#.,.<.<.5.6.tXpXpXpXaXaXaXaXaXaXaXaXaXaXaXaXaXaXgXgXgXgXgXgXgXgXgXgXgXgXgXgXgXgXzXxXbXMXDXDXHXHXHXHXHXDXnXaXrX7.6.7.7.7.7.tXgXhXxXmXMXMXMXNXFXHXHXHXJXFXDXMXMXDXFXFXFXFXLXPXLXPXPXPXPXPXPXLXLXLXFXDXhXtX2.rXyXzXhXgXgXaXrXrX7.6.7.6.2.<.,.,.,.,.#.#.#.#.#.#.#.#.#.#.0.5.9.9.8.8.8.8.8.8.8.8.8.8.8.fXfXfXhXhXxXhXhXfXpXfX X X X X X X X(.(.(.(.(.(.(.>.>.(.(.>.>.>.(.(.(.>.>.>.>.>.:.:.:.:.0.<.+.+. .+.+.+.+. . .{ { { #.<.4.4.3.3.rXrXyXrXyXyXsXaXaXaXsXsXsXsXsX",
"xXxXxXxXxXxXxXxXxXbXbXvXvXvXvXMXMXMXMXMXMXMXxXtXrXyXyXyXyXyX<.@.@.5. X4XlXlXlXlXlXlXlXlXlX4X(.;.;.(..X.X.X X>.:.:.:.%.%.%.:.:.:.:.:.:.:.:.:.:.:.:.:.:.:.:.:.:.:.9. X X XiXfXkXjXMXLXIXIXIXIXIXIXIXIXIXIXIXPXPXIXIXIXIXIXIXIXIXIXIXIXPXPXPXPXPXPXLXLXLXLXLXLXLXLXLXLXJXhX<.+.1.4.3.yX,.X.2.7.rXpXjXjXVXlXkXfX XkXkXkXkXkXkXkXkXfXkXfXfXkXjXjXjXjXjXjXjXjXjXjXjXjXjXgXgXgXfXkXfXfXkXkXkXkXgXjXjXxXxXmXmXmXMXBXBXBXmXmXmXmXmXmXBXBXUXLXLXLXLXLXLXPXBX:.%.&.' *.&.&. X X>.>.0.$.#.fXmXmXjX8.5.5.9.8.fXmXLXLXLXLXLXFXFXFXLXLXLXLXLXLXLXLXIXIXIXIXIXIXIXIXPXIXIXIXIXLXBXBXjX8.6.6.6.7.7.0.$.$.$.~ H H F | $.$.:.9. XjXMXBXJXJXJXHXHXHXHXHXHXHXLXHXHXHXHXLXHXHXHXHXHXHXHXHXHXHXHXHXHXHXLXLXHXHXLXLXLXLXLXLXLXJXNXhXtXtXiXiXiXfXkXVXxXmXmXmXmXBXBXZXBXUXBXBXBXBXmXxXmXMXMXBXMXjXBXLXIXPXPXLXFXLXFXBXBXBXBXjXgXtX6.hXxXvXzXzXzXhXzXhXiXiX X X X(.(.(.(.(.(.(.(.(./.4X4X4XCXCXCXAXSXSXSXSXSXSXSXSXZXZXZXCXZXZXZXZXSXSXSXSXSXSXSXSXSXSXSXSXSXAXAXAXAXAXAXAXAXAXAXAXAXAXAXAXAXAXAXCXCXCXCXCXCXlXlX4XlXlX:.| | | @.,.,.,.<.+.s | 0.iXgXxXxXvXnXbXbXbXDXDXDXJXHXHXHXHXLXHXHXHX",
" XkXlXVXmXBXBXLXLXLXLXPXPXLXLXLXLXIXIXIXIXLXkX0.#.+.+.rXrXrX+.s $..XCX0X0X0X0X0X0X0XCX4X(.&.D B B ' /..X.X.X.X/.[././.(.(.T.(././././././././.T.T.T.T.T.T.Y.Y.(.(.(.(.(.>.;.;.&.%.(.kXVXVXVXVXmXmXmXmXmXVXmXVXmXmXmXmXmXVXmXmXVXVXVXlXjXlXlXlXkXkXVXLXLXLXLXLXLXLXLXLXIXJX<.+.,.3.rX1.3.aXzXxXjXlXZXSXSXSX4X/ _ / / / _ _ _ / / / / _ / %.&.;.&.;.;.;.;.&.&.&.&.&.;.;.&.&.&.&.&.%.%.%.%.%.~ ~ ~ H H H ~ ~ %.%.%.%.%./ %.%.%.%. XlXVXZXZXZXZXLXVX%.G / ` _ &.;.;.;.%._ _ _ (.>.~ $.$.F J V Z Z A F H :. XlXlX9.:.:.:.>.5XVXZXBXkXkXlXVXVXVXBXZXZXZXZXZXZXSXIXIXIXZXZXZX X9.8.pXhXzX8.:.%.~ H F F F F F F H H H H $.>.8.8.8. XiXfXfXfXgXkXjXjXxXxXmXmXmXmXMXmXmXMXMXMXMXNXNXFXFXFXFXFXFXBXmXmXjXjXjXkXkX X9.>.>.>.>.9.(. X X X(.(.(.>.:.:.>.:.0.:.:.:.:.%.$.$.$.$.$.:.$.~ $.:. XkX5X>.:.:.:.:.:.9.jXxX8.0.<.6.6.6.aXxXxXvXgX0.4XCX0X.Xg.k.[.{.{.{.{.}.}.}.0X0XeXeXeXeXeXeXeXeXAXAXAXAXAXAXAXAXAXAXAXAXAXAXAXSXSXSXSXSXSXSXSXSXSXSXSXSXSXSXSXSXSXSXSXSXSXSXSXSXSXSXSXSXSXSXSXSXSXSXSXSXSXSXSXAX^.W.I.W $.#.<.rX6.s F :. XkXjXmXMXFXFXFXFXLXLXLXLXLXLXLXLXLXLXLXIXIX",
"Y.(.(..XlXlXVXZXZXLXIXLXLXLXIXIXIXSXlXlX4X(.;.>.:.J : <.6.6.O.u %..X.X4X0X0X0X0X0X4X/.` H h 9 9 9 D -././.[./././.Y.&.W W ` &.Y.T././././././././././.^.T.U.*.&.*.;.Y.Y.;.;.;.;.I.*.*.*.-.-.&.&.&.-.;.(.>.;.;.;.*.&.&.=.' *.;.Y.Y.Y.Y.Y.Y.T.T.(././.5XCXZXZXBXZXZXZXLXLXLXtX1.@.<.2.,.+.<.6.5.>.(.CXSXSXAX4X' *.-.-.-.-.*.' ' -.-.-.-.-.U.Y.Y.Y.Y.Y.Y.Y.Y.Y.Y.Y.Y.Y.Y.Y.U.Y.Y.U.-.-.-.-.&._ / D H S D Z Z B B Z D D Z Z Z A V V H :. X5XkX X>.F Z Z j j j B B B D D W *././.(._ D C D S D Z Z B B B j B D G B D D D D Z D ~ G Z W _ _ / G D _ %.' _ _ G )  XCXZXZXCXlX(.:.tXgXgXhX5.$.~ G D V V 9 9 5 5 5 3 3 5 1 1 1 5 5 5 5 9 9 9 9 9 9 9 9 9 9 9 u u u u u u u u u J F %.:.>.>.>.>.:.&.%./ / W G H H H G G G / _ _ _ _ _ _ _ W H D B B j j j h h h h j j B B B B Z Z A B V G W / _ _ / %.H F $.$.$.y y a @.rXaXhXgX7.H .XAX0X0X[.r.j.'.'.'.+X+X+X+X*X,X,X,X7X,X,X,X,X,X].].].,X,X,X,X,X,X6X0X0X0X0X0X0X0X0X0XeXeXeXeXeXeXeXeXeXeXeXeXeXeXwXwXeXeXeXeXeXeXeXeXeXeXeXeXeXeXeXeXeXeXeXeXeX7X&X&X,X).H O.<.7.| 3 / >.%.;.>. X XiX X>.>.(.(. X X X X X X X X XVXZX",
"*.U.Y.Y.(..X4XlXVXSXZXlXCXZXZXCXlX(._ ' ' _ &.>.:.J 2 +.6.6.| 3 ;.Y.R..XAXAXAXAX4XR./ Z V V u u u V W -.U.T.T.U.&.G B V N N B D W W W W W Q ` ' R.T.R.U.' Q W W W W W _ ` ` ` ` ` ` ' ' ` ` ` ` [ _ _ ` ` ' ` ` Q W ` ` ` ` ` ' ' -.-.' &.' ' &.' U.Y./. X4X4XlXCXCXAXSXSX8.2.<.,.+.p i | O.$.>..X0XAXAX4XE.U.U.U.U.U.-.U.U.I.U.U.h.U.U.U.U.U.U.U.U.U.U.U.U.U.Y.Y.Y.Y.Y.Y.Y.Y.U.-.&.&.' _ _ ` / G G G G H D Z B N V N h N N u V D D G / ~ H D D D G / / / D B B B j j ;././.Y.W H H C C B B B C H W _ &.&.` ` I I I D D B h B Z &.T.Y.U.R.U.U.U.h.' [ I G / ' (..X.X/.U.;.>.tXgXhX0.$.~ G G G W G D H H H G G G W _ _ ' &.-.-.-.;.-.&.&.&.%._ / G H C C B B B h j B j C I ` ' ' ' ' ` ' _ ) ) ` H Z D Z Z H H / ` Q Q ` ` ' ' ' ` I I I I I Q I I Q ` ` Q ` ` Q Q Q ` I D H W ' *.*.*.*.&.=.A 5 3 9 u 2 ; y +.2.rXrX7.J R.AXwXqX,Xy.r.c.V.Z.Z.Z.b.c.A.B.N.V.S.D.`.`.D.D.D.D.V.V.D.D.`.`.oXoX*X<X*X*XoXoXoX'.'.'.oXoXOXOX;X;X-X=X=X=X=X>X;X;X;X;X;X;X=X=X=X=X=X=X=X=X=X=X-X=X%X%X=X=X=X=X@X@X$X#X-X{.W { | | y 9 &.;.W _ &._ W W W W W _ ' *.*.U.U.U.-.U.U.*.*.Y.",
"_ -.-.' ' ;.(..XlXCX.X/././.(.U.*.*._ W W G ~ %.:.J * a <.<.a 3 ~ ' ^.4XAXAXAX0XE.I H V V N u u u V D _ _ / / G D B V V V V A A B A A A Z A C H ' &.' ' _ W W G G G G G W ` _ _ _ ` ' ' _ _ _ _ ` _ _ / _ _ _ W W W W W W D W W / ` / W D H H H H D W _ ] R./.[.[.0XeXAXAX:.@.@.@.+.p i F $.%.>.[.0X0X.XT.U.Y.Y.Y.-.;.Y.;.Y.Y.Y.U.U.U.Y.Y.Y.Y.Y.Y.Y.Y.Y.Y.Y.Y.Y.*.&.' &.&._ _ / W W W W W W G G G G H H D Z Z B B V V B A A V V D G G G G G G G D H ~ ~ D B D D Z Z H (././.Y._ _ W / / _ _ _ &.-.;.;.-.-.;.;.-.&./ W / ~ Z V V G ;.Y.U.T.T.T.T.T.T.&.D G D ` ' U./..X/.;.>.tXaX8.$.H G H G &.Y.Y.T.T.T.Y.Y.Y.Y.(.Y.Y.Y.Y.Y.U.Y.Y.Y.Y.Y.Y.Y.Y.Y.(.Q.Y.Y.Y.Y.;.;.;.;.;.Y.Y.Y.Y.Y.Y.Y.*.*.' ' ' ' _ W G H D D Z D H D D / ' U.-.U.U.U.U.U.Y.Y.Y.Y.Y.Y.Y.Y.U.Y.U.U.Y.Y.Y.` G G W &.*.*.-.*.&.*.G 9 9 9 u 4 $ ; i +.2.2.#.B 0XeX0XeX_.r.t.M.S.S.S.V.N.m.b.N.S.D.S.S.D.D.D.D.D.S.S.S.D.`.XXXXoX+X+X+X@XoXoXoX`.`.`.'.K.OX=X=X;X;X;X=X-X-X-X-X-X-X;X;X;X;X;X;X-X-X-X-X;X-X;X;X;X=X-X-X=X=X=X=X=X=X$X$X%X+XI u u y 3 V >.;./ %.&.&._ _ _ _ ` _ &.;.;.;.-.Y.Y.Y.Y.Y.Y.Y.",
"&.-.&.&.*.*.&.-.Y.U.-.-.-.' ' ' *.-._ W / W D %.:.0 @ : y y 2 4 ~ /././..X4X4Xh.H D B V V V u V V Z S S D Z A B Z Z S H H H S S G G S S S S S S / &.&.' _ / G G G G G H W W W W W W Q Q W W W G D H D H H H H H H H D H H H H H D D D D Z D Z B V V A D L W L L E W.eXeXAX(.{ +.+. .i y F $.$.;.|.4X|.E.U.U.Y.;.-.;.-.&.&.' _ _ _ _ ` ` ` ' Y.Y.Y.Y.U.U.-.*.' ` ` _ Q W D H G W W W ` _ _ ` ` ` / / W W W D D H H D D Z A A A A D D D D D D Z B C C C B C _ &.&.&.*.-.-.-.-.-.;.;.;.;.;.-.-.-.-.-.-.' _ ' -.-.-.-._ _ _ _ G V h B _ Y.Y.U.Y.Y.Y.T.Y.Y.I Z D ' -.' ' T.T.;.9.8.@.s u H G G G &.Y.U.U.U.U.U.Y.Y.U.U.U.U.U.Y.U.U.U.Y.Y.-.' &.*.-.U.U.U.U.U.U.U.U.U.U.U.U.U.U.U.U.U.U.U.U.U.U.I.U.U.U.U.-.-.&.&._ _ ` ` ' ' U.U.U.U.U.U.U.U.U.U.U.U.U.U.U.U.U.U.U.U.Y.U.U.W H G D _ ;.*.*.*.*.&.G V u u u 2 ; = w +.,.#.| Z 0XeX0XeXn.q.u.V.S.S.D.S.V.V.V.V.D.D.D.`.D.D.D.D.D.S.S.D.D.XXoXoXoX+X+XoXOX@X+X+XoXoXoXoX%X*X>X>X;X;X;X;X=X=X=X=X=X=X=X=X;X;X=X=X=X=X;X-X=X;X;X;X=X=X-X-X=X=X=X=X%X=X=X=X#X+XK 3 2 2 2 N ;.;.W _ &.&.&.&.&._ H D G / &.-.*.-.-.-.U.U.U.U.",
"_ W Z / &.-.&.&.' ' ' ' ' ' ' ' *.&./ W / G V F 9 $ ; % % > - 4 :././././.^.` C Z B V Z A V V Z Z D H H H G G G G G G G H H H G G G G G G H G H G _ &.' &._ G G G G G G W ` _ ' _ W W W W W W W G G H D D Z Z B B B D G D D Z Z D Z Z B A Z D D Z V V B C Z H ] W.}.eXeXAX.XF @.+. .y y F $./ ;.[..X[.T.T.U.Y.-.*.*.Q L D D H H H H I I I ' Y.U.U.U.U.U.' ' ' ' ' ' _ Q ` ` ` _ ' _ ' &.*.-.-.-.-.-.-.-.-.-.;.-.&.&.&.&.' _ ` W W W W W W W G W W I W W _ &.&.&.' ' &.&.&.*.*.-.-.-.*.*.*.*.*.*.&.&.' _ ' -.-.-.-.&._ _ _ / D h h D Y.U.U.U.Y.Y.R.Y.Y.*._ ' *.' -.-.-.-./ u : : ; 3 H G G W *.Y.U.U.U.U.U.U.U.U.U.U.U.U.U.U.U.U.U.U.' ' ' ' -.U.U.U.U.U.U.U.U.U.U.U.U.U.U.U.U.U.U.U.U.U.U.U.U.U.U.U.U.U.U.U.U.U.Y.Y.U.U.U.U.U.U.U.U.U.U.U.U.U.U.U.U.U.U.U.U.U.U.U.U.-.W G G H H _ -.*.*.&.G D Z V u u 2 ; ; : { +.+.| D 0XwXqX0Xi.q.u.S.D.D.S.S.V.V.V.V.D.D.D.D.D.D.D.D.D.D.D.D.XXoXoXoXoX+XoXoX@X@X+X@XOX@X@X@X@X-X#X=X#X#X=X=X=X=X=X=X=X=X=X=X;X=X=X=X=X=X=X=X=X=X=X=X=X=X=X=X#X#X#X#X%X%X#X#X#X+Xz @ @ = = N >.;._ _ &.&.&.&.&._ B A D D W *.*.*.-.-.U.U.U.U.",
"G C B Z G _ &.&.' ' ' ' ' ' &.&.&.&._ G W H 3 2 2 2 # # % - - 3 ;././././.&.B V V Z Z Z D D D G G G W W W W W W W / _ _ Q W W W W W ` _ _ ' &._ / / _ _ ' _ W G G G G / ' &.*.' _ ` _ &.&.&.&.&.%./ G D D D Z Z H _ %.%./ D D D Z Z B B B B Z D D D D D D H ` E.[.0XeXeXAX.XO.,.+.O.y y J $.) Y.[..X[.T.T.U.Y.-.*.&.Q I W / _ _ &.*.*.-.-.Y.Y.U.U.U.U.U.U.Y.U.U.U.U.Y.;.-.-.-.-.U.-.Y.Y.;.-.-.-.-.-.;.-.&.%./ G H H W &.-.U.U.U.-.-.-.-.-.-.-.-.;.-.-.*.&.' &.&.*.-.-.-.-.-.-.*.-.*.-.-.*.*.-.-.-.&.&.' ' -.-.-.-.-._ / W G D D B h &.Y.U.U.U.Y.Y.Y._ W &.;.' *.*.-.*.-.G 3 w 2 ; 2 H G G W -.Y.U.U.U.U.U.U.U.U.U.U.U.U.U.U.U.U.U.U.' ' _ ' *.U.U.U.U.U.U.U.U.U.U.U.U.U.U.U.U.U.U.U.U.U.U.U.U.U.U.U.U.U.U.U.U.U.R.R.U.U.U.U.U.U.U.U.U.U.U.U.U.U.U.U.U.U.U.U.U.U.U.U.' G H G G H G / &.&.G D H S V V u 2 ; ; : i O.+.| / 0XwXwX0Xj.q.d.`.D.D.S.S.V.Z.V.V.D.`.D.D.D.D.`.`.XX`.XXXXoXoXoXoXoXoXoX`.oXXXoXXXoXOX@X@X@X@XOXOXOXOXOXOXOXOXOXOXOXOXOXOXL.OXOXOXOXOXOXOXOXOXL.L.OXOXOXOXOXOXOXOXOXOXOXOXOX+Xz @ # @ @ 7 %.G Z G / &.*.*.&._ D D D D H ' *.*.*.*.-.-.-.U.",
"%./ D D D D ` &.' ' ' &.' *.&.' &.&._ G W H 3 2 2 2 # # # * * 3 (./././.T.W A V Z Z D H W / / &.;.;.;.*.&._ _ _ &.-.-.-.-.-.-.-.-.-.-.-.-.;.;.-.;.&.&.' ' ' &.&._ W / &.-.-.-.-.-.*.-.-.-.-.*.&._ G D D D D D W ' ' ' ' _ G H D D Z B B D G / _ / W L W H I ^ !.,XwXeXeXAX.XF ,.+.O.y w J $.) Y.[..X/.R.R.U.Y.Y.Y.-.-.-.Y.Y.Y.Y.U.-.-.-.-.-.U.U.U.U.U.U.U.Y.U.U.U.U.U.Y.U.U.U.U.Y.Y.Y.U.U.-.-.-.&.%.W G D B V V B D W ' *.-.;.;.-.-.-.-.-.-.*.*.-.-.*.*.' *.*.*.*.-.-.-.*.-.-.-.-.-.-.-.*.*.-.-.;.;.&.&.*.-.-.-.-.-.&._ ' _ _ / H D L *.-.;.Y.Y.;._ Z A B W &.&.' ' ' -.G 3 2 2 ; 4 H G G W *.Y.U.U.U.U.U.U.U.U.U.U.U.U.U.U.U.U.U.U.*.' ' ' *.*.*.*.*.I.U.U.U.U.U.U.U.U.U.U.U.U.U.U.U.U.U.U.U.U.U.U.U.U.U.U.U.U.U.U.U.U.U.U.U.U.U.U.U.U.U.U.U.U.U.U.U.U.U.U.U.U.U.U.' D G G G G G D _ _ H D H H V V u 2 $ ; ; y O.+.| / 0XwXwXwXj.q.n.`.D.D.D.S.V.b.Z.S.D.`.`.`.XXXXoXXXXX`.`.XXoXXXXXoXXXXXD.C.D.D.D.D.D.D.D.`.oXoXOXOXOXOXOXOXOXOXOXOXOXOXOXOXL.OXOXOXOXOXOXOXOXOXOXL.OXOXOXOXoXoXoXOXK.L.OXOXOX].l @ $ # ; 5 V N V V B / &.*.&.&./ D S D H ' *.*.*.*.*.-.-.-.",
"' ' ' ' _ ' &.&.&.&.*.*.&.&.&.&.*.-.&.W G H 3 4 2 2 # # # * # 9 (./././.Y.D V Z D H W _ _ =.-.Y.Y.Y.Y.Y.Y.U.U.Y.Y.Y.U.U.U.U.U.U.U.U.-.U.U.U.U.U.U.U.U.U.-.-.-.-.*.' ' -.-.-.-.-.U.U.-.*.*.&._ W G G W _ _ _ &.;.-.U.*.' _ I H H H D W _ ' *.-.-.*.' ' ` ` ` R.[.7XwXeXeXeX}.J ,.@.O.y w J $._ T.[..X/.R.Y.U.U.U.Y.Y.Y.Y.Y.Y.U.U.U.U.U.U.U.U.Y.U.U.U.U.U.U.U.U.U.U.U.U.U.U.U.U.U.U.U.Y.-.*.-.=.W C A B B B B D G _ &.;.;.-.-.;.-.-.-.-.-.-.-.-.-.-.-.-.-.-.-.-.-.-.-.-.-.-.-.-.-.-.-.-.-.-.-.-.-.-.-.-.-.-.-.-.-.-.-.;.;.-.-.-.-.*.&.W D D G W _ G B Z Z V h D %.*.' ' -.D 3 2 ; ; 2 F G G W &.U.U.U.U.U.U.U.U.*.-.*.*.*.*.*.*.*.*.-.*.*.' *.*.*.*.*.*.*.*.-.U.U.U.U.U.U.U.U.U.U.U.U.U.U.U.U.U.U.Y.U.U.Y.U.U.U.U.U.U.U.U.U.U.U.U.U.U.U.U.U.U.U.U.U.U.U.U.U.U.U.U.U.U._ D H H G G D W &._ G S G H A V u 2 $ @ ; y O.+.{ ` eXqXqX0Xj.q.N.D.D.D.D.D.V.b.V.V.D.D.D.oXXXXXXXXXXXXXXXXXXX`.XXXXXXXXC.V.V.V.V.V.V.V.V.V.V.S.`.oXoXoXoXoXoXoXoXXXoXXXXXoXoXoXoXoXXXXXXXoXXXXXXXXXXXXXXXXXXXXXXXXXXXoXOXOXOX].z @ ; # 2 3 u 0 J B B G &._ G %.%.W W _ _ &.*.*.*.*.*.*.*.-.",
"&.&.&.&.&.&.&.*.&.&.*.*.*.*.*.*.*.*.&.` G H 3 2 4 2 @ # # * # 9 (././.(.;.D A D G W _ _ &.;.Y.Y.U.Y.Y.Y.U.Y.Y.U.Y.Y.U.U.U.U.U.U.U.U.-.-.U.U.U.U.U.U.U.U.U.U.U.-.-.-.-.-.-.-.-.-.U.U.U.U.-.' ` _ &.&.-.;.;.;.;.;.U.U.-.*.' ` _ _ &.-.;.;.-.-.U.U.-.U.U.U.U.R.!.{.7XwXeXeXeX[.9 O.@.{ y w J ~ %.T.|.}.^.R.U.U.U.U.Y.Y.Y.Y.U.U.U.U.Y.Y.Y.Y.U.U.U.U.U.U.U.U.U.U.U.U.U.U.U.U.U.U.U.U.U.U.-.;.&.G D B B V B D G _ &.;.-.;.-.;.-.-.-.-.-.-.-.-.-.-.-.-.-.-.-.-.-.-.-.-.-.-.-.-.-.-.-.-.-.-.-.-.-.-.-.-.-.-.-.-.-.-.-.;.-.-.-.-.-.-.-.-.*.-._ Z Z A B B B V Z V V V h D &.' ' &.B 2 2 ; # $ F G G W &.U.I.I.I.I.U.U.I.*.*.*.*.*.*.*.*.*.*.*.*.*.*.*.*.*.*.*.*.*.*.*.-.U.U.U.U.U.U.U.U.U.U.U.U.U.I.U.U.U.U.U.U.U.U.U.U.U.U.U.U.U.U.U.U.U.U.U.U.U.U.U.U.U.U.U.U.U.U.U.U.U.U.U.&.W D G G D D _ &._ G G G G A u u 2 ; ; ; : { +.{ ` eXwXwX0Xf.q.~.D.D.D.D.`.V.b.N.V.D.D.D.`.`.XXXXXXXX`.`.XX`.`.`.XXXXXX`.`.D.C.V.V.V.V.V.V.V.S.D.`.XXXXXXXXoXoXXXXXoXK.K.oXoXoXoXXXK.K.K.K.XXXXXXXXXXXXXXXXXXXXXXXXK.K.OXOXOX+XC @ # # $ 7 V 3 Z / / / &./ H / &._ W _ &.&.&.&.*.*.*.*.*.*.",
"&.&.&.&.&.&.&.*.&.&.*.*.*.*.*.*.*.*.*.' G H 9 3 4 ; @ # # * # 9 (././.(.-.D Z G _ _ _ *.Y.Y.U.U.U.U.Y.Y.U.Y.Y.U.Y.Y.Y.U.U.U.U.U.U.U.U.-.U.U.U.U.U.U.U.U.U.U.U.U.U.U.-.U.U.U.U.U.U.U.-.-.*.-.-.-.-.;.-.-.-.-.-.-.U.U.U.-.U.U.-.-.;.-.-.-.-.-.U.U.U.U.U.U.R.E.).{.7XwXwXwXeX[.1 y a i y 2 u ~ %./..X|.E.Y.U.U.U.U.Y.Y.Y.Y.Y.Y.Y.Y.Y.Y.Y.Y.Y.Y.Y.Y.U.U.U.U.U.U.U.U.U.U.U.U.U.U.U.U.U.U.Y.&.D B B B Z D / &.-.;.-.-.-.-.-.-.-.-.-.-.-.-.-.-.-.-.-.-.-.-.-.-.-.-.-.-.-.-.-.-.-.-.-.-.-.-.-.-.-.-.-.-.-.-.-.-.-.-.;.;.-.-.-.-.-.-.-.*.-.*._ D Z A A A A V V V V V V V / ' ' &.V 2 2 ; # $ Z G G W *.U.U.U.U.U.U.U.U.U.U.-.*.*.*.*.*.*.*.*.*.*.' ' *.*.*.*.*.*.*.*.*.*.U.U.U.U.U.U.U.U.U.U.U.U.U.U.U.U.U.U.U.U.-.*.-.Y.U.U.U.U.U.U.U.U.U.U.U.U.U.U.U.U.U.U.U.U.U.U.U.U.U.U.U._ G G D G _ &.&.' / G W W A u u 2 ; ; ; : s O.{ [ eXqXwX0Xs.y._.D.D.D.D.D.V.b.b.V.D.D.D.D.D.D.D.D.`.D.`.`.`.`.`.`.XXXXXXoX`.XXXXXXXX`.D.D.`.`.`.XXXXXXXXXXXXXXoXoXoXK.K.oXoXoXoXoXoXoXoXoXXXXXXXXXK.K.K.K.XXXXXXXXoXoXOXOXOX*XL @ # # $ u u 5 D _ %.%.&._ H W %._ W %.&._ _ &.*.*.*.*.*.*.",
"&.&.&.&.&.&.*.-.&.&.*.*.*.*.*.*.*.*.*.&./ D 9 u 2 ; # # # * # 9 (././.(.&.D S _ &.=.*.Y.Y.Y.U.U.U.U.Y.Y.Y.Y.Y.U.Y.Y.U.U.U.U.U.U.U.U.U.U.U.U.U.U.-.-.U.U.U.U.U.U.U.U.U.U.U.U.U.U.U.-.-.-.U.-.-.-.U.U.U.U.-.-.-.-.U.U.U.U.U.U.-.-.-.U.U.U.' U.U.U.U.U.U.R.R.E.).{.7XwXwXwXeX[.1 2 y y w 2 u ~ %./..X|.R.U.U.U.U.U.Y.Y.Y.Y.U.U.U.U.Y.Y.Y.Y.Y.Y.Y.Y.U.U.U.U.U.U.U.U.U.U.U.U.U.U.U.U.U.U.-.I B C D H %.&.;.I.-.-.U.U.-.-.-.-.-.-.-.-.-.-.-.-.-.-.-.-.-.-.-.-.-.-.-.-.-.-.-.-.-.-.-.-.-.-.-.-.-.-.-.-.*.-.-.-.-.-.-.;.-.-.-.-.;.-.-.*.-.*._ D D D D H G G G Z u V V V W *.' &.V 3 2 ; % $ Z G G W *.U.U.U.U.U.U.U.U.U.U.U.U.U.U.U.U.U.U.U.U.U.-.-.-.U.U.U.U.U.-.-.-.U.U.U.U.U.I.I.I.I.U.I.U.U.U.-.-.' &.%._ / I I *.U.U.U.U.U.U.U.U.U.U.U.U.U.U.U.U.U.U.U.U.U.U.U.U.U.U.U.U.' W W G / &.*.*.*.&._ _ _ S N e 2 ; ; ; : s O.a [ eXqXqX0Xu.t._.D.D.D.D.D.V.b.b.V.D.D.D.D.D.D.D.C.D.D.D.`.`.D.`.`.XXXXXXoXoXoXoXoXoXoXoXoXoXXXXXXXXXXXXXXXXXXXoXoXoXXXXXoXoXoXoXoXXXXXoXoXXXXXXXXXK.K.K.K.XXXXXXXXXXoXOXOXOX*XI @ # @ $ u 5 9 ) _ _ &.&._ G G _ _ %.&._ W W ' &.*.*.&.&.' ",
"&.&.&.&.&.&.*.*.*.*.*.*.-.-.-.-.*.*.*.&._ H 9 u 4 ; % # # % % 9 >./.T.Y.&.H W ' *.Y.Y.Y.Y.U.Y.U.U.U.Y.Y.U.U.U.U.U.U.U.U.U.U.U.U.U.U.U.U.U.U.U.U.-.-.-.-.-.-.-.-.-.-.-.-.U.U.U.U.U.U.-.-.-.U.-.-.U.U.-.U.U.-.-.U.U.U.U.U.U.-.-.U.U.U.U.U.U.U.U.U.U.U.U.R.R.W.[.}.6XwXwXwXeX/.< ; 2 2 2 4 s ~ _ /..X.XT.Y.Y.Y.Y.Y.Y.Y.Y.Y.U.U.U.U.U.U.U.U.U.U.U.U.U.U.U.U.U.U.U.U.U.U.U.U.U.U.U.U.U.U.-.` _ _ &.*.-.-.-.-.-.-.-.-.-.-.-.-.-.;.-.-.-.-.-.-.;.;.-.-.-.-.-.-.-.-.-.-.-.-.-.-.-.-.-.-.-.-.-.-.-.*.&._ ' &.&.*.-.-.-.-.-.-.-.-.-.-.-.-.-.-.&.' *.-.*.-.&.&.;._ Z N V N _ *.' %.V 2 : ; % ; Z H H G *.Y.U.U.U.U.U.U.U.U.U.U.U.U.U.Y.U.U.U.U.U.U.U.U.U.U.U.U.U.U.U.U.U.U.U.U.I.U.I.U.U.U.U.U.-.' ' _ / G D D C A D _ -.U.U.U.U.U.U.U.U.U.U.U.U.U.U.U.U.U.U.U.U.U.U.U.U.U.U.U.U.U._ W W _ *.*.*.*.*.&.' ' W N u 2 = ; : : s O.F ) eXqXqX0Xu.t._.D.D.D.D.D.V.b.b.V.D.D.D.D.D.D.D.S.V.V.D.D.D.D.D.D.`.`.`.`.XXXXXXXXoXoXXXXXoXoXoXoXoXoXXXXXoXoXoXoXoXoXoXoXXXXXoXoXoXoXoXoXXXXXXXXXXXXXXXXXXXXXXXXXK.XXOXOXOX*XY @ ; # 2 9 3 Z &._ _ &.' &./ D D / %._ _ _ W _ ' &.&.&.&.' ",
"&.&.&.&.&.*.*.*.*.*.*.*.-.-.-.-.*.*.*.*.&.H 7 3 4 ; % # # % % 9 ;.T.U.-.&.G / &.Y.Y.Y.Y.Y.U.U.U.U.U.U.Y.U.U.U.U.U.U.U.U.U.U.U.U.U.U.U.U.U.U.U.U.-.-.U.-.U.U.-.-.U.-.-.-.U.U.U.U.U.U.-.-.-.-.-.-.U.U.U.-.-.U.U.U.U.U.U.U.U.-.-.U.U.U.U.U.U.U.U.U.U.U.U.R.R.W.[.}.6XwXwXwXeX/.< ; 2 4 4 ; s H _ /..X.XT.Y.Y.Y.Y.Y.Y.U.Y.U.U.U.U.U.U.U.U.U.U.U.U.U.U.U.U.U.U.U.U.U.U.U.U.U.U.U.U.U.U.U.-.U.;.-.-.;.-.-.-.-.-.-.-.-.-.-.-.-.Y.Y.Y.-.-.-.-.-.-.;.-.-.-.-.-.-.-.-.-.-.-.-.-.-.-.-.-.-.-.-.-.-.-.&._ _ _ _ ' -.-.-.-.-.-.-.-.-.-.-.-.-.-.-.-.-.-.*.-.*.&.&.&.&.' W H G %.' ' _ V 2 : ; # $ Z H H W -.Y.U.U.U.U.U.U.U.U.U.Y.Y.U.U.Y.Y.U.U.U.U.U.U.U.U.U.U.U.U.U.U.U.U.U.U.U.I.I.I.U.U.I.U.U.-.' W I H H H H D G &.Y.U.U.U.U.U.U.U.U.U.U.U.U.U.U.U.U.U.U.U.U.U.U.U.U.U.U.U.U.U.U.' ` _ _ ' &.*.*.*.*.' ' %.D 7 2 ; ; : : s +.a _ eXqXwX0Xu.u.`.D.D.D.D.D.V.Z.Z.V.D.D.D.D.XXD.D.V.V.V.V.D.V.D.D.D.`.`.`.`.XXXXXXXXoXoXoXoXXXoXoXoXoXoXXXXXoXoXoXoXoXoXoXoXoXXXXXXXoXoXoXoXXXXXXXXXXXXXXXXXXXXXXXXXK.XXOXOXOX*XP @ @ # 4 9 9 ~ &.&.&.&.&.&./ D / &.W G W _ / _ &.&.&.&.&.' ",
"&.&.&.&.*.*.*.*.*.*.*.*.*.*.*.*.*.*.*.*.&.G 3 0 4 ; # # # % % u &.-.-.-.&.W / *.Y.Y.Y.Y.U.U.U.U.U.U.U.U.U.U.U.U.U.U.U.U.U.U.U.U.U.U.U.U.U.U.U.U.U.U.U.U.U.U.U.U.U.U.-.-.U.U.U.U.U.U.U.U.-.-.-.-.U.U.U.-.-.U.U.U.U.-.-.-.U.U.U.U.U.U.U.U.U.U.U.U.U.U.U.R.E.^.[.,X0XqXwXwXeX^.< ; 2 : ; ; y H &./.}..XT.Y.Y.U.U.U.U.U.U.U.U.U.U.U.U.U.U.U.U.U.U.U.U.U.U.U.U.U.U.U.U.U.U.U.U.U.U.U.U.U.U.-.U.U.-.-.-.-.-.-.-.-.-.-.-.-.U.U.Y.Y.Y.U.;.;.-.-.-.;.;.;.-.-.-.-.-.-.-.-.-.-.-.-.-.-.-.-.-.*.*.*.*.&.' _ ' ' *.-.-.-.-.-.-.-.-.-.-.-.-.&.*.-.-.*.-.*.-.*.*.-.*.*.*.*.;.-.&.' ' &.h 2 : ; % $ Z G G W ;.Y.U.U.U.U.U.U.U.U.Y.Y.Y.Y.U.U.U.U.U.U.U.U.U.U.U.U.U.U.U.U.U.U.U.U.U.U.I.I.I.I.I.U.U.U.-.-.-.*.*.&.&.*.&.;.U.U.U.U.U.U.U.U.U.U.U.U.U.U.U.U.U.U.U.U.U.U.U.U.U.U.U.U.U.U.U.U.' _ ' ' ' ' *.*.*.' ' ' &.W 9 2 ; = ; : i +.s _ eXqXwX0Xu.i.`.D.D.D.D.D.D.C.C.`.D.XXXXXXXX`.D.V.V.V.V.V.V.D.D.D.D.D.`.`.`.`.oXoXoXoXXXXXXXoXoXoXoXoXXXXXoXoXoXoXXXXXXXXXoXoXXXXXXXXXXXXXXXXXXXXXXXXXXXXXXXXXXXXXK.XXOXOXOX+XP @ # @ 3 9 D %.%._ / W / %.W / &.' / W W %.&.&.&.&.&.&.&.' ",
"&.&.&.&.*.*.*.*.*.*.*.*.*.*.*.*.*.*.*.*.&./ 1 4 ; ; # # # % % 9 %.-.*.*.&.G / ;.Y.Y.Y.Y.U.U.U.U.U.U.U.U.U.U.U.U.U.U.U.U.U.U.U.U.U.U.U.U.U.U.U.U.U.U.U.U.U.U.U.U.U.U.-.-.U.U.U.U.U.U.U.U.U.U.U.U.U.U.U.-.U.-.U.U.U.U.-.-.U.-.-.U.U.U.U.U.U.U.U.U.U.U.U.R.E.^.[.,X0XqXwXwXeX^.< $ 4 2 4 ; y F &.[.}.}.E.Y.Y.U.U.U.U.U.U.U.U.U.U.U.U.U.U.U.U.U.U.U.U.U.U.U.U.U.U.U.U.U.U.U.U.U.U.U.U.U.U.-.U.U.U.U.-.-.-.-.-.-.-.-.-.U.Y.Y.Y.Y.Y.U.Y.;.-.-.-.-.;.-.-.-.-.-.-.-.-.-.-.-.-.-.-.-.-.-.-.*.*.*.*.*.&.&.*.-.-.-.-.-.-.-.-.-.-.*.*.&.' ' ' &.&.&.*.-.*.-.*.' *.*.*.' _ G W *.' %.9 4 : ; # $ Z G H W -.Y.U.U.U.U.U.U.' ' *.-.U.U.U.U.U.U.U.U.U.U.U.U.U.U.U.U.U.U.U.U.U.U.U.U.I.U.U.*.*.U.U.U.*.-.U.U.Y.;.Y.U.-.-.U.U.U.I.U.U.U.U.U.U.U.U.U.U.U.U.U.U.U.U.U.U.U.U.U.U.U.U.U.U.U.U.*.' &.&.&.*.*.*.' ' ' ' ' _ N 2 ; * - : i +.s _ 0XwXwX0Xu.i.`.D.`.`.`.`.`.XX`.XXXXXXXXXXoXoX`.`.D.D.D.D.D.D.D.D.D.D.`.`.`.`.oXXXXXXXXXXXXXoXoXoXoXoXXXXXoXoXoXoXXXXXXXXXXXXXXXoXXXXXXXXXXXXXXXXXXXXXXXXXXXXXXXXXK.XXOXOXL.+XP @ = @ 3 5 G &.&.` D D D G _ &.&.&._ / W / _ &.&.&.&.&.&.' ",
"&.&.&.&.*.*.-.-.*.*.*.*.*.*.*.*.*.*.*.&.&./ 2 4 2 ; # # # % % 0 %.;.*.*.&.G %.Y.U.Y.U.Y.Y.U.U.U.U.U.U.U.U.U.U.U.U.U.U.U.U.U.U.U.U.U.U.U.-.-.U.U.U.U.U.U.U.U.U.U.U.U.U.U.U.U.U.U.U.U.U.U.-.-.U.U.U.U.U.U.U.-.U.-.-.-.U.-.-.-.-.U.U.U.U.U.U.U.U.U.U.U.U.R.E.^.{.,X0XwXwXwXeXR.< $ : 4 ; ; u F &.[.}.}.E.U.Y.Y.U.U.Y.Y.U.U.U.U.U.U.Y.U.U.U.U.U.U.U.U.U.U.U.U.U.U.U.U.U.U.U.U.U.U.U.U.U.U.U.U.U.U.U.U.U.U.-.-.-.-.U.U.U.Y.R.Y.Y.Y.U.U.U.;.;.-.*.*.*.-.-.-.-.*.-.-.-.-.-.-.-.;.;.;.*.-.-.-.-.*.-.-.-.-.-.-.-.-.-.-.-.-.*.*.&.&.&._ _ _ _ _ %.&.&.*.*.*.*.*.&./ S A A G ' ' %.9 4 2 ; # $ F H G / ;.Y.U.U.U.U.U.*.' ' ' U.U.Y.U.U.U.U.I.I.I.I.U.U.U.U.U.U.U.U.U.U.U.U.-.-.-.-.U.U.U.U.U.U.-.U.U.U.U.U.U.U.U.U.U.U.U.U.U.U.U.U.U.U.U.U.Y.Y.Y.Y.Y.U.U.U.U.U.U.U.U.U.Y.-.U.U.U.U.U.*.' ' ' ' ' ' ' ' ' *.&._ V 2 ; $ ; : y O.s _ 0XeXwX0Xu.d.`.D.D.D.`.`.`.`.XXXXXXXXXXXXoXoXoXoXoX'.`.`.`.`.`.D.`.`.`.`.`.`.`.XXoXoXoXoXXXoXoXoXoXXXXXXXoXoXoXoXXXXXXXXXXXXXXXXXXXXXXXXXXXXXXXXXXXXXXXXXXXXXXXXXK.XXXXoXOX+XP @ = @ 3 7 G &.&._ G D H / &.&.&.&.&._ _ _ ` _ &.&.*.*.&.' ",
"&.&.&.&.*.*.*.-.*.*.*.*.*.*.*.*.*.-.*.&.&./ 1 4 2 ; $ # # % % 0 %.;.*.-.&.H &.Y.U.U.U.U.U.U.U.U.U.U.U.U.U.U.U.U.U.U.U.U.U.U.U.U.U.U.U.U.-.-.U.U.U.U.U.U.U.U.U.U.-.U.-.-.U.U.U.U.-.-.-.-.U.-.U.U.U.U.U.U.U.U.U.U.-.-.-.*.-.-.-.-.U.U.U.U.U.U.U.U.U.U.U.R.E.).{.,X0XwXqXqXeXR.< % ; ; ; ; y F _ /..X.XE.U.Y.Y.U.U.Y.Y.Y.U.U.U.U.Y.Y.U.Y.Y.U.U.U.U.U.U.U.U.U.U.U.U.U.U.U.U.U.U.U.U.U.U.U.U.U.U.U.U.U.U.U.U.-.U.U.U.U.Y.Y.R.T.T.T.Y.U.U.;.;.-.-.-.*.*.*.*.*.-.-.;.;.-.-.-.-.;.;.*.*.-.-.-.-.-.-.-.-.-.-.-.-.-.*.*.*.*.&.' ' %.%._ _ _ _ _ _ _ ' *.*.*.*.-._ Z Z F A / ' ' _ 9 4 2 ; # $ F H G / ;.Y.U.U.U.Y.U.' ' ' *.Y.U.U.U.U.U.U.I.I.I.I.U.U.U.U.U.U.U.U.-.-.-.U.-.-.-.-.U.U.U.U.U.U.-.-.-.U.U.U.U.U.-.U.U.U.U.U.U.U.U.U.U.U.U.U.U.U.U.U.U.U.U.U.U.U.U.U.Y.Y.Y.U.U.U.U.U.U.-.*.' ' ' ' ' *.*.' ' &.' B 2 ; $ ; : y O.s _ eXwXwX0Xp.d.`.D.D.D.D.D.D.D.D.`.XXXXXXXXXXXXXXoXoXoXoXoXoXoXXXXXoXoXXX`.XXXXXXXXoXoXoXoXXXXXoXoXoXXXXXXXoXoXoXoXXXXXXXXXXXXXXXXXXXXXXXXXXXXXXXXXXXXXXXXXXXXXXXXXK.XXXXoXXX+XP @ = @ 3 9 H &.&.&.%._ _ &.&.&.&.&.&.&.&.&.&.' &.&.*.*.&.' ",
"&.&.&.&.*.*.-.-.*.*.*.*.*.*.*.*.*.*.*.&.*./ 1 4 4 $ $ # # % % 3 %.;.*.-._ D &.Y.U.U.U.U.U.U.U.U.U.U.U.U.U.U.U.U.U.U.U.U.U.U.U.U.U.U.U.U.-.-.-.U.U.U.U.U.U.U.-.-.-.-.-.-.U.U.U.U.U.-.U.U.U.U.U.U.U.U.-.-.-.-.U.U.-.' ' ' ' ' ' *.-.-.-.-.U.U.U.U.U.U.U.R.E.).{.,X6XqXqXqXwXh.< # ; ; ; ; 0 9 , _ .X[.E.U.Y.Y.U.U.U.U.U.U.U.U.Y.Y.U.U.Y.U.U.U.U.U.U.U.U.U.U.U.U.U.U.U.U.U.U.U.U.U.U.U.U.U.U.U.U.U.U.U.U.U.U.U.U.U.Y.Y.R.R.T.T.T.Y.U.-.*.&.&.&.&.&.&.&.&.&.&.&.&.*.*.*.*.*.*.*.-.-.-.-.-.-.-.-.-.*.-.-.-.-.*.*.*.&.&.&._ _ _ _ _ _ _ _ _ _ _ ' *.*.*.*.-._ D Z Z A %.' ' _ 9 2 ; ; # $ Z H G / ;.Y.U.U.U.U.U.*.*.*.U.U.U.U.U.U.U.U.I.I.I.I.U.U.U.U.U.U.U.U.-.-.U.U.U.U.U.U.-.-.U.-.-.-.-.-.U.U.U.U.U.-.-.-.-.*.-.-.-.-.-.-.*.' ' *.*.' ' ' ' &.&.&.&.&.&.-.*.*.*.Y.U.U.U.U.U.U.*.*.*.*.' ' &.*.&.' &.&.D 2 ; $ ; : y O.s _ eXeXwX0Xu.j.'.XXoXoXoXoXoXXX`.`.D.D.D.D.D.D.D.D.`.`.`.`.`.`.oXoXoX`.`.`.XXXXXXXXoXoXoXoXXXoXoXoXoXXXXXXXXXXXXXXXXXXXXXXXXXXXXXXXXXXXXXXXXXXXXXXXXXXXXXXXXXXXXXXXK.XXoXXXXX+Xn @ = @ 3 7 Z &.&.&.&.&.&.&.&.&.&.&.&.&.&.&.&.&.&.&.*.*.&.' ",
"&.&.&.&.*.*.-.-.*.*.*.*.*.*.*.*.*.*.*.*.*.%.5 3 3 $ # # # # % 3 %.;.' -._ D %.Y.U.U.U.U.U.U.U.U.U.U.U.U.U.U.U.U.U.U.U.U.U.U.U.U.U.U.U.U.-.-.-.U.-.-.-.-.U.U.-.-.-.-.-.-.U.U.U.U.U.U.U.U.U.U.U.-.U.U.-.-.-.-.U.U.-.' ' ' ' ' *.-.U.U.-.-.U.U.U.U.U.U.U.R.E.^.{.,X6XqXqXqXwXh.2 # ; ; ; ; 3 u @ G /.E.R.Y.Y.Y.Y.Y.Y.Y.Y.Y.Y.Y.Y.Y.Y.Y.U.U.U.U.U.U.U.U.U.U.U.U.U.U.U.U.U.U.U.U.U.U.U.U.U.U.U.U.U.U.U.U.U.U.U.U.U.U.Y.Y.T.T.T.T.Y.U.Y.&.' ' &.&._ _ &.&.&.&.=.&.&.&.&.&.&.&.&.&.&.&.&.&.&.&.&.&.&.&.&.' ' ' &.&.&.&._ _ _ _ _ _ _ _ _ _ &.&.&.*.*.*.*.*.*._ Z J V D &.' ' _ 9 2 ; ; # $ F H G / ;.Y.U.U.U.U.U.U.U.Y.U.U.U.U.U.U.U.U.U.U.I.I.U.U.U.U.-.U.U.U.U.U.U.U.U.U.U.U.-.-.-.-.-.-.-.-.*.*.*.*.-.&.' ' ' _ _ _ / / W W / _ / G G D D D D S H H H H H H ~ / _ &.U.U.U.U.-.U.-.*.*.*.' ' &.&.&.&.&.&.D 2 ; $ ; : i O.s _ eXeXwX0Xp.j.'.D.oXoX*X*X*X@X@X+X+X+XoXoX`.`.D.D.D.D.C.V.V.V.V.S.V.S.S.D.`.`.`.`.oXoXoXoXoXoXoXoXoXXXXXXXXXXXXXXXXXXXXXXXXXXXXXXXXXXXXXXXXXXXXXXXXXXXXXXXXXXXXXXXK.XXoXXXXX+Xn @ * @ 1 7 V &.&.&.' ' ' ' &.&.&.&.*.&.&.&.&.&.&.&.*.*.&.&.",
"&.&.&.&.-.-.&.-.*.*.*.*.*.*.*.*.*.-.*.*.' %.5 3 9 2 $ # % # # 2 ~ -.*.*./ D %.Y.U.U.U.U.Y.U.U.Y.U.U.U.U.U.U.U.U.U.U.U.U.U.U.U.U.U.U.U.U.U.U.U.U.-.-.U.U.U.U.-.-.U.U.U.-.-.-.-.-.U.U.U.U.U.-.U.U.U.-.-.-.U.-.-.U.U.-.*.' ' *.-.-.U.U.U.U.U.U.U.U.U.U.U.R.E.^.{.,X7X6XqXqXwX' < # ; ; ; ; 2 J / -.T.T.U.U.U.U.U.Y.U.U.U.U.U.U.Y.U.U.Y.U.U.U.U.U.U.U.U.U.U.U.U.U.U.U.U.U.U.U.U.U.U.U.U.U.U.U.U.U.U.U.U.U.U.U.U.U.U.Y.T.T.T.T.T.T.Y.Y.*.' _ _ _ _ _ _ _ _ _ _ _ _ _ %._ %._ %.%._ _ _ _ _ _ _ _ _ _ %._ _ _ _ _ _ _ _ _ _ _ _ _ _ _ ' ' &.*.-.-.-.-.*.-.&._ G D B H &.&.&./ 9 2 : ; # @ F H D / ;.Y.U.U.U.U.U.U.U.U.U.U.U.U.;.Y.U.U.I.I.I.I.*.U.*.*.-.*.*.I.I.I.U.U.-.-.*.*.*.*.*.-.-.*.*.*.' ' ' ' ' ' ' ' _ / G S D D S S G / / / D B B V A A Z Z D D D S H G / _ -.-.U.U.U.U.*.*.*.*.*.' *.*.*.&.&.' D 2 ; $ ; : y O.s _ eXeXwX0Xp.x.S.S.D.'.'.+X@X@X@X@X*X*X*X%X*X*X+X*X+X@X+XoXoX'.'.`.`.XX`.`.`.D.D.`.XXXXXXXXoXoXoXoXXXXXXXXXXXXXoXoXXXXXXXXXXXXXXXXXXXXXXXXXXXXXXXXXXXXXXXXXXXXXXXXXXXXXoXoXXXoXv @ ; @ 2 7 V %._ %.&.&.&.&.&.&.&.&.&.&.&.&.&.&.&.&.&.&.' _ ",
"&.&.&.&.&.&.&.-.-.-.*.*.*.*.*.*.*.-.*.&.' %.6 9 u 2 # # . # # 4 H -.*.*./ Z %.Y.U.U.U.U.U.U.U.Y.U.U.U.U.U.U.U.U.U.U.U.U.-.-.-.-.U.U.U.U.U.U.U.U.-.-.U.U.U.U.-.-.-.U.-.U.-.-.-.-.U.U.U.U.U.U.U.U.U.-.-.-.U.-.U.U.U.U.U.-.-.U.U.U.U.U.U.-.U.U.U.U.U.U.U.R.E.W.[.}.,X7X6X6X0X` < # ; ; ; ; 4 J / -.T.T.Y.U.Y.U.-.-.-.-.-.-.-.-.Y.-.U.Y.U.U.U.U.U.U.U.U.U.U.U.U.U.U.U.U.U.U.U.U.U.U.U.U.U.U.U.U.U.U.U.U.U.U.U.U.U.Y.Y.T.T.T.T.T.T.Y.Y.-.&.' _ _ _ _ _ _ _ _ _ _ _ _ %._ &._ %.%.%.%._ _ _ _ _ _ _ _ %.%.%._ _ _ &.&.' &.&.&.&.&.&.&.&.*.*.*.-.-.*.*.*.&.&.' / D D D _ &.&./ 9 2 : ; # @ F H S / ;.U.U.U.U.U.U.Y.Y.U.U.I.U.U.R.R.R.R.W.W.E.E.W.W.E.W.E.E.W.E.E.E.U.U.U.R.R.R.R.U.h.h.h.R.R.R.R.R.R.E.E.E.^.^.^.E.' ` _ _ _ _ ` _ ' _ ` W W G W W W / / / _ _ _ _ ' ' *.U.U.U.U.U.U.*.*.*.*.*.*.*.*.&.&.' D 2 ; $ ; : i O.s ) eXeXwX0Xt.d._.V.V.V.S.S.`.`.'.oXoXoXOXOX%X*X%X%X%X%X%X*XOXOXOXOXOXOXOXoXoXXXXXXXXXXXXXXXoXoXoXoXXXXXXXXXXXXXoXoXXXXXXXXXXXXXXXXXXXXXXXXXXXXXXXXXXXXXXXXXXXXXXXXXXXoXoXoXXX].v # ; @ 2 3 u _ _ %.%._ %.%.&.&.&.&.&.&.&.&.&.&._ _ _ _ _ _ ",
"&.&.&.&.&.&.&.&.*.*.*.*.*.*.*.*.*.-.*.*.' _ N u u 4 # # . # - 4 H -.*.*./ D %.Y.U.U.U.U.U.U.U.U.U.U.U.U.U.U.U.U.U.U.U.U.U.-.-.-.-.U.-.-.-.-.U.U.-.-.U.U.U.U.-.-.-.-.U.U.U.U.-.-.-.-.-.-.U.U.U.U.U.U.-.-.U.-.-.U.-.-.U.U.-.U.-.-.-.-.-.-.-.U.U.U.U.U.U.R.E.W.).{.}.,X,X7X7XQ < # $ ; ; ; 2 u / &.Y.Y.Y.Y.Y.;.;.-.-.-.-.-.-.-.-.-.U.U.U.U.U.U.U.U.U.U.U.U.U.U.U.U.U.U.U.U.U.U.U.U.U.U.U.U.U.U.U.U.U.U.U.U.Y.Y.Y.Y.Y.Y.T.T.T.T.Y.U.Y.U.*.&.&.=.=.=.%.%.%.%.' ' ' ' _ _ ' _ _ _ %.%._ _ _ _ =.=.%.=.&.&.&.&.&.&.&.&.*.*.*.*.*.*.*.*.-.-.-.*.-.-.*.*.&.&.&.&._ W / / G _ %./ 9 2 : ; # @ F H D / ;.Y.U.U.U.U.Y.I.U.R.E.^.[.[.{.{.{.{.{.{.{.{.}.{.{.{.{.}.{.).W.E.R.R.E.).).).[.).).).).).[.[.[.[.[.{.{.{.[.[.[.[.).E.R.R.R.U.U.U.U.U.U.U.U.U.T.U.U.U.U.U.*.*.' ' ' *.I.U.U.U.U.U.U.*.*.*.*.*.*.*.' &.' ' Z 2 $ $ ; : i | s / eXeXwX0Xt.t.j.d.d.d.j.d.d.j.j.l.n.N._._.`.'.+X*X@X@X@X*X*X*X@X*X+X+X*XoX@XoXXXXXXXoXoXoXoXoXoXoXXXXXXXXXXXXXXXXXXXXXXXXXXXXXXXXXXXXXXXXXXXXXXXXXXXXXXXXXXXXXXXXXXXXXoXoXXX'.z # # @ $ 3 u / &.%.%._ _ %.&.&.' _ _ _ / / / / G G / G / / ",
"&.&.&.&.&.&.&.&.&.&.&.&.*.*.*.*.*.-.*.*._ W V V u 3 # # % # - 4 S -.*.*._ H &.U.U.U.U.U.U.U.Y.U.U.U.U.U.U.U.U.U.-.-.U.U.U.-.-.-.-.-.-.-.-.-.U.U.-.-.-.-.U.U.U.-.*.-.U.U.U.U.-.-.-.-.-.-.-.U.U.U.U.-.-.-.U.-.-.-.-.U.U.U.-.-.U.U.-.U.-.-.*.-.-.-.-.-.U.U.R.R.E.).[.|.}.,X}.H < # $ $ ; ; 2 u / &.U.Y.Y.Y.Y.;._ W W W W W ` -.-.-.U.U.U.U.U.U.U.U.U.U.U.U.U.U.U.U.U.U.U.U.U.U.U.U.U.U.U.U.U.U.U.U.U.U.U.U.U.U.Y.Y.Y.Y.Y.T.T.Y.Y.U.Y.Y.-.*.&.&.=.=.&.&.&.&.' ' ' ' ' ' &.' &.&.&.&.&.&.&.&.&.&.&.&.*.*.*.*.*.*.*.*.*.*.*.*.*.*.*.*.*.*.*.*.-.*.*.*.&.&.&.&.&.&.&.%./ W _ ) 9 2 2 ; # @ F H D D _ U.U.U.U.U.U.R.W.[.{.}.,X,X,X,X*X*X+X+X+X+X,X,X,X].].!.W.l.W.k.W.W.[.{.}.}.}.}.}.}.}.}.}.,X}.}.}.}.}.}.}.}.|.{.[.[.[.[.^.^.W.W.E.E.W.W.E.^.^.^.^.^./.E.E.E.^.E.T.R.T.R.U.Y.U.Y.U.I.*.*.*.*.*.*.' ' ' ' B 2 $ $ ; : i | s / eXeXwX0Xp.m T T Y Y U Y U U P P P P Y Y T T T r.t.t.p.s.d.j.n.M.!._.{.].+X+X+X+XoXoXoX'.XXXXoXoXXXXXXXXXXXXXXXXXXXXXXXoXoXoXoXoXXXXXXXXXXXXXXXXXoXoXoXoXoXoXoXoXoXoXoXoXoX{.z # # @ @ 3 7 / &.%.%.&.&.&.&.&.&.' / / G G G G ~ ~ ~ ~ / / ",
"&.&.&.&.-.-.-.-.*.*.*.*.-.*.*.&.*.*.&.&./ G A V V 3 # % % # % 2 Z ;.*.*.%._ -.;.Y.U.Y.Y.;.Y.Y.Y.U.-.U.U.U.U.-.-.U.U.U.-.U.U.U.U.-.-.-.;.Y.Y.U.U.U.U.-.-.U.U.U.U.I.U.-.-.-.-.-.-.-.-.-.-.U.U.-.-.-.-.-.-.-.-.-.-.*.U.-.-.-.-.-.-.-.-.-.-.-.U.U.-.*.*.*.U.U.R.R.E.^.[.[.{.[.C @ # $ % $ ; 4 V / &.-.Y.Y.U.U.*.W D G G G G G &.-.U.U.U.U.U.U.U.U.U.U.U.U.U.U.U.U.U.U.U.U.U.U.U.U.U.U.U.U.U.U.U.U.U.U.U.U.U.U.U.U.U.Y.Y.Y.Y.Y.Y.U.U.U.U.U.*.*.&.&.*.*.*.*.*.*.*.*.*.*.*.*.*.-.-.-.*.*.*.*.*.*.*.*.*.*.*.-.-.-.-.*.*.*.*.*.*.*.-.-.-.*.*.*.*.&.&.&.&.&.&.&.&.' *.*.*.-./ / / 9 ; 4 ; # $ F H S F G -.;.Y.U.U.W.).{.].].].{.}.{.1X,X,X*X,X,X}.{.{.[.!.!.).).).).[.[.[.{.}.}.,X,X,X,X,X,X}.}.}.}.}.{.{.{.[.[.[.[.[.[.[.[.[././.[./.^./.^.^.^.^.^.^.^.^.^.^.^.^.^.^.W.E.T.T.U.U.U.-.' ' *.' ' ' &.&.&.' ' _ N 3 ; ; : : i | u / eXqXqX0Xp.U Y m U Y Y Y Y Y Y P I P P Y ^ r.r.r.r.r.r.r.t.q.T m Y T ^ r.r.p.k.l.N._._.`.`.`.'.'.'.'.'.'.'.'.'.`.`.`.`.`.`.`.`.`._._._._._.S.S.N.N.N.N.N.M.M.M.M.n.n.n.n.c.k.h # # # @ 3 7 / ' %.&.&.&.&.&.&.&.&.&.&._ _ _ _ _ _ _ ' ' ' ",
"&.&.&.&.-.-.&.-.-.-.*.*.&.*.*.-.*.&.&.&./ H Z A V 3 # # # # % 4 V &.*.-.&.&.;.-.;.-.-.;.;.;.-.-.U.-.U.U.;.;.;.-.-.-.-.-.U.U.U.U.;.-.-.-.-.;.-.-.-.-.-.-.-.-.-.-.*.-.-.-.-.-.-.-.-.-.-.-.U.-.-.-.-.-.-.-.U.U.-.-.-.-.-.-.-.-.-.-.-.-.-.-.-.-.-.*.*.*.*.*.I.U.U.R.E.W.).[.^.C @ # $ # $ ; 4 V / &.-.-.U.U.U.-./ D G H H H D _ -.U.U.U.U.U.U.U.U.U.U.U.U.U.U.U.U.U.U.U.U.U.U.U.U.U.U.U.U.U.U.U.U.U.U.U.U.U.U.U.U.U.U.U.U.U.U.U.U.U.U.U.U.-.-.-.-.-.-.-.-.-.-.-.-.-.;.;.;.;.-.-.-.-.U.U.-.*.-.-.-.-.-.-.-.-.-.-.*.*.*.*.*.*.*.*.*.*.*.*.*.&.&.&.&.&.' ' &.&.*.*.*.-.-.&./ / 3 ; 4 ; # $ J H S F G -.U.U.R.R.!.{.}.,X}.,X,X,X{.,X}.}.[.!.k.k.l.W.).[.[.[.[.[.^.E.g.U.R.E.W.).).^.^.^.^.E.E.W.R.R.R.R.g.h.h.h.U.U.U.U.R.R.R.E.E.E.E./.[.[.[.[.[.[.[.[.[.[.[.[././.^.E.T.*.] ' ' ` _ ' _ ' ' &.' &.&.&.&._ 9 3 ; = : : i O.s I 0XqXqX0Xt.u.j.x.j.s.u.p.t.r.r.^ R U U T y.j.M.!.!.~.~.~.~.!.n.u.T n L L n n n P P P Y Y I E E E Y Y U Y Y U U U U U U U U U U U U U U U P n n n P P P P P P P P P P Y Y P I 6 # # # @ 3 7 / &.&.&.&.&.&.&.&.&.&.&.&.&.&.&.&.&.&.&.&.&.&.",
"&.&.&.&.&.&.&.&.*.*.*.*.&.*.*.-.*.&.&.&.W S Z A V 3 # % # # % 2 u %.-.-.-.-.-.-.-.-.-.-.;.;.;.;.;.;.;.Y.;.;.;.;.-.-.-.-.-.-.-.-.-.-.-.-.-.;.;.-.-.-.-.-.-.-.-.-.;.;.-.*.-.-.-.-.U.U.-.-.-.-.-.-.*.-.-.*._ _ &.&.&.&.-.-.-.-.-.-.-.-.-.-.-.-.-.-.-.-.-.-.-.-.U.U.Y.R.E.).E.B @ # % # % $ 2 u / _ *.-.U.U.;.;.-._ W W W W W ' -.U.U.U.U.U.U.U.U.U.U.U.U.U.U.U.U.U.U.U.U.U.U.U.U.U.U.U.U.U.U.U.U.U.U.U.U.U.U.U.U.U.U.-.U.U.U.U.U.U.U.U.U.U.Y.-.*.*.-.-.-.-.-.-.-.-.-.-.-.-.-.-.-.-.Y.U.-.*.-.-.-.-.-.-.-.-.-.*.*.*.*.*.*.*.-.*.*.*.*.*.&.&.&.&.&.&.&.*.*.*.*.-.-.*.-.&./ ~ 3 ; : ; # @ J H S F G -.U.U.R.W.[.}.}.,X,X,X,X,X{.!.f.r.^ p.g.E.).).[.[.[.).W.f.` ! Q Q ` ` ' ' ` ' ' ' ' ' ' ' ' ' ' ' ] ' ' ' ' ' ' *.*.' *.U.U.R.T.T.T.T.R.U.U.U.*.*.*.' ' ' ' ' ' ` _ _ _ W / _ _ / _ _ _ _ ' &.&.' ' G 9 7 ; @ : : i O.s D 0XqXwX0Xu.N._.S._.S.S.N.N.N.n.j.u.t.q.T q.y.u.d.A.n.m.N.N.N.N.N.l.s.r.^ E Y P n n v v z z z z z v v v v v n n n P P P P P U Y Y E E E E Y Y Y Y Y Y Y E E E E E E Y Y Y U I 6 # # # @ 3 7 / &.&.&.&.&.&.&.&.&.&.&.&.&.&.&.&.&.&.&.&.&.&.",
"&.&.&.*.&.&.&.&.*.*.*.*.-.*.*.&.*.&.&.&.W S Z A J 9 # % # # # ; u %.&.&.-.-.U.-.-.-.-.-.-.-.-.-.;.;.;.*.*.*.&.&.&.*.-.-.*.*.-.-.;.-.*.*.*.-.-.*.&.&.&.&.&.&.&.&.&.&.;.Y.*.*.*.*.*.U.Y.Y.-.-.-.-.-.*.-.` Z Z Z Z D D / -.-.-.-.-.*.*.*.*.*.' ' ' &.-.-.-.-.-.-.U.-.U.R.^.R.B @ # # # # $ 2 u / _ *.-.U.U.-.-.;.;.-.-.&.&.&.-.-.U.U.U.U.U.U.U.U.U.U.U.U.U.U.U.U.U.U.U.U.U.-.-.-.-.U.U.-.-.-.-.-.U.U.U.U.U.U.U.U.U.-.-.-.-.U.U.-.-.U.U.U.-.-.-.-.-.-.-.-.-.-.-.-.-.-.-.-.-.U.U.U.U.*.*.*.*.-.-.-.-.*.*.*.*.-.-.-.-.&.&.' _ _ _ _ _ _ &.&.&.&.&.*.*.-.-.-.-.-.-.-.-.;._ / G 3 ; : ; # @ J H S F G U.R.R.W.W.{.,X*X,X,X*X*X*X[.k.R.E.).[.[.[.[.[.[.[.^.R.h.h.' ' *.&.' ' &.*.*.&.&.&.*.&.*.*.*.*.*.*.*.*.-.-.-.U.U.U.-.;.-.&.&._ / G G D D B V V V N u u u N N N V V V V V A A D D D H D G W W _ _ _ ' D 9 u ; @ : : i O.s D 0XeXwX0Xu.N._._.V.S.V.S.S.S.V.N.c.j.j.f.s.p.p.t.r.t.t.r.r.r.t.l.N.V.V.V.!.N.M.j.s.j.l.l.n.n.M.M.N.N._.G.G.G.G.S._._._._._._._._._._._._._._._._._._._._.S.V.S.V.V.V.V.V._.!.k . # # @ 3 7 / &.&.&.&.&.&.&.&.&.&.*.*.*.*.*.&.&.&.&.&.&.&.",
"&.&.*.*.&.&.&.&.&.&.&.*.-.*.*.*.&.&.&.' W D Z A J 9 # % # # % ; 9 %.-.*.-.-.-.;.-.-.;.;.-.-.-.-.*.&.W D D D D D D D D W W / _ ' ' ' _ ` _ _ W G H H D Z D Z Z D D H W &.*.-.-.-.-.*.&.&.&.*.;.-.-.-.-.W B V V V V h Z &.-.*.*.' ' ' ' ' ' ' / D G W _ _ ' -.-.U.Y.U.R.E.Y.B @ # % # # @ 4 J ~ %.*.-.-.-.-.-.*.*.-.-.*.*.*.*.-.-.-.-.-.-.;.Y.Y.Y.U.;.Y.Y.-.;.;.-.U.U.U.-.-.U.U.-.-.-.-.' -.-.-.-.-.&.&.&.-.-.U.U.Y.Y.Y.-.U.U.U.-.U.-.-.-.;.-.-.Y.-.-.-.-.-.-.-.-.U.-.*.-.-.*.*.*.*.*.-.-.-.*.-.-.*.*.&.&.%._ / G H Z Z A V V B B D W _ &.*.*.-.-.-.-.-.-.-.-.-.*.-._ / H 2 ; 2 ; # @ J H F Z G R.E.W.W.).].,X,X,X*X,X}.}.].{.|.|.{.{.{.[.[.).^.E.T.U.U.U.U.U.U.U.Y.Y.Y.U.U.U.U.Y.Y.Y.Y.U.U.U.-.-.*.-.Y.;.-.&._ / D D B B V N u u 9 9 u u 9 9 u u u u u V V V A A A A A Z D Z Z D D D D G G W _ %.%.B 9 9 2 $ : : i O.s D 0XeXwX0Xj.!._.~._._._._.C.V.V.S.V.V.V.V.~.N.M.j.j.s.t.q.T q.q.s.b.V.N.V.`.`.`.`.XXXX].].oXoX'.'.oXoXoXoXoXoX'.'.oX'.`.`.XXXX'.D.`.`.`.`.`.XXXX`.`.`.`.`.`.`.XXXXXXXX`.`.`.!.9 X # # @ 3 7 %.&.&._ _ &.&.&.&.&.&.&.&.&.&.&.&.&.&.&.&.*.&.",
"&.&.&.&.&.&.&.&.&.&.&.&.*.*.*.*.&.&.&._ / D Z A J 3 $ % # # % ; 3 ) -.-.-.-.-.&.&.&._ _ %.%._ _ _ G D Z Z Z Z Z Z D B D D H G W W W W W G D D D Z A A B Z H G W G H D G W / / / W W H H D W _ _ _ _ / D V V V V V B B _ -.*.*.*.-.-.-.-.-.-.&./ D D D D H G W _ ' ' U.E.U.V @ # % # # @ 4 J ~ _ *.-.-.-.-.-.*.*.*.*.*.*.-.-.-.*.&.' ' _ _ _ _ _ / / / / / / / / / / / / / _ _ _ ' &.&.&.' _ / / G G G G D I W / / _ _ _ _ _ %.%._ _ _ _ _ _ &.' ' ' &.&.&.&.&.&.*.Y.*.*.&.-.&.&.&._ _ &.*.*.;.*.%./ G D J V u u u u u u V B D G / / _ *.-.-.-.-.-.-.-.-.-.-.-.-.-._ G H 2 2 : ; # @ J H F Z / E.W.W.!.[.}.,X,X,X,X,X,X1X+X].{.{.[.E.-._ I H D D H G W W / / _ %._ _ _ _ _ _ _ _ _ _ _ _ ' ' ' ' ' _ _ _ / W G D B V V V V N u u 9 9 u u N V V V Z D D D G G G / / / / _ / / / / G G G D H W _ &.G h 9 u 2 $ : : y +.a Z 0XwXwXwXN.~._._.S.S.S.S.`.~.~._._.S.V.V.~.~._.~.~.~.!.N.N.c.c.M.N.V.N.V.V.V.`.`.`.`.`.`.'.'.'.'.XXXXXXXXXXXX`.`.`.`.oXoXXX`.`.'.XXXXXXXX`.`.`.`.`.`.`.`.D.`.`.`.`.`.`.`._.n.6 # # # @ 3 9 %.&.&._ G _ &.&.&.&.&.&.&.&.&.&.&.&.&.&.&.&.&.",
"W W / / / / / / / _ _ &.*.*.*.*.&.&.&._ / S Z V u 2 ; - # # # ; 3 ~ &.&.&.&._ W D D D D D D D H D D D Z D D D Z D D D D D D H D G G G H D Z D B D D G / ' &.&.&.%.G D D D D Z Z D / / / / W W H G G G G G W / / _ _ _ -.-.-.*.-.-.-.-.-.-.*.&.&.%./ D D D D D H Q -.U.E.U.V @ # # # # @ 4 V ~ _ &.*.*.*.*.*.&.&.&.&.&.&.' _ _ _ / W G D H H D D D D Z Z Z Z Z D D D S H H H H D W W G D G D D D Z F S S D D D D Z D D D Z Z Z Z A A A A B Z D G W / / _ _ &.&.&.*.*.&.&.%.%./ G D C D W %._ / G Z V u u u u u u u u V H H / / / / / *.-.-.-.-.*.-.-.-.-.-.-.;.&.%.W G H 3 2 2 ; # ; J H S Z _ E.W.!.!.[.}.,X,X,X,X,X{.].].{.).h.I Z B V V V V V V V V V V V V V V V V V V V A D G G W / _ _ _ _ _ _ _ / W W G D Z A V V V B A A Z D S G G G W W / / _ _ _ _ _ _ _ _ _ _ _ _ _ _ / / G G G W =.%.B 9 9 u 2 ; : : y +.a h .XeXwXwX{.!._.~._._._._._._._.~.S._._.`.`.~.~.~.~.~.~.~.V.V.V.V.V.V.N.N.V.b.c.M.M._.`.`.`.`.`.`.XX`.`.`.].].].].`.`.`.'.]._._.`.`.`.`.`.`.`.`.`.`.`.`.`.D.`._._._.!.N.M.j.s.8 # * # $ 3 9 %.&.&.%.D / &.&.&.&.&.&.&.&.&.&.&.&.&.&.&._ _ ",
"G G G G G G G W W / _ &.&.&.&.&.&.&.&._ W S A V 3 ; ; - # # # ; 4 Z _ &.&./ H C Z D Z Z Z Z D D D D H _ &.&.&._ W D Z Z Z D D D D Z Z Z Z A C H ` ' &.&.&.&.&.&._ H D Z A D D A Z %.-.-.*.*.&.&.*.' &.&.-.-.-.-.-.-.-.-.-.-.-.*.*.*.*.-.*.*.&.&.&.&.&._ _ ` _ ' -.-.U.E.-.V @ # # # # @ 4 J ~ %.&.*.&.&.&.&.&.&.&._ _ _ / / W W G G H H S S D D D D D D D D D D D D H H D D D D D D D D D Z Z Z Z Z Z Z S S S S S H G G G D B V V V V V V V N V B A D D D W / / W D D Z Z B B B Z D H H S Z Z V V V V u V V A S H ~ / / / / / W W _ ;.*.*.-.-.-.-.-.-.-.-.&.%./ W G G H 3 2 2 ; # $ u H H A _ ^.W.!.!.].}.}.}.}.}.}.{.{.W.h.` G H H H H D D H H Z D D Z Z Z Z Z A Z S S H H G / / / / / _ / W W W W W G D D G G G G G G G G H H W / / / ` _ _ _ _ _ _ _ _ _ ` _ _ _ _ _ _ _ _ _ / / / / G _ &.W 9 9 9 u 2 $ : : i +.s 9 ^ }.0XwX,XN._.~.!.n.l.l.M.!._._.`.S.S.S.S._.`.`.`.`.`.S.~.V.V.V.S.S.S.S.N.M.p.T Y T u._.`.`.`.`._.N.N.c.j.j.u.u.u.t.t.t.p.u.c.N._._._._.`.`._.N.!.!.!._._._._.M.f.f.p.p.p.r.3 o * # ; 3 9 %.&.&.%.D W &.&.&.&.&.*.&.&.&.&.&.&.' _ _ / _ ",
"~ / / ) _ _ _ _ _ _ &.&.&.&.&.&.&.&.&._ W H u 9 4 ; $ $ # # # ; 2 u S %.W D Z Z Z Z A D D D H H G / &.&.-.-.-.-.&.) H B B B B A A B B B B D W _ ' ' ' ' ' ' ' ' ' D B B B B A B D ' ' ' &.&.&.&.*.*.*.*.*.*.*.-.*.-.*.*.-.-.-.*.-.-.-.*.*.' ' ' &.&.&.&.' ' ' *.' -.R.E.U.B . . # # # % 4 J G _ &.&.&.&.&.&.' &.&.&.&.&._ _ _ / / / / / / / / / / / / / / / / / / / / / / / / / / W W G G G G G G G G G G G H H W / _ _ _ / G B u u u h V A A S H G G G G D D D S S H Z Z Z Z Z Z Z A A C A Z Z F F S H G H / / / / W W W W W W ` &.-.-.-.-.-.-.-.-.-.&.&._ G H H G H F 2 ; 2 ; # @ u F F V _ /.W.W.).[.{.{.}.}.{.).E.h.' ' ' ' &.&.&._ %.%._ _ _ / / / / / ) / / / %.%.) / / / G G D D D D D D D D D D D H H H H H G G G G G G G / _ _ ` ` ` _ _ _ _ _ _ _ ` ` _ _ _ _ _ _ _ _ _ _ _ / / _ %.V 9 u u u 2 $ ; : i O.u 9 C I l.,X].N.N.d.t.r.^ E U ^ r.p.p.r.T m Y r.j.M.N.!.M.n.n.l.j.j.f.l.M.!.!.M.l.u.t.t.u.c.V.V._.V.N.j.t.r.T T T T T R r.r.s.!.!.~._._.!.l.s.t.r.R R R r.p.p.t.t.t.r.r.r.r.r.` 1 # # @ < 1 V %._ &._ Z H %.&.&.&.&.&.&.%._ / / / / W G G / ",
"D D H H G G G G G W / / W W W / / / / G D Z 9 3 2 ; $ # # # # ; ; 3 u V A V V Z D D G W / _ &.&.-.-.*.*.*.*.*.*.&.-.&.%./ G D D D D D D W _ &._ ' ' ' ' ' ' ' ' *.=.H D D D D A G &.' ' &.*.*.*.' ' &.*.*.*.*.*.*.*.-.-.*.*.-.*.' ' *.*.*.' ' ' ' ' ' ' ' ' ' *.-.U.U.E.U.h . . # # # % 2 J G / ' ' &.&.' &.&.&.*.&.' ' ' _ ` _ _ _ _ _ _ _ _ _ _ _ _ _ _ _ _ _ _ _ _ _ _ _ _ _ ' _ _ _ _ _ _ _ _ _ _ _ _ _ _ / W W / / _ _ / H A A Z H G / _ _ _ _ _ _ %._ H D G / / / G S S D D D H G H G G G W W / / / / W W W W / ` / / _ &.-.-.-.-.Y.;.;.;.*.&.' _ / H D S S H F u @ $ 2 2 * @ u J V V D ' ] h.h.g.R.R.R.h.` Q I G G G D D D D D D D D D D Z Z Z Z D D D D S D D D Z Z Z A Z Z D D D D Z Z D D S S F S S S S S S S D D D H D W / / _ _ _ Q ` ` ` ` _ _ _ _ ` ` _ _ _ _ ` ` _ / W W W W D h u u u u ; ; : q s O.y 9 B L n T r.p.r.q.R Y P L K L v v C C C C K K n n n P P n n v v v v v v n U U ^ p.l.n.n.n.j.l.s.s.t.T U P P n P L P v P P R t.p.u.t.t.R U P L L L L I I I Y E E ^ R R R q.^ ` 1 # # @ 2 5 D %./ %._ A S &.' ' ' ' &._ G H D D H H H S H H ",
"u u u u V V V V J Z Z Z Z Z Z Z Z Z Z V V u 9 4 ; ; - - # # # ; ; ; 3 3 9 9 u V H / %.;.;.;.;.;.;.;.-.-.;.;.;.-.-.*.*.&.;.&.&.&.&.&.&.&.&.&.&.&.&.&.&.&.-.-.-.&.&.;.;.&.&.%.%._ _ *.&.&.*.*.*.&.&.&.&.*.*.*.*.*.*.*.*.*.' *.*.*.-.-.&.&.' ' ' ' ' ' ' ' ' ' *.*.*.-.U.T.&.5 # # # # % % 2 s H ~ / / G V 9 V Z G _ _ %.%.&._ _ _ _ _ _ _ _ _ _ _ _ _ _ _ _ _ _ _ _ _ _ _ _ _ _ _ _ _ _ _ _ _ _ _ _ ' _ _ _ _ _ / / G G G W W / / ~ / / _ _ _ _ _ _ _ / / / H Z V N H / _ _ _ %.%./ / ~ H G G / %.%._ _ / _ _ _ _ _ _ _ _ %.&.&.;.&.&.&.%.&.%._ _ W G H D D D S H H F u ; # % 4 0 ; @ 3 u u u V B C C C H D D D A A A Z Z A A A V V V V V V V V V V V V V V V V V V V V V V V V V V V V V V u V u u u u u u u u u V V V A B V A Z Z D H G G G G G G G G G H H H H G G G G G G G G G H H H S S N u 9 u 3 2 # - : r i i y y 9 C L L Y E E Y P n z C C C z z z z z z z C C C C C C l l j j j j j j k x x x z z K n n L L v v z z z z l l l j j j j h k k l z z z C C C C l C C L L L I I I I L I P I I H 1 # # @ 1 u ~ / / %.%.V Z %.%.&.%._ / G S F F F Z Z J J J J ",
"2 2 2 3 0 0 3 0 3 0 9 0 9 9 9 9 0 0 0 0 3 3 2 ; # # # - # # # ; ; ; ; 2 4 4 3 3 9 9 9 u 9 9 u u u J H H / / %.%.&.&.&.;.&.-.-.;.;.;.;.;.;.;.*.*.&.&.-.-.%.H B V V Z S / %.&.&.&.-.&.&._ / / _ %.' *.*.*.&.&.*.*.*.*.*.*.*.*.*.*.) Z B H W _ _ _ ' ' ' ' ' &.*.' *.-.U.' B @ # # # # % % : u u J V u 3 $ ; 2 2 2 3 3 9 u u V V J D G / / / / / / ) / / / / / ~ ~ G G G G G G G G G G G G G G / %._ _ _ _ / G G Z A V A F D D D H H ~ ) ) _ _ _ W G D V h u V u V V H G G ~ G G D V u 7 9 3 7 V H / / / / / %./ ~ ~ H H H H H H H S Z Z Z Z Z Z Z Z Z Z Z D S F F J 9 ; # # # 2 y 2 ; 3 3 3 u N u V V V N V N V u u u u 9 u u u u u u u u u u u u u 3 3 3 0 3 0 0 3 3 3 3 2 2 2 2 4 2 2 2 ; ; ; ; @ @ @ @ @ ; ; ; $ $ 2 2 2 2 3 3 3 7 9 u 9 9 u u u u u u u u u V N V V u N V V V V V V V u 7 3 4 2 ; $ $ * - q y y r y 2 < 6 j Z C I I C C l j j k k k h h h j j k k j j j j h h h h h h h h h h h h h j h h j j j j x j j B j j j h h 6 6 5 5 8 1 3 1 1 3 5 8 8 5 5 1 8 1 1 8 8 8 8 5 5 5 5 8 h l Z < # # @ 3 F %.~ / / ~ u 9 Z H ~ H H H F J J s u u u u u u u ",
"# # # % $ $ $ $ $ ; % $ $ % # # # # % % # $ $ $ # # # # * - ; : - % % % ; ; ; ; # # # # # # # # # # # # @ 2 4 3 9 9 u V V J Z Z D H ~ %.&.;.;.;.;.;./ N 2 @ @ @ @ @ @ < 3 u V B Z V 9 5 3 3 3 9 9 Z / _ _ _ %.%.%.%.%._ _ %.%.G 9 5 9 V D _ _ ' ' ' ' ' _ _ _ _ / / G V 2 # # # # # % % # $ $ ; ; ; $ $ ; 4 ; ; ; $ $ $ $ $ $ $ < 2 3 3 5 9 9 9 3 3 3 3 2 2 < $ $ @ @ $ @ @ $ $ $ @ $ ; $ < 3 V H H H A u 9 3 3 3 3 0 9 u 3 3 3 2 2 3 u V u 9 3 2 $ @ $ 2 2 4 2 3 3 3 2 2 2 2 ; - * # * % $ 2 2 7 u u u u u u u u u u u u u u u u u u u u u u u u u u u u u u 0 ; # # # # # : s y 2 4 3 3 9 9 9 9 u u u 7 u u 9 3 3 2 2 4 2 4 4 4 4 2 2 ; $ $ $ ; ; @ @ # # % % # # # # # # # # # # # # # @ @ # @ @ @ # @ @ @ @ % % % # # # # # # # @ ; @ $ $ $ $ $ $ $ $ $ $ $ ; ; ; ; ; ; ; ; ; ; ; ; @ # # # # # * - - : y i i y y q @ @ , < 3 5 5 3 3 1 1 1 1 1 1 1 1 1 3 3 3 3 3 3 3 3 3 1 1 1 1 1 1 1 < < < < 1 1 1 1 1 3 1 1 1 1 1 1 1 1 1 1 1 1 2 2 2 < 2 ; $ $ $ $ $ $ $ $ $ @ @ @ @ @ @ @ @ @ # @ < 9 j B , o # 2 u H ~ H F J u 4 ; ; 2 2 2 3 3 3 3 3 2 2 2 2 2 2 2 2 ",
". o . . . . # # # # # # # # # # # # # # # # # # # o # # * ; w : ; % # # # # # # # o o o # # # # # # # # # # # # # # # # . # # @ # @ $ 2 3 9 u u u u 2 @ # % - % - - $ % # = @ @ @ @ @ @ $ # # # . . < 3 7 3 3 3 3 3 3 3 1 1 1 < ; 2 2 2 3 9 9 u 9 u 9 9 7 5 3 5 3 3 1 2 # # # # # - y - # # # # # # % % # % % ; ; ; ; ; ; - ; - % # # # # # # # o # # # # * * * # # # # # # # # # % # # o # # @ ; 2 $ @ # # # # # # # # # # # # # # # # # o . o o # o o o o o o # # # # # * * * # # # # % ; ; ; ; ; ; ; ; ; ; ; ; ; ; ; ; ; ; ; ; ; ; ; ; $ @ @ # $ # # # # # # o o # # - - 2 F y ; 2 2 4 3 3 3 3 3 3 3 3 3 2 ; $ # # # # # # # # # # # # # # # # # # # # # # # # # # # # % # # % % % % @ @ $ @ @ @ $ @ @ @ @ @ % % # # # # # # # # # # # # # # # # # # # # # # # # # # # # # # # # # # # # # # # # * - : y i i i i y y * o # . # # # # # # # . # # # # # # # # # # # # # # # # # # # # # # # # # # # # # # # # @ @ @ @ @ @ @ @ @ @ @ @ # # # # # # # # # # # # # # # # # # # # # # # # # . @ u V 5 # # # 2 J V 7 3 3 2 @ @ # # # # # # # # # . # # # # # # # . ",
"o . . . # # # # # # # # # # # # o o # # # . . #   o # # - i | s : * * # # # # o o o o o o # # # o o o o o o o o o o # # # # # # # * * * # # # # # # # # - - % - % # # % * - * # * # # o # o o * # o o o # # . # # # # # # # # # # # # # o # # # . . . # # # # # # # # o # o # o & r O.y & * # # # # # # # # # # o o # # # # o o o o o o o o o & o o o o & & o o o o o o & & & & > > & & & * o # # # o * * * * & & & & & o o & & & & & o & & & & & & & & + + o o - & & * * * * * * * & & o o # # o o o o o o o o o o o o o o o o # # # # # # # # o o o o o & & & o # - # o # w O.s : ; ; ; ; ; ; ; ; ; ; = # # # o o o o . . # # # # # # # # # # # # # # # # # # # # # # % % # # % % % % # # # # # # # # # # # # # # # # # # # # # # # # # # # # # # # # # # # # # # # # o o o o # # # o o # o o o * : i p a p i i i i i : o o # o # # * - * # # o # # # * * * * # # # # # # # # # # # # # # # o # # o o * # # * * # # # # o o # o o o o       . o X   X         X X X X                   .   $ < . . # ; 2 s 3 @ @ # # # # # # # # # o o o # # # # # # # # # # ",
"# # . . # # # # o X # o # # o X o # # # # # # # # # X ; s #.#.O.s : * # # # o o o o o o o o o o o o o o o o # # # # # # # # # # o # # # # * # # # # # # # # # # # # # # * # # # # # # # # # o # # o o + % % % % # # % % # # # # o # # # o o o # # # # # # # # # # # # * # # % o q { O.O.y : & o o o # # # o # o o o o o o o o o o o o o o # # o o o o o # o o # o o o o o o o o & o & * # # # # # # o o o o # # # # # # * * & & # # # o # o o o o o # o # # * # o o o o o o o o o & o & o o o # & & * # # # o o # o o o o o o o o o o o o o o o o o o # # # # # o o O o i #.tX5.s w ; ; % % ; * # # # o # # o # # # # # # # # # # # # # # # # . . . # # # # # # # # # # # # # # # # # # # # # # # . . . . . . . # # # # . . . . . .   . o o o o o o o . o o o X o o . .         o . o o o # - : y i a { { { { {  . . .{ a : # X o o o o o # # # # # o # # # # # # # # # # # # # o # # # # # # # # # # # # o # # o o o o X       X X X X X X X o o o o o o o X X X X X X o o X X o X o X X o o o # # # ; 2 u s $ # * # # # # # # # # # # # # # # o o # # # o o o ",
"# o o o # # # # # # # * # # @ # @ @ # # @ # ; * o # 2 O.#.#.#.#.O.s - X   O               X O O O O O O O O o o o o o   o o o o o o o # o o + + # # # # # # * # # # # # # # # # # # # # # # o o # # o o o # # # # # # # # # # # # # # # # # # * # # # # # # # # # # # # # # - y  .2.2.<.#.<.@.a q & o o o o o o o o * o > > & & & & & & & o o & & & * & * o o # * - - - * * & * o # # # # * * - # - - - - - - - - * - # & & * * - # # # * * * - * - - & & * - & * - - - - : : : : : - & & > & & # o o - - * - # * - - & o * * * o o o o o o o o X X X X o o o # : y O.6.jXxXmX8.y 2 ; - # # # # # # o o o # o o . . o o o o . . . # # . o # - : : : : : : : - - - - - - - - - - - - - - - - - - - % o o % % % % * - - - - - ; : : : : : : : : : : : : : : : : : : : : : : : : : q y i s { { O.O.+.@.@.,.2.2.6.6.6.7.7.7.6.5.O.y : : : : : : : : 2 2 y y y y y y y w : : : : : : : : : : - - - - - : - : : : : : : : : : : : w w w w y y y y y y y y y y y y y y y y y y y y y y y y y y y u u s s s s s s F s ; # o o o o # # # # o o o . # # # o o o o o o o o ",
"s y y y 2 2 : : : ; % # % o - - ; ; ; ; * * * - 2 s #.5.5.<.#.#.#.#.O.{ a a a a a a F | O.| a a a s s i y y y y r q y : : : : ; : ; - - ; - - - - - - o # o % % * - - - - - - - - - # # # # o o # # # o # o # # * * * * # # * # o o o o o o o o # # o o o o o o # # # * % - s @.6.7.7.6.2.2.7.7.6.<. . . . .O.+.+.@.<.<.<.#.i y t y i i s s i y y y q q q : - - : : : q y i i s s s s i i y q : : q q w : q y q q y y y y y y y y y y y y y y y y y y y y y y y i i i i i i {  .O.O.O.O.+.+.+.+.+.O.O.s i i i y y y y y y y y w : q y y y y y y s s s a a a #.5.tXjXmXmXvXjXhX#.y y w w : 2 q : : : : : ; : ; : : : ; - - - : : w : i s s a O.#.#.#.#.+.+.+.+.+.+.+.+.+.O.O.O.O.O.O.O.O.O.O.O.O.O.O.O.O.O.O.O.O.O. . . .O.O.O.+.@.@.@.@.@.@.@.@.@.@.@.@.@.@.@.@.@.@.@.@.@.,.<.<.2.2.2.2.2.2.2.3.7.7.tXtXtXpXpXpXpXaXpXpX8.6.6.5.5.5.5.<.#.#.#.#.#.#.#.#.#.#.@.O. .{ { { a a a a  .O.O.@.#.#.#.<.2.2.2.5.5.5.#.+.O.| | | | O.O.O.O.O.O.O.O.O. .{ | | { { { { | { { a a a F F a a a a a a F F F F F F F F F F F u y y 2 2 2 2 2 2 : : : : ; : 2 2 2 2 2 2 2 2 : : ",
"#.#.#.#.#.#.#.#.#.$.#.9.8.2.s a a O.O.a a O.+.<.5.8.8.8.8.8.8.8.8.fXfXkXgXgXkXfXtXtX8.tX8.8.8.8.8.8.8.5.5.5.5.5.<.<.<.#.#.#.#.#.+.O.O.O.$.#.+.O.{ a i i i y i i i i i i i i i i y y y y y y y y y y y y y y y y y y y y i i i y y y y y y y y y y y y y q : : : q : q q y { <.7.7.2.,.,.<.2.2.3.7.rXrXyXpXpXaXaXaXaXhXhXhXaX@.+...+.@.@.@.,.@. .{ a p i i y y y i a { { O.+.@.@.@.+.+. .+.+.O.+.+.{ i i +.{ s a @.<.<.2.2.2.@.#.<.<.2.2.2.3.3.6.6.6.6.6.6.6.7.7.rXrXtXtXtXtXpXpXpXpXpXpXpXgXgXgXgXhXgXtX7.6.2.2.2.2.5.6.8.6.5.<.5.2.<.<.<.<.#.#.5.5.5.5.5.5.pXgXjXxXxXvXhXfX8.6.6.6.6.6.6.6.6.6.5.5.6.6.5.5.5.8.8.8.5.#.+.O.O.+.+.#.2.2.<.2.2.2.2.2.2.2.6.6.7.7.7.7.7.7.7.6.6.6.6.2.6.6.6.2.2.2.6.6.5.6.6.6.6.6.5.2.2.2.5.6.6.6.6.7.7.7.7.7.7.7.rX7.7.7.7.rXrX7.7.7.rXrXrXrXrXrXrXrXrXrXrXtXpXpXpXpXgXhXhXxXvXvXvXvXvXvXxXhXhXgXfXfXfXpXpX8.8.8.8.8.8.8.7.8.7.2.2.<.2.2.2.6.6.7.8.tX8.8.8.tXtXpXpXpXaXaXfXtX2.@.+.+.+.@.+.+.+.O.O.O.O.O.O.O.O.O.O.O.O.O.O.O.O.O.O.O.O.O.O.O.$.$.$.$.$.$.$.#.#.#.#.#.0.0.0.0.0.0.0.0.:.#.#.0.:.:.#.#.0.0.5.5.5.5.9.9.5.5.5.5.5.5.",
"#.#.<.5.6.8.fXgXgXgXmXMXMXMXhXfXfXgXkXfXtXpXfXgXgXgXgXgXgXgXgXgXgXgXgXgXgXjXmXmXjXkXtXtX8.8.pXgXkXfXfX8.6.6.5.5.5.5.5.2.<.<.<.#.#.#.#.<.6.8.7.7.5.<.#.+.+.+.+.+.@.@.@.@.#.#.@.@.@.@.@.+.+.+.+.+.+.+.+.+.+.+.+.+.+.O.O.O.+.O.O.O.O.O.O.O.O.O.O.O.O.O.O.O.{  .O.O.O. .O.O.O.#.2.7.rXrX6.3.6.6.6.6.7.rXpXpXaXaXhXzXhXzXzXzXzXhXpXtXrX7.7.7.7.3.2.<.,.@.+.+.O. . . . .+.@.,.<.2.7.tXpXaXgXzXhXpX7.<. .p p <.6. .{ <.hXzXvXvXvXrX<.<.tXvXvXvXvXvXnXnXbXbXbXbXbXbXbXbXbXvXvXvXvXzXgXpXpXpXpXpXpXaXaXgXhXhXhXgXpXtXtXrX7.tXpXpXpXtX7.7.8.8.8.8.8.6.6.6.6.6.7.6.6.6.tXpXfXgXhXfXtXpXtX8.tXtXtXtXtXtXtXtXtXtXtXtXpXpXfXfXgXpXpXrX7.6.6.2.6.6.7.8.7.rXtXpXtXrXrXtXpXhXhXgXhXhXgXgXgXgXpXpXpXpXpXpXpXpXpXpXpXpXpXpXpXaXpXaXgXgXgXgXgXgXgXhXgXgXgXgXgXgXgXgXaXgXgXgXgXgXgXgXgXgXgXgXaXaXaXaXgXgXgXgXgXgXhXhXhXjXxXxXvXvXMXMXMXMXMXMXMXMXMXMXMXMXMXmXvXvXvXvXxXxXvXvXvXvXvXxXjXhXhXjXxXxXjXhXfXpXpXpXpXpXpXpXgXgXhXhXgX6.2.<.<.<.<.<.<.2.6.tXfXgXhXjXhXfXfXfXfXfXfXfXfXfXfXfXfXfXfXfX XiXfXfXfXfXfXfXfXfXfXkXkXkXkXkXkXkXfX X8.8.8.8.8.8. X X8.8.fXfXfXfXfXfXfXfXfXfXfXfXfXfX",
"5.8.jXvXmXMXMXMXNXMXbXbXvXvXmXmXvXvXxXjXhXhXgXgXgXgXgXgXhXhXgXgXgXgXgXgXgXjXBXFXBXmXjXfX8.8.fXBXBXVXVXkX X X X X8.8.8.6.5.5.5.6.6.5.6.8.tXtXpXpX8.6.6.6.6.2.7.pXtXtXtXtX8.tXtX7.7.7.7.7.7.rX7.7.7.7.7.7.7.7.7.7.6.5.5.6.6.6.5.5.5.5.<.5.5.5.2.2.<.#.#.#.#.#.#.#.#.#.#.#.<.6.pXgXgXhXhXhXhXhXzXzXzXzXvXvXbXbXbXbXbXbXbXbXbXbXbXvXxXzXzXzXzXhXaXpXpXpXrXrX7.7.7.3.7.pXgXaXaXzXbXbXnXnXvX6.s q : * & : a +.| +.7.hXvXzXhXaXtX@.+.2.vXbXvXvXvXvXvXvXbXbXbXbXbXbXnXbXbXbXnXxXzXhXaXpXpXtXpXsXpXaXaXgXhXxXxXgXpXpXtXtXtXpXpXtXtXtXtX7.8.tX8.8.8.7.7.7.6.6.8.6.6.8.tXfXfXfXfXiXfXfXfXtXtXtXtXtXtXtXtXtXtXpXpXpXpXfXfXgXgXgXfXfXpXpXpXpXpXpXpXpXpXaXgXgXgXgXgXgXhXjXjXjXjXxXhXhXhXhXhXhXhXhXhXjXhXjXhXhXhXgXhXhXhXjXjXxXxXvXvXvXvXxXxXxXvXxXhXgXgXgXgXgXhXvXvXxXxXxXxXzXhXgXhXgXhXzXzXzXzXzXzXzXxXxXxXxXxXxXxXvXvXmXMXMXmXMXMXMXMXMXMXMXMXmXMXMXmXMXMXMXMXMXMXMXbXbXvXvXvXvXjXhXfX8.8.8.8.rXtXpXsXgXhXhXzXzXxXxXpX6.7.6.6.6.2.2.6.fXxXMXMXMXMXMXMXMXmXmXmXmXxXxXxXmXmXmXVXjXjXjXjXjXjXjXjXjXjXjXjXjXjXjXjXjXjXjXjXjX5X8. X8.8.8.8.8.8.8.8. X X5X5XfX5X5XfXfXfXkXkXkXkXfX",
"7.hXvXvXvXbXvXbXMXMXMXMXMXbXvXxXhXhXhXgXgXgXgXhXhXhXhXjXhXhXhXjXjXjXhXjXjXjXBXBXBXxXjXkX XiX8.kXBXBXBXZXZXZXZXSXZXlXjXjXjXkXiXfXiXfXtXfXjXpXtXgXfX6.6.2.<.6.pXhXhXzXzXzXzXzXxXxXxXxXxXxXxXxXxXxXvXvXjXxXjXjXjXjXxXxXxXxXxXxXxXxXxXxXhXxXvXbXvXzXzXhXhXhXhXhXhXhXhXgXgXhXzXzXzXzXhXhXzXzXzXzXzXxXnXbXbXNXNXNXNXNXNXNXNXNXNXNXNXNXNXNXNXvXhXhXgXaXhXzXzXzXhXhXzXhXhXzXzXaXgXzXbXbXnXNXzXr o & & & ; i  .,.7.aXzXgXpX7.6.6.6.6.7.gXMXbXvXvXcXxXbXMXbXbXbXbXbXbXbXbXbXvXvXxXxXgXaXpXpXtXaXaXgXhXzXxXvXvXvXxXhXhXhXhXhXhXgXgXgXfXpX8.tXfX8.8.8.7.8.8.6.6.6.6.5.6.tXpXpXpXpXfXpXfXpXpXtXtXtXtXtXpXpXfXfXfXgXgXfXkXgXgXhXhXhXhXhXhXgXgXgXgXgXfXfXfXgXfXgXgXfXgXhXjXjXjXjXxXjXhXhXhXjXhXhXhXhXxXxXjXzXhXhXxXvXMXNXNXNXNXFXBXBXBXBXNXMXMXmXmXjXgXgXfXfXfXhXNXMXMXmXvXvXxXgXpXpXpXzXxXxXxXxXxXxXxXxXxXxXxXxXvXvXvXvXMXmXmXxXmXMXMXNXNXNXbXMXbXbXbXbXbXbXbXMXMXMXMXMXMXMXvXjXfX8.8.8.8.pXfXaXhXzXvXvXvXvXvXvXzXvXxXpXtXfXhXfXfX6.5.5.8.jXjXxXxXvXvXvXmXvXvXxXjXjXjXjXjXxXjXjXjXjXjXjXjXjXjXjXjXjXjXjXjXkXkXkXkXkXkXjXkX9.9.9.9.9. X X X X X8. X X X X X X XfXkXjXlXjXjXkXkX",
">. X X X X X X X5X5X5X5X5X5X X X X X X X>.:.:.(.>.>.>.>.:.:.:.:.:.:.:.9. X9. X X5X X9.>.>.>.0.5.5.8.9. X5X5X5X5X5X5X9.9.5XkXkX5X5.8.8.#.jXjX5.8.O.{ a { ,.rXhXvXbXbXbXbXNXNXmXjXhXpXpXpXtXtXtXtXtXtXtXtXrXrX7.7.8.8.8.8.7.8.tX8.8.tXtXpXzXvXvXvXxXxXxXxXzXzXzXzXzXhXhXzXzXxXzXzXhXzXzXzXhXhXhXhXhXhXhXgXhXhXxXvXxXjXjXjXxXxXxXxXxXjXgX6.#.#.#.<.5.6.7.7.7.7.7.7.7.8.7.7.8.7.gXbXNXNXbXsX,.{ { @.2.7.tXtXpX X X X X X X X X5XkXkXjXxXxXhXfX8.fXjXjXjXkXkXkXkXkXkXkXkXkXfX5X8.8.8.8.8. X XfXfXkXkXkXkXkXkXkXkXfX5X X X X X X5X X XfXkXkXkXfXfXfXiX X X X X XiXfXfXfXfXfXfXkXkXkXkXkXkXkXkXkXkXkXkXkXkXjXjXkXjXjXjXjXjXjXlXVXVXlXjXjXjXjXjXjXVXjXjXjXjXjXjXVXVXVXVXVXlXVXlXjXVXjXjXjXjXjXVXVXVXVXjXjXjXjXBXZXZXZXBXZXBXBXBXBXBXBXBXVXVXVXVXlXlXlXlXlXVXVXVXVXlXlXkX X X X X X5X5X5X X X5X5XkXkXkXlXkXkXkXkXlXkX X(.(. XVXBXBXVXVXlXjXkXkXjXxXvXvXvXmXmXxXxXjXkXkX5X X>.>.>.>.9. X XkXlXVXkX5X X8.fXxXvXvXhX7.5.9.5X X9.5.0.:.>. XkXkXkXkXkXlXlXlXlXlXlXkXkXkXkXkXkXkXkXlXlXkXkXkXkXkXkXkXkXkXkXkXkXkXkXkXkXkX X>.(.9.9.(.(.(. X X X X X X X X5XkXlXlXlXlXlXlXlXlXlX",
"{.[.[.[.[.|.|.|.|.|.|.|.|.|.[.[.[.[.[.[.).).!.!.M.M.M.l.l.l.f.p.k.k.k.).|.|.|.|..X0X.XW.U.U.-.&.%.%.%.%.' ' ' ' ' %.%.%.%.%.:.:.O.$.$.J #.#.jXMX .i @.<.pXzXvXNXDXDXDXNXvX8.| s u u u J s F F ~ ~ O.$.$.$.$.$.$.$.$.:.:.:.:.0.0.0.0.9.9.fXjXmXBXMXMXMXMXMXMXMXMXMXMXMXMXmXmXMXmXvXjXkXfXfXfXfXkXfXkXkXjXhXhXfX8.8.8.8.8.8.8.8.8.8.8.9.0.$.:.:.:.0.9.5.5.5.5.>.5.5.5.5.5.5.5.#.pXNXDXDXDXDXbX8.O.| F %.Y././././..X.X.X.X.X/././././././.(.(./..X.X.X.X.X.X.X.X.X.X.X/././.(./.T.T.T.(.T.T././././.(.(.(.(.Y.Y.;.;.&._ / / -.T./..X4X4X4X4X.X.X.X|.[.[.[.[.[.[.[.[.[.[.[.|.|.[.|.|.|.|.|.|.|.|.|.|.}.}..X.X.X.X.X.X.X.X4X4X4X.X.X.X.X.X.X.X.X.X|.|.[.[.[.|.|.|.|.{.[.[.[.[.[.[.).[.[.[.[.[.).^.W.W.^.|.0X0X0X0X0X0X0X0X0X0X0X0X0X0X7X7X}.}.{.[.)._._._._._._.).)._._._._._._._._.l.f.f.s.k.k.W.W.!.).^.W.E.E.k.k.g.k.).|..X^.Y.Y.R.R.R.T.T.(././././././././././.T.T.T.R.R.h.' ' U.T.T.Y.R.Y.;.>.jXjXjXpX2.#.&..X4X/././././..X4X4X4X.X4X.X4X4X4X4X4X4X4X4X4X4X5X4X5X5X5XkXkX5X5XkXkXkXkXkXkXkXkXkXkX5X5X X(.(.(.(.(.(.(.(. X X X X X XkXlXlXlXVXlXlXVXVXlXkX X X",
"+X+X+X+X+X,X,X,X,X,X,X,X,X,X,X,X,X,X*X*X*X*X+X*X*X*X*X*X,X,X,X,X*X,X7X6X6X0X0X6X6X0X6X].].{.{._.[.!.!.[.].].].].{.[.[.[.[.[././././.^.E.T.-.(.(./ H $.| 0.5.pXhXtX6.<.$.s H Y./.4X0X0X0XCXCXCXCXCXCXCXCXCXCXCXCXCXAXAXAXCXCXCXCXCXCXCXCXCXCXZXSXSXSXSXSXLXLXSXSXLXSXSXSXSXSXSXSXZXlX X(.(.(.(.(.(.(. X X(.:.%.~ $.:.:.:.:.:.:.:.:.:.>.:.%.%.%.%.%.:.:.:.:.:.:.:.:.:.:.:.:.:.:.:.8.pXhXnXGXxXa # @ k k._._._._._.[.{.[.[.[.).k.W.l.l.l.j.l.l.l.l.l.l.l.k.l.k.k.f.s.p.p.p.p.p.r.r.^ ^ ^ ^ ^ r.^ ^ ^ ^ ! ` Q I I L K j f 6 g c s.}.*X*X+X'.+X+X'.'.'.'.'.`.'.'.'.'.'.'.'.`.`.`.`.`.'.'.'.'.`.`.`.`.D.D.`.`.`.`.`.`.D.D.D.`.D.D.D.D.`.D.D.D.D.D.D.D.S.A.A.c.D.`.D.D.D.D.D.D.D.`.`.D.D.D.D.D.S.A.i.x.b.*X6X8X8X8X8X8X8X8X8X8X8X8X8X6X:X-XOXoXoXD.D.D.OX-X*X*X*X*XoXD.`.`.D.`.oXoXoXXX`.b.d.u.t.t.t.t.d.d.d.s.s.d.l.l.c.M.N.N.N.!.!.M.!.l.s.p.r.p.r.k.l.M.l.l.f.p.g.g.k.k.l.l.k.k.k.k.p.f.l.!.!.!.R.&. XgXpX6.#.$.Y.}.3X[.!.).).[.[.).).!.^.W.k.g.^ ` R.[.[.[.).E.R.Y.T.T.Y.Y.Y.Y.Y.Y.Y.Y.Y.(.Y.Y.Y.(.T.Y.' ' ' _ -.Y.T.(.(.(.(.(.(.(. X5XlXlXlXlXlXlXlXkX X>.%.G G D ",
"].].].].].,X,X,X,X,X,X,X,X,X,X,X,X*X*X*X*X*X+X'.`.`.`.`._.`.`.`.S.S._._.`.*X,X,X,X*X*X*X+X].'.'.oXoX+X+X+X+X+X*X*X*X,X,X-X-X-X*X*X*X,X*X*X*X+X`.]._.).k.^ I 9 ; o o o . G AXeXeXwXwXwXwXwXwXwXwXwX'.b.b.b.N.b.b.b.N.V.V.b.F.oX%X+XV.V.V.'.,X,X7X0X0X0X0X0X0X0X0X0X0X0X0X0X7X7X,X{.!.n.l.s.p.p.s.f.f.k.k.g.f.p.p.p.f.k.W.k.W.W.W.g.g.g.g.p.p.p.p.h.f.g.p.p.g.p.g.E.W.W.E.W.k.R.' D w 2 rXJXrX: 2 < l )._._._.N.!._.{.,X,X}.l.^ Y R r.p.p.s.s.s.f.s.s.s.s.s.s.f.p.p.p.p.r.^ ^ ^ E E E P P L L L L n L z z z l z z l z P R k.[.].*X+X+X+X+X+X+X'.'.'.`.`.`.'.'.'.'.'.'.'.'.'.'.'.'.'.'.'.'.'.'.'.`.`.'.'.`.'.'.'.'.`.`.'.`.`.`.`.`.`.`.`.`.`.`.`.oX'.V.N.~.`.'.'.'.'.oXoX'.`.oXoX'.`.`.`.`.oX`.`.].<X6X6X8X8X8X8X8X8X8X8X8X8X6X<X>X%XoXK.K.oX`.oX*X-X>X&X&X&X*XoX`.`.`.`.`.oXoXoX`.D.`._._.V.N.N._.`.~.N.N.N.V.V.V.~.~.~.N.V.V.S.S.~.N.M.n.j.c.c.n.N.N.M.M.l.f.p.p.s.l.l.k.k.s.p.p.p.s.n.!.!.!.f.Q $.#.@.s y 9 h._.{.{.l.!.!.!.!.!.!.!.!.!.k.g.z L U l._._.G.M.s.m n P P P P P P P U U R r.u.j.j.l.M.M.M.f.p.r.r.t.t.r.r.T T T ^ ^ g.^.[.[.[.[.[.).E.p.r.T r.p.k.W.",
"'.'.'.'.`.+X,X,X,X,X,X,X,X,X,X,X,X*X*X*X*X+XoX`._._.S.S.S.S.S.S.S.S.V.V.V.S.`.`.`.`.'.`.D.D.`.`.F.F.F.'.XXXXXXXXK.K.K.K.oXoXoXoXoX`.`.`.D.C.~.~.N.N.b.b.b.M.l # % + % @ E.wX8X8X8X8X8X8X6XqX6XqX_.u.d.d.d.d.d.i.i.i.A.A.Z.oX*X-XK.v.A.A.K.-X-X-X=X=X=X%X%X%X%X%X%X%X%X%X*X*X*X*X*XoXD.D.S.S.D.D.D.'.'.'.oXoXoXoX@X@X@X*X*X@X@X@X*X*X*XoXoXoXoXoXoXoXoXoXoXoX'.oXoXoXoX'.`.V.!.E.H 2 4 2.JX2.: 2 , l !.!._.!.N.N.M.M.f.p.q.m v z v P T r.t.p.p.p.t.t.t.p.p.p.t.r.r.r.R R T Y U U Y U U U I P I P Y Y Y ^ p.p.k.W.N._.XXoX+X'.'.`.XXXXXXXXoXoX'.'.oX`.`.`.`.`.`.`.`.'.'.`.'.'.'.'.'.'.'.'.oXoX`.`.`.'.`.`.`.'.`.`.`.`.`.`.`.`.`.`.`.`.'.oX`.oXoXXX`.`.`.`.`.`.'.'.XXoXoXXXXXXXXXXXXXXXXXXXoXoXOX-X:X:X8X8X8X8X8X8X8X8X8X6X:X-XOXoXXXXXoXK.K.oXOX*X*X*X*X*X*XoXD.`.'.`.`.`.XXoX`.`.`.D.D.D.K.D.D.D.D.D.D.D.V.V.V.V.V.N.N.V.V.V.V.V.V.V.V.V.V.V.V.V.V.V.V.N.N.N.j.u.t.t.r.t.t.r.t.t.t.s.M.N.!.n.f.I N 3 : - ; , E s.!.{.!.l.n.n.n.n.!.n.l.l.f.r.z Y n y.V.`.`.`.'.V.p.m m U P Y R r.u.A.m._.oXOXoXoXoXoX'.'.'.'.'.`.`.`.`._._._._.S.S._._._.S.`.`.`.`.`.oXoXoXoXoXoX",
"'.'.'.'.`.+X,X,X,X,X,X,X,X*X*X*X,X*X*X+X+XoX`.`.`.D.D.D.`.`.`.`.S.`.`.`.`.`.`.`.`.D.D.D.`.`.`.`.`.`.`.XX`.XXXXoX'.'.oXXXoXoX`.'.oX`.`.D.S._.n.j.d.A.c.b.b.c.x @ % # # , [.qX8XqXqXqXqXqXqXqXqX7Xi.d.A.c.A.A.i.A.A.c.b.Z.OX>X-X-XOXC.Z.Z.OX-X=X=X-X-X-X-X>X-X-X>X>X>X-X-X-X-X-X-X-X-X-X&X>X-X-X>X>X>X-X-X-X-X-X-X-X*X*X*X=X=X*X*X%X=X%X%X*X*X*X*X*X*X*X@X@XOXOX*X*X@X*XOX`.N.W.Y 8 4 2 #.DX#.- = < l k.M.M.M.M.j.r.T m Y Y E r.r.r.p.p.u.p.u.s.u.s.s.s.d.d.d.s.u.s.s.s.s.s.s.p.p.p.p.p.p.p.p.p.f.k.l.N._.].'.'.'.K.K.oX`.K.XX`.`.'.'.'.'.`.XXXXXXoXXXXX`.XXXXXXXX`.oXXX`.'.'.'.'.`.`.`.XXXXXXXXoXoXoX`.`.'.'.'.'.'.'.'.`.`.`.`.`.oXoXoX`.`.oXoX`.XXXXD.D.`.`.'.'.`.XXXXXXXXD.D.XXXXXXXXXXoXoXOX-X:X:X6X6X8X8X8X8X6X6X:X-X*XoXoX'.XXXXXXXXK.K.OX*X*X%X%XoXK.D.D.oXoX`.`.`.`.XX`.`.`.`.XXK.`.`.D.D.`.`.`.`.`.S.V.V.V.V.V.V.~.V.V.~.N.V.~.~.V.V.N.V.N.N.N.N.b.N.M.i.p.p.p.s.u.s.f.j.n.N.N.N.n.j.p.I j 2 ; ; # 1 n q.!.[.!.j.l.l.l.l.l.l.l.f.f.^ c L C n n._.`.D.D.`.`.N.c.d.u.u.A.N.`.XXXXK.oXD.oXD.XXK.D.D.D.D.D.K.XXXX`.XXXXXXXXXXoXXXoX`.oXoXoXoXXXXXXXXXK.K.K.K.",
"D.D.D.D.`.`.+X,X,X,X*X*X*X+X+X+X+XoXoXoXoX`.`.oX`.oXoXoX'.`.`.'.oXoXoXoX'.`.`.`.`.`.`.`.`.`.`.'.oXoXoXoX`.`.`.`.'.oXoXoXoX'.'.'.`.D.D.S.S.j.T q.i.c.N.b.b.n.l $ % # + 1 }.wXqXqXqXqXqXqXqXqX0XS.i.i.d.c.c.c.b.b.Z.V.C.XX-X-X>X>XOXoXK.P.=X-X=X=X-X-X-X-X-X-X-X-X>X>X>X>X-X-X-X-X-X-X-X-X-X-X-X-X-X-X-X-X-X-X-X-X-X-X-X-X-X=X=X%X*X*X*X*X%X%X%X%XOXOXOXOXOX%X%X*X$X$X$X@X`._.^ 8 1 1 2 O.NX+.$ $ 2 j k.M.M.N.M.s.^ ^ T T r.l.N.N.N.N.b.b.N.V.N.b.V.V.V.S.S.S.S.S.S.S._._._.'.'.'.'.`._._.`._._.'.oXoX'.`.`.'.oXoXoXoXoX'.oXoXoXoXoXoXoXoXoXoXoXXXoX`.`.`.oX`.`.oXoXoXoXoXoXoXoXoXoXXXXX`.`.`.`.`.`.`.`.`.oXoX`.`.`.`.`.`.`.`.`.`.`.`.`.`.`.XXoXoXoX`.`.`.`.`.`.`.`.`.`.`.`.`.`.XX`.XXXXoXoX@X@X-X:X8X8X8X8X8X6X6X:X:X-X*XoXoX'.`.`.`.`.`.K.oXOX*X*XoXoXoXXXXXoXoXXXXXXXXX`.`.`.`.`.`.`.`.`.`.`.D.`.`.`.`.D.C.V.V.V.V.V.V.V.V.V.V.V.V.V.V.V.V.V.V.V.V.V.N.N.N.N.c.u.u.d.j.l.n.M.M.M.n.j.s.s.t.r.L h 2 - % # 8 P T s.l.l.l.!.l.f.f.s.s.p.t.r.m v n L M s.`.D.D.D.D.`.XX+X+X@X@X@XoXoXoXoXXXXXXXXXXX`.`.XX`.XXK.K.K.XXXXXXXXXXXXXXXXXXXXXXXXXXXXXXoXXXXXoXXXoXXXXXXX",
"N.N.N.N.N.b.V.`.'.+X+XoXoXoXoXoXXX`.`.`.'.`.oXoX`.oXoX`.`.`.`.`.oX`.`.`.`.`.`.`.`.`.`.`.`.XXoX`.'.oXoXoX`.`.`.`.oXoXoXoX'.'.'.`.`.`.`._.V.s.U T c.c.b.b.b.n.x $ % # . 1 0XqXqXqXqXqXqXqX8XqX'.i.i.i.c.c.c.b.V.Z.Z.D.K.OX-X>X>X=XOXOXXXK.=X-X-X>X-X-X-X-X;X=X=X=X-X-X;X-X-X-X-X-X-X-X-X-X-X-X-X-X-X-X-X-X-X-X-X-X-X-X-X-X-X-X=X=X*X*X*X*X*X*X*X*X%X%X*X%X*X*X*X*X-X-X-X@X+X_.P j 9 5 2 O.NX+.$ $ 2 j k.M.N.N.N.f.r.r.r.r.j.N.V.b.b.N.!.!.!.V.S.S.`.`.`.`.`.`.`.`.`.`.`.`.`.`.XX`.XXXXXX`.`.'.oX'.oXoX`.'.'.oXoXoXoXoXoXoXoXoXoXoX+X+X+XoXoXoXoXoXoX`.`.`.`.`.`.oXoXoXoX'.XXoX`.`.oXoX`.`.`.`.`.`.`.`.`.`.XXoX`.`.`.`.`.`.`.`.`.`.`.`.`.`.`.oXoXoXoX`.`.`.`.`.`.`.'.`.`.`.`.`.`.`.XXXXoXoXoX@X@X-X:X:X8X8X6X:X>X>X-X*XOXoXK.K.`.'.'.'.'.'.oXoXoXoXoXoXoXoXXX`.`.`.XXXX`.XX`.`.`.`.`.`.`.`.`.`.`.D.`.`.D.D.D.D.C.~.S.V.V.V.V.V.V.V.V.V.V.V.V.V.V.V.N.V.V.N.N.N.N.M.l.n.n.l.n.l.j.d.s.u.t.p.t.r.^ L h 2 - # # 5 C n U R R t.s.s.s.j.j.j.M.M.B.l.M.M.M.N.S.S.V.D.`.`.`.`.`.XXXXXXXXXXXXoXoXXXXXXXXXXXXXXXXXXXXXXXXXXXXXXXXXXXXXXXXXXXXXXXXXXXXXXXXXXXXXXXXXXXXXXXXXoX",
"b.b.b.b.b.b.N.b.V.D.`.`.XXXXXX`.XXXXoXoX'.`.`.oX`.oXoX`.`.`.`.`.`.oXoX`.'.'.'.'.'.'.'.oXoX`.`.oX'.'.oXoXoXoX`.`.oXoX'.`.'.'.`.`.`._._.S.n.s.q.r.m.c.b.b.b.j.x $ % # . 5 0XqXqXqXqXqXqXqXqXoXb.b.b.b.b.b.Z.Z.Z.K.OX>X:X:X:X6X6X:X%XK.K.K.=X-X=X=X-X-X>X>X;X;X:X:X>X>X:X:X>X>X>X-X>X>X-X=X-X-X-X-X-X-X-X-X-X-X-X*X=X%X%X%X%X%X%X%X%X%X%X%XOXOXOXOXOXOXOXOXOXOXOXOXOX*X*XOX+Xn.r.] h h , O.NXO.% $ < k k.N.N.N.N.j.r.r.r.p.B.N.N.!._.M.s.t.y.u.V.`.`.`.`.`.`.`.`.`.`.`.`.`.`.XXXXXXXXXXXXXX`.oXoX'.oXoXoXoX`.oXoXoX`.'.oXoXoXoXoXoX'.oX'.oXoXoXoXoXoX'.`.`.oX`.`.oXoX`.`.`.`.`.`.`.oXoXoX`.`.`.oX`.`.`.`.`.oXoX`.`.`.`.`.`.`.`.`.`.`.`.`.`.`.`.oXoXoX'.'.`.`.`.`.`.oX`.`.`.`.`.`.`.XXXXoXoXoX@XOX-X:X:X:X:X>X>X-X%XOXOXoXoXK.K.oXoXoXoX'.'.XXXX`.XX`.XX`.`.`.`.`.`.`.`.`.`.`.`.`.`.`.`.`.`.`.`.`.D.D.D.S.S.S.S.V.V.S.V.V.V.N.N.V.V.V.V.V.V.N.N.N.N.N.~.N.N.N.N.M.j.l.l.j.s.s.s.s.s.p.p.p.p.t.r.^ C 9 2 - # # 1 x x c c v ^ n.N._.`.`._._._.'.'.'.`.XX`.D.S.b.b.V.`.`.XXXXXXXXXXXXXXXXoXoXXXXXXXXXXXXXXXXXXXXXXXXXXXXXXXXXXXXXXXXXXXXXXXXXXXXXXXXXXXXXoXXXXXoXXXXXoX",
"V.V.V.V.V.V.V.V.`.`.`.oXXXXXXXXXoXoXoXoX`.D.D.`.`.oXoX`.`.'.`.`.oXoXoXoX'.'.'.'.oXoXoXoXoXoX`.`.`.'.oXoXoX'.`.`.oX'.`.`.`.`.`.`.`.S.N.N.l.f.T p.n.c.b.b.b.l.x $ % # . 9 0XqXqXqXqXqX8X8XOXZ.V.V.Z.V.Z.V.C.F.%X6X8XqXqX8X8X8X8X8X8X:X:X:X:X:X:X:X:X:X-X-X*X@XoXoX'.'.'.'.'.'.'.'.oXoX*X*X*X*X*X%X%X%X*X*X%X%X%X%XOX%XOXOX%XOXOXOXOXOXOXOXOXOXOXOXOXOXOXOXOXOXOXOXOXOXOXOXOXV.].p.C C @ O.NX .# $ 2 k k.N.N.N.M.u.r.r.r.s.N.N.!.k.T M M m u.N.`.`.D.`.`.`.`.`.`.`.`.`.`.`.'.'.'.'.'.'.'.'.`.XXXX`.oXoXoX'.`.`.oXXXoX'.`.`.`.`.`.'.`.`.`.`.`.`.`.`.oX'.`.`.oX`.`.oX`.`.`.`.`.`.`.`.oXoXoX`.`.`.oXoX`.`.`.`.XXXX`.`.`.`.`.`.`.`.`.`.`.`.`.`.`.`.oXoXoX'.`.`.`.`.`.`.`.`.`.`.`.`.`.`.`.`.XXoXoXOXOX-X>X<X-X-X*XOXOXOXoXoXoXoXK.K.XXoX`.`.`.`.`.D.D.`.`.D.`.`.`.`.`.`.`.`.`.`.`.`.`.`.`.`.`.`.`.`.D.D.S.S.S.S.S.S.V.V.V.V.V.V.N.N.V.V.V.V.V.V.N.N.N.N.N.N.n.c.c.j.d.u.s.s.s.s.s.s.s.p.p.p.p.p.t.r.^ z 9 2 - # # 1 B k x x c ^ _._.`.`.`.D.D.D.D.D.D.`.D.`.D.V.b.A.b.V.`.XX`.XXXXXXXXoXXXoXoXXXXXXXXXXXXXXXXXXXoXXXXXXXXXXXXXXXXXXXXXXXXXXXXXXXoXXXXXXXoXoXoXoXoXXXXXoX",
"`.`.`.`.`.`.`.`.oXoXoXoXoXoXoXoXoXoX`.`.`.`.`.`.`.`.oXoXoXoXoX'.`.`.oXoX'.'.'.'.oXoXoXoX`.`.`.`.`.`.`.`.oXoXoXoX'.'.'.'.`.`.`.S._.S.N.B.j.f.T u.m.b.m.m.b.n.x $ % #   h 0XqXqXqX8X8XqX*XV.D.D.D.C.V.D.D.F.-X8X8X8X8X8X8X8X8X8X8XqX8X8X-X*XOXD.V.b.i.u.t.q.T U T U U U U Y U U T m m q.t.j.N._.oX*X*XoXoXoXoXOXoXoXOXOXOXoXOXOXOXOXOXOXOXOXoXoXOXOXOXoXoXOXOXOXOX@X@XoXoXoX*X,Xj.E A @ +.bX{ $ $ < k f.M.N.N.s.r.^ T t.!.!.p.n v m t.M._.`.`.`.`.`.D.`.`.`.`.`.`.'.'.'.'.'.'.'.'.'.'.'.'.`.'.'.'.`.XXoXoX`.`.`.`.`.`.`.`.oXoXoXoXoXoXoXoXoXoX`.`.oXoXoXoX`.`.`.`.`.`.`.`.`.`.`.`.`.`.`.`.oXoXoXoX`.`.`.`.`.`.`.`.`.`.`.`.`.`.`.`.`.`.`.`.`.`.`.`.`.`.`.oXoX`.`.`.`.`.`.`.`.`.`.`.`.oXoXoXoXoXoX*X*X*XOXOXOXoXoXoXoXoXoXoX`.`.'.`.`.`.`.`.`.`.D.`.`.`.`.`.`.`.`.`.`.`.`.`.`.`.`.`.`.`.`.D.D.D.S.S.S.V.V.V.S.V.V.V.~.V.V.V.N.N.N.N.N.V.N.N.N.n.n.c.j.j.d.d.f.s.u.s.s.s.s.s.s.p.s.s.s.s.s.s.t.r.E l 9 2 ; # o 1 j k k x c T _._.D.D.D.D.D.D.D.D.D.D.D.D.D.S.m.c.d.c.N.`.`.XXoXoXXXoXXXXXXXXXXXXXXXXXXXXXXXXXoXXXXXXXD.K.XXoXoXoXoXXXXXoXXXXXXXXXXXXXXXXXoXoXoXoXoXoX",
"`.`.`.`.`.`.`.`.`.`.`.`.`.`.`.`.oX`.`.`.`.oXoXoX`.`.`.`.oXoX`.`.`.'.oXoXoXoX'.`.`.`.`.`.`.`.`.'.`.`.`.`.oXXXoXoX'.'.'.'.`.`.`.S.S._.N.c.c.k.T s.m.b.m.m.b.j.k ; % # . h 0XqXqXqX8X8X6XD.D.`.D.D.D.Z.D.D.=X8X8X8X8XqXqX8X8X8X8XqX6XOXD.m.p.T U m m P P P P n v L K v K K v n n P n Y Y m q.q.u.d.c.N.`.+XoXOX@XoXoXK.K.K.XXXXoXOXoXoXoXoXoXoXoXoXoXoXoXoXOXOXOXOX@X@XOXOX*X6X7XM.` V @ +.bXa # $ < k f.c.N.d.q.R R Y ^ Y v v r.n.].]._.`.`.`.`.`.`.`.`.`.`.`.`.`.`.`.`.`.`.`.`.`.`.`.`.`.`.`.'.'.`.`.`.`.`.`.`.`.`.`.`.`.oXoXoXoXXXXX`.`.`.`.`.`.`.`.`.XX`.`.`.`.`.`.`.`.`.`.`.`.`.`.`.`.XXXX`.`.`.`.`.`.`.`.`.`.`.`.`.`.`.`.`.`.`.`.`.`.`.`.`.`.`.`.`.`.oX`.`.`.oXoX`.`.`.`.`.`.`.oXoXoXoXoXoXoXoXoXoXoXoXoXXXXXoXoX`.`.`.`.oX'.`.`.`.`.oX`.`.`.`.`.`.`.`.`.`.`.`.`.`.`.`.`.`.`.`.`.`.D.D.D.S.S.S.V.V.V.N.N.N.N.N.N.N.N.N.N.N.N.M.M.n.l.l.l.j.j.s.s.s.s.s.s.s.s.s.p.p.p.s.s.s.s.s.s.s.s.t.r.E l 9 2 * # o 1 j x x x c q.].`.D.D.`.`.D.D.D.D.D.D.D.D.D.S.V.m.m.A.A.V.`.XXXXXXoXoXoXoXoXoXXXXXXXXXXXXXXXXXXXoXXXD.Z.Z.D.XXXXoXoXXXXXoXoXXXXXXXXXXXoXoXoXoXoXoXoXoX",
"`.`.`.`.`.`.`.`.`.`.`.`.`.`.`.`.oX`.`.`.`.`.XXoX`.`.`.'.`.`.`.`.`.`.oXoXoXoXoX'.`.`.`.`.`.`.oXoXoXXX`.`.`.`.`.`.'.'.'.`.`.`.`.D.S._.G.c.j.k.T s.m.c.b.m.b.j.k $ % # . j 0XqX8X8X8X8X*XZ.D.oXoXoXK.C.D.K.8X8X8X8X8X8X8X8X8X8XqX8X%XD.m.q.P P K v v v v n n P U Y R ^ r.p.p.f.f.j.n.n.n.n.l.l.j.j.i.i.d.A.b.V.~.`.'.'.oXoXoXoXXXXXXXXX`.`.`.XXXX`.`.`.XXXXoXoXXXXX'.`.XX-X8X8X<X_.^ 9 @ O.bXa # @ < x p.c.n.t.T E P c g c ^ ).].`.`.`.`.`.`.`.`.`.`.`.`.`.`.`.`.`.`.`.`.`.`.`.`.`.`.`.`.`.`.`.`.`.`.`.`.`.`.`.`.`.`.`.`.`.`.`.`.`.`.`.`.`.`.`.`.`.`.`.`.`.`.`.`.`.`.`.`.`.`.`.`.`.`.`.`.`.`.`.`.`.`.`.`.`.`.`.`.`.`.`.`.`.`.`.`.`.`.`.`.`.`.`.`.`.`.`.`.`.oX`.`.`.`.`.`.`.`.`.`.`.`.`.oXoXXXoXoX`.oXoXoXXX`.XXXX`.XXoXoXoX`.`.`.`.`.`.`.`.`.`.XX`.`.`.`.`.`.`.`.`.`.`.`.`.`.`.`.`.`.`.`.D.D.D.S.S.S.V.V.V.V.N.N.N.N.N.N.N.M.M.n.c.d.s.s.s.s.s.s.s.p.p.p.s.s.s.s.s.s.s.s.s.s.s.s.s.s.s.s.s.p.r.E l 9 < * # o < j x x x c r.*XoX`.`.`.`.`.D.D.D.D.D.D.D.S.`.`.N.N.N.c.c.V.XXXXXXXXoXoXoXoXoXXXXXXXXXXXXXXXXXXXXXXXK.K.D.C.C.K.XXXXXXXXoXoXXXXXXXXXXXXXoXoXoXoXoXoXoX",
"`.`.`.`.`.`.`.`.oXoXoXoXoXoXoX`.oX`.`.`.'.oXoXoX`.`.`.oX`.`.`.`.`.oXoXoXoXoXoXoXoXXX'.'.oX'.oXoXoXXXXX`.`.`.`.`.'.'.'.`.`.`.`.D.S._.N.B.j.k.T u.m.c.c.b.b.l.x $ % # . B 0XqX8XqX8X8XoXC.D.@XOXOXK.D.C.=XqX8X8X8XqXqXqXqXqX8XqX>XXXV.t.e.q.q.q.r.t.p.s.d.n.M.N.V._._._._.S.S.V.Z.b.N.b.N.m.c.B.B.M.c.j.i.d.u.u.u.s.j.c.N.S.S.`.'.oXoX`.`.`.`.`.`.`.D.D.D.S.S.V.V.V.V.V.-X8X8X7X].^ 6 @ O.nXs @ $ < l p.n.s.r.R E P Y r.M.'.`.D.D.`.`.`.`.`.`.`.`.`.`.`.`.`.`.`.`.`.`.`.`.`.`.`.`.`.`.`.`.`.`.`.`.`.`.oXXX`.`.`.`.`.`.`.`.`.`.`.`.`.`.`.`.`.`.`.`.`.`.`.`.`.`.`.`.`.`.`.`.`.`.`.`.`.`.`.`.`.`.`.`.`.`.`.`.`.`.`.`.`.`.`.`.`.`.`.`.`.`.`.`.`.`.`.`.`.`.`.`.oX`.`.`.`.`.`.`.`.`.`.`.`.`.`.XXD.`.'.`.`.`.`.`.`.XX`.`.`.`.`.`.`.`.`.`.`.`.`.`.`.`.`.`.`.`.`.`.`.`.`.`.`.`.`.`.`.`.`.`.`.`.`.`.D.D.S.S.S.V.V.V.V.V.N.N.N.N.N.M.M.M.n.n.j.j.d.d.d.d.j.l.j.j.j.j.j.j.d.d.d.d.d.s.s.s.s.s.s.s.s.s.p.r.Y l 9 2 * # o < j x x x c t.,X*X`.`.`.`.`.D.D.D.D.D.D.S.S.`.`.`.V.N.N.c.b.D.XXXXXXXXXXXXXXXXXXXXXXXXXXXXXXXXXXXXXXoXXXK.D.D.K.XXXXXXXXXXXXXXXXXXXXXXXXXXXXoXoXoXoXoX",
"XXXX`.`.`.'.`.`.`.`.oXoXoXoX`.`.oX'.`.`.`.`.`.`.`.XXXX`.`.'.'.'.`.oXoX`.XXoXoXoXXX`.`.`.oXoXoXoXoXoX`.`.`.`.`.`.'.'.'.`.`.`.`.D.`.D.S.n.j.k.T p.c.c.c.b.b.l.x ; % # X j 0XqXqX8XqXqXoXC.`.@X*XoXK.J.F.:XqXqXqXqXqXqXqXqX8XqX8X:X%XOXXXoX+X].+X+X].'.'.'.'.`.`.`.D.D.D.S.V.V.V.b.c.i.u.u.i.u.u.u.u.u.u.u.s.u.t.t.t.t.t.y.y.y.u.u.c.b.V.S.S.S.S.S.S.V.N.N.N.N.N.N.N.S.S.<X8X8X<X_.E 6 @ O.nXi # @ < j p.l.t.R T Y E E f._.D.`.D.`.`.`.`.`.`.`.`.`.`.`.`.`.`.`.`.`.`.`.`.`.`.`.`.`.`.`.`.`.`.`.`.`.`.`.`.`.`.`.`.`.XX`.`.XX`.`.`.`.`.`.`.`.`.`.`.`.`.`.`.`.`.`.`.`.`.oX`.`.`.`.`.`.`.`.`.`.`.`.`.`.`.`.`.`.`.`.`.`.`.`.`.`.`.`.`.`.`.`.`.`.`.`.`.`.`.`.`.`.`.`.`.`.`.`.`.`.`.`.`.`.`.`.`.`.`.`.`.`.`.`.`.`.`.`.`.`.`.`.`.`.`.`.`.`.XX`.`.`.`.`.`.`.`.`.`.`.`.`.`.XX`.`.`.`.`.`.`.`.`.`.`._.S.S._._._._._.S.S.S.S.V.V.V.V.V.~.~.~.~.N.N.N.N.N.N.N.N.n.n.n.!.n.l.n.n.l.j.j.f.s.s.s.s.p.r.r.t.p.p.Y l h 2 * # o < j x x x c s.6X*XoXD.`.D.D.D.D.D.D.`.D.D.D.D.D.`.D.V.b.b.Z.V.XXXXXXXXXXXXXXXXXXXXXXXXoXoXXXXXXXXXXXXXXXXXXXXX`.XXXXXXXXXXXXXXXXXXXXXXXXXXXXXXXXXXXXXX",
"XXXX'.'.'.'.XXXX`.`.oX`.oXoX`.`.oXoX`.`.`.`.`.`.`.`.`.`.`.'.'.'.`.oXoX`.oX`.XXoX`.`.`.`.`.`.oXoX`.`.`.`.oXoX`.'.'.'.'.`.`.`.`.D.D.D.S.n.j.k.r.p.c.c.b.b.b.l.k ; # # X j 0XqXqX8X6X*XD.C.XX*X*XOXK.J.J.8XqXqXqXqXqXqX8X8X8XqX8X8X:X:X:X:X<X>X-X-X-X-X-X-X*XoXoXoX`.`.oX`.`.`.`.`.`.`.`._.~.N.b.c.c.i.i.i.i.i.d.d.j.j.j.d.c.c.c.A.c.c.b.b.V.V.V.V.V.V.b.c.c.c.c.c.c.c.b.<X8X8X<X!.Y 9 # O.vXi # @ 2 j r.t.r.R R Y E Y t.S.D.`.`.`.`.`.`.`.`.`.`.`.`.`.`.`.`.`.`.`.`.`.`.`.`.`.`.`.`.`.`.`.`.`.`.`.`.`.`.`.`.`.`.`.XX`.`.XX`.`.`.`.`.`.`.`.`.`.`.`.`.`.`.`.`.`.`.`.`.oX`.`.`.`.`.`.`.`.`.`.`.`.`.`.`.`.`.`.`.`.`.`.`.`.`.`.`.`.`.`.`.`.`.`.`.`.`.`.`.`.`.`.`.`.`.`.`.`.`.`.`.`.`.`.`.`.`.`.`.`.`.`.`.`.`.`.`.`.`.`.`.`.`.`.`.`.`.`.`.`.`.`.`.`.`.`.`.`.`.`.`.`.`.`.`.`.XXXX`.`.`.`.`.D.b.A.c.c.n.n.c.n.M.N.m.N.V.~._._._._.V.V.V.V.V.V.V.V.V.V.V.m.m.n.d.t.t.t.r.r.R R R R R R E P P n n Y r.r.Y l h 2 * # o < x x x x c s.6X>XoXD.`.`.`.D.`.`.`.`.`.`.`.D.D.D.D.D.`.`.`.XXXXXXXXXXXXXXXXXXXXXXXXXXoXXXXXXXXXXXXXXXXXXXXXXX`.`.`.XXXXXXXXXXXXXXXXXXXXXXXXXXXXXXXXXX",
"XX`.`.`.'.oXoXXX`.`.`.`.oX'.`.`.`.`.`.`.`.`.oXoXoXoX`.`.`.'.'.'.`.oX'.`.`.`.`.oX'.'.`.`.`.`.`.`.`.`.`.`.oXoXoX'.'.'.'.`.`.`.`.D.D.D.S.M.j.f.r.p.c.c.c.b.b.l.k $ % # o h 0XqXqX8X-XD.D.C.K.OXOXOXK.L.L.8XqX8X8XqX8X8X8X8X8X8X8X8X8X8X8X8X8X8X8X8X8X8X8X2X:X>X-X-X*X%XOXoXoXXXoXXXXX`.`.oX+XoXoXoX'.`.oXoX`.`.`.`.`.`.'.'.`.`.`.`.'.`.`.`.`.`.`.`.`.`._.S._.V.N.N.N.b.S.6X8X6X,Xl.P h # O.vXi # @ 2 j p.t.q.R Y Y Y Y j.S.`.`.`.`.`.`.`.`.`.`.`.`.`.`.`.`.`.`.`.`.`.`.`.`.`.`.`.`.`.`.`.`.`.`.`.`.`.`.`.`.`.`.`.`.`.`.`.XX`.`.`.`.`.`.`.`.`.`.`.`.`.`.`.`.`.`.`.`.`.oXXX`.`.`.`.`.`.`.`.`.`.`.`.`.`.`.`.`.`.`.`.`.`.`.`.`.`.`.`.`.`.`.`.`.`.`.`.`.`.`.`.`.`.`.`.`.`.`.`.`.`.`.`.`.`.`.`.`.`.`.`.`.`.`.`.`.`.`.`.`.`.`.`.`.`.`.`.`.`.`.`.`.`.`.`.`.`.`.`.`.`.`.`.`.`.`.XXXX`.`.`.`.D.D.V.b.c.j.j.d.d.i.i.i.d.d.c.c.c.N.N.~._._._._._._._._.~.~.V.b.b.N.d.q.m m m P n v v n v K C z z z z P r.r.Y l h 2 * # o 1 l z x z c s.6X<XoX`.`.`.`.`.`.`.`.`.`.`.`.`.D.D.D.`.`.XXXXXXXXXXXXXXXXXXXXXXXXXXXXXXXXXXXXXXXXXXXXXXXXXXXXXX`.`.XXXXXXXXXXXXXXXXXXXXXXXXXXXXXXXXXXXX",
"XXXX`.`.'.oXXXXX`.'.`.`.XX`.`.`.`.`.`.`.`.'.'.oXoXoX`.`.`.'.'.'.`.`.'.`.`.`.oX`.`.'.'.`.`.D.D.D.`.`.`.`.oXoX`.`.'.'.'.'.`.`.`.D.`.D.S.N.j.s.r.p.c.c.c.c.c.d.k $ % # o h 0XqXqX8X-XD.XXoX-X>X>X>X:X:X8X8X8X8X8X8X8X8X8X8X8X8X8X8X8X8X8X2X6X6X6X:X:X:X:X:X:X:X:X;X:X>X-X-X-X*X%XoXXXXXD.`.XXXXXXXXXXXXXXXXK.XXXXXXD.`.XXoXXXXXK.XX`.`.`.XX`.`.`.`.`.`.`.`.'.`.`.`.'.'.,X6X6X6X,Xf.Y N # O.vXi # ; 2 j p.t.r.R Y E Y T l.S.`.`.`.`.`.`.`.`.`.`.`.`.`.`.`.`.`.`.`.`.`.`.`.`.`.`.`.`.`.`.`.`.`.`.`.`.`.`.`.`.`.`.`.`.`.`.`.XX`.`.`.`.`.`.`.`.`.`.`.`.`.`.`.`.`.`.`.`.`.XX`.`.`.`.`.`.`.`.`.`.`.`.`.`.`.`.`.`.`.`.`.`.`.`.`.`.`.`.`.`.`.`.`.`.`.`.`.`.`.`.`.`.`.`.`.`.`.`.`.`.`.`.`.`.`.`.`.`.`.`.`.`.`.`.`.`.`.`.`.`.`.`.`.`.`.`.`.`.`.`.`.`.`.`.`.`.`.`.`.`.`.`.`.`.`.`.`.`.`.`.`.`.D.`.`.`.`.S._.S.S.S.S.N.G.N.B.c.c.i.u.u.t.p.s.s.j.j.l.M.!.N.~._.G.N.N.!.n.u.r.Y P n n n L L C z C l z P r.p.E l h 2 * # o 1 l z z z v s.6X<X+XXX`.`.`.D.D.D.D.D.`.D.D.`.D.D.D.D.D.K.XXXX`.`.`.`.`.`.`.`.`.`.XX`.XXXX`.XXXXXXXXXXXX`.XXXXXXXXXXXXXXXXXXXXXXXXXXXXXXXXXXXXXXXXXXXX",
"`.`.'.oX`.`.`.`.oXoXoX`.`.`.`.oXoXoXoX`.oXoXoX`.`.`.`.`.oX'.`.'.XX`.`.`.`.`.oXoX'.'.'.'.'.`.`.'.'.XXoXoX`.`.`.`.`.`.`.`.`.`.D.D.D.D.S.b.c.s.r.p.c.A.c.c.c.d.h ; % # & 9 0X8XqX8X>X`.oX-X:X:X:X6X6X6X8X8X8X8X8X8X8X8X8X8XqX8X8X8X:X:X:X:X:X:X:X;X;X;X;X;X;X;X;X;X;X;X:X>X=X-X>X-XOXXXXXXX`.`.XXXX`.`.`.XXXXXXXXXXXX`.`.`.XXXXXX`.D.`.`.`.`.`.`.`.`.`.`.`.`.D.D.`.`.D.>X6X6X7X,Xu.I N . O.nXi # $ 2 l r.t.q.Y Y E E T j._.`.`.`.`.`.`.`.`.`.`.`.`.`.`.`.`.`.`.`.`.`.`.`.`.`.`.`.`.`.`.`.`.`.`.`.`.`.`.`.`.`.`.`.`.`.`.`.`.`.`.`.XX`.`.`.`.`.`.`.`.`.`.`.`.`.`.`.`.`.`.`.`.`.`.`.`.`.`.`.`.`.`.`.`.XX`.`.`.`.oX`.`.`.`.`.`.`.`.`.`.`.`.`.`.`.`.`.`.`.`.`.`.`.`.`.`.`.`.`.`.`.`.`.`.`.`.`.`.`.`.`.`.`.`.`.`.`.`.`.`.`.`.`.`.`.`.`.`.`.`.`.`.`.`.`.`.`.`.`.`.`.`.`.`.`.`.`.`.`.`.`.`.`.`.`.`.`.`.`.`.`.`.`.`.`.`.`.`._._.N.c.u.q.m P n Y T T R r.p.l.M.N.N.V.!.N.n.n.s.s.s.t.r.r.q.T Y T R ^ p.p.E l h 2 ; # o < C v v z v s.6X<X*XoX`.D.D.`.D.D.D.D.D.D.D.D.`.D.D.D.D.D.`.`.XXXXXXXXD.D.D.D.D.D.D.`.XXXX`.XXXXXX`.XX`.`.`.`.XXXXXXXXXXXXXXXXXXXXXXXXXXXXXXoXXXXXoXoX",
"`.`.`.oXXX`.`.`.oXoXoX`.`.`.`.oXoXXXoX`.oXoX'.`.`.`.oXoXoXoX`.`.oX`.`.`.`.`.oXoX'.'.'.'.'.'.'.`.`.oXoXoX`.`.`.'.`.`.`.`.'.'.`.`.D.`.`.N.c.f.q.r.j.d.c.c.c.d.h ; % # & 6 0X8XqX8X-XD.K.=X:X:X:X:X:X:X8X8X8X8X8X8X8X8X8X8X8X6X:X:X>X>X>X>X;X;X;X;X;X;X;X;X;X;X;X;X-X-X>X-X=X-X>X-XOXXXXX`.`.`.`.`.`.`.XX`.XXXX`.`.XX`.`.`.XX`.XXXX`.`.`.`.`.`.`.`.`.`.`.`.`.`.`.`.`.D.<X6X6X>X7Xp.I h . O.nXi # @ < l p.t.r.T Y Y Y m u._.`.`.`.`.`.`.`.`.`.`.`.`.`.`.`.`.`.`.`.`.`.`.`.`.`.`.`.`.`.`.`.`.`.`.`.`.`.`.`.`.`.`.`.`.`.`.`.`.`.`.`.XX`.`.`.`.`.`.`.`.`.`.`.`.`.`.`.`.`.`.`.`.`.`.`.`.`.`.`.`.`.`.`.`.`.`.`.`.`.`.`.`.`.`.`.`.`.`.`.`.`.`.`.`.`.`.`.`.`.`.`.`.`.`.`.`.`.`.`.`.`.`.`.`.`.`.`.`.`.`.`.`.`.`.`.`.`.`.`.`.`.`.`.`.`.`.`.`.`.`.`.`.`.`.`.`.`.`.`.`.`.`.`.`.`.`.`.`.`.`.`.`.`.`.`.`.`.`.`.`.`.`.`.`.`.`.`.`.D.D.'.`.`._.N.f.r.T U U E E Y Y ^ r.p.l.M.M.M.M.n.n.n.l.d.d.d.u.u.d.d.j.A.d.R x h 2 - # o 1 K v v v v s.6X<X*XoXoX`.`.oXK.oXoXoXoXoXoXoXoX`.D.D.D.D.D.D.XXXXXXXXD.D.D.D.D.Z.b.V.`.`.K.K.XXXX`.XXXXXXXXXXXXXXXXXXXXXXXXXXXXXXXXXXXXXXXXXXXXXXoXoX",
"`.`.oXoXXXXX`.`.oXoX`.`.`.`.XXoXoX`.'.`.oXoX`.`.`.`.'.oX`.`.`.`.oX`.`.`.`.XX`.oX'.'.'.`.'.'.'.'.`.`.`.`.`.`.oXoX`.`.`.`.'.'.'.'.'.'.`.V.c.f.r.q.j.i.c.c.c.d.h ; ; # & 5 7X8X8X8X*XD.K.=X:X:X:X:X:X:X8X8X8X8X8X8X6X6X:X:X>X>X-X-X-X-X;X;X;X;X;X-X-X-X-X-X-X-X-X-X-X-X-X-X=X-X-X%XOXXXXX`.`.`.`.`.`.`.`.`.XXXX`.`.`.`.`.XX`.`.`.`.`.`.`.`.`.`.`.`.`.`.`.`.`.`.`.`.`.`.<X6X6X>X,Xp.E h . O.nXi # @ < l p.s.t.^ Y Y Y T d.`.`.`.`.`.`.`.`.`.`.`.`.`.`.`.`.`.`.`.`.`.`.`.`.`.`.`.`.`.`.`.`.`.`.`.`.`.`.`.`.`.`.`.`.`.`.`.`.`.`.`.`.XX`.`.`.`.`.`.`.`.`.`.`.`.`.`.`.`.`.`.`.`.`.`.`.`.`.`.`.`.`.`.`.`.`.`.`.`.`.`.`.`.`.`.`.`.`.`.`.`.`.`.`.`.`.`.`.`.`.`.`.`.`.`.`.`.`.`.`.`.`.`.`.`.`.`.`.`.`.`.`.`.`.`.`.`.`.`.`.`.`.`.`.`.`.`.`.`.`.`.`.`.`.`.`.`.`.`.`.`.`.`.`.`.`.`.`.`.`.`.`.`.`.`.`.`.`.`.`.`.`.`.`.`.`.`.`.`.K.K.XXK.K.`.`.`._.N.f.t.T U U Y Y P Y Y T r.t.p.s.s.s.s.p.p.t.t.s.t.t.t.y.r.U x h 2 * * # 1 K P v v v u.6X<X*XoXoX'.oXoXXXoXOXoXoXoXoXoXoXoX`.D.D.D.D.D.D.D.D.D.D.D.D.D.D.V.c.u.d.~.D.K.XXXXXX`.XXXX`.`.XXXXXXXXXXXXXXXXXXXXXXXXXXXX`.`.XXXXXXXX",
"`.`.oXoXoXoX`.`.`.'.`.`.`.`.oXoXoX'.`.`.oXXX`.`.`.`.`.`.`.`.`.`.oXXX`.`.`.`.'.oX'.'.`.'.'.'.'.'.`.`.`.`.'.oXoXoXoXoXoXoX'.'.'.`.`.`.`.V.c.f.r.m u.u.i.j.c.d.f ; % # & 5 7X8X6X8X*XD.D.=X:X:X:X:X:X:X6X8X8X:X:X:X:X:X:X:X:X;X;X;X;X;X;X;X;X;X;X;X;X;X;X;X-X-X;X-X-X-X-X=X=X=X=XL.XXXXXX`.`.`.`.`.`.XXXX`.XXXXXXXX`.`.`.XX`.`.`.`.`.`.`.`.D.D.D.D.`.`.`.`.`.`.`.`.`.`.7X6X<X<X,Xt.E N . O.nXy # @ < l p.s.s.p.^ Y r.s.N.`.`.`.`.`.`.`.`.`.`.`.`.`.`.`.`.`.`.`.`.`.`.`.`.`.`.`.`.`.`.`.`.`.`.`.`.`.`.`.`.`.`.`.`.`.`.`.`.`.`.`.`.XX`.`.`.`.`.`.`.`.`.`.`.`.`.`.`.`.`.`.`.`.`.`.`.`.`.`.`.`.`.`.`.`.`.XXXX`.`.`.`.`.`.`.`.`.`.`.`.`.`.`.`.`.`.`.`.`.`.`.`.`.`.`.`.`.`.`.`.`.`.`.`.`.`.`.`.`.`.`.`.`.`.`.`.`.`.`.`.`.`.`.`.`.`.`.`.`.`.`.`.`.`.`.`.`.`.`.`.`.`.`.`.`.`.`.`.`.`.`.`.`.`.`.`.`.`.`.`.`.`.`.`.`.`.`.`.`.`.`.`.`.`.`.`.`.`.`.'.D.S.B.u.r.T U U U P P P P P L L n L z K z z z z z l z z x h 1 * * # 3 P P v v M u.6X<X*XoXoX`.`.oXoXoXOXOXoXoXoXoXoXoXD.D.D.D.D.D.D.D.D.D.D.D.D.D.D._.j.T U u.!.`.oXXXXXXXD.D.D.`.`.XXXXXXXXXX`.XX`.`.XXXXXXXX`.D.`.`.XXXX",
"`.`.`.`.'.'.'.'.'.oXoX`.oXoXoXoX`.`.`.'.oXoX`.`.`.`.`.`.`.oXoXoX'.'.'.'.'.'.'.'.`.`.oXoXoXoX`.`.`.'.`.`.`.'.`.oX`.`.oXoX'.'.'.'.`.`.`.S.n.f.r.m t.t.u.i.A.s.h ; - # o 5 ,X8X6X8X>XC.D.%X>X:X:X:X:X:X8X8X:X:X:X:X:X:X:X:X:X;X;X;X;X;X;X;X;X;X;X;X-X-X-X-X;X;X;X;X>X-X=X>X-X-XOXOXOXXXXXD.XX`.`.`.D.XXK.`.`.`.`.`.`.`.`.`.`.`.D.`.`.`.`.`.D.D.D.D.D.D.D.D.D.D.D.D.`.D.<X6X<X<X,Xr.I h   O.nXy # @ < l p.d.s.s.r.q.d.j.b.S.`.`.D.D.`.`.`.`.`.`.`.`.`.`.`.`.`.`.`.`.`.`.`.`.`.`.`.`.`.`.`.`.`.`.`.`.`.`.`.`.`.`.`.`.XX`.`.`.`.`.`.`.`.`.`.`.`.`.`.`.`.`.`.`.`.`.`.`.`.`.`.`.`.`.`.`.`.`.`.`.`.`.`.`.`.`.`.`.`.`.`.`.`.`.`.`.`.`.`.`.`.`.`.`.`.`.`.`.`.`.`.`.`.`.`.`.`.`.`.`.`.`.`.`.`.`.`.`.`.`.`.`.`.`.`.`.`.`.`.`.`.`.`.`.`.`.`.`.`.`.`.`.`.`.`.`.`.`.`.`.`.`.`.`.`.`.`.`.`.`.`.`.`.`.`.`.`.`.`.`.`.`.`.`.`.`.`.`.`.`.`.`.`.`.`.`.`.`.`.`.`.`.`.S.!.s.q.m U P P P L n z z C z l k k h h h h h j j 6 2 - * o 3 P U v v M u.6X<X*XoX'.`.`.oXoXoXoXOXOXOXOXOXoXXXD.D.`.`.`.`.D.D.D.D.D.`.`.D.D.D.n.T L P U t.j.`.`.`.D.D.D.XXXX`.`.`.`.`.`.`.`.`.`.`.`.`.`.`.D.D.`.XX",
"`.`.'.'.'.'.'.'.`.oX`.`.'.'.'.'.`.`.`.`.oXoX`.`.`.`.`.`.`.XXoXoX'.'.'.'.'.'.'.'.`.`.XX`.oXoX`.`.`.oXoX`.`.oXXX`.`.oXoXoX'.'.'.'.`.`.`.S.M.j.r.m r.t.u.i.A.u.f ; - * o 5 ,X8X6X6X-XC.D.%X:X:X:X:X:X:X8X8X:X:X:X:X:X:X;X;X;X;X;X;X;X;X;X;X-X-X-X-X-X-X-X-X-X-X-X-X=X-XoXi.t.p.s.s.j.M._.].XXXXXXXX`.`.`.XXXXXXXX`.XXXXXXXXD.D.D.D.D.D.D.D.D.`.D.D.D.D.D.D.D.D.D.D.S.D.<X7X<X<X,Xr.I h   O.vXy # @ < l p.d.d.f.r.t.d.j.c._.`.`.D.`.`.`.`.`.`.`.`.`.`.`.`.`.`.`.`.`.`.`.`.`.`.`.`.`.`.`.`.`.`.`.`.`.`.`.`.`.`.`.`.`.oXoX`.`.`.`.`.`.`.`.`.`.`.`.`.`.`.`.`.`.`.`.`.`.`.`.`.`.`.`.`.`.`.`.`.`.`.`.`.`.`.`.`.`.`.`.`.`.`.`.`.`.`.`.`.`.`.`.`.`.`.`.`.`.`.`.`.`.`.`.`.`.`.`.`.`.`.`.`.`.`.`.`.`.`.`.`.`.`.`.`.`.`.`.`.`.`.`.`.`.`.`.`.`.`.`.`.`.`.`.`.`.`.`.`.`.`.`.`.`.`.`.`.`.`.`.`.`.`.`.`.`.`.`.`.`.`.`.`.D.`.`.`.`.`.`.`.`.`.`.`.`.`.`.`.`.`.`.D.D.`.`._.M.l.p.r.Y P Y Y I E E I z k f f f 9 6 j j 6 1 ; * # 3 P U n v n u.6X:X*XoXoX`.'.oXoXoXoXOXoXOXoXoXXXD.D.D.`.`.`.`.D.D.`.`.D.D.K.K.D.V.j.^ v x g g r._.S.S.C.`._._._._.S.`.S.`.`.D.`.`.`.`.`.`.`.`.`.`.`.XX",
"'.'.'.'.'.'.'.'.`.`.`.`.`.'.`.`.`.`.XXXXoX`.`.`.oXoX`.`.`.`.oXoX'.'.'.'.'.'.'.'.`.`.`.`.oXoX`.`.`.oXoX`.`.`.`.`.'.`.`.`.'.'.'.'.D.D.`.S.M.f.t.T r.q.t.u.d.u.6 $ * * o 5 }.8X6X6X-XC.C.OX>X:X:X:X:X:X8X8X:X:X:X:X:X;X;X;X;X;X;X;X;X;X;X;X;X-X;X;X;X;X-X-X-X-X-X-X=X;X*XN.r.M M n m m y.d.c.m.m.c.c.m.N.N.N.N.N.V.V.V._.`.`.`.`.`.S.D.D.`._._._._.`.`.`.`.`.D.S.S._.S.<X<X<X<X,Xr.I h   O.vXy # # < l p.j.j.f.r.s.j.j.c.N._.`.`.`.`.`.`.`.`.`.`.`.`.`.`.`.`.`.`.`.`.`.`.`.`.`.`.`.`.`.`.`.`.`.`.`.`.`.`.`.`.`.`.`.`.`.oXoX`.`.`.`.`.`.`.`.`.`.`.`.`.`.`.`.`.`.`.`.`.`.`.`.`.`.`.`.`.`.`.`.`.`.`.`.`.`.`.`.`.`.`.`.`.`.`.`.`.`.`.`.`.`.`.`.`.`.`.`.`.`.`.`.`.`.`.`.`.`.`.`.`.`.`.`.`.`.`.`.`.`.`.`.`.`.`.`.`.`.`.`.`.`.`.`.`.`.`.`.`.`.`.`.`.`.`.`.`.`.`.`.`.`.`.`.`.`.`.`.`.`.`.`.`.`.`.`.`.`.`.`.`.`.`.`.`.`.`.`.`.`.`.`.`.`.`.`.`.`.`.`.D.D.D.D.D.D.D.D.S.N.l.r.^ ^ ^ ^ R R E Y L z f f 6 6 h j 6 1 ; * # 5 U U P P n u.6X:X*XoX`.`.`.XXoXoXoXoXoX@XoXoXD.D.D.XX`.`.`.`.`.`.`.`.`.'.oX`.D.N.s.Y c c U k.!.V.b.m.n.l.p.r.p.l.N.N.V.N.N.V.V.Z.V.D.`.`.`.`.XX`.XXXX",
"'.'.'.'.'.'.'.'.`.`.`.`.`.`.`.`.`.`.'.'.'.`.`.`.oXoX`.`.`.'.oXoX'.'.'.'.'.'.'.'.`.`.`.`.'.'.`.`.`.oXoX`.`.`.`.`.oXoX`.`.'.'.'.'.D.D.`.S.M.u.p.r.q.q.t.u.i.p.6 $ - * o 5 }.8X6X6X%XC.C.OX>X:X:X:X:X:X8X6X:X-X:X;X-X-X-X-X;X;X;X;X;X;X;X;X;X;X;X;X-X;X;X;X-X-X-X-X=X;X;X-X*XoXb.t.q.q.T q.r.r.y.t.u.y.y.u.t.t.t.t.u.u.u.u.u.u.u.i.i.i.d.j.c.c.c.c.c.c.c.c.b.b.N.S.V.V.+X<X<X,X,X^ I h   O.vXy # # < l p.l.j.u.p.j.f.l.n.j.c._.`.`.`.`.`.`.`.`.`.`.`.`.`.`.`.`.`.`.`.`.`.`.`.`.`.`.`.`.`.`.`.`.`.`.`.`.`.`.`.`.`.`.`.`.`.oX`.`.`.`.`.`.`.`.`.`.`.`.`.`.`.`.`.`.`.`.`.`.`.`.`.`.`.`.`.`.`.`.`.`.`.`.`.`.`.`.`.`.`.`.`.`.`.`.`.`.`.`.`.`.`.`.`.`.`.`.`.`.`.`.`.`.`.`.`.`.`.`.`.`.`.`.`.`.`.`.`.`.`.`.`.`.`.`.`.`.`.`.`.`.`.`.`.`.`.`.`.`.`.`.`.`.`.`.`.`.`.`.`.`.`.`.`.`.`.`.`.`.`.`.`.`.`.`.`.`.`.`.`.`.`.`.`.`.`.`.`.`.`.`.`.`.`.`.`.`.`.`.D.D.D.D.D.D.`.D.S.c.p.r.r.r.^ ^ R Y n n Y E E v j h h h 6 1 - * # 5 U U P P n u.6X6X*XoXoXoXoXoXoXoXoXoXoXoXXXXXXXD.D.D.`.`.XX`.`.`.`.S.n.u.i.n.S.c.q.T f.[.]._.!.!.M.k.^ n n n U p.j.c.b.b.N.V.C.C.D.`.`.D.`.`.XXXXXXXX",
"'.'.'.'.'.'.'.'.`.`.`.'.'.'.`.`.`.`.`.`.'.'.'.'.'.'.`.`.`.`.`.oX'.'.'.'.`.`.`.`.'.'.'.'.D.D.'.'.`.`.oXoXoXoXoXoX'.`.`.`.D.D.`.`.`.D.`.`.N.d.p.r.T T t.u.i.t.6 @ % o # 1 }.8X6X:X%XC.C.OX:X:X:X:X:X:X6X:X:X;X;X-X;X;X;X;X;X;X;X;X;X;X;X;X-X-X-X-X-X;X;X;X;X;X;X;X-X-X-X=X=X=X%XOXV.c.d.s.u.u.s.l.j.n.M.M.!.!.!.!.N.N.n.c.c.c.d.d.s.u.u.u.u.u.i.i.d.d.j.c.A.i.b.N.V.V.`.*X&X-X,XT I 9   O.xXi # % < l p.j.j.t.R E Y ^ f.l.l.c.D.'.`.`.`.`.`.`.`.`.`.`.`.`.'.'.'.`.`.`.`.`.`.`.`.`.'.`.`.`.`.`.`.`.`.`.`.`.`.`.'.'.`.`.'.`.`.`.`.`.`.`.`.`.`.`.`.`.`.`.`.`.`.`.`.`.`.`.`.`.`.`.`.`.`.`.`.`.`.`.`.`.`.`.`.`.`.`.`.`.`.`.`.`.`.`.`.`.`.`.`.`.`.`.`.`.`.`.`.`.`.`.D.`.`.`.`.`.`.`.`.`.`.`.`.`.`.`.`.`.`.`.`.`.`.`.`.`.`.`.`.`.`.`.`.`.`.`.`.`.`.`.`.`.D.D.`.`.`.`.`.`.`.`.`.`.`.`.`.`.`.`.`.`.`.`.`.`.`.`.`.D.`.`.`.`.`.`.`.`.`.`.`.`.`.`.`.`.`.`.`.`.`.`.`.`.V.j.p.r.q.T Y Y ^ r.p.l.l.M.N.!.g.z k h 6 1 ; * * 5 E U U n n u.6X7X*XoXoXoXoXoXoXoXoXXXXXXXXX`.`.`.`.`.`.`.`.D.D.`.j.T v z z n T ^ n Y R E U P P P v z x z r.l.M.N.G.S.`.`.`.`.oXoXXX`.`.`.`.`.`.XXoXoX",
"'.'.`.`.'.'.'.'.`.`.'.'.'.'.`.`.`.`.`.`.'.'.'.'.'.'.`.`.`.`.'.oX'.'.'.'.`.`.`.`.'.'.'.'.D.F.F.'.`.`.`.`.oXoXoXoXoXoX`.`.D.D.`.`.`.D.`.D.N.d.p.q.U T t.s.u.t.5 $ % o # 3 }.8X6X:X*XC.C.OX;X:X:X:X:X:X:X:X:X;X:X-X;X;X;X;X;X;X;X-X;X;X;X;X-X-X-X-X;X;X-X-X;X;X;X;X-X-X-X-X=X=X=X%XOXOXoXV.m.A.t.y.q.q.y.y.u.u.u.d.d.j.l.n.c.c.M.M.M.M.M.n.c.M.N.N.N.N.N.N.b.N.N.N.V.V.S.*X&X>X,XT L 9   F xXi # % < k r.d.l.^ z x j k z ^ ^ u.`.`.`.`.`.`.`.`.`.`.`.'.'.`.'.'.'.'.`.`.`.`.'.'.'.'.'.'.`.`.`.`.'.'.`.`.`.`.'.'.'.'.`.`.'.'.`.`.`.`.`.`.`.`.`.`.`.`.`.`.`.`.`.`.`.`.`.D.D.`.`.`.`.`.`.`.`.`.`.`.`.`.`.`.`.`.`.`.`.`.`.`.`.`.`.`.`.`.`.`.`.`.`.`.`.`.`.`.`.`.`.`.`.`.`.`.`.`.`.`.`.`.`.`.`.`.`.`.`.`.`.`.`.`.`.`.`.`.`.`.`.`.`.`.`.`.`.`.`.`.D.D.D.D.D.`.`.`.`.`.`.`.`.`.`.`.`.`.`.`.D.D.`.`.`.`.`.`.D.`.`.D.`.`.`.`.`.`.`.`.`.`.`.`.`.`.`.`.`.`.`.`.`.`.`.`.S.i.t.r.r.p.j.M.N._._.`._.V.N.f.E x f j 6 1 ; * & 7 U U U n n u.6X7X*XoX`.`.`.`.`.D.D.D.XXXXXXXX`.`.`.`.D.D.D.D._.p.n C C C C C x j j j j j j j j j B B l ^ l.V.V.S.S.D.D.`.`.`.`.`.`.`.`.`.`.`.`.`.oXoX",
"`.`.`.`.`.`.`.`.`.`.`.`.'.'.`.`.`.`.`.`.'.'.`.`.'.`.`.`.`.`.'.oX`.'.`.`.`.`.`.`.'.'.`.`.D.D.'.'.D.D.D.D.`.`.'.`.oXoXoXoXD.D.D.`.D.`.`.S.N.j.p.T U T t.u.u.r.5 $ # o # 3 }.8X:X:X*XC.C.OX-X:X:X;X:X:X:X:X:X;X;X-X;X;X;X;X;X;X-X-X;X;X;X;X;X-X-X-X-X-X;X;X;X;X;X;X-X-X-X-X=X=X-X-X-X=X=X=X@X+X`.V.N.N.c.c.c.c.A.i.i.i.i.i.i.i.c.c.c.b.b.b.b.N.N.N.V.V.V.S.S.S.b.V.V.V.V.+X<X:X,XT L 6 . a zXi # % < k ^ d.f.^ k h h h k k n _.`.`.'.'.`.`.`.`.`.`.`.'.'.`.'.'.`.`.`.`.`.`.`.`.'.'.'.'.'.`.`.`.`.'.`.`.`.`.'.'.'.'.'.`.`.`.`.`.`.`.`.`.`.`.`.`.`.`.`.`.`.`.`.`.`.`.`.`.`.D.`.`.`.`.`.`.`.`.`.`.`.`.`.`.`.`.`.`.`.D.`.`.`.`.`.`.`.`.`.`.`.`.`.`.`.`.`.`.`.`.`.`.`.`.`.`.`.`.`.`.`.`.`.`.`.`.`.`.`.`.`.`.`.`.`.`.`.`.`.`.`.`.`.`.`.`.`.`.`.`.D.D.D.D.`.`.`.D.`.`.`.`.`.`.`.`.`.`.`.`.`.`.D.D.`.`.`.`.D.`.`.D.`.`.`.`.`.`.`.`.`.`.`.`.`.`.`.`.`.`.`.`.`.`.`.`.`._._._._.{._._.S.S._._.~.N.s.Y z k j j 6 2 ; * # 5 U U U P m u.6X6X*XXXV.b.b.Z.V.D.`.`.`.`.`.`.`.`.`.`.D.D.'._.p.K j C C l x x x x j j j j j j j j j x z T n.V.V.V.C.D.D.`.`.`.`.`.`.`.`.`.`.`.D.D.`.XX",
"`.`.`.`.`.`.`.`.`.`.`.`.'.'.`.`.'.'.`.`.`.'.`.`.`.'.'.`.`.'.'.'.'.D.'.`.`.`.`.`.'.'.`.`.D.D.'.'.D.D.`.`.`.`.`.`.oXoXoXoXD.D.`.`.D.`.`.S.N.j.s.T n T r.t.s.r.5 % # o # 3 }.8X:X:X*XV.C.K.;X:X:X:X:X:X:X:X;X;X;X-X-X-X;X;X;X;X-X-X-X-X-X;X-X-X-X-X;X;X;X-X;X;X;X;X-X-X-X-X=X=X=X-X-X-X=X#XOX$X@XOXOXOXoXOX@XOXoXoX+X+XoXoX`.'.`.`.`.`.'.'.'.'.`.D.`.D.S.S.V.V.Z.Z.V.V.V.+X<X:X,XT L 6 . a zXi # % $ h ^ s.s.R k h h j f K !.`.D.'.'.`.`.`.`.`.`.`.`.`.`.`.'.'.`.`.'.'.`.`.`.`.`.'.'.'.'.'.`.`.`.'.`.`.`.`.`.`.'.'.`.`.`.`.`.`.`.`.`.`.`.`.`.`.`.`.`.`.`.`.`.D.D.V.V.D.D.D.`.`.`.`.`.`.`.`.`.`.`.`.`.`.`.`.`.`.`.`.`.`.`.`.`.`.`.`.`.`.`.`.`.`.`.`.`.`.`.`.`.D.`.`.`.`.`.`.`.`.`.`.`.`.`.`.`.`.`.`.`.`.`.`.`.`.`.`.`.`.D.D.`.`.`.`.`.`.`.`.`.`.`.`.`.`.D.D.`.`.`.`.D.D.D.D.`.D.`.D.D.D.D.`.`.`.`.`.`.`.`.`.D.D.D.D.`.`.`.`.D.D.D.D.D.`.`.`.`.`.`.`.`.`.`.`.`.`._._._.!.M.l.j.f.p.r.^ T n z x x j j 6 2 ; * # 5 U U P P m u.7X<X*X`.`.XXXXXXXX`.`.`.`.`.`.`.`.`.`.`.D.`._.u.v j j x z Y R r.R T T U Y U U U n n m T u.l.n.N.N.S.S.D.D.`.`.`.`.`.`.`.D.D.D.D.D.D.D.D.",
"`.`.`.`.`.`.`.`.'.'.'.'.`.`.`.`.'.'.'.'.'.'.`.`.`.`.`.'.`.`.D.D.`.`.D.F.D.'.'.`.`.`.`.`.`.'.'.'.`.`.`.'.D.D.D.D.`.`.`.`.'.'.'.'.D.`.`.S.N.c.s.Y n T r.t.s.r.3 $ = # o 8 *X6X:X<X*XZ.V.K.:X:X:X:X:X:X:X:X:X:X;X;X;X;X;X;X-X-X-X-X-X-X-X;X-X-X-X-X-X-X-X-X-X-X-X-X-X-X=X=X*X*X%X%XOXOXOXOXOXOXoXoXXXXXXXoXoXXXXXK.XXXXXXXXXXXXXX`.D.XXXX`.XXXX'.`._.S.S.S.V.V.V.V.V.V.V.].<X6X7XT L 9 . s zXi # # $ h Y r.r.Y x j j x P l.`.`.`.`.`.`.`.`.`.`.`.`.`.`.`.`.'.'.`.`.`.`.`.`.`.`.`.`.`.`.`.`.'.'.`.`.'.'.'.'.`.`.`.`.`.`.`.`.`.`.`.`.`.`.`.`.`.`.`.D.`.`.D.D.Z.b.A.b.b.V.S.D.`.`.`.`.`.`.`.`.`.`.`.`.`.`.`.`.`.`.`.`.`.`.`.`.D.D.D.`.D.D.D.D.`.`.`.`.`.`.`.`.`.`.`.`.`.`.`.`.`.`.`.`.`.`.`.`.`.`.`.`.`.`.`.`.`.`.`.`.`.`.`.`.D.`.`.`.`.`.D.D.`.`.`.`.`.`.D.D.`.`.`.`.`.`.`.`.D.D.D.D.D.`.`.D.`.`.`.`.`.D.`.`.`.D.`.`.D.D.D.`.XX`.`.`.`.`.`.`.D.S._.M.l.s.u.t.q.q.T Y P n v v z z z z z v v z z z x j 9 4 # * o 5 E U P P m u.7X<X+X`.`.`.`.`.XX`.`.XX`.`.`.`.`.`.XXXXXX_.u.n z l x E l.!.~.~._._._.~._.S.S.S.~.V.S._.~.A.d.d.j.N.D.C.D.`.`.`.`.`.`.`.XXXXXXXXXXXXK.D.",
"`.`.`.`.`.`.`.`.`.'.'.`.`.`.`.`.'.'.'.'.'.'.`.`.D.D.D.`.XXXXXX`.`.`.'.`.D.D.D.K.`.`.`.`.D.D.'.'.`.`.`.`.D.D.'.D.`.`.`.`.`.`.`.`.D.`.`.S.N.n.s.Y n T r.t.s.R 3 $ # . o 8 *X6X:X:X*XZ.Z.K.-X-X-X-X-X-X-X=X-X-X-X=X=X=X=X=XOXOXOX%XOXOXOXOXOXOXOXOXOXOXOXOXOXOXOXOXOXOXOXK.oXoXoXoXK.K.K.K.K.K.XXXXXXXXXXXXXXXXXXXXXXXXXXXXD.XXXXD.D.`.XXD.XX`.N.i.c.S.S.S.S.V.V.V.V.V.V.'.<X6X7XT C 6 o s zXy # % 2 h z n E r.Y n P r.!.S.`.`.`.`.'.'.`.`.`.`.`.`.`.`.`.'.'.'.`.`.`.`.`.`.`.`.`.`.`.`.`.`.`.`.`.`.'.'.'.'.`.`.`.`.`.`.`.`.`.`.`.`.`.`.`.`.K.D.D.D.D.V.n.u.q.u.i.c.b.b.V.D.`.`.`.`.`.`.`.`.`.`.`.`.`.`.`.`.`.`.`.`.`.`.`.`.`.D.D.D.D.D.D.D.`.`.`.`.`.`.`.`.`.`.`.`.`.`.`.`.`.`.`.`.`.`.`.`.`.`.`.`.`.`.`.`.`.`.`.`.`.`.`.`.D.`.`.`.`.`.D.D.D.D.`.`.`.`.`.`.`.`.`.`.`.`.`.`.D.D.D.D.`.`.`.D.D.D.D.D.D.D.D.D.D.D.`.`.`._.N.M.n.n.n.l.j.s.t.t.r.T U P n n n n n v v v v P P Y Y Y P P L L P P L L l j 9 4 # * # 5 U U P P m i.7X<XoX`.`.`.`.`.`.`.`.`.`.`.`.`.XXK.K.XX_.p.b z C z r.!._.V.V.V.V.V.V.V.V.V.V.V.V.V.V.S.N.i.d.d.i.c.D.D.D.`.`.`.`.D.D.D.V.S.S.S.~.`.D.D.",
"`.`.`.`.`.`.`.`.`.`.`.`.`.`.`.`.`.`.`.`.'.'.`.`.`.'.`._._.N.M.u.r.q.s._.].'.`.D.`.`.`.`.D.D.D.`.`.`.`.`.'.'.'.'.D.`.D.D.`.`.`.`.D.D.`.S.N.n.s.U n U q.t.s.T 1 % # . o f ,X:X:X:X*XV.V.oX=X%X%X%XOXOXOXOXOXOXoXoXoXoXXXXXK.K.K.K.K.K.K.K.K.K.K.K.K.K.K.K.XXXXK.K.K.K.K.K.XXXXK.K.D.D.D.D.`.`.`.XXXXXXXXXXXXK.XXXXXXXXXXXXD.XXXXD.`.D.D.D.`.n.r.q.A._.S.S.S.S.V.V.V.V.V.`.,X6X<XT L 6 . s hXy # $ , j Y r.g.l.l.^ t.M.S.D.`.`.`.`.`.`.`.`.`.`.`.`.`.`.`.`.'.`.`.`.`.`.`.`.`.`.`.`.`.`.'.'.`.`.`.`.`.`.'.'.`.`.`.`.`.`.`.`.`.`.`.`.`.`.`.`.D.`._.N.d.q.T Y q.t.i.c.b.V.S.D.`.`.`.`.`.`.`.`.`.`.`.`.`.`.`.`.`.`.`.`.`.`.D.D.D.D.`.`.`.`.`.`.`.`.`.`.`.`.`.`.`.`.`.`.`.`.`.`.`.`.`.`.`.`.`.`.`.`.`.`.`.`.D.`.`.`.`.`.`.`.`.`.D.`.`.`.`.`.`.D.D.D.`.`.`.`.D.`.`.`.`.`.`.`.`.`.D.D.D.D.`.S.S.S.S.S.S._.`.`.D.S.S.S.N.N.j.t.q.m T T Y U U P P P P P P P Y P P P P Y Y E ^ r.r.p.p.p.T n P P L L K C l j 9 4 # * # 5 P U P P m u.7X,X'.S.C.D.`.`.`.`.`.`.`.`.`.`.D.`.`.V.r.v z l l R _.V.S.V.V.V.C.C.C.C.V.V.V.V.V.V.V.S.N.i.u.u.A.V.D.D.D.`.`.`.`.V.Z.Z.b.A.A.A.c.c.c.d.",
"`.`.`.`.`.`.`.D.`.`.`.`.`.`.`.`.`.`.`.`.`.`.`.`.V.c.s.t.T m n z z z z P t.M.'.'.'.`.`.`.D.D.D.D.D.`.'.'.'.'.'.'.D.D.D.D.`.`.`.`.D.D.D.S.N.n.s.U n U q.t.u.T 1 % % . o j <X:X:X:X%XV.C.%X>X-X-X-X-XOXoXoXoXXXXXXXXXXXXXXXK.K.K.D.D.`.oXoXXXXXXXK.D.D.D.D.XXXXXXXXXXXXXXXX`.`.`.D.D.D.`.`.`.`.`.`.XXXXXXXXXXXXXXXXXXXXXXXXXXXXXXXXD.D.D.XXZ.q.R t.N._.S.S.D.S.S.V.V.V.V.`.,X6X<XT C 6 o s hXi # # @ l k.j.l.j.j.r.l.S.S.`.D.D.D.`.`.`.`.D.`.`.`.`.D.D.`.`.`.`.`.`.D.D.D.D.`.`.`.`.`.`.`.`.'.'.`.`.`.`.`.`.`.`.`.`.`.`.`.`.`.`.`.`.D.D.D.D.`.~.d.q.U P U T q.u.A.b.V.D.D.`.`.`.`.`.`.`.`.`.`.D.`.`.D.D.D.D.`.`.`.`.D.D.`.`.`.S.S.S.S.N.N.S.S.D.D.D.D.D.D.D.`.`.D.D.`.`.`.`.`.`.`.`.`.`.`.`.`.`.`.`.`.`.`.`.D.D.D.D.D.D.D.D.D.`.`.`.`.D.D.D.`.`.`.`.`.`.`.`.`.`.`.`.`.`.`.`.D.D.D.D._.N.c.c.j.j.c.M.n.n.n.c.d.s.t.r.T T R R T U n n n P P P P U U Y T R R R r.t.p.s.u.u.u.t.t.t.m M n v v v v C l j 6 4 % * # 5 P P P P M u.<X,X`.S.V.S.`.`.`.`.`.`.`.`.`.`.`.N.j.q.v z C l P M.V.V.V.V.~.~.V.V.V.V.V.V.V.V.C.V.V.V.V.m.m.m.~.D.D.D.D.`.`.`.D.D.D.`.`.`.V.V.b.d.u.u.",
"D.D.`.`.`.`.`.'.`.`.D.`.`.`.XXXX`.D.`.`.`.`.N.u.q.T P L C l l l l l l l z n T f.N._._.'._._._.`.'.D.`.F.D.D.'.'.'.`.`.`.`.`.`.D.D.D.D.S.V.c.s.U P U q.t.u.E < @ # # . k <X:X:X:X%XD.F.%X:X:X:X:X-X-XOXoXoXoXK.D.XXoXK.K.D.K.K.K.K.K.K.K.K.K.D.D.D.`.oXoXXXXXXXXXXXXX`.`.D.D.D.D.D.D.`.D.D.D.K.K.oXoXoXoX`.oXXXXXK.K.K.oXK.K.K.K.D.XXXX`.u.T r.u.V.S.`.`.`.`.S.V.V.V.V.`.*X6X<XT C 5 . s hXi # @ @ K l.j.j.j.s.t.n.!._.S.D.D.D.D.D.S.D.S.`.S.S.`.C.D.`.`.`.`.`.`.`.D.D.`.`.`.`.`.`.`.`.`.D.`.`.D.`.`.`.`.D.D.`.`.D.`.`.`.`.D.D.D.D.D.`.G.j.r.P P n n R p.d.n.~.`.`.`.`.`.D.D.`.`._.S.S.D.`.D.`.`.`.D.D.D.D.`.D.D.D.S.N.j.u.t.q.q.q.q.T q.u.c.N._.`.`.D.D.S.D.D.D.`.`.D.D.D.D.D.D.D.D.D.D.`.`.`.D.`.`.`.`.`.D.D.D.D.D.D.D.`.`.`.`.D.D.D.D.D.D.D.D.`.`.`.`.`.D.D.D.`.`.`.`.D.D.D.D.N.i.d.s.u.u.u.s.u.t.t.r.q.q.q.q.r.r.p.p.p.q.T q.q.q.r.r.t.p.p.p.s.s.s.s.s.u.u.u.u.u.u.t.u.t.Y P n n n n L L C j 6 2 % * # 5 L P P P n s.<X,XD.V.V.V.V.V.V.V.V.V.V.V.b.c.i.q.U U U U Y Y d._.V.V.V.V.V.V.V.V.V.~.S.V._.N.N.V.C.C.`.D.D.XX`.D.D.D.D.`.`.D.D.D.D.D.D.D.D.D.`.V.b.c.",
"`._._.G.!.M.l.d.d.d.d.d.d.j.m.~.S.D.`.`.D.S.M.p.U v z l x x x l l l j j l l x z v P Y Y R T U r.N.`.D.D.D.D.`.`.'.'.`.`.D.`.D.D.D.D.S.S.N.n.p.n v U T y.t.I $ # # # X j <X:X:X:X-XD.D.%X:X:X:X>X-XOXoXoXoXoXK.D.oXoXK.D.D.D.K.K.K.K.D.K.D.D.D.D.`.`.`.XX`.D.D.D.XXXXXXXXK.D.D.K.XXoXoX`.`.`.`.V.V.N.N.b.Z.V.D.XXD.D.D.D.D.K.XXXXD.K.XXN.q.T q.c.V.V.`.`.`.`.`.D.D.`.`.`.@X6X,XE j 1 . i gXi # @ @ C l.f.j.j.p.p.n.N.V.D.C.D.D.D.D.D.C.D.D.C.V.D.S.V.D.D.`.`.`.`.`.D.`.`.D.D.`.`.D.D.D.D.`.'.'.'.`.`.`.D.D.K.D.D.D.D.D.D.`.`.D.D.D.`.N.u.Y n v P U r.s.M.N.D.`.`.`.`.`.`.D.S.V.N.b.c.b.V.`.`.`.`.`.`.D.D.D.D.D.S.b.c.u.q.m m m U U U U U m m T p.n.!._._._.S.D.S.D.D.D.D.D.D.D.D.`.`.`.`.D.D.D.D.D.D.D.D.`.`.`.`.`.`.`.`.`.`.`.`.D.D.D.D.D.D.D.D.D.D.D.D.D.D.D.D.D.D.D.D.D.D.S.S.b.i.u.u.t.t.r.q.q.q.q.R T T T R q.r.t.s.d.d.d.l.l.l.l.l.j.j.s.u.t.t.t.t.u.u.t.u.u.u.u.t.u.r.Y P P P P L L P C j 6 2 % * # 5 L v K L n t.,X,XS.S.`.D.D.S.S.S.V.V.V.V.V.b.b.N._._._._._._._._.S.V.V.V.V.V.V.V.N.n.l.k.r.M H.S.V.C.C.D.D.K.D.D.D.D.D.D.D.D.D.D.D.D.D.D.D.D.D.D.D.D.",
"p.T n n v v v n U T q.q.q.t.u.N.S.S.S.`.`._.s.Y C l l l l l j x j j j j j j j B j j j l x z z v T !.`.D.D.`.`.`.D.D.D.D.D.D.D.D.D.D.S.V.N.j.Y c z P T q.t.I $ # # #   l <X>X:X:X>XK.K.%X:X:X:X=X%XoXoXoXXXoXK.K.K.K.D.D.D.D.D.D.K.D.D.D.D.D.D.D.D.D.D.D.D.D.D.D.`.`.`.D.S.S.S.b.c.c.i.i.u.u.t.u.i.A.c.c.b.V.D.`.`.`.`.D.`.`.`.`.`.D.`.d.T T u.`.D.`.XXXX`.`.`.XXXXXXoX+X*X<X}.z 6 1 . y aXa # @ @ C f.s.s.p.n Y f.M.V.V.V.S.S.D.S._.V.S.S.S.S._.S.S.S.D.D.D.`.`.`.D.D.`.D.D.D.`.D.`.'.'.`.'.`.`.`.'.`.`.`.`.`.`._.'.`.D.`.`._.`._.M.r.n v n Y r.j.!.N.S.`.D.D.D.`.`.`.`.`.V.b.c.c.c.c.V.`.D.`.`.`.`.D.D.D.D.D.S.V.N.N.N.j.u.T n P P P P P P P n m T q.r.t.u.u.n._._._.S.S.S._._._._._._.S.S.S._.`.D.D.D.`.D.D.`.D.D.`.`.D.D.D.`.D.D.D.D.D.'.'.D.`.D.D.D.`.D.`.`.D.D.D.D.S.S.S.S.N.A.i.u.u.u.u.p.t.t.p.p.t.p.p.p.r.R T t.d.j.j.d.d.d.d.s.u.u.u.t.p.p.t.t.p.p.p.p.p.p.p.r.R Y n n n v v v z v C j 7 2 # * # 5 z v v L v t.,X,X`.D.`.`.D.D.`.`.`.`.D.D.`.`.`.'.'.D.D.D.D.D.D.S.D.S.S.V.V.V.V.!.l.m v c c E b.`.~.~.`.`.D.D.D.D.D.D.D.`.D.D.D.D.S.S.D.D.D.D.C.D.D.D.",
"k f k j x z n P T q.t.s.d.c.m.N.V.S._.V.A.m v K l k x l j j j j j j j j j j l j l l l l l l K n v t.~.D.`.`.`.`.D.D.'.'.`.`.D.D.D.`.S.N.l.^ x k z P T q.t.L $ # # #   Z <X>X:X:X>XK.D.%X:X:X:X=XOXK.oXK.D.D.K.oXF.D.D.D.D.D.D.D.D.D.D.D.D.D.D.D.D.D.D.D.D.D.D.D.S.N.b.i.t.t.t.q.q.q.y.t.u.j.B.N.V.V._.`.`.`.`.D.`.`.`.D.`.`.D.D.D.F.S.q.U T !.`.K.XXXXXXXXXXXXoXXXoXoX+X*X*Xr.f 6 $ . y pX{ o @ @ C f.s.p.E x z Y r.n.!.N.G.S.S._.N.N.M.l.j.j.j.j.N.~.~.`.`.`.`.`.D.D.D.D.S.S.S.~.~.~.~.S.S.`.`.D.D.`.S.N.j.s.t.p.j.M._.`.`.`._.c.^ n P R p.l.N.N.V.S.`.`.`.`.`.`.`.D.D.S.V.b.c.c.c.c.V.D.D.D.D.`.D.D.D.D.D.D.D.D.D.XXXXK.'.!.T n P n P P P P P U U U U P P n U q.s.s.s.i.i.i.i.i.i.i.i.j.j.j.j.j.N._._._.V.S._.S.S.S.S.S.S.S.S.S.S.G.B.j.j.j.c.B.N.N.N.N.N.n.n.M.N._._._._.S.S.Z.b.c.c.c.c.n.n.c.j.j.s.p.p.r.Y I P P E p.s.s.s.p.t.t.s.s.p.p.p.p.p.p.p.r.r.r.R R U P n K K K z z z z z z z x h 7 2 # * # 5 z v v v v q.*X*XS.S.D.D.D.D.D.D.`.`.D.D.D.D.`.`.D.D.`.S.S.S.D.D.S.S.S.S.V.V.~.].p.v z C z f.!.!.!.!.n.d.m._.D.D.D.`.`.D.D.S.V.V.S.S.V.V.V.V.~.~.V.V.",
"B j B C l L Y p.j.n.M.M.N.N.N.b.b.b.M.r.v z z j j j j j j j j j j x l l j j j C l x l l C C C C C v w.!._._._._._._._._.N.N.N.N.V.N.M.f.R x f j K P T q.r.l @ * # +   B ,X>X:X>X-XK.D.*X>X*X%XoXOXoXoXK.D.D.D.`.D.D.D.D.D.D.D.D.D.D.D.D.D.D.`.`.'.D.V.S.S.S.V.b.c.d.i.i.u.d.j.j.n.N._.].'.`.`.`.`.`.`.`.`.`.`.D.D.D.D.D.`.`.D.C.`.K.b.U E r._.`.`.`.`._._._._._.!.!.M.l.s.R k 6 8 <   y pX .o @ # l p.p.r.n x C l z K U Y T R T Y n n v z c c z z P r.s.c.N.!.~.~.V.S.S.G.j.p.r.T Y Y T T t.l.N._._.!.u.q.R P v z v v E r.p.p.r.P v P p.l.l.n.M.N.N.N.N.N.N.N.N._._._._._._.N.c.c.i.c._.`.`.`.`.D.`.`.D.D.`.`.`.`.`.`.`.S._.l.T P P n P P P P P U U Y R P K L K n n T r.p.u.s.j.j.j.j.j.k.f.r.m n m q.j.!._.V.V.V.V.V.V.V.V._._.M.p.Y n n n P P Y Y Y Y Y P n n P P T r.p.l.M.M.N.N.n.n.n.n.n.l.f.s.p.q.Y P v z z K L I Y E E E R R R R R R R R Y Y U P L L v z z z z z z z l l l l z z z z x h 7 2 % - # 5 l c z z v U ].,XD.S.S.S.S.S.S.D.D.D.D.D.S.S.S.S.V.V.S.S.S.S.V.V._.~.V.V.S.!.n.T c x z K l x z z z z z c n p.m.N.N.N.c.j.u.t.r.r.r.r.r.r.r.r.t.t.t.t.",
"j x x z P ^ p.s.s.s.d.d.j.c.c.c.c.b.j.Y l j h h j j j j j j j j x x x l j j j j h h 6 6 5 1 1 , < 1 8 f v Y U m m m m m n n n n U Y U P c x x C P U U C h , # # # o o 1 k.}.oX+XoXF.`.'.`.`.`.`.`.`.`.`.`.'.'._.`.`.].`.'.'.'.'.'.'.'.'.'._._.N.j.i.j.j.d.d.j.c.j.j.j.n.n.n.n.c.n.n.n.n.N.N.N.N.N.!.!.~.!._._._.~.~.~.~._.!.!.!.!.!.r.v K L E E U P n v z z z z C C z x x h 9 5 < @ O  .pX .- # o 1 ^ p.r.P z x l l x x x x x x x x j k x x x x x l n n T r.r.t.t.t.p.u.u.T n z l l l K n v P r.p.r.U P P K v z z z l l x x x x z v P Y Y Y ^ ^ R R T T R R ^ r.t.p.f.l.M.M.M.l.l.l.l.!.N.N.N.N.!.!.N.M.M.n.l.l.d.s.p.t.q.U U U U P n P P P P P U U Y E P v v z z z v v P T ^ r.r.^ R T U n v v v v v n m u.M.N.G.S.N.N.V.!.l.R v x x x l l l l z C K L L n z z K z z z z z n n L L L L L L L z l l j k h h j j j j x x x x x x z z z z z z z x c x x x x x x x x x x x x x x x x x x x l x j 9 5 ; # # # 5 l x x z z z j.,XS.V.V.V.V.N.V.V.V.V.b.N.N.N.V.V.b.N.N.V.N.V.V.N.N.m.n.j.s.r.P x x z z C l x x x x x x z z v n P P n L K C z x l x l z z z z z l l l ",
"j j l C I ^ ^ R ^ ^ r.r.r.r.p.p.p.s.p.E x x j B j j j j j j j j B j j h h 6 5 1 , @ . . # # # # $ $ 1 5 k l z v L L P P U U U U U n n n M n P U U U z 5 # # # # # o o @ h ^ ^ p.p.p.p.p.r.r.r.^ ^ R R E Y Y P n n K L L n P Y Y Y Y U U P n v c x l z z z v K K v n L L P P n v K K v K v v K K v v K L v v v v v v v v v v v v z x f f f 6 6 6 6 6 6 6 f f j j k k x j j h 5 1 @   X { @. .: # # @ h ^ ^ E z x x x x x C x C C L L C C j j j j z P R R Y R ^ ^ ^ R ^ ^ r.^ Y C C L L L C C z z z z C C z C C z l l l l C C C C C C z z z z z n z v K L L C C L n n n n P U Y Y Y Y Y Y U U U U Y Y Y U U P P P K L L L I I I I P P P P P P P P P P P P L z x x x x j x k k x x k k j j x x x x x x k x x c v P T R ^ ^ T v x f h j j j j j h h j j j j j j j j j j j j j j h h 5 5 5 5 5 5 1 1 1 1 3 3 3 3 5 5 5 5 5 5 5 5 5 6 6 6 6 6 6 6 6 6 6 6 6 6 6 6 6 6 h h h h h h h h h h h j h h 9 5 3 ; # # # 3 h h j k k k z W.!.l.l.l.l.l.l.n.l.l.l.l.l.l.j.l.j.l.n.l.l.l.j.l.s.r.Y n v z j x x C C C z x x x x z C x C K C C C C z z z z z C z C z z z z z z z z ",
"h h h j j j l l C C C C C C L L L P P C 9 5 5 5 5 5 5 5 1 1 1 1 1 < < , @ . . # # # o o o o o o @ < < 5 h x C K L L I I I I I I P L C l C j j j f 5 < @ . . . # # o o # @ , 1 5 5 5 5 5 5 8 1 1 1 1 1 1 1 1 , , , < , , , , 1 1 , , , , , , , , 1 1 , 1 < , , , 1 , , 1 1 1 1 1 1 1 1 1 1 1 1 1 1 1 1 1 1 1 1 1 1 1 1 1 8 8 5 5 5 5 5 5 5 5 5 6 6 5 5 5 6 6 6 6 9 9 9 6 5 1 $ % o X : a a a y - @ # @ h L I C k h h h 9 9 9 h j j j h 6 6 6 6 6 j C I E E E R R R R R R ^ Y E P L L L L C C C C l C Z C l Z C C C C C C C C C C C C C C C C C C z z z C C C C C C C z z z C C C C C C C K L L L K L L K z C C C C C C C z z C C z l l l C C C C x C x j j j h h f f 6 6 6 6 f 6 6 6 6 6 6 6 6 6 f 6 6 9 6 6 6 6 6 6 6 6 5 6 6 9 9 9 6 h 6 6 6 6 9 9 9 9 6 6 6 6 f f f 6 6 6 9 5 5 5 1 1 1 1 2 < < < < < 1 < < < 2 2 2 < < < < < < < < < < < 2 2 1 1 1 2 1 1 1 1 1 3 3 3 5 5 5 5 5 5 5 5 6 6 5 4 2 - * * # 1 9 6 f f 6 9 h x K P L L L L P I I I Y Y E E ^ ^ ^ ^ r.r.r.^ ^ P v z x x j j x x l z C C C C z C C C z z z C z z z z z z z z z z z z l l l l l l l l ",
"@ @ @ @ . . @ @ @ @ @ @ @ @ @ @ @ @ @ @ # . . . . . . . . . . .   . . . . . . . # # o o o o o o . . . . @ @ @ @ @ , , , , , , , @ @ @ @ # . # .     . . . . o o # # * # @ @ # @ @ @ , , , , , , 2 2 2 2 2 2 2 < 2 2 2 < < < < 2 2 2 2 2 2 2 2 ; = = = = ; ; ; ; = = 2 2 $ < 2 2 < 2 < < < < < < 2 2 < < < < 2 2 < < < 2 = = = 2 , , , , = , , , , , , , @ @ @ @ @ @ @ @ # # o o O : a a a a i : # # @ @ 1 9 9 1 $ @ . . # # # @ @ @ @ $ @ @ < < 1 3 5 1 1 1 5 5 5 8 5 5 5 5 6 6 6 6 5 5 5 5 5 5 6 6 5 5 5 5 5 5 5 5 5 5 5 5 5 5 6 6 6 6 6 6 9 9 h f h h f f f f h f f 6 f f f f 9 6 6 6 6 6 9 9 6 h h 6 6 6 6 6 6 6 6 6 5 5 5 5 5 5 5 5 5 5 5 5 1 3 1 1 1 1 1 1 1 1 1 < 2 2 1 1 2 2 2 2 2 2 2 2 2 2 2 2 2 2 2 $ < < < < $ < $ $ $ < < < < < < < 2 2 2 2 2 2 2 2 2 2 2 2 < < < < @ @ @ @ @ @ @ @ # @ # @ # # # # @ @ @ # # # # # @ @ @ @ $ $ @ @ @ @ @ @ $ $ $ ; $ $ ; ; $ < $ < 2 2 2 2 2 2 2 2 : - * * # $ 3 3 5 5 5 5 5 5 6 6 6 6 6 6 6 f f h h h j j j j j l l l l l j j j j j j j j j j h j j j h h h 6 6 9 f f f f 6 6 6 6 6 6 6 6 6 6 5 5 5 5 5 5 5 1 1 1 ",
"X X X X X X X o X X X X   X X X         # . # . . # # # . # # . . # # # . . . . o o o o o o o o . . . .       . . . . .           X X o o . o . . o o o . o o o o . # % # # # # @ @ @ @ @ @ @ @ @ @ @ @ @ @ @ @ @ @ @ @ @ @ @ # # # # # # # # o # # # # # # # # # # # # # # # # # # # # . . . . # # # . . # # . . . . . # . . # . . . . # # # # # # # # . . . . # . # # # X X o y a a a a s i y : * # # # # # . o o o o o o o # . . # # . # # # o o o o o o . . . . . O O   . . . . . o . . . . . . . . . . . . . . . . . . . . . # # # . o o # # # # # # # # # # # # # # # # # # # # # # @ @ @ # # # # # # # # # # @ @ @ # # # @ @ @ @ @ @ @ @ # # # # # # # # # # # # . # # # # # # # # # # # # # # # # # # # . . . . . # # # # # # # # # # # # # # # # # # # # # # # # # # # # # o o . . o o # # # # # # # # # # # # # # # # # # # # # # # # # # # # # # # # # o # # o # . o o o # # # - : : y y - & o # @ $ $ < < < ; ; ; 2 < < 2 2 < < < < < < < < 1 < 1 < < < 1 < 2 < < 2 < < < < < , , , @ @ @ @ # # # # # @ @ @ # # # # # # # # # o o o # # # # # # # # ",
"O O X X X X X X o o X X X o o o o o o o o o o o o o o o o o o o o o o o o o o o o o o o o o o o o o o # o o o o o o o o o o o o o o o o o o o o o o # # # o o : { y o o * * # # # o # X   X X X X X X X X X # X X X X X   X # X   X X X   X o o # # # o # # # # o o # # # # # o X o o X o o o o o o . . o o             o   . o . . . . . . . o o o o o o o o o o # o . X & q s a a a a p p a i y : * # o o o o o o o o o o o o o o o o o o o o o o o o o o o o o o o o o o o o X o o o o o O O O O O O X X X X o O O o o o o o o o o o o o o o o o o o o o o o o o o o o o o o o o o o o o o o # # # # o o o o o o o o o o o o # # o # o o o o o o o o o o o o o o o o o o o o o o o o o o o o X o o o X o o o o o o o o # # o # # # # o o o o # # # # o o o o # # # o & & & o o o o o o o o o o o o o o o o o o o o o o o o o o o o o o o o o o o o o o o o o o o o o o + + + & - - : : q r y i a y & & * # # # o o o o o o o o o o o o o o o # o o o X X o o o o o o o o o o o o o o o o * - > > > > > > > > & & & > : : - - - - > > - - * * & & - - & - - - ",
"O O O O O O O   O O O O O O O O O O O O O O O O O O O O O O O O O O O O O O O O       O O O O               O O O O     O O O O O O O O O O O O X X X X X & i #.,.#.{ q & o o o o o o o X o o o o o o o o # # # o o o X o X X o     . .   . o o o o X X o o o o o o o o o o o o o o o o o o o o o o o # # o o # # # # # # # # # # # # # # # # # # # # # o o # * # # # - w i a a p a { {  . . .a { a y : # # # * % # # o # # # # # o o # o o o o o o o o o o o o o o o o o o o o o o o o X X X X o o o o o o o o o o o o o o o # o o o o o o o o o o o o o o o o o o o o o o o o o o o o o o # o o o o o # o o o o # # # o o o X o X X X X X X X o o o o o o o o o o o o o o & & & & & * & & & & & - : : : : : : > & & & o o o o o o o o o o o o o o o o o o o o o o o o o o o o . . .       o X o o o o o o o o o o o o o o o o o o o o o o o o o o o o o o o o o o o o o - - ; : : q q w y y p {  .{ i : & o o o X X X X X o o o o o o o o O O o o o o o o O O o o o o o & o o o o o & & > > - : : : : : q q q q q : : : : : : : : : : - - - - - > > > - - - - ",
": : : : : : : : : : : : q q q q r r r r y y i s s s a a a a a a a a a a a a a a s s s s s i i i i i i i i i y i y y i i i i i i i i i i s s s a a a a a { +.5.2.2.2.2.<. .i q - & & & & > > > - - - - - - : : : q q q y w w y w y w w q q q : : : : : : : : : : : : : : : : : : q : w w w w w y y : 2 : : : : : : : ; ; ; - - - ; ; ; ; # # % $ # # % % - - - ; : q i a { { {  . . . . . . . . . .O. .a i : : - - - # o o o X o o o O o o O O o O O O O O   O O O O O O O O O O O O O O O O O O O O   X O O O O O O O O X X X     O O O O O O O o o o o o X X o o o o o o o o o & & & o o o o o o o o o o o o o # # # * * - - - - - * * * & * * * - : : : : : : q q q q r r r r i i i i p } } { { {  . . . . .{ { { } p s i y y y y r r r q q q q q q q : : : : : : : : : : : : : q q y y y y y y y y y y y y q : : : : : : : : - : : : : : - - : : : : - - - - : : - : : : : q q r y y i a { O.+.O.O.{ a y : : - > & & o o o o o o O o X X X O O O O O X O X X     o o X o O O o o o o o o & - : : : q q r r r r r r q q q q q : : : : : : > - - - - - - - - : ",
"<.<.<.2.2.2.2.2.6.6.3.3.6.6.6.6.6.6.6.6.6.7.7.6.6.6.7.6.6.6.6.6.6.6.3.3.3.3.3.3.2.2.2.6.2.2.2.<.<.<.<.<.<.<.2.2.2.2.2.2.2.2.2.2.2.2.2.2.2.2.2.<.2.2.2.2.6.6.6.6.6.6.3.3.6.2.<.@.+.{ { { { { { { { { { { {  .O.O.O.O.O.O.{ { { { a a p p s s a a s s s a s s s a a a a a a { a a a a a a a a a a a a s y y q q : : : : : : : : : r r r r r r r y r y y y i i s a  .+.@.@.@.@.@.@.@.@.@.@.@.@.@.@.@.@.#.#.@.+. .{ { { { a a p i i i i i y y y y y y y w q q q q q q q q q q q q q q q q q r y y y r r r y y y y i y y y y y r r r q : : : : : - & & & o o o o o & & & & & & & & & & o & & & - : : : : : : q q q q : q q q q q q q q q q q : q q q q r r y y y y i i i i p p p } } { { { { { {  .{ { { { { { { {  . . . . . .{ {  .{ { { { { { { { { { { { { p p p i i i i i i i i i p { { } { {  . . . . . . . . .{ { { { { { { { p { { { { { { } p p p p p p p a { { {  . .O.+.+.@.@.@.#.<.<.<.<.,.@.@.@.@.#.+.O. .a p i i y y i y y r q q q : : : : : : : : : : : : : > - - - - > > : : : : : : q q q q r r r y i i y r r q q : : : : : : - - - : : : : : : : q ",
"3.6.6.6.6.6.7.7.7.rX7.rX7.7.rXrXrXrXrXrX7.7.6.7.7.7.7.7.7.7.6.6.3.3.6.6.6.6.3.3.2.2.2.2.2.2.<.<.<.<.<.<.<.<.<.<.<.<.<.<.<.<.<.<.<.<.2.2.<.2.2.2.2.<.2.2.2.6.6.6.6.6.6.2.2.<.<.<.<.,.@.@.@.@.@.@.#.#.,.#.<.<.#.#.+.O.{ a a a a i i i i i { +.#.6.tX7.6.2.2.<.2.2.2.<.<.<.,.@.@.@.+. .{  . . . . . . .{ { a s s p a { {  .O.+.+.+.@.@.@.@.@.@.@.@.@.@.@.@.@.@.,.<.<.2.,.,.<.<.<.<.<.<.<.<.2.2.2.5.5.5.5.5.6.6.6.6.6.6.5.5.2.2.2.<.<.<.<.,.#.#.#.+.+.+.O.O.O.O. .{ { { {  .{ { O. .O.O.O.O. . . . . . . . . . . . . . . . . . . . .{ { { { { { { a p p p i i i i i i i i y r y i i y i y y y y r r y r r r y r r r q q q q y y y y y y y t y y y y i i i i i p i p p p p p } } { { { { {  . .} } } } } } { } } { { } } } } { { { { { } { { { { } } { { { } } } } p p p p p p p p p p } { {  . .X.X................... . . . . . . . . . . . . . . . ...+.+.@.@.@.@.@.@.<.2.2.6.6.6.6.6.6.6.6.5.2.2.5.5.5.5.2.2.5.5.6.6.6.6.2.2.<.<.<.,.@.+.+.+.+.+. . . . .{  . . . . . . .{ {  .{ { { { { a { { { } { {  . . . . . . . . .{ { { { a p a { { { {  . .+.+.+.+.@.@.<.",
"rXrXrXrX7.rXrXrXrXrXrXrX8.8.tXtXpXtXpXpXfXhXjXgXpXtX8.8.8.6.5.6.6.5.5.5.5.5.5.5.5.5.5.5.5.5.5.<.#.#.<.<.2.5.5.2.3.2.2.3.6.6.6.6.6.6.3.6.6.6.6.6.5.5.6.8.8.8.tXfXfXfXfXfXfXfXfXfXkXjXjXjXjXxXmXmXmXmXmXmXmXMXmXjXgXtX5.<.#.#.$.$.O.O.O.O.<.6.tXxXDXDXNXvXvXxXvXvXvXvXxXxXzXzXzXhXpX2.{ +.@.@.,.,.,.,.,.,.<.<.<.<.2.2.2.2.2.2.2.2.<.<.<.<.<.<.<.<.<.<.<.<.#.<.#.#.<.<.<.<.<.2.2.2.6.7.rX7.6.5.5.5.5.2.2.2.2.2.2.2.5.5.5.5.5.5.5.5.5.5.5.5.5.5.5.5.5.5.5.5.2.2.2.5.5.2.2.<.@.+.+.O.+.+.+.+.+.+.+.+.+.+.+.+.@.+.+.+.+. . . . .{ { { { { { { { { p p } } } } { { { { { { } p p p } } { { { {  . . . .{ { { s i y y y y y y y u s s s u y i y i p {  . ...+...+.@.@.@.@.@.+.....,.,.,.@.,.@.@.,.,.@.@.@.@.@.,.,.,.@.@.@.@.@..... .a p p p p a { { { } { { {  .{  .{ } } } p p p p p p }  .,.,.,.,.,.,.,.,.,.,.@.,.+.+.+.+.+. . . ..... . . .+.+.+.@.2.2.2.5.6.5.2.2.5.5.5.5.5.6.6.7.tXfXgXjXjXxXmXmXjXkXfX8.fXkXkXkXkXkX5X5X5XkX5X5X5XkXkXkXkXkXkXkXkXfXfXiXiXtXtXtXfXfXfXkXgXjXxXvXvXvXxXxXzXhXhXhXhXzXzXzXxXxXnXxXxXxXxXvXnXnXbXbXbXbXbXnXbXbXbXbXbXbXbXbXMXMXMXMXNX",
"VXVXVXVXVXVXVXVXVXVXBXBXVXVXBXBXBXBXBXUXLXLXLXBXmXmXjXjXjXkX X9.9. X.X5X5XlXlXlXlXlXlXlXlX5X X(.;.;.>.>.>.>.9.8.iXgXxXvXbXbXMXMXbXMXxXjXjXjXjXkXkXkXkXkXkXlXlXVXVXlXlXVXVXVXVXVXVXBXBXBXZXZXZXZXZXZXZXZXZXZXUXZXZXZXBXVXlXlXlXlXlXlXlXlXVXmXmXBXNXNXMXbXbXvXvXvXvXvXhXaXgXaXaXaXpX{ y  XVXjXxXxXjXjXjXjXjXjXjXjXjXjXjXxXvXvXvXvXxXjXjXhXfXfXtXtXtXtX8.8.7.7.7.7.7.8.tXtXpXgXjXmXmXkX8.0.0.:.0.0.5.8.5XkXkXkXkXkXkXjXVXmXBXBXBXBXBXBXmXVXmXBXBXBXmXmXmXmXmXmXxXxXjXhXpX8.8.8.5.5.5.2.2.2.2.2.<.<.#.#.<.<.#.#.#.#.#.0.5.6.0.5.,.#.#.#.#.@.@.@.#.#.#.<.<.<.2.2.2.2.<.<.<.<.2.2.2.2.2.<.<.#.#.<.<.<.#.$.$.) _ _ _ W C j B D W ' ' R.U._ F F F $.0.0.0.0.0.0.0.#.<.<.2.2.3.3.6.rXpXaXhXzXxXvXvXvXvXMXMXMXMXNXNXNXNXNXDXDXNXDXNXNXbXbXvXvXMXNXNXNXDXDXNXNXMXMXMXMXbXbXvXhXyX4.<.<.4.3.7.pXaXaXaXaXaXaXaXdXgXaXaXsXyX@.+.+.+.0. X XfXfXiXfXfXfXkXkXlXkXlXlXlXlXlXlXlXVXVX5X>.>.(.kXZXLXLXIXIXIXIXIXIXSXSXCXCXIXIXIXIXSXSXSXAXAXAXAXAXAXAXAXAXAXAXAXAXCXZXZXZXZXSXSXLXLXUXUXZXZXZXZXUXUXLXJXFXFXFXFXFXNXDXDXDXDXDXFXJXJXJXJXJXFXFXNXmXVXVXBXBXZXZXZXZXFXLXLXLXLXLXJXJXJX",
"AXAXAXAXAXAXAXAXAXAXAXAXCXCXCXCXZXLXLXLXLXZXBXBXBXBXZXLXLXLXUXBX4X[.}.3X.X0X0X0X0X0X0X.X{.M.f.s.p.p.f.k.g.R.T.T.(. X5XlXVXBXBXBXVXlX4X.X/./.(.(.T.T.T.E.^.^.^.^.).).).).).[.[.|.|..X4X4X4X4X4X0XCXCXCXCXCXCXCXCXCX4X4X4X4X4X4X.X.X.X.X.X.X.X.X4X.X X X.X4X4X5X5XkX5X9.5.3.4.4.4.<.2 5 4XZXZXZXZXZXZXZXZXZXZXZXZXZXZXZXZXZXZXZXZXZXZXZXZXBXBXVXVXVXVXVXVXVXVXVXVXlXlXlX5XlXCXCXlX.XY.U.U.T.T.T././..X.X4X0X0XCXCXCXCXCXCXCXCXCXCXZXZXCXCXCXCXZXCXCXZXZXZXZXZXZXZXZXCXCXCXlX4X4X.X X X X X(.(.(.(.(.(.(.(.(.(. X X5XVXZXZXZXZXkXkXkX X>.9.iXfXfXfXkXkXlXVXmXVXmXVXjX8.2.2.2.6.tXtXpX6.6.6.5.>.(.(.[.[.{.{.{.{.{.).g.^ E E ^ p.l.M.!.W.Q B B W _ Y.^.^.R.h.' Q H H C C B A B B Z Z F F H ~ :. XkXVXVXVXVXlX X X X X5XkX5XkXkXjXxXBXLXLXPXIXIXIXIXIXIXIXIXIXIXPXFXvXxXxXxXxXjXjXjXxXVXmXmXmXmXMXMXMXNXNXDXDXNXGXGX3.+.O. . XCXAXAXAXAXAXAXAXAXAXAXAXAXAXAXAXAXAXAXAXAX0X|.}..X0X0XAXAXAXAXSXSXSXAXAXAX0XCXSXSXSXSXSXSXSXSXAXAXAXAXAXAXAXAXAXAXAXAXCXAXAXCXCXCXCXZXZXZXZXCXZXZXZXZXZXZXZXVXlXlXlXlXlXlXlXlXlXlXVXVXVXBXBXBXBXBXVX/.W.E.0XCX0X4X4X4X4XlXlXlXlXlXlXVXVX",
"M.).M.M.M.M.M.M.!.l.k.f.j.f.p.g./.CXUXZXBXBXBXBXZXBXBXBXLXUXLXLXCX^.M.!.!.!.[.{.{.{.{._._.M.l.j.k.k.k.j.d.c.c.c.c.l.l.M.M.!.!.!.!.l.j.j.M.j.j.j.c.c.c.c.b.b.b.b.c.c.j.j.j.j.j.l.n.M.N.M.N.G.N.G._._.).).)._._._._.G.G.N.M.M.M.B.M.M.M.M.B.j.s.l.l.j.M._.].}.|.|.4X4X:.8.rX6.6.7.#.4 6 .XAXAXAXAXAXAXAXAXAXAXeXeX0X0X0X0X0X0X0X0X0X0X0X0X0X0X0X0X0X0X0X0X0X0X0X0X3X}.{.{.].}.].}.].*X*X].].].].].+X*X*X*X,X,X,X<X,X7X7X7X7X7X7X7X,X,X,X,X,X,X,X,X,X,X,X7X7X7X0X0X0X0X0X0X0X0X7X7X7X7X0X0X0X0X7X7X7X7X0X0X0X0X0XeX0XAXAXAXAXAX0X0X.X[.[.|.|.|.|.}.3X0X0X0X0X0X0X0X0X0X.X;.$.| +.pXgXrX+.#. X/.|.*X*X*XoXD.B.u.p.p.f.f.j.f.u.j.j.l.p.^ ` I ^ g.f.p.r.^ ^ ^ p.p.p.^ ^ ^ E E Q I I L L P P Y p.[.|.|.0X0X0X0X|..X0X.X.X.X.X|.[.^.g.g.R.T./.5XkXkXlXlXVXVXVXBXCXCXlX(././..X.X4X0X4X0X0X4X4X4X4X.X.X X X9.pXzXnXnXnXrXO.O.O..XeX0X6X7X7X7X,X<X,X<X<X<X<X7X7X<X<X>X>X7X<X:X6X6X6X6X7X7X7X6X7X7X7X7X7X,X,X,X,X7X0X0X0XeXCXAXAXAXAXAXAXAXeXeXeXeXeXeX0X0X7X0X0X0X0X0X0X0X0X0X0X0X0X0X0X0X0X0X0X.X.X.X4X4X4X4X4X.X.X.X4X4X4X4X4X4X.X[.l.u.p.l.k.f.s.s.f.f.f.k.W.W.!.!.W.W.",
"m.m.m.m.b.b.b.b.N.N.M.M.N.c.n.l.p.U..X.X X X X.XlXZXZXJXLXLXLXZXlX).B.c.c.M.N.G._._._._.N.M.n.j.j.d.d.c.M.N.N.V.V.V.V.V.V.V.V.V.Z.V.V.N.V.V.V.V.V.V.V.V.V.V.V.V.N.N.b.c.c.i.u.y.y.y.r.r.t.u.d.j.j.c.j.j.j.c.n.n.n.n.b.b.c.c.c.c.M.M.M.c.M.s.y.f.B.M.B._.'.,X,X_.{.[.&.8.rX2.<.#.s 2 8 ).qX6XqX8X*XoX*X*X*X*X+X+XoX*X*X*X*X*X*X,X,X,X,X<X<X<X<X<X:X:X:X:X:X:X:X:X<X<X<X:X<X>X-X-X-X-X-X-X-X-X-X-X-X-X:X:X>X>X>X<X>X>X<X>X<X<X-X-X-X*X*X%X%X%XOX*X%X%XoXOXOXoXoXOXoX*X*X*X*X*X-X*X*X-X*X>X<X,X>X<X,X,X,X,X<X>X>X>X*X,X,X,X,X*X*XOXoXoXoXOXOXOXOX%XOX-X-X-X>X>X>X:X>X<X<X7X[.6 w 7.aX<.; I |.}.*X*X*XoX+X].c.r.m n v n Y r.p.s.f.p.E Y r.s.f.f.s.q.Y T ^ ^ r.r.t.t.t.t.p.p.p.p.p.p.p.s.k.l.l.l.M._.{.{.}.,X,X7X6X7X7X<X,X,X7X,X]._.!.!.).[.[.|.|.[.[.[.|.|.{.[.N.N._.`.'.&X6X6X6X6X6X6X6X7X6X6X6X7X[.I H $.yXzXzXrXO.O.O.[.0X,Xu.s.c._.C.C.C.C.D.D.K.K.K.K.K.K.K.K.oXoXoXoXOX*X>X<X<X<X<X,X*X*X+Xx.!.'.oX].XX+X*X*X,X,X,X,X,X,X7X7X,X,X,X,X7X7X7X,X7X7X7X<X7X7X<X,X,X,X,X*X*X]._._.G.G._._.`.'.'.'.}.}.].].].].].].{.{.{._._._._._.`._._.~.N.N.M.l.c.n.!.!.N.N.M.M.",
"N.b.b.b.b.N.N.N.b.b.b.c.b.c.d.t.^ E U P P P P U ` (.lXVXZXCXlX(.f.d.d.c.i.i.j.j.c.c.c.c.b.c.j.s.s.s.d.n.V.S._.`.`.`.`.`.`.`.`.`.D.D.D.D.D.`._.V.V.b.N.N.V.V.V.N.N.N.N.N.m.c.c.i.p.t.r.q.q.t.t.p.s.s.u.x.f.f.s.s.i.i.j.j.j.j.j.j.c.c.n.n.M.p.m r.n.n.i.c._.*X*XN.n.f.D 5.7.5.$.s $ 4 8 ).wX8X8X6XoXoXXXXXXXXXXX`.XXXXXXXXXXXXXXoXXXXXoX*X>X<X:X:X:X:X<X<X:X:X:X:X>X>X:X>X:X:X:X:X:X;X:X-X-X>X>X-X>X-X>X>X-X-X-X-X-X-X*X@X@X*X@X@XOXoXoXoXOXOXoXOXoXoXoXOXOXOXOXOXOXoXoXoXoXoXOXOXOXOXOXOXOXOXOXOXOXOXOXOXOXOXOXOXOXOXOXOXOXOXOX@XOXOXOXOXOXOX%X=X-X-X-X-X>X>X:X:X:X:X<X6X{.f w 7.aX#.# j [.oX*X*X*X*XoX*X*X'._.k.T P L P Y T r.m P Y r.s.s.s.l.t.T T r.r.r.r.r.p.s.d.d.j.c.c.B.N.N.!._._.G._._.!.j.u.f.B.G.'.*X,X,X,X,X*X].G.N.N.N.c.j.j.j.j.j.n.M.N.b.b.N.b.i.u.i.i.b.'.+X`.`.*X<X:X>X<X&XoX*X*Xf.x h u #.sXaX6.{ O.O.).qX].m n r.~.D.K.D.D.D.V.V.V.V.V.V.V.V.C.XXXXXX`.XXoXoXoXOXoXoXoX+X`.M.e.y._.`.`.`.`.`.'.'.oXoXoX*X*X+XoX+XoXoXoXoXoXoXoXoX'.oXoX'.D.S.x.r.T m n U P n n v P R p.j.j.B.N.S.'.XXoXoXoXoXoX'.'.'.`.'.oXoXoXoXoXoXoX].`._._._.N.~.V.V.N.!.!.",
"n.c.c.N.N.N.N.N.M.M.M.c.c.c.j.p.Y U Y T T ^ r.p.p.s.W.).[._.N.b.N.N.b.b.b.b.b.b.N.N.V.S._.c.d.s.p.u.d.N.V.D.`.`.`.`.`.`.`.`.`.`.`.`.`.`.`.`.`.N.c.c.c.c.c.A.d.d.i.i.A.c.c.A.c.c.c.n.n.c.d.u.u.t.t.t.t.t.p.p.p.t.r.r.r.t.t.t.t.t.q.q.q.r.t.r.n U p.p.m q.M.]._.s.t.p.Z $.<.O.a s < 1 8 G.qX8X8X6XoXoXXXXXXXXX`.`.XXXX`.`.XXXXXXXXXX`.D.D.K.oX@X*X-X-X-X*X*X@X@X@X*X*X*X*X*X*X*XOXOXOXOXOXOXOXOXOXoXoXoXK.K.K.K.K.K.XXXXXXoXoXoXoXXXoXoXoXoXoXoXoXOXoXoXoXOXOXOXOXOXOXOXOXoXoXoXoXOXOXOXOXOXOXOXOXoXoXOXOXOXOXOXOXOXOXOXOXOXoXoXoXK.K.K.K.K.K.K.K.OXOXOXOX%X%X-X-X-X-X*X>X].h 3 6.pX#.- h ).`.'.oXoXoXoXoXK.K.'.'.N.p.T r.r.p.f.p.Y Y T u.d.d.j.j.t.r.r.r.t.t.s.l.n.M.M.N.V.~.~._._._.N.N.M.j.p.q.Y m m T t.u.u.j.M._._.].*X,X,X<X,X,X'._.S.N.c.c.d.d.l.n.c.d.t.t.t.r.t.s.j.u.y.l.}.<X,X*X,X'.S._.s.x h 9 O.6.yX2.{ O.O.).0X{.n n t._.D.D.D.D.C.V.V.V.V.V.V.Z.Z.Z.V.oXXXXXXXXXXXoXXX`.V.b.A.q.q.q.U s.S.S.D.D.D.D.F.F.D.D.D.D.D.`.`.`.D.F.oXoX'.'.oXoXoXoX'._.l.n c x k j j j j B x z U q.t.u.u.i.A.V.D.XXoXoXoXoXoXoXoXoXoXoXoXK.oXoX'.G.!.!.n.n.l.j.d.d.s.p.p.r.",
"s.s.s.j.n.N.N.M.n.n.n.c.c.j.l.p.Y U T f.B.B.b.b.b.V.V.D.`.`.`.XX`.D.D.D.`.`.`.`.`.`.`.`.`.c.u.u.t.u.c.V.D.`.`.`.`.`.`.`.`.`.`.`.`.`.`.`.D.D.`.V.N.c.c.c.c.c.b.N.b.N.N.V.S.V.V.S.V.C.`.`._.~.N.d.t.t.t.q.q.r.r.^ ^ T T r.r.r.r.r.T U U U m Y v v Y Y n n p.M.j.t.T ^ D s s $.s s < < 8 G.wX8X8X6XoXXX`.`.`.`.`.`.`.`.`.`.`.`.`.`.`.`.`.D.`.D.D.K.`.`.`.XXK.K.K.K.K.D.D.D.D.D.D.D.D.D.D.D.D.D.D.D.D.D.D.D.D.D.D.D.D.D.XXXXXX`.XXXXK.K.XXXXoXoXoXOXoXoXoXoXOXOXOXoXoXOXOXXXoXoXXXXXoXoXoXoXXXXXXXXXoXoXoXoXK.K.L.oXK.K.K.K.oXoXD.D.D.D.D.D.D.D.D.D.K.oXOXOXOX%X%X%X%X*X*X*X_.h 2 5.pX#.- 9 f.N._.].oXoXoXoXoXoXoXK.'._.l.j.f.f.f.f.p.p.p.d.c.M.M.n.M.j.j.j.n.M.N.N.N.!.!.N.N.N.m.c.j.d.u.u.t.T m n n P P Y T T T U m T r.p.c.G._.*X,X].*X<X<X<X,X*X_.t.q.T T T T Y U U U U Y Y Y U t.].,X*X*X*XS.c.t.R j 9 F 5.rX2.{ O.~ ).6X{.m n p._.D.`.D.D.S.S.V.V.V.S.D.V.b.A.b.'.oXOXoXXXoXoXV.t.y.q.q.q.q.T R U u.B.V.V.V.V.S.S.S.S.S.S.S.S.S.D.`.'.oXoXoXoXoXoXoX'.b.t.U P L L L K n n L Y Y Y q.u.u.u.i.i.A.b.D.D.K.XXXXXXK.K.K.K.D.D.D.D.`.b.q.m n n n n b M n n m U q.t.",
"p.t.t.s.c.n.M.n.n.n.c.c.c.j.l.p.Y U t.N.N.V.V.V.V.`.S.S.`.D.D.`.D.D.`.`.D.D.`.`.K.XXD.D.`.b.u.u.i.M.S.D.D.`.`.`.`.`.`.`.`.`.`.`.`.`.`.`.D.`.`.`.`.D.`.`.D.`.`.`.`.`.`.`.D.D.D.D.D.D.D.D.`.`._._.S.c.i.u.t.r.m n m U T ^ r.r.r.t.r.m m m m n z z P P v P p.j.B.j.p.p.C 3 y $.s s , < 8 M.qX8X8X6XoXXX`.`.`.`.`.`.`.`.`.`.`.`.`.`.`.D.D.D.`.`.D.D.D.D.`.`.`.`.`.`.`.`.`.`.`.`.`.`.`.`.`.`.D.`.`.D.D.D.`.`.D.D.`.`.`.`.`.`.`.`.`.`.K.K.K.K.K.XXoXoXoXoXoXoXXXXXoXoXoXoXXXXXoXXXXXXXoXoXoXoXXXXXXXXXoXoXoXoXK.K.K.K.K.K.K.K.oX`.D.D.D.D.D.D.D.D.D.D.K.oXOX%X%X%X%X=X-X*X*X<X_.h 2 5.pX#.% 9 p.u.s.j.M.M.N.!.G._.G.N.c.s.r.y.t.p.f.j.j.j.M.n.N.N.N.N.N.N.N.N.N.N.V.N.N.N.c.c.j.u.u.y.q.T m m m Y Y P P U U T T T Y n P P U Y T r.t.u.d.i.`.,X&X<X<X<X<X,Xl.r.T U P P P P P n n P Y Y U u.,X,X,X,X,XN.n.k.f h F 5.7.<.a | F ).6X,Xl.r.q.i.c.n.c.c.c.c.n.c.j.j.c.c.c.c.B.'.+XOXoXoXoXV.t.q.y.y.q.T U U Y U m e.q.u.u.u.i.i.A.c.b.Z.V.V.S.S.`.'.oXoX'.oXoXoXS.t.e.q.q.t.u.p.p.p.p.p.s.s.d.d.j.x.B.c.b.b.b.Z.V.C.C.D.D.D.D.S.V.V.Z.Z.m.b.A.y.q.R T ^ r.t.p.s.s.d.n.n.m.V.",
"r.r.s.l.j.n.n.n.c.c.c.c.c.c.l.r.Y T j.V.V.V.V.S.C.D.`.`.`.`.`.`.`.`.`.`.`.`.`.`.`.`.`.`.`.D.V.V.S.S.D.`.`.`.`.`.`.`.`.`.`.`.`.`.`.`.`.`.`.`.`.D.`.`.`.D.`.`.`.D.`.D.D.D.D.D.D.D._.`.D.D.D.D.D.D.`.`.`._.!.n.l.t.r.p.f.s.u.t.t.p.t.r.r.T q.T n v P Y r.d.N.`.'.`.S._.L 2 y O.s s @ < 8 B.qX8X8X7XXX`.`.`.`.`.`.`.`.`.`.`.`.`.`.`.`.`.`.`.`.`.`.D.D.D.D.D.`.`.`.`.`.`.`.`.`.`.`.`.`.`.`.`.`.D.D.D.D.D.D.`.D.D.D.D.D.D.`.`.D.D.`.`.D.K.XXXXXXXXoXK.oXoXoXoXoXoXoXoXoXXXXXXXXXXXXXXXoXoXoXoXK.K.K.K.K.K.K.K.K.XXXXXXK.oXOXK.XXXXXXXXD.D.D.D.D.D.D.D.K.OXOXOX@X%X%X%X%X%X%X-X].j , 5.pX#.$ 9 k.j.x.u.u.u.u.u.p.p.p.p.r.r.t.p.u.f.f.l.l.l.l.j.n.N.N.N.N.N.n.n.N.N.N.N.N.m.d.c.c.c.c.c.l.d.s.t.r.T Y m U U U T T T R U U T T r.q.r.p.f.n.G.`.*X*X-X<X-X-X<X<X,X}._.M.l.l.j.d.s.u.r.m P Y U t.{.}.S.*X,X,Xr.z B F 5.7.<.a | F [.<X>X7X{.M v z v v v v v v v v v n n n n m S.OXoXoX+XoXV.m.c.d.i.t.q.q.q.q.q.q.q.q.q.q.q.q.q.q.t.i.V.S.S.D.D.`.`.oXoXoXoX'.'.D.b.N.S.N.N.M.c.i.i.u.u.u.u.i.A.c.c.c.c.b.b.b.N.V.V.V.C.D.D.D.V.V.V.V.V.V.V.N.m.b.c.c.c.b.b.b.m.m.m.b.b.m.b.",
"R ^ p.k.j.n.n.c.c.c.c.c.c.n.j.r.Y t._.V.V.V.V.S.D.D.`.`.`.`.`.`.`.`.`.`.`.`.`.`.`.`.`.`.`.`.`.`.`.`.`.D.`.`.`.`.`.`.`.`.`.`.`.`.`.`.`.`.`.`.`.`.`.`.`.`.`.`.`.`.`.`.`.D.`.D.D.D.D.D.S.S.D.D.D.`.`.D.V.b.A.d.c.n.M.M.n.n.n.n.n.n.l.n.!.f.p.r.T m t.M.S.`.`.'.'.`.S._.L < w O.s u @ 2 1 l.qX6X6X<X`.`.`.`.`.`.`.`.`.`.`.`.`.D.D.`.`.`.`.`.`.`.`.`.`.`.`.`.`.`.`.`.`.`.`.`.`.`.`.`.`.`.`.`.`.D.D.D.D.D.D.`.`.D.D.`.`.`.D.D.`.`.`.`.`.`.`.D.D.D.D.D.`.XXXXXXoXoXoXoXK.K.K.XXXXoXoXoXoXoXoXXXoXoXoXOXoXoXoXoXoXoXoXoX'.'.`.`.`.`.`._._._.S.S.S.V.V.S.`.`.oXOXOXOX%X%X%X*X=X;X].k , 0.tX#.; 9 l.N.c.c.c.B.c.c.x.j.j.c.c.j.j.j.j.j.j.j.f.p.r.m m p.M.N.M.j.s.s.d.c.c.c.M.j.u.f.j.c.n.n.c.n.M.c.l.s.p.t.q.T T T T r.r.r.r.r.p.p.f.l.M._.[.{.].*X*X*X*X*X*X*X*X*X,X,X,X]._._._.G.).!.p.U P Y T T t.n.*X>X,X{.[.I Z 0.7.,.a | | [.<X>X<X_.n z C l l l l l z z z z l l z z v M.@X@XoXoXoX`.~.~.~.V.N.N.N.m.n.M.N.N.N.N.m.n.n.c.A.A.c.S.`.`.`.`.`.`.oXoXoXoX`.D.D.oXoXoX+XoXoX'.D.D.S.S.S.V.b.b.c.b.c.c.c.c.m.V.V.V.C.C.V.V.Z.Z.Z.V.V.V.Z.Z.N.c.c.c.c.b.b.b.b.b.b.b.m.n.j.r.",
"^ T t.s.j.j.n.n.j.c.c.n.M.n.c.y.r.n.N.V.V.V.C.D.C.D.`.`.`.`.`.`.`.`.`.`.`.`.`.`.XXXXXXXXXXD.D.D.`.`.`.`.`.`.`.`.`.`.`.`.`.`.`.`.`.`.`.`.`.`.`.`.`.`.`.`.`.`.`.`.`.`.`.D.D.D.D.D.D.D._.G.N.N.N._._._._.N.u.t.y.q.t.j.c.n.n.n.n.c.j.d.s.t.r.r.e.u.S.`.D.`.`.`.'.`.S.!.C < 2 #.s s @ 2 < r.7X7X6X:X`.`.`.`.`.`.`.`.`.`.`.`.D.`.`.D.`.`.`.`.`.`.`.`.`.`.`.`.`.`.`.`.`.`.`.`.`.`.`.`.`.`.`.`.`.D.D.D.D.D.`.`.`.D.D.`.D.D.D.D.`.S.V.N.N.c.c.j.c.A.A.c.b.b.V.V.S.S.S.`.D.`.`.`._.'._._._.S.N.N.n.n.c.c.j.j.u.u.u.u.u.t.t.y.r.q.q.q.r.r.q.q.y.y.y.t.u.i.c.b.N.S.`.oXoX*X*X-X-X;X].f @ 0.tX#.; 9 k.n.c.n.M.B.B.B.B.B.B.M.B.M.c.j.s.p.q.m T T T q.r.f.M.b.M.j.p.p.u.u.u.i.c.i.y.p.u.s.j.j.c.c.c.c.c.n.M.n.j.s.u.u.s.s.t.r.T Y P P L n n n U T r.u.u.j.j.j.l.M.M.M.n.j.i.u.t.t.t.q.q.q.T T U n n T r.l.*X>X<X<X,XL J 0.7.#.s | F [.<X>X<XG.n v L n n n v v v v v v z v v v n M.@X@XoX+XoXC.V.V.V.V.V.V.Z.b.N.N.N.N.V.V.V.V._._.`.`.`.D.D.D.D.D.D.D.`.`.`.`.`.XXD.`.K.XXXXXXK.K.K.K.oXK.K.D.`.S.V.b.c.c.c.c.b.b.N.b.N.N.N.N.N.N.b.b.c.c.d.i.u.u.d.j.c.c.b.b.b.b.b.b.b.n.r.m ",
"k.f.j.d.j.j.j.j.j.j.c.n.n.n.n.B.M.N.N.V.V.C.D.D.D.D.`.`.`.`.`.`.`.`.`.`.`.`.`.`.XXXXXXXXK.K.D.D.`.`.`.`.`.`.`.`.`.`.`.`.`.`.`.`.`.`.`.`.`.`.`.`.`.`.`.`.`.`.`.`.`.D.D.D.D.D.D.D.`._.s.r.q.T q.r.s.!._.u.t.t.t.t.u.u.d.n.n.s.t.t.y.t.t.t.t.q.u.!.`.`.`.`.D.XX`.D.b.n.C $ y 5.a u @ $ , Y _.*X6X<XXX`.`.`.`.`.`.`.`.`.`.`.`.`.`.`.`.`.`.`.`.`.`.`.`.`.`.`.`.`.`.`.`.`.`.`.`.`.`.`.`.`.`.`.`.D.D.D.D.`.`.`.`.D.D.D.D.D.D.`.b.i.i.i.u.u.u.u.i.i.c.M.N.N.N.N.N.N.N.N.M.c.i.t.q.q.m m m m m m n n n n n n n n n n n P n n n n U U U U U U m U T T q.t.u.d.d.d.d.c.c._.OX@X@X;X_.f @ 0.tX#.2 9 r.r.t.t.s.j.B.j.j.c.c.n.s.t.t.r.m m m r.s.j.M.M.M.N.N.b.N.c.j.j.s.u.d.j.c.c.u.y.t.t.u.u.s.s.d.j.c.c.c.n.n.c.c.N.N.u.q.T m n n v z z z z z z v v v n n n U U T q.q.q.q.q.q.q.t.t.r.r.r.r.p.t.T r.r.s.,X<X>X>X,Xl V 0.6.+.s a F [.:X>X<XG.y.!.!.V.N.N.M.c.c.j.j.j.j.j.c.n.N.D.K.oXoXoXoX`.S.V.S.S.V.V.N.N.N.N.N.N.N.N.N.N.V.V.V.C.S.D.D.D.D.D.D.D.`.`.`.`.D.D.D.`.K.K.K.oXoXK.K.oX'.D.D.'.`.S.S.V.M.c.c.j.d.j.x.x.d.s.s.u.u.u.u.t.t.r.q.q.t.u.s.s.d.j.c.c.c.b.b.b.c.c.j.p.",
"!.N.N.n.n.n.c.j.d.u.u.u.d.d.j.n.M.N.N.S.~.S.D.D.D.D.`.`.`.`.`.`.`.`.`.`.XXXX`.`.XXXX`.`.`.`.`.`.`.`.`.`.`.`.`.`.`.`.`.`.`.`.`.`.`.`.`.`.`.`.`.`.`.`.`.`.D.D.`.`.D.'.`.`.S.S._._.M.t.Y Y I E U U P r.s.t.u.s.s.s.u.u.u.u.u.t.t.t.t.t.t.t.t.d.V.D.`.`.`.`.`.`.`.V.x.j.L $ y 9.a y $ < < L n.!.,X<X`.`.`.`.`.`.`.`.`.`.`.`.`.`.`.`.`.`.`.`.`.D.`.`.`.`.`.`.`.`.`.`.`.`.`.`.`.`.`.`.`.`.`.`.D.D.D.D.D.`.`.`.D.D.D.D.`.`.`.`.S.N.N.N.N.N.N.G.V.V._._.!.N.n.j.j.d.s.s.s.t.q.q.r.r.T T Y Y U m U P n n n n n n n n n n U U U U T T T T q.q.q.q.y.t.u.u.u.i.i.s.s.u.t.u.c.`.@X-X_.6 @ 0.tX#.; 9 ^ T Y P m T s.c.f.f.s.T n n m r.t.s.j.M.M.M.M.N.N.N.N.N.N.N.N.N.m.n.n.n.n.N.M.c.c.j.j.j.j.j.j.j.c.c.c.c.c.c.b.V.N.c.c.n.l.l.j.s.f.f.s.s.p.p.p.p.t.t.t.t.r.t.t.t.u.u.u.u.s.s.d.d.d.d.j.j.c.c.n.u.T M.<X<X<X:X{.l u :.6.+.i a H [.<X>X<XS.b.`.`.D.D.D.D.S.V.V.V.V.D.S.V.S.V.D.XXoXOXoXXXD.V.V.b.j.u.u.u.u.u.u.u.u.u.u.s.d.d.d.d.j.c.c.n.N.N.N.V.V.S._.`.`.`.`.`.`.`.`.`.`.S.`.`.D.S.S.S.N.N.c.j.i.s.t.q.q.q.q.q.e.e.e.m m m T m T q.q.u.s.d.j.j.s.u.i.u.u.i.c.n.c.c.c.c.n.",
"V.V.V.V.N.N.N.N.M.j.u.u.u.u.u.u.i.j.c.N.N.V.D.D.D.D.`.`.`.`.`.`.`.`.`.`.XXXX`.`.`.XX`.`.`.`.`.`.`.`.`.`.`.`.`.`.`.`.`.`.`.`.`.`.`.`.`.`.`.`.`.`.`.`.`.`.D.`.`.`.`._.n.u.t.t.r.q.Y T T Y U U U T T t.c.V._.N.V.N.N.N.c.c.i.u.y.y.y.y.u.j.M._.D.D.`.`.`.`.`.`.V.c.x.l.L $ y 8.a 0 $ , < z l.M.`.>X`.`.`.`.`.`.`.`.`.`.`.`.`.`.`.`.`.`.`.`.`.D.`.`.`.`.`.`.`.`.`.`.`.`.`.`.`.`.`.`.`.`.`.`.D.D.D.D.D.`.`.D.D.D.D.D.`.`.`.`.`.`.`.`.D.`.`.D.~.N.n.j.s.t.t.q.T T U Y U U Y R R r.r.r.t.p.t.t.t.t.t.t.t.t.t.t.u.s.s.s.d.j.j.c.n.N.N.N.V.S.S.S._._._._._.N.d.i.s.u.u.u.i.V.*X-X_.6 # 0.tX#.4 9 ^ ^ Y Y Y P Y p.s.f.T K z n s.d.j.l.n.M.N.m.m.m.N.N.N.N.N.N.N.N.N.N.N.m.m.N.N.N.N.N.V.N.N.N.N.N.N.N.N.N.N.N.V.V.V.N.N.N.m.m.m.N.N.M.M.N.M.M.M.M.c.n.M.N.n.n.n.n.n.n.n.n.c.c.c.c.c.c.c.A.A.c.j.e.q.,X<X<X<X<X{.j 9 #.6.+.i a F [.<X>X<XS.b.`.D.D.S.V.V.V.V.V.S.S.S.S.S.S.V.D.XXoXoXoX`.C.V.V.c.t.y.y.y.y.t.t.t.y.y.y.q.q.q.q.t.t.q.t.t.t.t.t.t.t.u.i.c.c.c.c.c.c.c.c.d.d.d.d.i.i.u.u.u.u.u.t.y.q.q.q.q.q.y.y.u.u.u.u.u.u.u.s.d.j.c.c.c.c.b.b.b.A.i.i.u.u.u.j.c.A.c.c.j.d.",
"V.V.b.b.N.N.N.N.N.N.M.c.c.c.c.c.c.c.c.c.b.V.V.C.D.D.D.`.`.`.`.`.`.`.`.`.XXXXXX`.`.`.`.`.`.`.`.`.`.`.`.`.`.`.`.`.`.`.`.`.`.`.`.`.`.`.`.`.`.`.`.`.`.`.`.`.`.`.`._.m.u.q.T q.r.p.s.n.M.N.m.M.M.l.s.s.j.n.M.!.`.S.V.S.S.V.V.V.N.c.d.i.d.N._._.S.D.D.`.`.`.`.S._.V.c.x.M.L $ s  XF w $ , @ z s.M.S.+X`.`.`.`.`.`.`.`.`.`.`.`.`.`.`.`.`.`.`.`.`.D.`.`.`.`.`.`.`.`.`.`.`.`.`.`.`.`.`.`.`.`.`.`.D.D.D.D.D.D.D.D.D.D.D.D.`.`.`.`.D.D.D.D.D.`.D.D.~.d.d.u.t.t.r.q.R T U n n n P P P P U Y T r.t.s.f.j.n.n.N.N.N.~.~.~._._.`.`.`.`.`.`.`.`.`.`.`.`.D.D.D.`.`.`.V.A.i.u.u.s.i.N.*X-X[.f # 0.tX#.: 5 g.l.r.^ Y P L Y T r.P K n p.l.d.j.M.N.N.N.N.N.N.N.N.b.c.n.n.n.n.c.n.m.N.N.m.m.m.m.N.N.N.b.b.N.N.N.N.N.N.V.N.N.N.V.N.N.m.m.m.m.m.b.b.b.c.b.b.b.b.b.b.c.c.b.c.c.c.n.n.c.c.c.c.c.c.l.j.c.c.j.j.t.m n.7X<X<X,X<X[.k 9 #.5.O.i s F [.7X>X<XS.b.'.D.D.V.S.S.S.S.S.S.S.S.S.S.S.S.D.`.oXoXXX`.C.C.Z.c.c.j.j.j.c.d.d.i.i.u.u.u.u.u.u.u.u.t.t.t.t.u.u.u.t.u.i.i.i.d.d.d.i.u.u.u.u.u.u.t.t.u.u.u.u.u.u.u.i.c.c.N.N.V.V.S.S.S.S.S.N.N.N.N.N.b.b.b.b.b.b.Z.b.A.i.u.u.u.d.c.d.i.i.u.t.",
"N.~._._.N.N.N.N.N.N.N.N.N.N.m.m.M.M.N.N.V.V.D.D.D.D.D.`.`.`.`.`.`.`.`.`.XXXXXX`.`.`.`.`.`.`.`.`.`.`.`.`.`.`.`.`.`.`.`.`.`.`.`.`.`.`.`.`.`.`.`.`.`.`.`.`.`.D.S.c.t.y.s.l.M.N.S._.`.`.'.'.]._.u.t.q.q.T T q.d.V.S.V.C.C.C.V.V._.~.N.N.V.S.C.`.`.`.S.S.D.S._._.N.c.x.M.I $ F kX$.0 $ , @ n j.c.V.`.`.`.`.`.`.`.`.`.`.`.`.`.`.`.`.`.`.`.`.`.`.D.`.`.`.`.`.`.`.`.`.`.`.`.`.`.D.D.D.D.D.D.D.D.D.D.D.D.D.D.D.D.D.D.D.D.`.`.`.`.D.D.D.D.D.D.D.D.D.b.c.d.d.u.u.t.r.T T m m m U n P P n P n U T q.r.t.s.n.c.N.N.V.D.D.D.`.`.D.D.D.`.`.`.`.`.`.`.D.`.`.`.`.`.`.`.V.N.d.s.s.u.b.*X-X].h # #.tX#.4 8 k.{.M.f.q.P L n n P v z r.k.f.j.M.N.m.N.M.M.N.N.N.N.b.c.c.c.c.c.c.c.c.c.c.c.c.c.c.c.c.c.c.c.n.N.b.b.b.N.N.N.N.N.V.N.N.N.N.N.N.N.N.N.N.N.N.m.m.m.n.n.n.n.n.n.n.n.c.c.c.c.n.n.l.u.r.r.q.T t.r.n n ].6X<X<X,X<X_.f 9 $.5.O.i s F [.7X-X<XS.b.`.D.C.V.V.V.V.S.S.S.S.S.D.D.S.D.D.`.oXoXXXD.V.V.V.V.V.V.V.~.V.V.V.S.D.S.V.V.V.V.V.V.V.V.N.N.N.V.S.S.S.S.S.S.V.S.V.V.N.N.b.b.c.c.c.c.c.c.b.N.N.V.V.V.`.`.`._.S.D.D.D.S.D.S.S.S.S.V.V.b.b.b.b.m.b.b.b.b.b.A.u.p.i.N.N.c.i.u.t.t.",
"v P ^ p.l.M.!.V.N.n.n.s.p.M.N.V.V.V.V.S.`.`.`.`.`.D.D.`.`.`.`.`.D.D.XXXX`.`.`.`.D.D.D.D.`.`.`.`.`.`.`.`.`.`.`.`.`.`.`.`.`.`.`.`.`.`.`.`.`.`.`.`.`.`.`.`.D.`.b.i.c.n.d.d.u.t.y.y.y.y.u.u.u.q.T R T Y T T m e.u.c.b.m.V.V.N.V.N.N.c.n.N.S.D.`.`.`.`.`.S.V.V.S.V.c.j.M.Y < F jX#.y , @ $ ^ *XS.V.`.`.`.`.`.`.`.`.`.`.`.`.`.`.`.`.`.`.`.`.`.`.`.`.`.`.`.`.`.`.`.`.`.`.`.`.`.D.D.D.D.`.`.`.`.D.D.D.D.D.`.`.D.D.D.D.D.D.D.`.`.`.`.`.`.D.D.D.`.`.D.S.S.V.V.N.N.N.n.c.j.j.d.s.u.t.t.r.q.q.q.q.q.q.q.q.r.u.i.c.N._._.`.`.`.`.D.D.`.`.`.`.`.`.`.`.D.D.`.`.`.`.`.`.S.N.c.d.i.b.*X>X].j # 0.pX<.2 5 k.'.S.N.f.T n L L C n q.l.j.j.j.N.N.N.N.V.V.V.~.V.N.b.c.c.c.c.c.c.c.c.c.c.c.c.c.c.c.c.c.c.c.c.c.c.c.m.m.b.N.N.N.N.N.N.m.N.N.m.n.m.N.N.N.M.n.n.n.n.n.c.c.j.i.j.c.m.b.n.n.j.r.U K C z z l K L z P }.7X>X<X<X:X[.h 9 $.5.O.i s F ).<X<X<XV.b._._.N.N.b.V.D.D.D.D.D.D.D.D.D.S.D.`.oXoX`.C.V.V.V.V.V.V.V.D.`.`.D.D.D.`.`.`.`.D.D.D.D.D.D.D.D.D.D.D.D.D.D.`.`.D.`.`.`.`.`.`.`.`.`.`.`.`.`.`.`.D.D.D.D.`.`.D.D.`.D.D.D.`.`.`.`.D.S.V.V.b.b.b.b.b.b.N.V.V.b.i.i.N.V.V.V.b.A.j.s.",
"B j k k v U r.p.t.r.r.T m i._.V.S.S.D.`.`.`.`.`.`.D.D.`.`.`.D.D.D.D.D.D.D.`.`.`.D.D.D.D.`.`.`.`.`.`.`.`.`.`.`.`.`.`.`.`.`.`.`.`.`.`.`.`.`.`.`.`.`.`.`.`.D.`.S.V.N.m.n.n.c.c.c.d.d.i.d.i.i.c.c.n.c.c.n.N.M.M.n.c.A.c.c.b.N.N.V.V.u.m T r.t.s.s.s.s.u.t.t.i.N.b.c.j.M.Y < a jX#.y @ @ @ p.0X7X`.S.D.`.`.`.`.`.`.`.`.`.`.`.`.`.`.`.`.`.`.`.`.`.`.`.`.`.`.`.`.`.`.D.`.`.`.`.`.`.`.`.`.`.`.`.D.D.D.D.`.D.D.D.D.D.D.D.D.D.`.`.`.`.`.`.`.`.`.`.`.`.`.D.D.`.`.`.`.`.`.`.`._._.S.S.S.N.N.N.M.c.c.j.j.u.u.t.t.u.u.d.c.N._.`.`.`.`.`.D.D.`.D.D.`.`.`.`.`.`.D.`.`.`.`.V.m.c.c.b.+X>X[.j @ #.tX,.2 5 k.'.S.j.s.p.Y P n ^ k.M.n.j.n.N.N.V.S.S.S._.~.~.V.N.b.c.c.c.n.c.c.c.n.n.c.n.m.c.c.c.c.n.c.c.c.n.m.m.m.m.b.N.N.N.N.N.N.N.m.c.c.c.c.c.A.d.i.i.i.i.i.d.d.d.i.j.c.c.c.c.n.s.m z z l z z l l l j j K [.<X:X<X<X<X[.f 9 O.<.O.y s F ).>X-X<XV.A.c.c.c.c.b.V.D.D.D.D.D.D.D.D.D.D.D.`.XXoX`.C.V.V.V.V.V.S.S.S.S.`.`.`.`.D.D.D.D.`.`.`.`.D.D.D.D.D.D.D.D.D.D.D.D.D.D.D.D.D.D.D.D.S.S.S.S.S.D.D.`.D.D.D.`.`.`.`.`.`.`.`.`.`.`.`.`.D.D.V.V.V.b.b.N.V.b.V.V.V.V.N.N.V.V.V.V.V.b.M.s.",
"x K U R ^ ^ ^ r.t.s.l.j.n._.S.D.D.D.D.D.`.`.`.`.`.D.D.`.S.V.Z.Z.b.b.V.V.V.C.D.`.D.D.D.D.`.`.`.`.`.`.`.`.`.`.`.`.`.`.`.`.`.`.`.`.`.`.`.`.`.D.`.`.`.`.`.`.`.`.`.`.`.`.`.`.`.`.`.`.`.`.`.`.`.`.`.`.`.`.`.`.`.`.`.`.S.S.S.S.`.D.S.S.u.n P P P P P P P U U U t.c.b.c.j.n.Y 2 s fXO.y @ $ @ f.qXwX7X'.`.`.`.`.`.`.`.`.`.`.`.`.`.`.`.`.`.`.`.`.`.`.`.`.`.`.`.`.`.`.`.`.`.`.`.`.`.`.D.D.D.`.`.D.D.D.D.D.D.D.D.D.D.D.D.D.D.D.`.`.`.`.`.`.`.`.`.D.D.D.D.D.`.`.`.`.XX`.D.D.D.D.D.S.S.S.S.S.S.V.V.V._._.~.N.N.c.j.s.u.u.u.i.j.c.N._.S.`.'.'.`.`.`.`.`.`.`.`.`.`.`.`.`.D.N.c.c.N.+X*X[.j , #.tX,.2 5 p._.Z.i.s.s.p.Y m j.n.j.j.j.N.!.~._.S.S.S.S.~.~.V.N.b.c.n.n.n.n.m.m.m.m.m.N.N.m.m.N.m.m.m.n.n.m.m.N.N.m.N.N.N.N.N.N.N.N.c.c.c.c.c.c.c.c.c.c.c.c.c.c.c.c.N.N.N.n.n.c.n.d.t.q.q.q.^ ^ ^ E P z l x p.<X>X<X<X<X[.f 7 O.<.O.y s F ).>X-X,XN.i.c.A.c.c.N.V.D.D.D.D.D.D.D.D.D.D.D.`.XX`.`.D.C.V.V.V.S.D.D.S.S.`.`.`.`.D.D.D.D.D.D.D.D.D.D.D.D.`.`.`.`.`.`.`.`.D.D.D.D.D.D.D.D.S.S.S.S.S.S.S.S.D.D.D.D.`.`.`.`.`.`.`.`.`.`.`.`.D.D.S.V.V.V.V.V.V.N.V.V.b.V.V.V.V.V.V.V.V.b.M.u.",
"U t.d.j.d.d.j.c.n.n.b.V._._.D.D.D.D.D.D.`.`.`.`.`.D.D.`.S.V.V.V.V.V.V.V.C.D.`.`.D.D.D.D.`.`.`.`.`.`.`.`.`.`.`.`.`.`.`.`.`.`.`.D.`.`.`.`.D.D.`.`.`.`.`.`.`.`.D.D.D.D.D.D.D.D.D.D.D.D.D.`.`.`.D.D.`.`.D.D.`.D.D.D.D.`.`.`.D.D.D.D.d.m I P P P Y Y Y Y T R p.d.N.c.d.j.Y 2 s 8.O.0 $ @ , l.8XwXqX<X'.`.`.`.`.`.`.`.`.`.`.`.`.`.`.`.`.`.`.`.`.`.`.`.`.`.`.`.`.`.`.`.`.`.`.`.`.`.`.XX`.`.`.`.D.D.D.D.D.D.D.D.D.D.D.D.D.D.`.`.D.D.D.D.D.`.`.D.D.D.`.`.D.D.D.D.D.D.D.D.D.D.`.D.D.D.D.S.`.S.S.S.S.S._.V.C.V.N.N.M.n.c.j.i.u.i.d.c.c.m.N.V.V.V.V.S._.`.`.`.`.`.`.XX`.V.c.c.V.*X>X].h , #.tX,.w 5 p.`.Z.i.s.s.p.p.p.n.n.j.s.u.j.M.N.V.V.V.V.S._.~.N.N.b.B.m.n.n.n.m.N.N.m.N.N.N.m.N.N.N.N.N.N.N.N.N.N.N.N.N.N.N.N.N.N.N.N.m.m.m.N.N.N.N.N.N.N.N.N.N.N.N.N.N.N.m.N.m.m.n.n.n.n.n.c.c.c.c.n.j.p.n x v !.<X,X<X:X).f 7 F #.O.y s F [.>X-X,XN.d.A.d.c.b.V.S.D.D.D.D.D.S.D.D.D.`.D.D.`.`.D.D.D.S.V.S.S.S.D.D.D.D.D.`.`.`.`.`.`.`.`.`.`.`.`.`.`.`.`.`.`.D.D.`.`.`.`.`.`.`.D.D.D.D.D.S.S.D.D.`.`.D.C.C.C.S.S.S.S.D.D.C.C.D.D.D.D.S.S.S.V.V.V.V.V.V.b.b.N.Z.V.V.V.V.V.V.V.V.b.c.t.",
"n.c.c.A.A.x.j.c.c.V.S.S.D.D.D.`.D.D.D.`.`.`.D.D.`.`.`.`.`.`.D.D.D.D.D.D.D.D.D.`.`.XXXX`.`.`.`.`.`.`.`.`.`.`.`.`.`.`.`.`.`.`.`.`.D.`.`.`.D.D.D.`.`.D.D.`.`.`.`.`.`.`.`.`.D.D.D.D.`.`.`.`.`.`.`.`.D.D.D.D.`.`.`.`.D.D.D.D.D.D.D.`.N.t.T T T R R R r.t.t.u.i.d.M.c.d.j.I 2 s 8.O.y $ @ , k.8XwXwXqX+XoXXXoXoXoXoXoXoXXXXXXX`.`.`.`.`.`.`.`.`.`.`.`.`.`.`.`.`.`.`.`.`.`.K.K.D.`._.c.u.q.t.j._.'.`.D.D.D.`.D.D.D.`.`.D.D.D.D.`.`.`.`.`.`.`.`.`.`.`.`.`.`.`.`.D.D.`.`.`.`.`.`.`.`.`.`.D.D.`.`.`.`.`.`.`.S.V.V.N.N.V.V.N.c.c.d.i.i.d.d.j.j.c.c.b.b.b.b.V.D.`.`.`.`.S.b.c.V.@X-X_.f # #.tX#.2 5 p.'.V.s.p.s.p.t.t.j.n.j.s.p.s.l.n.N.V.V.V.V.V.V.N.m.m.m.m.m.b.b.b.b.m.m.m.m.m.m.m.m.m.N.m.m.N.m.N.m.N.N.m.N.N.N.N.N.m.m.m.m.m.m.M.M.M.M.N.N.N.N.N.N.N.N.N.N.N.N.b.b.m.n.n.c.c.c.c.c.c.c.c.n.s.m v n !.,X7X6X).h 9 F #. .y i F ).<X*X*XN.d.d.d.c.N.V.S.D.D.D.`.`.D.D.D.`.D.D.D.D.D.D.D.D.D.C.D.D.D.D.D.D.D.D.D.D.`.`.`.`.`.`.`.`.`.`.`.`.`.`.`.`.`.`.`.`.`.`.`.`.`.`.`.`.`.`.`.`.`.`.`.`.D.D.D.D.D.D.V.V.V.V.V.V.V.V.S.S.V.V.V.S.V.V.V.V.b.b.b.b.N.V.V.V.V.V.V.V.N.N.n.u.",
"_.~.V.m.m.m.N.S._.`.S.S.D.D.D.D.D.D.`.`.D.D.`.`.`.`.`.`.D.`.D.D.D.D.D.D.D.D.`.`.`.`.`.`.`.`.`.`.`.`.`.`.`.`.`.`.`.`.`.`.`.`.`.`.D.D.`.`.D.`.`.`.`.`.`.D.`.`.`.`.`.`.`.`.`.`.`.`.`.`.`.`.`.`.`.`.D.D.D.D.`.`.`.`.D.D.D.D.D.D.D.S.V.!.N.V.V.V.V.V.V.N.b.b.c.c.N.c.d.j.I 2 F 8.O.y $ $ < k.8XwXwXwX<X+X@XOXoXoXoX+X+XoXoXoXoXXX`.`.XXXXoXXX`.`.`.`.`.`.`.`.`.`.`.`.`.`.`.`._.n.T v v v n n R s.N.`.`.`.C.D.D.D.D.`.D.D.D.D.`.`.`.`.`.`.`.`.`.`.`.`.`.`.`.`.`.D.D.D.`.`.`.`.`.`.`.`.`.`.`.D.`.`.`.`.`._.S.V.V.V.V.V.S._._.N.c.c.j.j.d.j.N.N.N.V.V.V.S.`.`.`.`.`.S.N.b.oX@X-X!.6 # #.tX#.2 5 p._.D.d.t.p.t.t.t.p.M.l.s.s.s.j.n.N.N.V.V.S.S.S._.N.N.N.N.N.N.N.b.b.N.N.N.N.N.N.N.N.N.N.N.N.N.N.N.N.N.N.N.V.V.V.V.N.N.N.N.N.N.N.N.N.N.N.N.N.N.N.N.N.N.V.N.N.N.b.b.N.N.N.N.N.N.m.n.n.c.c.c.c.n.d.P v v p.M.].W.h 9 J #. .y i F ).<X*X-XV.i.d.d.c.N.V.S.D.D.D.D.`.D.D.D.D.D.D.D.D.D.D.D.D.D.D.D.`.D.D.D.D.D.D.`.`.`.`.`.`.`.`.`.`.`.`.`.`.`.`.`.`.`.`.`.`.`.`.`.`.`.`.`.`.`.`.`.`.`.`.`.`.`.`.`.`.`.`.D.D.S.V.V.V.V.V.V.V.V.V.V.V.V.V.V.V.b.b.b.b.N.V.V.V.V.V.V.V.V.j.t.q.",
"~._._.!.!.!.V.D._.S.S.D.D.D.D.D.D.D.D.`.D.D.`.`.`.`.`.`.`.`.D.D.`.`.`.`.D.D.`.`.`.`.`.`.`.`.`.`.`.`.`.`.`.`.`.`.`.`.`.`.`.`.`.`.`.`.`.`.`.`.`.`.`.`.D.`.`.`.`.`.`.`.`.`.`.D.`.`.`.`.`.`.`.`.`.`.D.D.D.D.`.`.`.`.D.D.D.D.D.S.S.b.t.d._.`.D.D.K.XX`.`.`.D._._._.c.d.s.I 1 O.5.F 3 $ $ 1 k.8XwXwXeXqX&X-X*XOX*X*XOX+XoXoXoXoXoXXXXX`.XX`.`.`.`.`.`.`.`.`.`.`.`.`.`.D.V.N.c.t.n v L C L L L K v M t.n.].'.D.D.`.`.`.D.D.D.D.D.D.`.`.`.`.`.`.D.D.D.D.`.`.`.`.`.D.D.D.D.D.D.D.D.D.D.D.`.`.`.`.`.`.`.`.`.`._._._._._.S.V.V.S.~.S.N.c.c.j.c.N.N.S.S._.`.`.`.`.`.`.`._.S.oX*X@X>XW.5 # #.pX#.2 5 p.'.D.j.p.t.p.t.t.t.s.M.s.s.j.c.N.S.V.V.S.V.S._._._._.V.V.V.V.V.V.V.V.V.V.V.V.V.V.V.V.V.V.V.V.V.V.V.S.S.V._.`._._.V.V.V.S.S.S.S.V.V.V.V.V.V.V.V.V.V.S.S.S.V.V.V.V.V.N.N.n.n.c.j.j.j.d.j.j.j.c.A.s.v z z v v z j 5 s #.O.y i F ).>X-X>XV.i.d.d.c.V.V.V.D.C.C.D.D.D.D.D.D.D.D.D.D.D.D.D.D.`.`.`.`.`.`.`.`.`.`.`.`.`.`.`.`.`.`.`.`.`.`.`.`.`.`.`.`.`.`.XXXX`.`.`.XXoXoXoXoXoXoXoXoXoXoXoXoX`.oXoX`.'.`.`.`.`.D.D.S.S.S.S.V.V.V.V.V.V.V.V.V.N.b.b.b.N.V.V.V.V.V.V.V.V.i.T T ",
"!.s.m U q.j.S.S.S.S.D.D.D.D.D.D.D.D.D.`.`.`.`.`.`.`.`.D.`.`.D.D.`.`.`.`.D.D.D.D.D.D.D.D.D.D.D.D.`.`.`.`.D.D.D.D.`.`.`.`.`.`.`.`.`.`.`.`.`.`.`.`.`.`.`.`.`.`.`.`.`.`.`.`.D.`.D.`.`.`.`.`.`.`.`.`.D.D.D.D.`.`.`.`.D.D.D.D.D.S.S.c.Y U l.`.`.`.XX+XoX`.`.S.N.b.V.b.d.s.I 1 #.#.a 3 $ $ 1 f.8XwXwXeXqX<X>X-X-X*X*X%X@X+XoXoX`.`.`.`.`.`.`.`.`.`.`.`.`.`.`.`.`.`.C.V.b.c.j.t.n v v K v v v v n n n z v m s._.`.`.`.`.`.`.`.D.`.`.`.D.`.`.`.`.D.D.D.D.`.`.`.`.`.D.D.D.C.D.D.D.D.D.D.D.D.`.`.`.`.`.`.`.`._.`.`.`.`.`.C.C.V.S.S.S.S.V.N.N.B.N.N.V.V.S.`.`.`.`.`.`.`.S.'.-X*X@X+Xp.5 # #.fX#.2 3 p.'.D.M.t.t.t.t.t.t.s.s.s.s.M.G.S.S.S.S.S.V.V._.S.S.D.S.D.D.D.D.D.S.S.S.S.S.S.S.S.V.S.S.S.S.S.S.S.S.S.S.C.C.D.C.D.D.C.C.S.S.S.S.C.C.C.V.S.S.S.S.D.D.D.D.D.D.D.S.S.N.c.d.d.d.d.d.d.d.j.j.c.c.b.c.b.f.z x z Q H h 5 s #.O.i s F ).>X-X>XV.i.i.i.d.V.V.S.D.C.C.D.D.D.D.D.`.D.D.D.D.D.D.D.D.`.`.`.`.`.`.`.`.`.`.`.`.`.`.`.`.`.`.`.`.`.`.`.`.`.`.`.`.`.XXXXXX`.`.XXXXoXoXoXoXoXoXoXoXoXoXoXoXoXoXoXoXoXoXoXoX'.'.`.D.`.`.D.D.D.S.V.V.V.V.b.b.b.b.b.b.V.V.V.V.V.V.V.V.~.c.q.T ",
"f.t.s.l.M.N._.`.V.S.S.S.D.D.`.`.D.`.`.`.`.`.`.`.`.`.`.`.D.D.D.D.D.D.D.D.`.D.D.D.D.D.D.D.`.`.`.`.D.`.`.`.`.`.`.`.`.`.`.`.`.`.`.`.`.`.`.`.D.D.D.`.`.`.`.`.`.`.`.`.`.D.D.D.`.`.D.`.D.D.D.`.`.`.`.D.D.D.D.D.`.`.D.D.`.`.D.D.D.C.D.!.^ v n r.s.f.s.s.s.t.r.m T r.u.x.u.u.E 3 5.$.a 2 $ @ 1 k.6XeXeXeXqX6X>X>X*X*XOXoXoXoXoXoX'.`.`.`.XXXX`.D.`.`.D.D.D.D.D.D.D.S.V.N.b.c.u.q.U n n n m T q.t.t.p.f.p.K g g n s.!.~.C._._.D.D.`.`.D.D.D.D.D.D.D.S.`.`.D.D.D.D.D.D.D.D.S.S.S.D.D.D.D.D.D.`.`.D.D.D.D.D.`.`.D.D._._._._.S.S.D.S.V.V.V.V.V.N.N.N.V.V.V.V.S.S.S.D.`.D.'.*X*XS.~.j.L 1 # #.fX#.2 5 p.`.D._.s.q.r.r.r.R Y n E s.N.V.V.V.S.S.S.S.S.S.D.V.C.`.`.`.`.C.V.S._._.S.S.S.S.V.S.S.V._._.V.S._._._._.C.C.V.V._.S.V.V.V.S.S.S.V.V.V.V.V.V.V.S.S.S.D.D._._._.`._.c.i.j.c.c.c.c.c.b.N.N.V.V.V.V.N.N.s.c f x j f 5 s #.O.y i F ).-X*X,XV.i.i.i.i.V.V.S.S.D.D.D.D.D.D.D.D.D.D.`.`.`.`.`.`.`.`.`.`.`.`.`.`.`.`.`.`.`.`.`.`.`.`.`.`.D.D.D.D.`.`.XXXXXX`.XXXXXXXXXXXXXXoX`.XXoXoXoXoXoXoXoXoXoXoXoXoXoXoXoXoXoXoX`.`.D.D.D.D.D.D.V.V.V.N.b.b.b.b.b.b.V.V.V.V.C.C.C.V.V.N.u.t.",
"t.a.a.p.p.f.n.N.V.S.D.V.C.C.D.D.D.D.`.`.`.`.`.`.D.D.D.`.`.`.`.`.`.`.D.D.`.S.S.S.D.D.D.D.D.D.D.D.D.D.`.`.`.`.`.`.`.`.`.`.`.D.D.`.`.`.`.`.D.D.D.`.D.D.D.`.`.`.`.`.`.D.D.D.`.D.`.`.D.D.D.D.`.`.D.D.D.D.D.D.`.`.D.D.`.`.D.D.D.D.V._.p.z x j x x z z x z z v Y T p.u.u.u.^ 3 5.O.s 2 $ @ 1 k.6XwXwXwXqX>X*X*X+XoXoXoXoXoXXXXX`.`.`.`.`.`.`.D.`.`.D.D.D.D.D.D.V.V.N.b.c.c.d.d.i.u.u.c.M.M.N.N.n.s.r.T x h k g c n T r.p.p.f.l.n.n.N.N.N.~.V.S.S.S.D.D.S.S.S.S.C.C.C.C.S.S.S.D.D.D.D.D.`.D.S.`.D.D.D.D.S.D.S.S.`._._.S.S.S.S.D._.S.V.V.V.N.N.b.N.V.V.V.V.V.S.D.D.`.*X>X*Xc.n.q.h 2 . #.fX#.2 5 p.`.D.`.N.r.T T P z x x v s.N.N.V.V.V.S.S.S._._.S.S.S._.`.`.`.`._._._.V.S.S.S.S.V.S.S.V._.S._.S.S._._._.S.V.V.V.V.V.V.V.S.S.S.S.V.V.S.S.S.V.V.V.V.V.S.S.S.S.S.S.V.N.N.N.N.N.N.N.S.S.S.S.S.S.S.S.N.N._.p.x f 6 9 5 u @.O.y y F ).-X*X,XV.d.d.i.A.V.V.D.D.D.D.D.D.`.`.`.`.`.`.`.`.`.`.`.`.`.`.`.`.`.`.`.`.`.`.`.`.`.`.`.`.`.`.`.`.XX`.XXXXXXXXXXXXoXXXoXoXoXoXoXoXoXoXoXoXoXoXoXoXoXoXoXoXoXoXoXoXoXoXoXoXoXoXXX`.D.D.D.D.D.S.V.V.N.N.m.N.N.N.m.m.V.V.V.V.V.C.V.V.Z.b.c.d.",
"x f f h x P T d.N.S.`.C.D.D.D.`.D.D.D.`.`.`.`.`.D.D.D.D.`.`.`.`.`.V.V.N.N.N.N.N.V.V.V.V.D.D.D.D.D.D.D.`.`.`.`.`.`.`.`.`.D.`.`.D.`.`.`.`.`.D.D.D.D.D.D.D.`.`.`.`.D.D.D.`.`.D.`.`.D.D.D.D.`.`.D.D.D.D.D.D.`.`.D.D.`.`.D.`.S.D.D._.E x B B B j j j l l z n U T t.s.u.d.^ 3 5.| s 4 $ , 1 k.6XwXwXwX<X*X+X+X+X+X'.'.oXoXoX`.`.`.`.`.`.`.`.D.`.`.D.D.S.V.V.V.N.b.N.m.b.c.b.b.b.N.V.V.V.N.N.b.i.q.T T z j j x x x x c z z v n n U T r.p.s.j.n.N.V.V.S.S.S.S.S.D.D.D.D.S.S.S.D.S.S.S.S.S.S.S.S.D.D.D.D.S.S.S.S._.`._._.S.S.S.S._._._._.S.S.V.V.V.V.V.V.V.V.D.D.D.*X-X-X@Xc.n.T 6 ; . #.iX#.2 5 p.`.D._._.c.m n z g k x v f.M.N.N.N.N.N.V.V.V.V.V.V.S.S._._._._.`._.S.S.V.V.V.V.V.V.V.V._.V.S.V.V.V.V.V.S.S.V.V.V.V.S.S.V.V.V.V.V.V.S._.V.V.V.V.S._.S.S.V.V.V.V.S.S.V.N.V.S.S.S.S.S.S.S.S.S.V.V.N.N.N.!.Y k f h 5 s +.O.y y F ).-X*X*XV.A.A.A.m.D.`.`.D.`.`.`.`.`.`.`.`.`.`.`.`.`.`.`.`.`.`.`.`.`.`.`.`.XXoXoXoXoXoXoXoXoXoXoXoXXXoXoXoXoXoXoXoXoXoXoXoXoXoXoXoXoXoXoXoXoXoXoXoXoXoXoXoXoXoXoXoXoX'.'.`.`.`.`._._._.~.V.~.V.V.N.N.N.N.N.m.N.N.N.V.V.V.V.V.V.V.Z.Z.b.c.u.",
"h 6 5 5 h C Y r.s.l.!._.`.`.`.D.D.D.D.D.D.D.D.D.D.D.D.D.`.`._.N.c.c.c.c.c.c.n.N.N.N.V.V.C.C.C.C.D.D.D.D.`.`.`.`.`.`.`.`.`.D.D.`.`.`.`.`.`.D.D.D.D.D.D.D.`.`.`.D.D.D.D.`.`.`.D.`.D.D.D.D.D.D.D.D.D.D.D.D.`.`.D.D.`.D.D.D.S.D.D.j.z l j k j x x n n Y r.r.p.f.j.c.c.c.] 3 5.| s 2 $ , 1 f.6XwXqX6X+X'.'.`.'.`.`.`.`.`.`.`.`.`.`.`.`.`._.S.V.V.V.V.N.N.b.b.b.b.c.c.c.c.b.b.N.N.N.V.m.m.c.c.d.t.^ ^ n z x x z z z z z K v v n P P P m T r.u.d.b.b.b.V.V.V.V.S.S.S.S.S.S.S.D.S.S.S.S.S.S.S.S.S.S.S.S.S.S.D.D.`.`._._.S.S.S.S.S.S._._.S.S.S.D.V.V.S.V.C.D.D.D.*X-X-X-XXXx.s.T 6 # . #.iX<.2 5 p.`.D._.D.V.l.q.z k k x v s.c.n.N.N.N.N.N.N.N.N.N.V.V.V.V.V.V.V.V.V.V.V.V.V.V.V.V.V.V.V.V.V.V.V.V.V.V.V.S.S.V.V.V.V.V.V.V.V.V.V.V.V.V.V.V.V.V.V.~.~.V.V.V.V.V.V.V.V.V.S.V.V.V._.S.S.S.S.S.S.V.V.N.V.V.N.r.v f j 7 s +.O.y y J ).*X*X*X`.V.Z.V.D.D.`.oXoX`.`.`.`.XXXXXXXX`.oXoXoXoXXXoXoXoXoXoXoXoXoXoXoXoXoXoXoXoXoXoXoXoXoXoXoXoXoXoXoXoXoXoXoXoXoXoXoXoXoXoXoXoXoXoXoXoXoXoXoXoXoXXXXX`.D.D.S.S.S.N.b.b.B.B.n.n.c.c.c.c.c.c.n.c.c.c.c.c.n.N.N.V.V.V.V.V.V.N.b.c.j.s.p.",
"h f x C P E P v n n U T p.M.~.~._._.`.D.S.`.D.`.`.`.`.D.D._.N.c.j.j.c.c.c.c.N.N.V.V.S.V.V.V.S.S.D.D.D.D.`.`.`.`.D.`.`.`.`.D.D.D.`.`.`.`.`.`.D.D.`.`.`.D.D.D.D.D.`.`.`.`.D.D.D.D.D.D.D.D.`.`.`.`.`.`.`.`.D.D.D.D.D.D.D.C._.D.G.Y x l k k x Y j.M.!._.V.V.V.V.S.S.b.M.h.3 5.a s 2 $ @ 1 f.6X0X<XoX`.`._.~.V.V.V.S.V.S._._._.S.S.S.V.N.N.N.b.b.b.c.c.c.c.c.c.c.c.c.c.c.b.N.N.N.b.b.N.m.m.c.j.p.T n n n n n U U R ^ r.r.p.s.s.s.s.j.j.j.j.c.b.b.N.V.V.V.S.S.V.V.V.V.V.V.C.D.D.D.D.D.S.S.D.D.S.S.S._.S.S.S.S.`._.S.S._.S.V.V.V._._.S.S.D.S.S.D.S.S.S.S.D.D.@X<X-X-X-X`.i.u.r.j $ . #.fX<.2 5 p.`.S._.S._._.N.^ k j x n f.j.c.n.n.N.N.N.V.N.N.V.V.V.V.N.N.N.N.V.V.V.V.V.V.V.V.V.V.V.V.V.V.V.V.V.V.V.V.V.V.V.V.V.V.V.V.V.V.V.V.V.V.V.V.V.V.V.V.V.V.V.V.V.V.V.V.V.V.V.V.V.V.S._.S.S.S.S.V.V.V.V.N.N.N.N.T P z l 6 s +.O.i i J ).*X+X*XoX`.`.D.D.D.`.oXoXXXXXXXoXoXoXoXoXoXoXXXoXoXoXoXoXXXoXoXoXoXoXoXoXoXoXoXoX+X+X+X+XoXoXoXoXoXoXoXoXoXoXoXoXoXoX'.'.oXXXXXXXXXXX`.`.D.D.D.D.D.D.S.S.V.V.V.b.b.B.c.j.f.s.s.d.d.s.d.s.s.s.s.s.u.u.y.r.q.q.r.t.u.j.d.i.u.t.T m n n n n ",
"v n Y r.r.r.T Y P L n n n n U q.q.y.t.t.u.d.c.m.N.V._._.V.c.c.c.c.c.n.m.N.N.N.V.V.V.S.V.V.V.S.S.S.S.S.S.S.S.S.S.S.D.D.D.`.D.D.D.`.`.`.`.`.`.D.D.`.`.`.`.D.D.D.D.`.`.`.`.D.D.D.D.D.D.D.D.`.`.`.`.`.`.`.`.D.D.D.D.D.D.C.`.S.M.T z C j k z E l.N.N.N.N.Z.Z.V.S.S.D.S.N.R.3 5.a s 2 $ @ 1 f.<X<X*XS.S.V.V.V.V.V.V.V.N.N.N.N.N.b.b.b.b.c.c.c.j.c.c.c.j.j.j.c.c.c.c.c.c.b.N.N.b.N.b.b.m.b.b.A.i.i.u.u.j.j.j.n.l.l.n.M.N.N.N.V.N.V.V._.S.S.S.S.S.S.D.D.D.D.D.D.`.D.D.C.S.V.S.S.S.S.S.S.S.S.S.S.S.S.S._.S.S.S.S.`._.S.S._.`._.V.V._.`.`.S.S.D.S.D.V.V.S.D.D.*X<X-X<X-X>Xm.i.u.t.L 5 , 0.fX<.2 5 p.`._._.V.V.V.N.p.x k x U k.l.c.c.c.M.N.N.N.N.N.N.V.V.N.N.N.N.N.V.V.N.N.V.V.V.V.~.~.~.~.V.V.V.V.V.V.V.V.V.~.V.~._.~.V.V.V.V.V.V.V.V.V.V.V.V.N.N.N.N.N.N.N.N.b.b.b.N.N.V.S.S.V.V.S.S.V.S.V.V.V.V.N.N.N.j.T P v z 6 s +.O.i i J ).*X+X+XoXD.`.D.D.D.D.F.D.oXoXoX'.`.`.oXoXoXoX'.oX`.oXoX'.`.oXoXoXXXXXXXXXXXXXXXXXXXXXXXXXXXXXXXXX`.`.`.`.`.D.S.D.D.S.S.S.V.V.V.V.V.V.V.S.S.S.S.S.V.V.V.V.V.V.V.b.c.j.d.u.p.p.u.u.t.t.u.u.u.u.d.n.l.j.s.u.s.p.m m m U m m P v z l l l z z ",
"d.A.c.c.c.c.j.j.r.T U n m m m T r.t.s.j.j.c.c.c.c.c.b.b.c.c.c.c.b.N.N.N.N.V.V.V.V.V.V.V.V.V.V.S.S.S.S.S.S.S.S.S.S.S.S.S.`.D.D.`.D.D.S.S.S.D.`.`.`.`.`.`.D.D.D.D.`.`.`.`.D.D.D.D.D.D.D.D.`.D.`.`.`.`.`.`.`.`.`.D.D.D.].n.r.v l j j j z U t.c.c.N.N.N.b.V.D.D.D.D.D.G.R.5 0.a s 3 $ @ 1 f.,X,X*XS.V.V.V.V.V.V.V.N.N.N.b.b.b.b.b.b.b.c.c.c.c.c.c.c.c.c.c.c.c.b.c.c.b.N.b.Z.V.V.V.V.N.b.b.c.m.N.N.V.V.V.V.V.S.S.V.V.D.D.D.D.D.D.D.D.D.D.D.D.`.D.D.`.`.`.`.`.`.`.`.`.`.S.S.D.S.S.S.S.S.S.S.S.S.S._._.S.S.S.S._._.S._._.V.V.`.S.S.S.`.D.S.D.S.S.D.S.V.D.*X<X<X:X<X<X'.d.d.u.u.R h , 0.fX5.2 5 k.`.S._.C.V.N.j.^ P v v r.s.s.d.d.d.j.c.n.c.n.M.n.n.n.n.n.N.n.n.N.N.N.N.N.N.N.N.N.N.N.N.N.N.N.N.N.N.N.N.N.N.N.N.N.N.N.N.N.N.N.N.m.m.m.m.m.m.m.b.c.c.b.b.b.b.b.b.N.N.V.V.S.V.V.V.V.V.V.V.V.V.V.V.V.N.M.t.U U v z 5 s +.O.i i J ).@X+XoXoXD.`.`.`.D.D.`.D.S.S.S.V.V.N.N.N.b.N.N.V.V.V.V.V.V.V.V.V.V.V.V.V.V.V.V.V.V.V.V.V.V.V.V.V.V.V.V.V.V.V.V.V.V.V.V.V.V.V.V.V.V.V.S.S.S.S.S.S.S.S.S.S.D.S.S.S.N.c.d.d.s.u.t.p.t.t.t.s.j.l.n.n.M.j.d.j.j.l.T U P P L L C z l C C l l l ",
"C.V.Z.Z.Z.b.b.b.b.c.c.j.i.c.c.N.N.N.N.V.N.N.b.b.N.c.c.c.c.m.N.b.b.b.N.V.V.b.b.N.V.V.N.V.N.N.N.N.b.N.N.N.N.N.N.N.N.N.N.N.V.V.V.S.D.D.S.S.S.D.`.`.`.`.`.`.D.D.D.D.`.`.`.`.D.D.D.D.D.D.D.D.`.`.`.`.`.`.`.`.`.`.`.`.D._.l.n x B B l B l L R p.j.N.!.s.u.u.!.D.D.D.D.D._.W.5 #.a s 2 $ @ 1 f.,X,X*X`.D.D._._.`.S.S.S.S._.S.S.S.S.V.V.V.N.V.N.N.b.b.c.b.m.N.N.N.N.V.V.V.V.V.V.V.V.V.V.V.V.V.V.N.N.Z.Z.V.V.V.S.S.D.D.D.D.D.D.D.D.D.D.D.D.`.`.D.D.D.D.`.`.`.`.`.`.`.`.`.'._.S.S.S.V.V.S._._.S.S.S.S.S._.S.S.S.S._._.S.S.V.V.S._.S.V.V.`.S.D.S.S.D.S.D.`.*X<X<X:X:X:X*Xc.d.d.u.i.R h , #.iX5.2 7 k.`.S._.V.!.l.r.T r.r.p.p.s.p.s.u.u.d.j.j.j.j.j.c.c.c.c.c.c.j.n.c.c.c.c.c.c.c.c.c.c.c.c.c.n.n.n.c.c.c.c.n.n.n.n.n.n.c.c.n.c.c.c.c.n.n.n.b.m.N.N.V.V.V.V.V.V.V.S.V.V.V.S.V.V.V.V.V.V.V.V.V.V.V.V.Z.N.f.T T Y v C 6 s O.O.i i J W.oXoXoX`.D.D.`.~.V.m.m.c.c.c.d.i.i.i.i.i.i.i.d.c.b.b.N.N.N.V.V.V.V.V.V.V.V.V.V.V.V.V.V.V.V.V.V.V.V.V.V.V.V.V.V.V.S.V.V.V.V.V.V.V.S.S.V.V.V.V.S.S.S.S.S.D.D.S.S.S.S.S.G.N.M.l.s.r.r.r.t.s.f.l.l.j.f.s.d.j.j.l.r.U P P L L z z z z z x x z ",
"D.D.D.D.C.C.C.V.C.C.V.V.V.V.Z.Z.V.V.V.V.V.V.V.V.N.m.c.n.N.N.N.V.V.V.V.N.N.N.N.c.c.c.c.j.j.j.j.j.d.d.d.d.d.d.d.d.d.d.d.j.j.j.c.M.N.V.V.S.S.D.D.`.D.D.S.S.D.S.`.`.D.D.D.D.`.`.`.`.`.`.`.`.D.D.D.`.D.D.D.D.D.`.`.`.D._.q.x x j j j C z P q.s.l.!.d.m q.j._.`.`.'.'.`.S.R.7 $.a s 2 $ < 1 f.,X,X*X'.D.D.D.D.`.`.D.D.D.D.D.D._.S.S.S.S.S.S.V.V.V.V.V.C.V.V._.V.V.V.V.S.S.S.S.V.V.S.S.S.S.V.V.V.Z.Z.V.V.V.V.V.V.S.C.D.D.D.S.S.D.D.D.D.D.D.D.D.D.D.D.D.`.`.`.`.`.D.`._.j.p.r.U n n n P Y p._.S._._.V.S.V._.S._._._._.`._._.S.V.S.S.S.S._._._._._.D.D.'.-X>X<X:X:X<XV.u.d.d.u.i.R 9 , #.pX5.: 9 k.`.S.V.V.n.t.^ R R r.p.p.s.s.s.s.s.d.j.n.n.n.n.c.c.c.c.n.n.n.n.n.n.n.n.c.b.N.N.N.N.N.N.N.N.N.N.N.N.m.m.N.V.V.V.N.N.N.N.V.V.V.V.V.V.V.V.S.S.S._._._.S.S.S._._._.V.V.V.V.V.V.V.V.V.V.V.V.V.V.V.V.V.M.t.q.r.Y v C 7 s +.O.i i J k.D.`.`.`.`.S.V.c.i.i.i.i.i.u.u.u.i.i.i.i.A.c.m.N.b.N.N.V.N.V.N.N.V.V.V.V.Z.Z.V.V.V.V.V.V.V.Z.V.V.V.V.V.V.V.V.V.V.V.V.V.V.V.V.V.V.V.V.V.V.V.C.C.C.C.D.D.D.D.D.D.D.S.S.S.S.V.N.s.n z v z z n v v n U q.s.x.j.l.p.U n n P P P U R R w.T Y L ",
"D.D.D.D.`.`.`.D.K.D.D.D.D.D.C.C.C.C.C.C.C.C.C.V.V.N.m.N.N.N.N.V.V.V.N.b.n.c.d.u.s.s.u.u.s.u.u.u.u.u.u.u.t.t.t.t.t.t.u.u.u.u.u.u.i.A.A.b.V.S.`.D.D.D.S.S.S.S.`.`.D.D.D.D.`.`.`.`.`.`.`.`.D.D.`.`.`.`.`.`.`.`.D.`.S._.s.U n n L v v P r.s.c.N._.V.N._.'.D.`.`.'.'.oXS.h.3 O.a s 2 $ < 1 f.*X,X*X'.D.`.`.D.`.`.D.D.D.S.S.S.D.D.D.D.C.D.C.C.C.C.D.C.C.V.V.Z.V.V.V.V.V.D.D.D.V.V.V.V.D.V.V.V.Z.Z.V.V.V.V.V.V.V.V.C.C.C.D.D.D.D.`.D.D.D.D.D.D.D.D.D.`.`.`.`.`.D.D.`.u.z l k f 6 6 8 8 8 f P p.l.!._._.V._.S._.S.S._._._._.V.S.D.D.D.D.S.S.S._._.D.D.'.-X<X:X<X<X`.i.i.d.d.u.d.R 9 , #.tX5.2 9 k.`.S.V.N.s.T ^ E Y Y Y Y Y R ^ r.t.j._._._._._._._._._._._._._.`.S.D.D.V.V.D.`.D.D.S.S.D.`.`.D.V.S._._.S.S.D.`.S._._._.`.`.`.`._._._._._._._._.S.S.S.S.S._.S.S.V.V.V.V.V.V.V.V.V.V.V.V.V.V.V.V.V.n.T q.^ Y v C 7 s O.O.s i V k.D.D.`.D.D._.b.A.d.i.d.i.i.i.i.i.c.c.c.m.N.V.V.N.N.N.b.b.b.N.N.b.N.V.V.V.b.b.Z.Z.V.V.V.V.V.V.V.V.V.V.V.V.V.V.V.V.V.V.V.V.V.V.V.V.V.V.V.V.S.S.S.S.V.S.S.S.S.S.S.S.C.C.S.V.Z.N.p.n z z l x x x x z v Y s.d.A.j.d.u.p.t.p.p.p.s.l.l.j.s.s.r.",
"c.c.c.c.m.m.N.V.S.D.`.`.D.D.`.`.D.D.C.C.C.C.C.V.N.m.m.N.m.m.m.N.N.N.N.N.c.d.j.n.n.n.n.n.n.n.n.n.N.n.N.n.n.n.n.n.n.n.n.n.j.j.j.j.c.c.c.N.V.S.D.S.D.D.D.S.D.`.`.`.D.D.D.D.D.D.D.D.`.`.`.`.`.`.D.`.`.D.`.`.`.`.D.S._.`._._.N.N.!.M.M.M.!._._.`.`.oX'.'.oXK.`.`.`.`.`._.] 3 | a s 2 $ < 1 p.*X*X*X'.`.`.`.`.`.`.`.`._._._._.D.D.D.V.C.C.V.S.S.N.b.V.~.V.V.V.S.S.S.D.S.S.S.S.D.D.S.D.D.V.N.N.M.n.n.l.j.j.d.d.l.l.n.m.N.V.V.C.D.`.D.`.D.D.`.`.D.D.D.`.`.`.`.`.D.D._.m x j h f f 6 6 6 5 5 f x z n t._._.S._._.V.V.V.V.S.S.S.S.S.S.S.S.S.S.S.S.V.S.D.'.-X<X-X<X].i.u.d.d.s.u.d.E 7 @ #.8.5.2 9 l.`.S.V.~.d.r.^ E E Y P L n n P m T M._.S.D.`.D.`.`.`.`.D.D.S.S.D.S.V.V.V.V.V.V.C.C.C.C.C.D.D.C.V.V.S.S.S.S.D.D.S.S.D.S.S.S.S.S.V.V.V.S.V.V.V.V.V.V.V.V.V.V.V.V.V.V.V.V.V.V.V.V.V.V.V.V.V.V.V.N._.p.U T R Y v j 7 u O.O.s y V k.`.`.S.S.C.V.N.N.N.b.m.m.m.m.N.N.N.N.N.N.b.b.N.N.N.b.b.b.b.b.b.b.b.b.V.V.b.b.V.V.V.V.N.N.V.V.V.V.V.V.V.V.V.V.V.V.V.V.V.V.V.V.V.V.V.V.S.S.S.S.S.S.S.S.S.S.S.S.S.V.V.V.S.S.N.j.t.R L L L z x l l z K Y p.f.j.j.j.j.k.f.u.u.u.j.c.c.A.d.s.p.",
"q.q.q.t.t.t.t.t.u.u.s.d.c.c.N.N.V.V._._.S.S.V.N.m.c.c.c.n.n.c.c.c.c.N.N.N.N.N.N.b.b.b.b.N.b.b.b.N.N.N.V.V.V.V.V.V.V.V.V.V.V.V.V.V.S.S.S.S.S.S.D.D.D.D.D.D.D.D.D.S.S.S.S.D.D.D.D.S.S.S.S.`.`.`.`.S.S.S.S.`.`.`._._.`.`.S.D.D.D.`.'.'.'.'.]._._._._.`.`.D.`.`.`.`.+X_.` 1 F a s 2 $ < 1 p.*X*X+X`._._._.S.S.S.S.S.V.N.N.N.m.N.N.N.V.V.N.j.p.q.T q.p.l.M.N.N.N.c.c.j.j.j.j.j.j.j.c.c.d.t.r.T T U n n n v v v K P E ^ p.u.j.c.N.N.G.V.V.S.S.S.S.D.D.D.D.D.D.D.S._.Y c x x x k k h h f f f f j z U !.S.V.S.S.V.V.V.V.S.S.V.V.V.V.V.V.S.S.S.S.V.`.'.*X*X*X,X`.i.y.u.s.u.u.u.s.E 7 @ #.tX5.2 9 k._.S.S.V.b.u.r.R R E Y Y Y P P P t.!.S.D.D.`.`.D.D.D.D.`.`.D.S._._.S.S.S.S.S.S.S.S.S.S.S.S.S.S.S.S.S.S.V.~.~.~.V.S.S.V.V.V.V.V.V.V.V.V.V.V.V.V.C.V.V.V.V.V.V.V.V.V.V.V.V.V.V.V.V.V.V.V.V.V.V.V.d.m Y ^ ^ Y v j 5 u O.O.y y V f.S._.S.V.V.V.N.N.N.N.N.N.b.N.N.N.N.N.N.N.b.V.b.b.b.b.b.b.b.b.b.b.b.b.V.V.N.N.V.V.N.N.N.N.V.V.V.V.V.V.V.V.V.V.V.V.V.V.V.V.V.V.V.V.V.V.V.V.S.S.S.S.S.S.S.S.S.V.V.N.N.N.n.c.u.r.T E P Y E ^ E K z z z v P P P P Y Y T r.u.j.c.c.c.c.j.f.r.U ",
"^ R R ^ r.r.r.r.r.r.r.r.t.t.p.u.s.d.j.j.j.j.j.d.s.u.u.u.u.s.d.d.d.d.c.m.N.N.B.M.N.b.N.N.b.N.V.V.N.V.V.V.V.V.V.V.V.V.V.V.V.V.V.V.V.V.V.V.S.S.S.S.D.D.S.S.D.D.D.D.D.S.S.D.S.S.S.D.S.S.S.D.D.D.D.`.D._._._.G.j.f.s.s.j.j.c.n.M.M.M.n.l.f.p.p.t.p.s.f.j.l.l.n.M.M.M.!.l.H 3 a a s w ; , 1 p._._.N.d.u.u.u.s.u.u.u.u.u.t.y.y.t.t.u.u.d.s.r.n K z z z v n ^ s.j.t.q.R T q.q.q.q.q.q.q.q.R P v z x x k j j j k k k j j x c v n m Y ^ r.u.s.j.j.M.M.M._.!.!.M.M.M.l.p.U C z z z z z l l l x x k x v T M._.S.S.S.S.S.V.V.V.V.V.V.V.V.V.S.V.V.S.S.`.'.oX*X*X+X_.u.q.t.u.u.u.u.u.s.E 5 = #.tX5.2 f W._.V.S.V.N.M.c.s.r.r.T Y Y P U T p.N.S.V.`.`.`.`.`.'._.`._.N.c.j.d.c.N.V.V.S.S.~.V.V.~._._.V.V._.S.S._.V.V._._.V.V.V.S.V.V.V.V.V.V.V.V.V.S.V.V.V.V.~._.S.S.S.V.S.V.V.V.V.V.V.V.V.V.S.V.V._.!.p.n n T R R R K j 7 y a s y : h p.N.V.b.c.M.N.N.b.m.m.b.c.b.N.b.b.b.b.N.N.N.N.N.b.b.b.b.b.V.N.N.N.N.N.N.b.N.N.N.N.N.N.b.b.Z.Z.b.b.N.V.V.N.N.V.V.V.V.V.V.V.V.V.V.V.V.V.V.V.V._._.S.S.S.S.S.D.S.M.s.p.r.q.T Y Y U U U R ^ ^ r.R P v z z C C j h h x E W.n.n.c.c.c.j.d.p.U L ",
"K K K K L K K L L L L L L Y P P P E E Y U m Y T T R R R R R R R q.q.t.u.u.s.j.l.n.n.M.n.N.N.N.V.G.G.S.S.V.V.V.V.Z.V.V.V.S.S.V.V.Z.Z.S.S.S.S.S.S.S.S.S.S.D.C.V.V.D.S.D.D.S.S.S.S.D.S.S.S.D.S.S.S.S.!.k.R v c z K v P U Y Y Y Y Y U n n n v v P U Y Y T T T T T T q.v f 3 a { s 2 ; , < p.j.u.t.r.q.q.q.r.r.r.r.r.r.q.q.r.^ ^ ^ ^ R P z x x x x x l z n T t.p.q.R q.r.r.q.r.r.r.r.R P z x j j h h h h f f f k k h j k k k k k x x z z v n n n U U U U U P P n v z l l x x l l l l x x z z C L Y s.N.N.N.N.~.~.~.~.V.V.V.V.V.V.V.V.V.V.V.S._.~._.V.N.d.y.q.q.t.t.u.u.t.t.u.P 3 = $.pX2.: 6 k._.V.V.~.d.s.c.M.n.j.s.t.R R R R r.j.n.n.n.l.l.l.l.d.s.s.t.q.q.q.T q.t.b.V.~.~.V.V.V.V.V.V.V.V.V.V.V.V.V.V.V.S.V.V.V.V.S.V.V.V.V.V.V.V.V.V.V.V._._.!.n.M.!.!.!.~.~.~.~.~.~.~.~.!.N.!.N.M.s.T n P Y R T T T z j 7 y i i y : 9 p.N.m.c.u.u.d.c.N.N.b.b.b.b.b.b.b.b.b.b.b.b.b.b.b.N.N.N.N.c.c.c.d.i.i.c.c.b.b.b.b.b.b.b.b.N.N.N.N.!.!.M.M.n.n.n.n.n.!.N.!.!.!.!.!.N.N.N.N.s.r.p.s.l.l.!._.l.r.m P I L C C C L I I Y R ^ ^ r.r.^ Y K l j h f 6 9 f L k.c.n.l.l.l.l.f.U C B ",
"< , , < < < < < 1 1 5 5 5 6 8 8 6 C C l x k j j j j x l x x l C C C C L L L L L K v v L Y ^ p.f.j.n.n.m.M.M.M.!.N.N.N.N.~.~.~.~.V.V.V.V.V.V.N.N.b.c.j.j.c.c.j.c.B.B.B.N.B.B.N.N.b.b.B.B.N.M.M.j.r.v f 8 5 6 f h j j l l C C C l l l j j j j l C C C C L P P P L I l 8 2 O.| a : ; @ < ^ f.p.r.^ R E E E R R R R R R R R R R U P l k j j j j j j j j z P T ^ r.q.r.r.r.q.r.q.q.q.E z k k h h h h h h h k h h j k h h j j h h h j j j j j x x x x x j x j x j j j j j j j j j j j x x x x z K P U R q.t.p.t.p.p.s.s.s.s.u.u.u.u.p.u.p.t.t.t.t.u.t.t.T T T q.r.t.t.u.t.t.r.C 4 o O.8.+.; 5 E W.G._.s.T T u.c.c.c.M.n.p.E Y E R q.q.Y n n v v P U R T R r.p.p.p.s.k.n.!.!.!._._._._._.V.V._._.V.V._.N.S.S.V._._._.S.G.G.S._.!.N.N.N.!.!.!.l.p.R m n U U T R r.r.r.r.r.t.t.t.t.q.q.q.T Y Y Y R R R ^ ^ E l h 3 y i s y : 9 ` l.l.p.T U Y T r.s.j.n.M.M.N.N.N.N.N.N.N.N.N.M.c.j.d.u.u.t.t.u.u.i.c.c.c.c.b.b.N.N.N.!.!.l.s.r.T P n v v v v v v n P P E R R R R R R ^ T z k x c c v P n v z v Y E P z C z n P I E R R q.r.r.r.r.` I H C N 9 9 h j K Y r.p.p.r.Y C h 5 2 ",
"@ @ @ @ @ @ < < , 1 1 5 1 1 1 1 8 j C j h 7 < , , , , , < < < < 1 1 1 1 1 1 1 1 1 1 1 5 5 6 k x z K L P P P Y Y E E R R ^ ^ R R R R R E I L n z l h f 6 6 6 6 9 h h h h j j C C B B C C C j j h 8 1 1 1 3 5 5 5 5 5 5 5 5 5 5 5 6 5 5 5 5 6 6 h h h h j B C l l B h < 2 O.{ a : % $ @ I r.R E P P P P P P I E E Y P P v v z k k k h j j h h h h h 9 f z P E R r.r.r.q.q.T T T T P l j j j j j j j j j j j j j j k j j j j j j j j j x x j j j j j j j j B j j j j j j j j j j j k k k l z z z z v v v n n P P P P P P P n n P P U U U Y R R T T R R Y T T q.q.q.q.q.T P j $ X s #.{ : 3 h n ^ ^ n Y E p.d.j.j.j.s.T n Y Y E U U L l l l z L E ^ r.t.p.s.s.s.s.s.s.s.s.s.s.s.s.s.d.j.l.n.n.n.n.n.l.l.j.j.s.s.s.s.p.s.s.s.s.s.l.l.f.r.E n z C K L L L L L P P P Y Y E E E Y Y Y Y Y E E E R R ^ E I l f 7 3 y i i y : 3 L ^ ^ Y K C C K L P Y r.r.t.p.s.t.p.t.t.t.t.t.r.q.r.q.r.t.p.f.l.M.M.M.M.M.M.M.l.j.s.r.R P z x f f f f f h f f f f f f f f f g f k f k k x x j j k j j k x z z L L C j 9 5 6 9 h h h h j j h B j j j h h 9 7 7 3 5 3 1 1 3 1 1 < @ @ $ $ $ ",
"@ @ @ @ @ , , 2 1 1 1 1 1 1 1 1 8 h j f 6 5 2 @ @ @ @ @ @ @ @ @ @ @ @ @ @ @ @ @ @ @ @ @ @ @ , , , , 1 1 1 1 1 1 1 1 1 1 1 1 1 1 < < , , , , , , @ @ @ @ @ ; # # # # # @ @ = @ ; $ $ $ $ @ @ @ $ 2 2 2 2 2 1 1 1 2 2 1 1 1 1 1 1 3 1 1 3 3 3 3 7 5 7 7 7 5 5 5 7 7 1 @ y +.| { y % $ @ 9 C j j j h h h h h j j j j h 6 6 5 5 5 5 6 6 6 5 1 1 1 1 1 1 1 1 6 C C L I I I P P L L z l j h h f 6 6 6 6 6 6 6 5 5 5 5 8 8 8 8 5 6 6 6 6 6 6 6 6 h h 6 h 9 6 6 6 7 5 5 1 < < < < 2 2 1 1 6 f l z z z z v v v n v v v v v L n n P P P P n n P P U m m m P P P P P P Y P U P L l 7 .   s +.{ y 2 6 h h j C C I ` r.r.r.T P n L L L L L P C z l x l l L I Y P P Y P P n v v v z v z v n L P P Y Y Y Y Y Y U P P P L v v v z z z z l x l l x k x l C C C C C C C C C C C C L L L I I I I I I I I I L C j h 5 1 1 5 2 w i i y : 4 9 j B h h j j C C z C L L K K K v K L L P n P U U U Y E R R R R R T T T Y U n M v c x x x k k k f k k k k k k k k k k j j k k k k x x k k x x x x x z z C C C j 6 1 < @ @ # # # @ # . . . # # # # # # # # # # # # # # # # # # # - % % $ $ ",
"@ @ @ = ; ; = @ 2 2 1 1 1 1 1 1 1 3 3 1 1 2 @ @ @ @ @ @ @ @ @ @ @ # # @ # # @ @ @ @ @ @ # # @ @ @ @ @ @ @ @ @ @ . . . . @ @ @ @ @ @ @ @ @ @ @ @ @ @ # # @ @ # # # # @ @ # # # # # @ @ @ @ @ @ @ @ @ @ ; 2 2 2 2 2 2 2 2 2 2 2 2 2 2 2 2 2 2 2 2 2 2 2 2 2 2 2 2 2 2 ; a +.| O.i > - # # @ @ @ @ @ @ @ @ @ @ @ @ @ @ @ @ @ @ @ @ @ @ @ # # # # # # # # # # . < < < < < < 1 1 1 , < @ @ . . . . . . . . . . . . . . . . . . . . . # # . . # # @ @ @ . . . . . . . #       . . # # # # @ < 5 6 h j j j j j j j j j j j x j j j j j j j j j j j j j j j j j C C C C j j h 6 < . o a +. .i 2 3 3 5 5 5 5 5 9 9 9 9 9 6 6 9 9 h h h h j h h 6 5 8 8 8 8 8 8 8 1 1 1 8 1 1 3 5 6 6 6 f f f h k k k k k k h h h f f 6 6 6 6 6 5 5 5 5 5 5 6 6 6 6 6 6 6 6 6 6 6 6 6 6 6 5 5 6 6 6 6 h h 9 5 5 5 1 < < < 2 1 1 1 2 2 i i i : ; $ < 2 2 2 3 5 9 9 h j j l l l C C C C C C B B j j j j j j j j k j k k k h h h j j j j j j j B B B B B B B C C C C C C C C C C C C C C C C B B B B h h h 9 7 2 @ . # # # % % % % $ # # # % # # % % % % % # # # # # % % # # % $ $ % # # # # ",
"o # # # # # # # # # # @ = = = @ # # # # # # # # # # # # # # # # # # # @ # @ @ ; = = = ; - - # # @ @ ; ; ; @ @ @ @ @ @ @ = = # # @ @ @ # # # # # # # # # # # # # # # # # # # * = # # # # # # # # # # * ; ; ; ; ; ; ; ; ; : : ; ; ; ; ; ; ; ; 2 2 2 ; 2 ; ; ; - - - : i @.O.{ O.{ : o o o o o o o o o o o o X o o X o o o o o o o O O O O X X X X X o o o o o X X O O . o   O     O O O O o o o o X X X X o o o o o o o o o o o o o o o o o X o o o o o o o o o o & & o & o o o o o o o o o o # @ @ @ @ @ @ @ @ @ @ @ @ @ @ @ @ @ @ @ @ @ @ @ @ @ @ @ @ @ @ @ , , @ @ @ # . o : +.+.+.{ y 4 ; < < ; ; $ $ ; ; ; ; $ $ $ $ < < < < 1 < < < < < < < 2 2 2 ; 2 2 2 2 2 2 2 2 2 2 2 2 < < < < < < < < < < $ $ ; ; 2 ; < < 2 ; ; ; 2 2 $ $ ; $ $ $ $ @ $ $ @ @ @ = @ @ @ @ @ @ @ @ @ @ # @ $ $ ; ; ; ; ; ; ; ; ; ; y y i q : - o o # o # # . $ $ @ , , < < < < < , @ @ @ @ @ @ @ @ @ @ @ @ @ @ @ @ @ @ @ @ $ $ @ @ $ $ , , < < , , , , $ < < < < < < < < < < < 2 2 2 2 2 < < < $ # # # o o o > * - * * # # # # # # # # # # # % # # # # # # # # % # # # # # # # # # # # ",
"o o o # o o o X & o o o o o o o # # # # # * = = ; ; ; ; ; ; ; ; ; ; ; ; ; ; ; ; ; ; ; ; ; ; = = = = = = * * = = = = * * @ @ # @ @ . o o o o . o # # # # o # o # # # # # # # # # # # # # # # # # # - ; : : : : - - - - - : : : : ; ; ; ; ; - - - - - ; : : w y i  .#.6.<.{ {  . .{ i : : - o o o o o X X X X X X X X X X . . . .         o o o o X o X X X X o X X X X X X O O X X O O O X X O O O O O O X O X X O O O O O     X o o o o o o o o o o o o & & O O X o o o & & & & o o o o o o O O O O O O O O O O O O O O O       O       . . . . .               X       . O : +.@.@.+.{ s 2 2 ; $ $ < @ $ $ ; $ @ @ # # # # # # # # # # @ @ @ $ @ # @ @ $ @ # # # $ @ # # # # # # # # o # # # # # # o o # # # # . # # # # # # # # # # # # # # # * * * * # # # # # # # # # # # # # # # # % ; # = * # # # ; - y y i y : : o o o o o o . . X                   . o           . . O O O O O O O O O O O O O O O O O O O O O                 X X X X     X X   . .     . . o o o o * # # * * # # # # # # % % % % # # # # # # # # # # # # # # % % % % % % % % $ $ $ $ ",
"2 2 2 2 w 2 2 2 2 2 2 2 : : : : 2 2 2 w y y y y y y y y y y y y y y y i i s a s a a a a s s i i y y y y w w q q q q q q q q q q y a i i i i i i i i s a a a { O.O.O.O. . .{ a s i y y q : : : q i a { O.O.{ { a a a O.@.@.#.<.#.@.#.#.#.#.#.+.O.{ { { +.<.6.7.rXsXaXrX@.a { { {  .O.O. .a & & & & o o & * * - - : : : : : : : : : : : : q q q q q q q q q q q q q q r r r r y y y y r y y y y y y y y r q q q : q q q q q : : & o o o X o o & & & & & & & - : q q y i i i i i y q q q : : : : : : : : : : : - - & & o O o O O o o O O O O O o o o o o o o o o o o o o o o & r  .@.@.@.@.+. .{ a i y y y w 2 w w 2 ; ; ; ; ; ; ; - - % # - # # # o o o o o o . . . . .   o o o o o o     o X o o . . o o o o o o o o o o . o . o o o o o & o o o o # # # o o o o # # # # # # # # # # # # # # # # # # # # o o r p i i y i y : : : - o o o . o o . o o o o . . . o o o o o o o o o o o o o X X X X o o o X o o o o . o o . o o o o .     . o o o o X o o o o # # # o o # # # * # o # # # # # # # # * # o o o o o o # # # o o o o o # # o o o o o o o o o # # # # # ",
"i i i i i i y i i i i i i i i i p i p p p p { { +.@.,.,.<.<.<.<.2.2.2.6.6.6.7.rXrX7.6.6.6.6.2.2.2.2.<.<.,.@.@.+.+.@.@.,.,.,.,.<.<.gXrX2.2.2.2.2.<.<.2.2.2.2.2.<.2.2.2.<.2.2.2.2.<.<.,.<.#.#.#.<.2.2.5.6.6.6.6.6.6.7.8.tXtXtXrXrXrXrX7.7.rXrXrXtXrXrXrXrXrXyXyXpXsXyXrX .p { a { { { { { { i y i y y y y y y i i i i i i i i i i p p p p p p p p i i i i i i y y y y i i y i i i i i i i p { { { { { { { { {  .{  . . .+.+.,.,.+.+.{ p i y r q r y q r i i } { { {  . . . . . .{ { { { a { { a p p i i i i i y y y y q q q : : : : : : : : : : : : : : : : : : : : q : q q r {  .+.@.@.@.,.,.+.+.+. . .{ { { p p i i i p a p p p i i i y y y q q q q : : - * o o X X X X o o   o o               X X X X       .         o X X X . . o X X X X o o o o o X X         X o o o o o o o o o o o o X o & : y a  .@.,.@.,.<.<.@. .} i : > o O O O O O X X X       . . o o o o o o X X X X X X X X X X o X o o o o o o X o o X X X X X X X X O O O O O O O O O O O O X X X X X O O o O O O O o o o & & > - : : : : : : : : : : : : : q q q q q q r r r r q q q : - * o ",
"+.....,.,.,.,.,.,.1.,.,.,.+. . . .X. . . .+.,.2.2.2.3.3.3.3.3.3.3.3.3.3.3.3.rXrX3.rXrXrX3.3.3.3.4.4.2.4.4.2.<.<.2.2.2.2.4.4.4.2.<.1.,.,.,.,.1.,.,.,.,.,.1.<.1.1.4.<.1.1.<.1.<.4.2.3.2.,.,.,.<.<.<.<.2.2.2.6.6.6.6.6.7.7.rXrXrXrXrX7.rXrX7.6.6.6.6.7.6.rXrXyXpXpXsXaXrX{ a p i p p p a a { { { { { } p p } p p p p } } p p p p p p { { { { { { { { i y y r r r r r r q r r r r r y y y i i p { { { { {  . . . . .....+.@.1.2.3.3.2.<.,.@.+.+.+. . . . . . . .+.+...+.+.....+.....+.+... . . . . .{ { { { { { p p p p i i i i i i y y i i y y y i i i i i i i i i i p } {  . ...+.,.1.2.2.,.,.,.+.+.+... . . . .{ { { { { { } } i i i i i r r r r r r r i i r q : : : : : : : > > > > > & & > > & & & * : : : : : : : q q q q q q q q q q q q q q r r q q r y y y y y i i y y i i i i i i p p {  .+.,.2.3.7.7.3.4.3.rXyXpXyXrX7.2.@...{ p p p p p s s s s s i s i i i i i y y y y i p p p a a a a { p p i p { { { { { { { { { { { { { { { { { { { { { { { a a a p p p p p p p p p p {  .O.+.@.@.@.@.@.,.<.<.,.@.@.@.@.,.,.,.,.,.<.<.<.<.<.<.<.2.2.2.<.<.<.,.@.+. .",
"sXyXsXdXdXdXdXzXzXbXbXNXNXbXrX4.3.3.6.6.6.2.<.,.<.4.2.2.2.3.2.2.3.3.3.3.3.rXrXrXrXyXsXsXsXsXsXaXaXaXaXsXyXyXtXtXyXtXtXtXtXtXtXtX+.+.7.rXrXrXrXrXtXtXtXpXsXaXzXaX2.2.,.,.,.1.rXyXpXdXvXhXrX3.3.3.6.rXrXtXtXtXtXtXpXpXaXaXaXgXgXgXgXaXaXpXpXpXtX7.rX7.7.2.2.<.<.,.,.<.<.+.+.O. .O.+.+.@.@.,.,.,.<.1.,.,.<.,.,.,.,.,.,.,.,.+.+. .{ { { { { { { { { { { p i i i i y y y y r r r r r r y y i i p { {  .+.,.,.1.1.1.<.<.<.2.2.6.rX7.6.6.6.2.<.,.,.@.+.+.+.+.+.+.+.+.+.@.@.@.+.+.+.+.+.+......... . . . . . .{ { { { { { { { { } p p { { } } } p p p a { { { +.+.,.2.3.7.rXyXpXpXyXtXaXaXaXzXxXaX3.2.<.,.,.@.@.@.+.+.+.+.+.+.+.@.,.2.6.7.7.7.rXrXrXtXpXpXaXgXhXhXzXzXzXzXzXzXzXzXzXzXaXaXaXaXaXaXaXaXaXtX6.<.<.<.<.2.6.6.3.2.2.2.2.3.3.6.2.<.1.4.3.3.3.3.3.3.6.rXrXrXrXrXrXrXrXrXrXyXyXyXyXyXyXyXsXsXsXsXyXrXuXuXuXuXpXsXyXyXyXyXsXsXsXsXyXyXrXrXrXrX3.2.2.,.,.1.2.3.rXyXyXyXyXyXyXyXsXsXsXsXsXsXsXsXsXsXsXyXrXyXsXsXsXsXsXsXsXsXsXsXsXsXaXaXsXpXpXpXpXtXtXtXtXtXtXtXtXtXtXtXtXtXtXtXtXtXpXpXpXpXpXaXpXpXpXaXaXaXpXpXpXpXtXtXtXtXtXtXtXtXpXpXsXsXsXsXsXpXpXpXsXtXtXtXrX",
"sXsXzXzXzXcXdXzXzXNXJXJXJXHXxX7.pXxXvXvXMXbXxXrX3.6.7.7.7.7.7.7.rXrXrXtXpXaXzXvXxXvXbXbXbXnXvXvXvXzXzXvXvXzXzXzXzXzXzXzXxXzXzXzX..2.xXhXzXzXzXxXxXhXhXgXjXDXHXvX2.3...{ @.gXJXJXJXJXHXHXHXJXFXDXNXDXNXNXNXNXDXDXFXDXFXFXFXFXFXFXJXFXDXDXNXNXNXNXFXFXFXFXDXDXDXDXDXDXNXMXMXvXvXvXvXMXMXMXbXxXxXxXxXzXzXzXxXDXJXDXDXDXDXDXDXbXxXaX6.<.,.,.2.7.rXrXrXrX6.2.<.,.@.+.+.+.....+.......+.@.,.1.1.3.uXrXyXyXsXsXsXsXyXsXsXyXyXtXtXtXtXtXtXrX7.6.2.<.,.@.+.+.+.+.+.+.+.+.+.+.+.+.+.+.+.+.+.+.+.+.+.+.+.@.@.@.@.@.@.@.@.,.@.@.@.@.@.@.+.+.+.+.+.+.@.,.,.<.2.4.3.3.rXyXpXsXsXrX3.7.pXbXbXbXbXNXMXMXMXbXnXnXxXxXcXcXzXzXhXaXsXsXhXxXbXMXNXNXNXNXNXNXDXDXDXDXDXDXNXNXNXNXNXNXNXNXbXMXNXMXbXbXbXbXbXbXbXbXbXMXzX2.,.,.<.2.6.yXpXaXdXzXzXhXpX6.@. .{ {  .+.6.aXaXaXsXsXsXyXyXrXrXrXrXrXuXuXrXrXrXyXyXyXyXpXyXyXrX6.6.6.6.rXaXxXgXaXsXtXyXtXyXtXyXyXyXrXrX6.<.{ y y y r q i 2.hXdXsXsXsXsXsXsXsXsXsXsXsXsXyXsXsXyXyXyX3.yXsXsXpXsXsXsXsXsXsXsXsXsXsXsXtXtXtXtXtXtXtXtXtXtXtXtXtXrXrXtXtXtXrXtXtXtXpXpXaXpXaXaXaXaXgXgXaXgXgXgXaXaXaXaXsXsXsXsXsXsXsXaXaXsXsXsXaXaXaXaXaXaXaXaXaX",
"gXhXzXzXxXxXxXmXBXBXBXLXLXLXjX8.fXjXjXVXVXjXjXgXtXpXfXfXtXtXtXtXtXtXtXiXiX8.tXtX8.8.8.8.9.>.>.>.9.9.9.jXJXBXjXvXMXMXMXMXMXmXvXjX:.5XjXkXkXkXkXkX X9.:.%.8.JXHXbX2.3.{ y i 0.jXxXxXxXjXjXkXfX X X X X X X X X5XfXfXkXkXjXjXjXVXVXVXjXjXxXmXmXBXLXLXLXLXLXLXLXLXLXLXLXBXmXmXmXmXmXVXmXVXmXmXmXxXjXhXhXhXhXxXFXHXHXJXJXJXFXDXNXvXhXrX6.6.rXzXvXvXvXvXxXxXzXzXdXdXdXaXaXaXaXaXaXaXaXdXdXdXzXdXzXzXdXaXsXdXdXdXdXdXdXdXzXzXzXxXxXxXxXzXzXhXhXhXhXgXgXgXgXgXhXgXgXgXgXgXgXfXgXfXgXgXgXgXhXhXzXzXzXzXzXxXxXvXvXvXvXvXvXvXvXvXvXvXvXxXxXzXzXvXvXzXvXvXzXxXxXxXzXzXzXzXdXzXyX1.,.3.MXGXMXGXGXGXGXNXNXbXNXNXNXNXNXNXNXNXaXrXzXbXbXbXbXNXNXNXNXNXNXNXNXNXNXNXNXNXbXMXNXbXbXbXbXbXbXNXbXbXNXbXbXMXDXDXDXDXNXpX{ { { +.2.3.rXsXhXxXjXxXjX XH j l C Z C I ' ;.(. X X X X9.%.F J u u u u J J J F ~ ~ $.9.fXfXfXtXtX8.tXtXgXxXvXxXzXzXzXhXhXzXgXgXgXgXaXpXtX7.6.6.5.6.8.tXtXxXMXbXbXbXnXnXvXnXbXxXtXtXtXyXaXaXaXtXtXrX2.4.<.,.<.4.pXaXsXaXsXdXzXzXzXzXgXtXtX7.8.8.7.7.7.7.7.7.7.7.8.7.7.7.7.8.8.8.8.8.5XfXgXgXgXhXhXhXhXhXhXhXhXhXhXgXgXgXgXgXgXaXaXaXaXaXaXaXaXaXaXaXaXsXaXaXaX",
"ZXZXZXZXZXZXZXZXCXCXCXlXlX4X.X.X.X/./././.^.^.T.T.T.Y.Y.R.T.Y.Y.T.Y.Y.Y.U.U.Y.Y.R.g.g.R.Y.Y.Y.U.U.Y.-.;.(.(.;.;.;.;.;.;.;.;.;.;.;.(.Y.(.Y.Y.-.-.' ' ' Q  XLXLXDXrX6.a y w 7 %.%.%.%._ W / / ` ` ` _ _ _ _ / / / / _ _ _ %.%.&.%./ %.%.%.%.:.>.(.(.(.(.(.(.(.(.(.(.(.(.(.(.(.(.(.(.(.(.(.(.(.(.(././.(.(. X5X5X5XkXkXkXkXkXkXkX X8.8.9.8. X X XfXfXfXfXkXgXgXhXgXpX8.7.6.5.6.6.6.6.6.6.6.6.6.6.5.<.,.rXsXaXdXhXfXfXkXmXNXBXFXBXBXMXMXMXmXmXmXmXmXmXMXMXMXMXmXMXMXMXMXMXNXMXNXNXBXBXBXFXFXDXFXFXFXDXDXNXNXNXNXNXMXMXMXMXmXmXmXmXmXmXmXmXmXmXmXmXmXmXmXmXmXmXmXMXMXmXjXfX XfXVXVXmXVXmXmXMXBXBXMXNXMXMXMXMXMXMXBX8.6.mXMXMXMXNXMXMXMXMXBXMXmXjXjXmXMXMXMXmXjXjXmXMXMXMXMXMXvXxXvXvXbXMXNXDXFXFXFXMX2.i i { +.,.<.6.8.lXCXAXAXAXAXeXeXeXeXeXeXeXeXeXAXAXAXAXAX0X0X0X0X0X0X0X0X0X0XCX0XCXCXCXAXCXCXCXCXCXCXCXCXCXVXVXVXVXBXBXBXBXBXBXBXFXFXFXFXFXFXFXFXBXBXBXFXFXFXFXDXFXFXFXJXJXJXFXNXNXNXMXMXMXNXmXmXxXzXbXzXaX2.,.,.2.aXyXpXaXhXhXfX X X X(.(.(.(.(.(.(.(.(.(.(.(.(.(.(.(.(.T.(././.[.[.|.|..X.X.X.X.X.X.X.X.X.X.X.X.X.X.X.X4X4X4XlXlXlXlXlXlXlXlXlXlXlXlXlXlXlXlX",
"AXAXAXCXCX4X.X/.^.E.E.E.E.E.W.W.W.!.W.W.W.!.W.W.W.W.W.W.^.W.W.^.^.^.^.W.W.W.W.W.^.W.W.W.E.E.E.E.R.' ' ' ' h.h.h.h.h.h.h.h.h.h.h.g.f.g.g.g.g.g.g.' [ ' I (.LXHXFXrX6.a y 0 9 ;.U.' ' ' ' *.*.' ' ' ` ` ` ' ' _ ` ` ` ` ` ` ` ' Q L L L L L L L L L L L I I I Q Q I Q ` E ` ` ` ` ^ ^ ^ ^ ^ r.r.p.p.p.p.r.r.R ^ R ^ R ^ ^ a.h.h.I.U.I.I.' ' ' ' ' *.*.*.*.;.Q.(.(.;.D 9 5 7 7 7 9 9 V Z S G G G G V s +.<.3.tX9.U.h.4XZXSXSXSXSXZXCX4X4X4X4X4X4X4X4X4X4X4X4X4X4X4X4X4X4X4X4X4X4X4X4X4X4X4X4X4X4X4X4X4X.X.X.X.X.X/./.[././.[.[.[.[.[.[.[.[.[.[.[.[.[.[.[.[.[.[.[.[.[.W.W.!.!.!.!.W.M.!.).[.[.}..X.X.X.X.X.X.X.X.X/./..X.X.X.X.X|.|.|.[.|.[.E.h.E.[.[..X.X/.f.p.T.4XlXlXlXlX.XY.T.(. XVXVXBXBXBXBXmX#.r r a O.+.@.0.4XAXAXeXeXwXwXeXeXeXeXeXeXwXeXeXeXeXeXeXeXwXeXeXeXeXeXeXeXeXeXeXeXeXeXeXeXeX0X0X0X0X0X0X0X0X0X0X0X0XCXCX0X4X.XlXCXCXCXCXlXlXlXlXlXlXlXlXlXlXVXCXCXCXCXCXCXCXCXCXCXCXCXCXVXlX XfXmXxXgXFXJXJXxX<.,.<.7.tX8.8.(.(.4X0X0X].V._._.`.`.`.`.`.`.`.`.`.'.+X].'._._.G.S.].+X+X+X+X*X+X+X@XoXoXoXoXoX+X+XoXK.oXoXoXoXoX*X,X,X<X<X<X7X7X7X7X7X7X7X7X7X<X<X",
"0X.X[.E.R.h.h.R.k.E.E.W.^.^.^.^.^.W.W.W.W.W.W.W.k.k.g.g.g.g.g.g.g.g.g.g.g.g.g.g.g.g.W.W.E.E.k.k.h.^ ^ ` ] h.h.f.h.h.h.g.h.h.h.g.g.g.g.g.g.g.g.g.] ^ ' ` %.BXHXFXrX6.a y 0 u -.U.' ' ' ' U.U.U.U.-.*.' ' ' ' ' ' ' ' U.U.U.U.R.h.^ ^ ` ^ ^ ^ ` ` ^ ^ ] h.h.h.h.h.h.h.R.R.h.g.R.R.g.g.E.E.W.W.W.^.^.^.^.^.W.W.E.W.f.f.f.f.g.g.g.p.^ ^ ^ ^ ` ` ^ ^ ^ ^ ^ ^ ^ r.p.W.).[.E.h.h.' ] ] ^ h.g.R.R.f.f.] H V O.#.<.6.>.p.~.0XCXAXAXSXSXAXeX3X`.`.{.{.{._.].].{.{.`.`.`.].+X+X'.'.].].].].].].`.].'.`.`.`.'.`._._.`.`.`.`.D.D.`.`._.V.C.D.D.D.D.`.`.D.D.D.`.S.S.S.S.S.S.S.S.S._.`._.N.b.b.c.c.c.b.b.V.S.S.C.C.D.C.V.D.D.D.D.D.D.D.D.D.D.D.D.D.`.XXXXD.D.D.S.S.V.V.V.N.N.N._._._._._.N.M.M.!.!.W.g.Y.;.5XkXO.y r i { { O.[.eXeXwXwXwXwXwXwXwXwXwX8X6X<X<X*X,X,X+X+X*X}.].].'.'.`.`.`.'.'.'.'.`.'.`.`.`._._.S.V.V.V.V.V.N.N.N.b.c.c.c.c.b.c.b.b.b.b.c.c.c.j.j.j.s.u.s.p.s.l.M.M.)._.!.!.M.{.{.!.!.M.).h.8 V jXVXgXDXDXDXbX2.@.<.6.8.0.&.k.l.0X0X6X*XS.D.D.D.D.K.XXXXK.K.K.K.D.Z.b.b.c.c.c.N.`.oXK.K.oXoXoXoXoXoXoXoXoXoXoXoXoXoX'.'.oXoXoXoX%X%X-X-X-X-X-X-X=X=X-X=X>X=X=X%X",
"^ ^ ^ p.f.W.W.W.W.W.W.W.W.W.W.W.W.W.W.W.W.W.W.W.l.l.W.k.k.g.g.g.g.g.g.g.W.W.W.R.g.g.g.g.g.g.g.k.f.^ ^ ` h.h.f.f.h.h.g.g.h.f.g.g.g.g.g.g.g.g.g.g.h.^ ^ ` ` kXBXDXrX6.{ 2 0 u -.R.' ' ' ' h.U.U.R.R.R.E.E.E.E.E.E.E.E.^.E.^.^.^.^.^.E.E.^.E.E.E.E.E.W.W.W.W.W.W.^.^.^.^.^.^.^.^.^.^.^.).).).).).).).).).).).).).).).).).).).^.W.E.g.f.f.f.g.R.R.R.k.k.k.k.k.W.W.!.[.[.{.|.{.{.{.{.{.{.{.{.[.[._.k.^ A | @.<.0.>.l.!.].{.}.,X0X0X0X6X,X+X'.'.'.'.'.`.`.oXoXoXXX+X+X+X+XoXOXOXOXOXOX*X*X@X*XOXoXoXoXoXoXoXoXD.D.`.`.`.`.`.`.`.D.D.D.D.D.D.D.D.D.D.D.D.D.D.D.S.S.S.S.S.S.S.S.S.V.b.b.b.A.A.b.Z.D.D.D.D.`.`.D.`.`.`.D.S.`.`.`.`.`.`.oX`.`.`.oXoX`.`.'.`.`.`.'.`.D.D.D.`.`.D.D.`._._._.N.b.c.s.T v (. XF w y y i s ` wXwXwXwXwXwXwXwXwXwX0X].b.c.j.i.u.i.i.i.i.i.i.i.i.i.i.i.i.A.A.A.c.i.i.i.i.c.c.A.c.c.c.c.c.c.c.b.b.b.c.c.c.b.b.N.b.b.N.N.N.b.b.b.b.c.c.c.c.j.j.d.i.A.A.A.A.c.c.c.c.d.s.s.s.s.^ f 5 (.lXkXDXDXDXnX<.@.<.6.6.$.' p.f.0X6X<X].V.V.C.C.D.D.XXXXK.K.K.D.N.r.T q.q.q.y.j.N._.S.`.`.'.].'.oX'.'.'.'.'.'.`.]._._._.N.N.!.N._.+X*X-X-X-X-X-X-X-X-X-X-X%X%X%X",
"f.R.W.W.W.W.W.!.W.W.W.!.).).!.W.!.!.!.!.W.W.W.!.W.W.W.W.g.h.h.] ] ^ ^ ^ ^ ^ ^ ^ p.h.g.g.f.f.g.g.f.r.^ ' h.h.f.f.f.g.g.g.f.g.g.g.g.g.g.g.g.g.g.h.h.p.^ ` ` (.mXMXtX6.a 2 3 u ;.R.h.' ' ' h.h.h.R.E.E.E.E.E.E.E.E.W.W.W.W.^.^.E.^.^.^.^.^.^.^.^.^.^.^.^.^.).).).).).).).).).).).).).).).).).).).).).).).).).).[.).[.[.).).).).).^.).).).).).[.[.[.[.[.[.[.[.[.{.{.{.{.{.].].{.,X,X,X,X,X,X,X,X,X].W.H s { O.$.Y.M.N.V.V.`.`.'.+X+X+X].'.`.`.`.`.`.`.`.`.`.XXXXXXXXoXoXoXoXOXOXOXOXoXoXOXOXoXoXOXOXoXoXoXK.K.K.K.K.oXoXoXoXK.'.'.].'.'.'.`.`.`.'.'.'.'.`._.`.`.`.`._._._._.D.`.S.V.b.b.b.b.V.D.D.D.D.D.`.`._.S.D.D.D.`.D.D.D.D.D.XX`.`.`.D.`.`.`.`.D.`.D.D.D.D.D.D.D.D.D.D.`.`.`.S.b.c.j.p.n x Y.>.J 4 : 2 y 1 W.wXqXqXqXqXqXqXqXqXqX_.y.r.t.t.t.t.t.t.u.u.u.u.u.u.u.u.i.i.i.i.i.i.i.i.i.i.d.d.d.d.d.d.A.c.c.c.c.n.c.c.c.c.b.b.b.b.b.b.b.m.b.b.b.b.b.b.c.c.A.A.A.A.A.A.A.A.A.A.A.A.j.d.s.d.d.r.g 8 Z  XkXFXDXDXnX<.+.,.6.7.~ ^ f.f.0X7X<X'.N.V.V.C.D.D.XXXXK.K.D.D.n.q.m Y T T U T q.y.t.u.u.s.d.i.i.i.u.u.u.u.i.i.s.s.t.t.t.q.t.t.n.].,X*X*X*X*X*X*X*X*X*X%X%X%X%X",
"W.W.W.W.W.W.W.W.E.E.E.k.E.E.E.E.W.W.W.W.E.E.g.g.g.h.] ^ L L L H C C C H L L C L Y h.R.g.g.g.g.g.f.r.^ ] h.h.h.f.f.f.f.g.g.g.g.g.g.g.g.g.g.g.g.h.h.h.h.h.^ (.VXmXtX6.a 2 2 u Y.T.h.' ' ' ] h.h.R.^.^.^.E.E.E.E.E.E.W.W.W.^.^.W.E.E.W.^.^.^.^.^.^.^.^.^.^.^.^.).^.).).).).).).).).).).).[.).).).).).).).).[.).[.).[.[.).).).).).).).).[.).[.).[.[.[.[.[.[.[.[.[.[.{.{.{.{.].}.}.}.}.,X,X,X,X,X,X}.!.C s { a H R.N.V.S.S._.S.`.'.`.`.oX'.`.`.`.`.`.`._._.S.D.S.D.'.+X+XoXoXOXoXK.D.D.D.XXoXoXoXoXoXoXoXoXoXoXoXoXoXoXoXK.oX'.B.f.p.u.u.s.s.s.d.j.j.l.M.M.M.N.N.N.M.!.!.M.M.B.M.j.j.d.c.M.B.N.N._._._._._.`._.S.S.D.D.`.D.D.D.D.D.D.D.D.D.D.D.`.D.`.D.D.D.D.D.C.D.`.D.D.`.`.`.oX`.D.N.c.j.r.z k (. XJ 2 ; 2 2 1 {.wXqXqXqXqXqXqXqXqX*Xy.q.r.q.t.t.u.u.u.u.u.u.u.u.u.u.u.u.d.i.i.i.i.i.i.i.d.c.d.d.d.d.d.d.d.i.d.A.c.c.b.b.b.b.b.b.b.m.m.m.b.N.m.N.m.N.N.b.b.c.c.b.c.c.c.c.c.j.j.j.j.j.d.d.d.j.r.f 1 5 %.kXFXDXFXnX,.+.#.6.6.H ] p.s.7X<X<X'.b.V.V.C.D.XXXXXXXXK.`.`.C.q.m m U m m m m m m m m q.q.q.y.u.u.u.p.y.r.e.q.r.r.p.u.p.t.t.s.m.`.D.oXoX@X@X%X%X*X*X%X%XOXOX",
"k.E.E.h.I L L L L L L L L L L L L L C C C C C C C C C C H H H H H H H L L I I ` p.g.g.f.g.g.g.g.g.^ ^ ^ ^ ^ ^ h.h.h.h.h.p.p.p.p.p.p.p.h.h.h.p.p.p.p.h.p.h.U.kXxXpX6.a q 2 N Y.T.R.h.' U.U.R.E./.^.^.^.^.^.^.^.^.^.^.^.^.^.^.^.^.W.^.^.^.^.^.^./.^.).[.[.).).).).).).).).).).).).[.[.).).).).).).).).).).[.[.[.[.[.[.[.[.[.[.).).).).[.[.[.[.[.[.[.[.[.[.[.[.[.[.[.[.{.{.{.{.{.{.{.].{.}.,X,X,X,X[.I u F a F E.`.`.+X+X_._._._.`.`.`.`.`.`.`.`.`.`.`.V.V.N.G._._._._._._.'.+X+X+X'.b.c.N.S._.`.'.+X+X+XoXK.oXXXXXoXoX'.'.y.c x c c v v v v M n v c c c x c c c c c c c c c c c c c c v v v v M m t.j.N.V.~._.D.D.D.D.D.D.D.D.D.D.D.D.D.D.D.D.D.D.`.D.D.D.'.D.D._.D.C.D.`.'.'.`.`.S.b.j.p.l h T.4XJ 3 2 2 2 6 ,XwX8X8X6X6X6X6X7X7Xu.T T m u.d.d.d.A.A.A.c.A.A.c.A.A.A.A.A.d.d.A.A.c.c.c.c.c.c.c.c.d.c.c.c.B.N.~.~.~.~.N.n.j.j.d.d.d.s.s.s.d.d.d.d.s.s.u.u.s.s.t.t.r.r.r.^ T T T R T T T T r.m 6 8 8 h kXDXDXDXbX,.+.@.6.#.Z ' p.f.0X7X6XoXb.V.V.D.XXoXoXXXK.K.K.K.XXV.A.i.u.u.u.u.u.i.c.N.V.V.S.`.XXoXoX`.`.`.`.`.`._.`.`.`.`.!.d.t.t.t.t.u.u.d.d.d.c.c.n.m.N.V.S.",
"W.W.E.h.I ` ` ` I I I I I E I I I I I I ^ ^ E E E E E E ^ ^ ^ ^ ^ ^ h.h.h.g.g.R.R.g.g.g.g.g.g.g.g.p.` ` ^ ^ ` ^ ^ ^ ^ ^ ^ ^ ^ ^ ^ ^ ^ ^ ^ ^ ^ ^ ^ p.g.g.g.' (.fXrX2.a : 2 N Y.E.R.' ' ' -.U.Y.T.T.T.T.T.E.E.^.^.^.^.^././.^./././.^./.^.^.^.^.E.E.R.T.R.R.R.U.h.U.U.U.U.' ' ' ' ' ' ' R.^.^.^.^.^.E.R.R.R.T.T.T.R.E.^.^.E.E.E.E.^.^.^.^.^.^.^././.^.^.^.).).).[.).[.[.[.[.[.[.[.[.).).!.{.,X,X{.).I u s s J W.+X+X,X+X`._._.S.`.`.`.`.`._._._._.`._.V.V.u.m m M M m m m m m r.l.l.q.M M M M M m m e.i._.oXoXoXXXXXoXS.H.t.s.T ^ T m m r.n.!._.t.K C z z z z z z z z z x c c c z v v n U T t.u.l.M.N.N.b.A.c.n.!.N.N.N.G.N.N.G._._.!.!.!.!.M.M._.M.M.j.u.r.H.A.b.S.oX,X*X`.`.oXXX_.b.j.p.l h U.4XV 3 2 2 2 6 ,XqX{.t.u.d.d.s.p.t.n P P U _.].'.'.].].`.`.`.`.`.`.'.`._.S._._.S.S.S.S.V.V.V.N.N.N.b.b.b.b.n.d.t.t.q.q.U n n v v c c c c x g g g g k k f f g g g g x k k x x x k k x x z v v v 6 8 8 j kXNXDXDXbX,.+.@.6.F l p.p.s.0X6X6X@XZ.S.D.`.XXoXoXoXoXoXoXoXK.oXoXoXoXoXoXoXXXXXXXXXXXXXXXXX`.`.`.D.`.`.`.`.XXXXXXXXK.K.`.S.c.i.u.u.p.y.y.y.t.t.y.y.y.y.y.u.",
"g.g.R.W.W.W.W.W.E.E.E.E.E.E.E.E.E.E.E.R.W.R.R.R.R.R.R.g.k.g.g.g.g.k.k.k.g.k.k.f.g.g.k.g.g.g.g.g.g.g.h.' ] ] h.h.h.f.h.g.f.f.g.g.h.h.h.h.h.h.h.h.^ h.g.g.E.R.>.8.7.<.i 2 4 N &.^ ` I I I L L I I I I I ` ` ` ` ' ' ' U.U.T.E.T.R.U.U.' ' ` ` ` I I I I W I D H H H D D D D D D D H D I ' R.^.^.^.^./.` Z Z Z C Z C C D D H H I I D I I I I I W W / ` ` ` ` ` ` ' ] ] ] ' ' ' h.h.h.R.g.h.E.{.}.{.!.H 3 u s u W.+X+X+X+XS._.S.V.`.`.`.`.S._.V.V.V.V.V.V.S.M.t.t.k.l.!.!.M.l.j.u.u.u.u.t.p.t.r.r.q.q.e.y.N.oXoXoXoXoXoX`.`.+X].u.l._.N.N._.`.`.`.S.N.!._._._.G.N.N.!.!.l.u.r.r.r.t.t.s.n.M.N._._._.S._.`.S.S.i.m M v c g g x x x c x x x x x f g g g g g g v u.V.'.,XwXeXeX0X,X'.S.S.b.n.p.l h -.4Xu 2 2 ; ; 6 }.<Xp.U U T T n v n n K P T _.'.`.`.`.`.`.`.`.`.`.`.`.`.`.`.`.`.`.`.`.`.`.oXoXoX'.`.'.`.`.`.!.s.q.m m m m U U U R R R r.r.r.r.r.p.p.p.p.s.f.k.j.l.l.l.l.l.l.l.l.j.l.n.!._._.{.{.x 8 k .XCXbXJXDXDX,.+.#.#.V C p.p.f.6X6X8X-XD.`.XXoXXXXXoXoXOXOXOXOXOXL.XXXXL.OXL.L.oXoXoXoXXXXXXXXXXX`.D.`.`.D.D.D.D.D.D.D.D.D.D.`.'.`.'.`.`.`.`.`.D.D.D.D.D.D.D.D.",
"g.g.R.R.g.g.W.k.k.k.k.k.k.W.W.W.k.k.k.k.k.k.k.k.g.g.g.g.g.g.g.g.g.g.g.g.g.R.f.k.k.g.k.k.g.g.g.g.g.g.R.h.g.R.R.g.g.g.R.R.g.g.g.g.g.g.g.g.g.g.g.g.] h.g.g.k.R.:.#.2. .y 2 4 u &.' ' ` ` ` ` ` ` ` ` ` ` ` ` ` ` ` ` ` ` ` ` ] ` ` ` ` ` ` W I I I G G G G H H H H D D G H D H D G D D I ` T./.E.E.W.E.' H D D D D D D D D Z Z Z Z D D Z Z Z Z D D D D D D D D D D D D D D Z H D D I ' ' ' U.).{.[.W.C 2 2 2 3 l.+X+X+X+X`._.S.V._.`.`.`.S._.N.N.N.N.b.b.N.N.N.u.y.y.t.c.N.N.N.S.V.V.S._.S._.`.+X`.`.+XoXXXD.'.oXXXF.oXXXXXD.D.t.u.N.`.`.`.D.`.`.S.`.D.D.D.S.D.S.S.S.V.N.b.B.B.B.b.b.V.V.C.S.D.D.D.D.D.D.`.`.`._.M.l.s.r.r.^ ^ T m U U m m m Y Y Y ^ r.t.l._.'.*X0XeXeXeX0XeXeX0X7X].V.n.p.l f -.4X9 2 ; ; ; 6 _.'.R R R R R R E U m n m y.].].`.`.`.`.`.`.`.`.`.`.`.`.`.`.`.`.`.`.`.`.`.`.`.`.`.`.`.`.XXoX'.'.'.'.'.'.'.].'.].].].'.'.].].'.'.].].'.'.'.'.'.'.'.'.oX`.`.'.`.`.`.`.'.oXXXD.K.C.z 8 ' 0XlXhXaXDXDX<. .#.$.V Y p.y.f.6X6X6X:XoXoXoXoXoXOXOXOXOXOXOXOXK.K.K.XXOXoXL.OXoXoXoXoXoXoXoXoXXXXXXXXX`.`.D.D.D.D.D.D.D.D.`.`.D.D.D.D.D.D.`.`.D.D.`.`.XXoXoXXX",
"E ` ^ ^ ] ] h.h.h.h.h.g.k.k.k.k.k.W.W.k.k.k.k.k.k.g.k.k.g.p.k.k.k.k.k.k.g.g.g.g.k.g.g.k.k.g.g.g.g.g.g.g.g.g.g.g.g.g.g.g.g.g.g.h.p.p.p.p.h.h.g.g.] h.g.k.g.R./ J a y 2 2 : 9 I.R.T.E.E.E.E.E.E.E.E.E.E.E.E.R.R.R.R.R.R.T.R.R.R.R.R.U.U.U.U.U.*.' ' ' ' ' ` ` Q Q W W W W W W I W G W I ' E.^.E.E.E.^.E.h.*.*.' ' ' ' ' ' ' ' ' _ _ ` / W W I D D H H D D D D D D D D D D D D H H ` _ ` ` ' E.).!.k.Z < 2 2 1 k.].+X+X+X`.D.~.~.D.`.`.D.D.N.c.j.j.j.d.d.j.f.s.M.M.M.N.N.N.N.N.G.G.S.S.S.`.`.V.c.i.n.`.oXoXoXoXoXK.K.K.XXXXXXS.u.t.A._.D.D.`.`.`.`.`.`.`.`.D.D.D.S.V.V.V.V.V.V.V.S.V.S.D.`.`.`.`.`.D.`.`.`.`.`.`.`.`.`.`.`.'.'.'.`._._._._.'.'.'.'.oXoX'.'.'.,XwXeXeXeXeXeXeXeXeXeX0X].!.p.z f ' Y.9 2 : ; ; f n.j.q.T E E U T q.q.t.s.n._.'.`.`.`.`.`.`.`.`.`.`.`.`.`.`.`.`.`.`.`.`.`.`.`.`.`.`.`.`.`.`.`.`.`.`.`.`.`.'.'.`.`.`.`.`.D.D.D.D.D.D.D.`.D.S.D.D.D.D.D.`.`.`.`.`.`.`.`.XXXX`.D.K.N.z 8 g.0XVXaX+.zXHX2. .#.$.j Y p.r.u.6X6X6X6XOXOX%X%X'.l.t._.oXoXoXK.oXoXoXoXoXoXoXoXoXoXoXoXoXoXoXoXXXXXXXXXXXD.D.`.D.D.D.D.D.D.`.`.D.D.D.D.D.XXXXXXK.K.`.`.oXoXXX`.",
"K C L L L L L L L L L L L I I I ` ^ ` ` ` ] ' h.h.g.g.k.g.g.g.g.g.g.g.g.g.g.k.k.k.g.g.k.k.g.g.g.k.g.g.g.g.g.g.g.g.g.g.g.g.g.g.g.f.h.^ ^ ^ ^ h.g.p.h.g.g.k.h.D u s 2 ; 2 ; 9 Y.R.E.E.E.E.E.E.E.E.E.E.E.E.E.E.E.E.E.E.E.E.E.E.E.E.E.E.E.E.E.E.E.E.E.E.E.E.E.E.E.E.T.T.T.T.R.R.R.T.Y.T.R.E.E.E.E.E.E.^.^./././././.^.^.^././././././.^.^.E.E.T.T.T.R.U.U.h.U.h.' ' ' ' ^ ` ` ` ` ` ' ' ` ` ^ g.^.!.g.Z ; 2 2 2 p.].+X+X+X`.S.~.V.D.`.`.D.D.V.c.i.i.i.u.u.p.r.T t.f.s.u.u.u.u.u.u.u.i.c.N.N.!.n.u.q.q.u.j.M.S.D.D.D.`.~.V.m.c.i.t.r.i._.`.D.`.`.`.`.`.`.`.`.`.D.D.S.V.V.V.V.S.S._._.D.D.`.`.`.`.`.`.`.`.`.`.`.D.D.D._._.S.S.S.S.S.S.S.S.S._.S._._._.`._.`.`.,XwXwXwX0XeXeXeXeXeXeXeX0X,X].p.z h I / u 2 ; ; $ f s.u.q.T R T t.j.N._._.`.`.`.`.`.`.`.`.`.`.`.`.`.`.`.`.`.`.`.`.`.`.`.`.`.`.`.`.`.`.`.`.`.`.`.`.`.`.`.`.`.`.`.`.`.'.'.`.`.`.`.'.'.'.'.`.`.`.`.`.`.`.`.`.`.`.`.D.`.`.oXoXoX`.D.D.N.v 8 g.0XVXgX,.xXHX2.{ #.F j Y p.r.f.6X6X6X6XOXoXoX%Xu.g g l.oXoXoXoXoXoXoXoXOXOXOXOXoXoXoXoXoXoXoXoXoXoXoXoXXX`.D.D.D.D.D.D.D.D.D.D.K.K.XXoXXXXXXXD.D.D.D.D.D.D.D.`.",
"! I I I I I L L L L L L L L C L C C L L L I I I I E ^ ^ ^ ] p.h.g.g.g.g.k.k.k.k.k.g.g.k.g.g.g.g.k.k.k.g.g.g.g.g.g.k.g.g.g.g.g.f.f.h.p.] ^ ^ ^ p.] h.g.g.k.g.D u s 2 2 2 ; 9 R.E.E.E.E.E.E.E.E.E.E.E.E.E.E.E.E.E.E.E.E.E.E.E.E.E.E.E.E.E.E.E.E.E.E.E.E.E.E.E.E.E.E.E.E.E.E.E.E.E.^.^.E.E.W.E.E.E.W.W.W.E.W.W.W.W.W.W.W.W.^.^.W.W.E.E.E.E.^.^.W.W.^.).).[.).).).).[.[.).).W.W.E.W.R.' ' ` ` p.W.!.f.B ; 2 2 2 p.].*X*X+X`.S.V.V.S.`.`.D.D.S.N.c.d.x.i.u.u.r.q.t.d.u.i.i.i.d.d.i.u.u.u.i.i.i.d.t.q.T m m q.R R q.R T T T m q.q.u.u.c._.`.D.`.`.`.`.`.`.`.`.`.D.`.S.S.S.V.V.S.S.S._.S.S.S.D.`.`.`.`.`.`.`.`.`.D.D.S._._._._.S.V.S.S.S.S.S._._._._.`._._._.+X0XwXwXeX0X0XeXeXeXeXeXeX0X,X_.p.z f ` -.u 2 ; ; $ 6 t.r.R R T q._.].`.XX`.`.`.`.`.`.`.`.`.`.`.`.`.`.`.`.`.`.`.`.`.`.`.`.`.`.`.`.`.`.`.`.`.`.`.`.`.`.`.`.`.`.`.`.`.`.`.`.`.'.`.`.`.'.`.`.`.`.`.'.`.`.`.`.`.`.`.`.`.`.`.+X@XoX`.V.D.M.z f E.0XVXaXrXDXJX2.a @.J l Y p.r.f.0X6X6X6XOXoXoX+Xr.6 9 f.+XoXoXoXoXoXoXoXoXoXoXoXoXoXoXoXoXoXoXoXoXoXoXoXoXXXD.D.D.D.D.D.D.D.S.S.D.V.V.b.c.B.B.B.n.c.c.j.i.u.u.y.",
"W.W.W.W.g.g.g.g.h.h.h.h.' ] ] ] ^ ^ ^ E I I I I I I I I Y I E ^ k.k.k.k.g.g.k.g.k.g.k.k.g.g.g.g.k.k.k.k.g.g.g.g.k.k.k.k.g.g.g.g.f.g.h.p.' ^ ^ ^ ^ p.g.k.g.g.D u s 2 ; 2 ; 9 R.E.E.E.E.E.E.E.E.E.E.E.E.E.E.E.E.E.E.E.E.E.E.W.E.E.E.E.E.E.E.E.E.E.E.E.E.E.E.E.E.E.E.E.E.E.E.E.E.E.W.W.E.E.E.E.W.E.W.W.W.W.W.E.E.E.E.E.W.W.^.^.W.W.E.E.E.^.W.E.W.W.^.[.[.[.[.[.[.[.{.{.{.{.[.[.[.[.g.] ` _ ` ^ E.W.h.B ; : 2 2 p.].*X*X*X`.S.V.V.S.`.`.D.D.V.`.V.N.b.N.N.M.M.n.N._.V.S._._._._._._.S.S.S.S.N.N.c.c.c.c.l.d.s.s.u.u.s.s.j.j.M.N.V.~._.`.`.D.`.`.`.`.`.`.`.`.`.`.'.`.`.`.`.`.`.`.`.'.`.`.`.`.`.`.`.D.D.D.D.`.D.D.D.S.V.V.V.V.V.V.V.S.S.S.S.S.S.S._.`._._._.,X0X0X0XeX0X0XeXeXeXeXeXeX0X,X_.p.z f [ -.9 2 : ; $ 6 t.q.R R T q._.`.`.`.`.`.`.'.`.`.`.`.`.`.`.`.`.`.`.`.`.`.`.`.`.`.`.`.`.`.`.`.`.`.`.`.`.`.`.`.`.`.`.`.`.`.`.`.`.`.`.'.'.`.`.`.`.`.`.`.`.`.`.'.`.`.`.`.`.`.`.`.`.`.`.+X*X@X`.Z.Z.N.v f E.7XCXaXxXDXDX2.a $.N l P r.r.j.0X6X6X6X%XoXoX+Xr.f f p.oXD.D.D.K.K.K.K.K.K.K.K.K.K.K.K.oXoXoXoXXXXXXXXXoXoXoX`._.N.N.c.j.u.t.q.t.y.q.e.m m m m M n M M M M v v ",
"k.k.k.k.W.W.W.W.k.k.k.k.W.k.k.k.k.k.k.k.k.k.g.g.g.g.g.g.g.g.g.k.W.k.k.k.g.g.g.g.k.k.k.g.g.g.g.g.k.k.k.k.k.k.k.k.g.g.g.g.g.g.g.g.g.g.g.f.p.] ^ ^ ^ p.g.k.g.h.H u s ; ; ; ; 9 Y.E.E.E.E.E.E.E.E.E.E.E.E.E.E.E.E.E.E.E.E.E.E.W.W.W.E.E.E.E.E.E.E.E.E.E.E.E.E.E.E.E.E.E.E.E.E.E.E.E.W.E.E.W.E.W.E.E.W.W.E.E.E.E.E.E.W.W.W.W.W.W.W.W.E.W.^.^.^.E.E.W.).[.{.{.{.{.{.{.{.{.{.}.}.}.}.|.g.` _ ` ` ` W.W.f.B ; 2 ; 2 f.].,X*X@XoXD.V.V.V.`.`.`.D.V.V.V.V.`.V.V.V.V.V.V.V.S.S.V.V.V.V.V.V.S.S.S.S.S.`.`.`.`.`.`.`.`.`.`.`.`.`.'.'.`.`.`.`.`.`.`.`.`.`.`.`.`.`.`.`.V.A.d.f.u.s.p.p.t.p.s.s.j.j.m.~.!._.`.D.`.`.`.`.D.D.D.D.D.D.`.D.S.S.S.S._._._._._._._.S._._.'.,X0X0XwXwX0X0XeXeXeXeXeX0XqX,X_.f.z k C / u 4 : ; $ 6 r.q.q.R T q._.'.`.`.`.`.`.`.`.`.`.`.`.`.`.`.`.`.`.`.`.`.`.`.`.`.`.`.`.`.`.`.`.`.`.`.`.`.`.`.`.`.`.`.`.`.`.`.`.`.`.`.`.`.`.'.`.`.'.'.`.`.`.`.`.`.`.`.`.`.'.`.`.`.`.+X*X*XoXC.V.!.n g ).3XCXbXMXNXFX2.a $.u C P ^ r.f.6X6X8X6XD.N.s.t.Y k f p.'.D.K.XXK.K.K.K.oXoXoXoXoXoXoXoXoXoXoXoX+X+XoXoX`.N.u.r.e.m m m e.y.d.n.N.~._._._.N.n.c.c.c.c.c.c.c.n.M.",
"k.k.k.k.W.W.k.k.k.k.k.k.g.g.g.k.g.g.k.k.k.k.k.k.k.g.g.k.k.k.k.k.k.k.k.g.g.g.g.g.k.k.k.g.k.k.g.k.k.k.k.k.g.g.g.g.g.g.g.g.k.k.k.k.g.g.g.g.p.p.] ^ ^ p.g.k.g.h.H u y ; ; ; ; 9 Y.E.E.E.E.E.E.E.E.E.E.E.E.E.E.E.E.E.W.W.W.E.E.E.W.W.E.E.E.E.E.E.E.E.E.E.E.E.E.E.E.E.E.E.W.W.E.E.E.E.E.E.E.W.W.W.E.W.W.W.W.W.E.E.E.W.W.W.W.W.E.E.W.W.E.E.^.^.^.W.E./.[.[.{.{.{.{.{.{.{.{.{.{.}.{.}.{.g.' / / Q I g.W.h.V ; 2 2 3 E.*X,X*X*XoX`.V.V.V.`.`.`.D._.V.V.V.V.V._.V.V.V.V.V.V.V.V.V.V.V.S.S.S.D.`.`.S.S.D.D.D.D.`.`.`.`.`.`.`.`.`.`.`.`.`.`.D.`.`.`.`.`.`.`.`.`.`.`.c.m c z z n L C L L L L Y P E R r.p.s.d.j.j.l.l.j.j.j.j.j.j.j.j.c.c.c.c.c.c.c.c.n.c.N._.S.`.].+X,X7X0X0X0X0XeXeXeXeX0X0XqX,X_.f.l j j h 7 4 : ; $ 9 r.q.q.R T q._.`.D.`.`.`.`.`.`.`.`.`.`.`.`.`.`.`.`.`.`.`.`.`.`.`.`.`.`.`.`.`.`.`.`.`.`.`.`.`.`.`.`.`.`.`.`.`.'.'.'.`.`.'.'.`.`.`.'.'.`.`.`.`.`.`.`.`.`.`.`.`.`.`.`.+X*X*X*XoXD._.n f [.}.ZXDXbXNXDX2.s F 9 l Y ^ ^ j.6X6X8X<Xq.M v T r.f f T *X%X%X*X%X%XOXD.A.i.i.i.i.x.u.u.y.u.u.u.u.u.u.u.y.e.e.q.t.d.M.S._.'.oXoXXXD.D.oX`.`.oXoXoXoXoX`.`.XXoXoX",
"k.k.k.k.k.k.k.k.k.k.k.k.k.k.k.k.k.k.k.k.k.k.k.k.k.g.g.k.g.g.g.g.g.k.k.g.g.g.g.g.k.k.k.g.k.k.k.k.k.g.k.k.g.g.g.g.g.g.g.g.k.k.k.k.g.g.g.k.g.g.p.^ ^ h.k.k.g.h.D u 0 ; ; ; ; 9 T.E.E.E.E.E.E.E.E.E.E.E.E.E.E.E.E.E.W.W.E.E.E.E.E.E.E.E.E.E.E.E.E.E.E.E.E.E.E.E.E.E.E.E.E.E.E.E.E.E.E.E.E.E.W.W.W.W.W.W.W.W.W.W.E.W.W.W.W.W.E.E.E.E.E.E.W.W.W.W.W./.[.{.{.{.{.{.{.{.{.{.}.}.}.{.}.{.h.' W I W I R.W.h.h ; 4 2 3 ).,X,X,X*X@X`.V.V.V.`.`.`.D._.V.V.V.`.`.V.S.V.V._._._._._._.V.V.V.V.S.S.`.`.`.`.`.`.`.`.`.`.`.`.`.`.`.`.`.`.`.`.`.`.`.`.`.`.`.`.`.D.`.`.`.`.`.V.n.p.Y P n n L L L L L L L L P U T r.q.q.r.t.r.r.r.r.y.y.t.t.t.t.u.u.u.i.d.d.c.c.N.`._._.'.'.'.+X*X,X0XeXeXeX0X0X0X0X0X,X`.f.z j D Z 3 4 : ; $ 9 r.q.q.R q.t._.`.D.`.`.`.`.`.`.`.`.`.`.`.`.`.`.`.`.`.`.`.`.`.`.`.`.`.`.`.`.`.`.`.`.`.`.`.`.`.`.`.`.`.`.`.'.`.'.'.`.`.`.`.'.'.`.`.`.`.`.`.`.`.`.`.`.`.`.`.`.`.`.`.`.@X-X-X-X*XOX,XY g |.{.CXFXMXDXDX<.s V 9 l Y ^ ^ j.6X6X8X&Xq.^ g.)._.T c r.*XOXOXOXOXOXOXOX'.b.i.i.i.y.y.t.t.y.r.r.e.y.u.i.d.N._.`.'.+XoXoXXXXXK.K.K.K.K.K.K.K.K.K.XXXXoXXXK.K.oXoX",
"g.g.g.g.k.k.k.g.k.k.g.g.g.g.g.k.g.k.k.k.k.k.k.k.k.k.k.k.g.g.g.g.k.g.g.k.g.g.g.g.k.k.k.g.g.g.g.g.g.g.k.k.g.g.g.g.g.g.g.g.g.g.g.g.k.g.g.g.g.g.g.p.^ h.k.f.g.g.Z u 3 ; ; ; $ h T.E.E.E.E.E.E.E.E.E.E.E.E.E.E.E.E.E.E.W.W.E.E.E.E.E.E.E.E.E.E.E.E.E.E.E.E.E.E.E.E.E.E.E.E.E.E.E.E.E.E.E.E.E.E.W.E.E.E.E.E.E.W.W.E.W.W.W.W.W.W.W.W.W.E.E.W.W.W.W.W.^.[.{.{.{.{.{.{.{.{.}.}.}.}.{.}.{.h.' W W W I R.E.h.h ; 2 2 7 {.6X<X<X<X*X`.V.V.V.`.`.`.D.S.V.V.V.C.V._.c.q.y.u.s.j.c.M.N.V.V.N.V.V.S.D.`.S.S.`.`.`.`.`.`.`.`.`.`.`.`.`.`.`.`.`.`.oXoX+X+X+XoX`.`.`.`.`.`.D.`.`.`._.N.M.c.j.j.j.j.c.j.j.j.s.s.j.M.N.b.N.N.N.M.M.M.N.N.N.N.N.N.N.N.S.S.S._._._._.`.`.`.`.'.'.'.+X,X0XeXeXeX0X0X0X0X0X,X`.f.z x D Z 3 4 : ; ; 9 q.q.q.R q.t._.`.D.`.`.`.`.`.`.`.`.`.`.`.`.`.`.`.`.`.`.`.`.`.`.`.`.`.`.`.`.`.`.`.`.`.`.`.`.`.`.`.`.`.`.`.`.'.`.`.`.`.`.`.`.`.`.`.`.`.`.`.`.`.`.`.`.`.'.'.'.`.`.`.`.+X-X-X-X-X%X,X^ g }.{.CXMXxXtXbX+.s u 9 z Y Y T j.0X6X6X&Xy.p.!._.XX].{.}.*XOX#XOXOXOXOXOX%X*X*X@X%XoXoX@X@XoXoXoXoXoXOXOX+X+XoXK.XXK.K.K.`.`.D.D.`.`.`.`.D.`.`.XXXX`.`.`.`.XXXXXX",
"g.g.g.g.g.g.g.g.g.g.g.g.k.k.k.k.g.g.g.g.k.g.g.g.g.g.k.g.g.g.g.k.g.g.g.g.k.g.g.g.g.g.g.g.g.g.g.g.g.g.g.g.g.g.g.g.g.g.g.g.g.g.g.g.g.g.g.g.g.g.g.g.p.f.g.k.k.R.D 3 3 $ ; ; $ 9 Y.E.E.E.E.E.E.E.E.E.E.E.E.E.E.E.E.E.E.E.E.E.E.E.E.E.E.E.E.E.E.E.E.E.E.E.E.E.E.E.E.E.E.E.E.E.E.E.E.E.E.E.E.E.E.E.E.E.E.E.E.E.W.E.E.W.W.W.W.E.E.E.E.E.W.W.W.^.W.^.^.W.[.{.{.{.{.{.{.{.{.{.{.}.}.{.}.[.h.' / W W I h.W.h.N ; : ; 5 }.qX6X6X<X*X`.V.V.V.`.`.D.S._.S.V.S._.V.S.N.u.u.y.y.y.y.t.t.A.m.V.S.S.S.D.`.`.`.`.`.`.`.`.S.`.`.`.`.`.`.`.`.`.`.`.`.oX+X+X+X+XoXXX`.D.D.D.D.`.`.D.D.D.D.`.`.`.`.`.`.`.`.`.`.`.`.`.`.`.`.`.D.`.`.`.`.`.`.`.`.`.`.`.`.`.`.`.`.`.`.`.`.`.`.`.`.'.+X+X*X0X0X0X0X0XeXeXeX0X,X_.f.z l I W 9 3 4 2 2 9 q.q.R R q.u._.`.`.`.`.`.`.`.`.`.`.`.`.`.`.`.`.`.`.`.`.`.`.`.`.`.`.`.`.`.`.`.`.`.`.`.`.`.`.`.`.`.`.`.`.`.`.`.`.`.`.`.`.`.`.`.`.`.`.`.`.`.`.`.`.`.`.`.`.`.`.`.`.`.`.oX-X-X-X*X%X<XY v 7X}.CXkXO.,.nX{ s 9 9 l Y Y ^ j.0X6X6X,Xq.q._.oXXXoXoXoXOXOXOX@X%XOXOXOXOXOXOXOXOXOXOXOXOXOXOXoXoXoXoXXXXXXXXXXX`.`.`.`.`.`.`.`.`.`.`.`.`.`.`.`.`.`.`.`.`.`.oXoX",
"g.g.g.g.g.k.g.g.g.g.g.g.k.k.k.k.g.g.g.g.g.g.g.g.g.g.g.g.g.g.g.g.g.g.g.g.k.g.g.g.g.g.g.g.g.g.k.k.g.g.g.g.g.g.g.g.g.g.g.g.g.g.g.g.g.g.g.g.g.g.g.g.p.f.g.k.k.h.C 3 2 ; ; ; $ 9 Y.E.E.E.E.E.E.E.E.E.E.E.E.E.E.E.E.E.E.E.E.E.E.E.E.E.E.E.E.E.E.E.E.E.E.E.E.E.E.E.E.E.E.E.E.E.E.E.E.E.E.E.E.E.E.E.E.E.E.E.E.E.E.W.W.E.W.W.E.E.E.E.E.E.E.W.W.W.E.W.W.W.).[.{.{.{.{.{.{.{.{.{.}.}.}.}.[.h.' W G I I h.W.h.N ; : ; 5 }.qX8X8X6X<X`.V.V.V.`.`.D.S.`.S.S.S.V._.V.V.`.`._._.~.~.~.~._.`.`.`.S.S.D.`.`.`.`.`.`.`.`.`.`.`.`.`.`.`.`.`.`.`.`.`.`.`.`.`.`.`.D.D.D.D.D.D.`.`.`.`.`.`.D.D.`.`.`.`.`.`.`.`.`.`.`.`.`.`.`.`.`.`.`.`.`.`.`.`.`.`.`.`.`.`.S.`.`.`.`.`.`.`.`.`.`.'.+X+X0XeX0X0X0XeXeXeX0X*X_.p.x x I ` V 3 4 2 2 h R R R R q.t._.`.`.`.`.`.`.`.`.`.`.`.`.`.`.`.`.`.`.`.`.`.`.`.`.`.`.`.`.`.`.`.`.`.`.`.`.`.`.`.`.`.`.`.`.`.`.'.`.`.`.`.`.`.`.`.`.`.`.`.`.`.`.`.`.`.`.`.`.`.`.'.`.`.`.XX%X-X-X-X=X<Xv n 0X,X0X XO.<.zXa u 6 9 l Y Y T j.0X6X6X*Xt._.'.'.'.oXXXOXL.OXOXK.OXOXOXOXOXOXOXOXOXOXOXOXOXOXoXoXoXoXoXoXXXXXXX`.`.`.`.`.`.`.`.`.`.`.`.`.`.`.`.`.`.`.`.`.D.D.`.`.",
"k.k.g.g.k.k.k.k.k.k.g.g.k.k.k.k.g.g.g.g.g.g.g.g.g.g.g.g.k.g.g.g.g.g.g.g.k.g.g.g.g.g.g.g.g.g.g.g.g.g.g.g.g.g.g.g.g.g.g.k.g.g.g.g.g.g.g.g.g.g.g.g.p.g.g.k.k.R.C 3 2 $ $ ; $ 9 Y.E.E.E.E.E.E.E.E.E.E.E.E.E.E.E.E.E.E.E.E.E.E.E.E.E.E.E.E.E.E.E.E.E.E.E.E.E.E.E.E.E.E.E.E.E.E.E.E.E.E.E.E.E.E.E.E.E.E.E.E.E.E.W.W.E.W.W.W.W.E.E.E.E.E.W.W.W.W.W.W.W.^.[.{.{.{.{.{.{.{.{.{.}.{.{.}.[.h.' G D D I ] W.h.N ; : ; 5 }.qX8XqXqX<X'.b.N.V.`.`.`.S.`._.S.V.V.S.V.V.D.D.`.D.`.`.`.`.D.`.`.`.D.`.`.`.`.`.`.`.`.`.`.`.`.`.`.`.`.`.`.`.`.`.`.`.`.`.`.`.D.`.`.`.D.D.D.D.D.D.D.D.`.`.`.`.`.`.`.`.`.`.`.S.S.D.`.`.`.`.`.`.`.`.`.`.`.`.`.`.`.`.`.`.`.`.`.`.`.`.`.`.`.`.`.`.`.`.'.+X6XwX0X0XeXeXeXeX7X*X_.p.x l ` ` h 3 4 2 2 9 R R R R q.u._.`.`.`.`.`.`.`.`.`.`.`.`.`.`.`.`.`.`.`.`.`.`.`.`.`.`.`.`.`.`.`.`.`.`.`.`.`.`.`.`.`.`.`.`.`.`.'.`.`.`.`.`.`.`.`.`.`.`.`.`.`.`.`.`.`.`.`.`.`.`.`.`.`.`.`.OX-X-X<X<X{.g p.6X,X0X XO.<.aXi u 6 9 l Y Y T l.qX6X6X*XA.`.'.'.'.'.V.`.oXOXoXoXOXOXOXOXOXOXOXOXOXOXOXOXOXOXOXOXoXoXoXoXXX`.`.D.`.`.`.`.`.`.`.`.`.`.`.`.`.`.`.`.`.`.`.`.D.D.D.D.",
"k.k.g.g.k.k.k.k.k.k.g.g.g.g.g.g.g.g.g.g.g.g.g.g.g.g.g.g.k.k.g.g.g.g.g.g.k.g.g.g.g.g.g.g.g.g.g.g.g.g.g.g.g.g.g.g.k.k.k.k.g.g.g.g.g.g.g.g.g.g.g.g.g.g.g.k.k.h.C 1 ; $ $ ; $ 9 Y.E.E.E.E.E.E.E.E.E.E.E.E.E.E.E.E.E.E.E.E.E.E.E.E.E.E.E.E.E.E.E.E.E.E.E.E.E.E.E.E.E.E.E.E.E.E.E.E.E.E.E.E.E.E.E.E.E.E.E.E.E.E.E.E.E.E.W.W.E.E.E.E.E.E.E.E.W.^.^.^.W.W.).[.{.{.{.{.{.{.{.{.}.{.{.}.[.h.' G D G D ] W.^ 9 ; : 2 5 }.qXqXqXqX6X'.b.N.V.`.`.`.D._._.S.S.V._.V.V.V.V.S.S.D.D.D.D.D.D.`.`.`.`.`.`.`.`.`.`.D.`.`.D.`.`.`.`.`.`.`.`.`.`.`.`.`.`.`.D.`.`.`.`.D.D.D.D.`.D.D.`.D.D.D.D.`.`.`.`.`.D.`._.S.D.`.`.`.`.`.`.`.`.`.`.`.`.`.`.`.`.`.`.`.`.`.`.`.`.`.`.`.`.`.`.`.`.'.+X,X0XeX0XeXeXeXqX7X*X_.p.j l I ' V 3 2 2 2 9 R q.R R q.s._.`.`.`.`.`.`.`.`.`.`.`.`.`.`.`.`.`.`.`.`.`.`.`.`.`.`.`.`.`.`.`.`.`.`.`.`.`.`.`.`.`.`.`.`.`.`.`.`.`.`.`.`.`.`.`.`.`.`.`.`.`.`.`.`.`.`.`.`.`.`.`.`.`.`.D.XX*X*X,XM.v g M.0X,X0X XO.<.tXy y 7 9 z Y E T M.qX6X6X*XZ.'.oX'.].].m r.l.{.*X*XOXOXOXOXOXOXOXOXOXOXoXoXOXOXOXOXoXoXoXoXoXoXXXXX`.`.`.`.`.`.`.`.`.`.`.`.`.D.D.`.D.`.`.`.`.D.D.D.",
"k.g.g.g.g.k.g.k.k.g.g.g.g.g.g.g.g.g.g.g.g.g.g.g.g.g.g.g.g.g.g.g.g.g.g.g.g.g.g.g.g.g.g.g.g.g.g.g.g.g.g.g.g.g.g.g.g.g.k.k.g.g.g.W.g.g.g.k.k.k.g.g.g.g.g.g.k.h.B 2 ; $ @ $ @ 9 T.W.R.E.E.E.E.E.E.E.E.E.E.E.E.E.E.E.E.E.E.E.E.E.E.E.E.E.E.E.E.E.E.E.E.E.E.E.E.E.E.E.E.E.E.E.E.E.E.E.E.E.E.E.E.E.E.E.E.E.E.E.E.E.E.E.E.E.E.E.E.E.E.E.E.E.E.E.W.W.^.W.W.^.[.{.{.{.{.{.{.}.}.}.}.{.}.[.g.' / D D L ' W.` 9 ; 2 ; 5 }.qX8XqXqX6X`.N.N.V.S.`.`.`._.V.S.N.N.M.c.M.t.r.u._.S.D.S.S.`.`.`.`.`.`.`.`.`.`.`.`.`.`.`.`.`.`.`.`.`.`.`.`.`.`.`.`.`.`.`.`.`.`.`.`.`.`.D.D.`.D.D.C.D.D.D.`.`.D.D.D.S.D.`._.`.`.`.`.`.`.`.`.`.`.`.`.`.`.`.`.`.`.`.`.S.`.`.`.`.`.`.`.`.`.`.`.`.`.'.+X*X7X0XeXeXeXeX0X,X+X_.p.x j Q ` B 3 2 2 2 9 R q.q.R q.u._.`.`.`.`.`.`.`.`.`.`.`.`.`.`.`.`.`.`.`.`.`.`.`.`.`.`.`.`.`.`.`.`.`.`.`.`.`.`.`.`.`.`.`.`.`.`.`.`.`.`.`.`.`.`.`.`.`.`.`.`.`.`.`.`.`.`.`.`.`.`.`.`.`.`.`.D.C._.l.c g x }.7X,X0X XO.<.7.w 7 7 6 l P E Y M.qX6X6X&XS.D.D.M.t.r.g g K U y.c.`.+X*X*XOXoXoX@XOXOXOXOXOXOXOXOXOX`.N.n.c.m.N.Z.V.V.V.D.D.`.`.`.D.D.`.`.`.`.`.`.`.D.`.`.`.`.`.D.",
"g.g.g.g.k.k.g.g.k.g.g.g.g.g.g.g.g.g.g.g.g.g.g.g.g.g.g.g.g.g.g.g.g.g.g.g.g.g.g.g.g.g.g.g.g.g.g.g.g.g.g.g.g.g.g.g.g.g.g.g.g.g.g.g.g.g.g.g.g.g.g.g.g.g.g.g.g.' N 2 ; $ $ @ # u Y.E.E.E.W.W.E.E.E.E.E.E.E.E.E.E.E.E.E.E.E.E.E.E.E.E.E.E.E.E.E.E.E.E.E.E.E.E.E.E.E.E.E.E.E.E.E.E.E.E.E.E.E.E.E.E.E.E.E.E.E.E.E.E.E.E.E.E.E.E.E.E.E.E.E.E.E.E.W.W.W.W.W.^.).{.{.{.{.{.{.{.}.}.}.{.{.[.W.*.' W W I ' g.` 7 ; ; ; 5 |.qXqXqXqX6X`.N.N.V.V.`._.b.A.A.i.i.i.t.q.m T m y._.D.D.D.D.`.`.`.`.`.`.`.`.`.`.`.`.`.`.`.`.`.`.`.`.`.`.`.`.`.`.`.`.`.`.`.`.S.S.D.`.D.C.D.D.`.`.`.S._._._.N.N.N.V.S._.`.`._.`.`.`.`.D.`.`.`.`.`.`.`.`.`.S.`.`.D.`.`.S.`.`.`.`.`.D.`.`.`.`.`.`.`.'.+X+X*X,X0XeXeX0X,X*X]._.p.x h Q ` B 3 2 2 2 9 R q.q.R q.u._.`.`.`.`.`.`.`.`.`.`.`.`.`.`.`.`.`.`.`.`.`.`.`.`.`.`.`.`.`.`.`.`.`.`.`.`.`.`.`.`.`.`.`.`.`.`.`.`.`.`.`.`.`.`.`.`.`.`.`.`.`.`.`.`.`.`.`.`.`.`.`.`.`.`.'.`.Z.N.m k f ^ 7X<X,X0X XO.2.6.: 3 3 6 l P Y m M.qX6X6X<X'.D.'.f.g k k h k n t.i.b.b.y.r.T T q.r.t.u.m.~._.].`._.!.q.v z v T j.j.b.b.V.C.D.D.D.D.D.D.D.D.XXXXXXXXXXXX`.D.V.Z.Z.V.",
"g.g.g.g.g.g.g.g.k.g.g.g.g.g.g.g.g.g.g.g.g.g.g.g.g.g.g.g.g.g.g.g.g.g.g.g.g.g.g.g.g.g.g.g.g.g.g.g.g.g.g.g.g.g.g.g.g.g.g.g.g.g.g.g.g.g.g.g.g.g.g.g.p.g.g.g.f.' N 2 ; @ @ ; @ 9 -.U.T.T.T.T.E.E.E.E.E.E.E.E.E.E.E.E.E.E.E.E.E.E.E.E.E.E.E.E.E.E.E.E.E.E.E.E.E.E.E.E.E.E.E.E.E.E.E.E.E.E.E.E.E.E.E.E.E.E.E.E.E.E.E.E.E.E.E.E.E.E.E.E.E.E.E.E.W.E.W.W.W.W.^.[.{.{.{.{.{.{.}.}.}.{.{.{.W.I.*.' ' ` h.I.Q 3 ; ; ; 5 {.qX8XqXqX7X`.N.N.V.S._.`.V.V.V.V._.b.c.u.q.y.r.j._.D.S.D.D.`.`.`.`.`.`.`.`.`.`.`.D.D.`.`.`.`.`.`.`.`.`.`.`.`.`.`.`.`.`.`.`.S.S.S.S.D.D._.G.c.s.t.q.T m n n v v v n e.c.V.S.`.`.`.`.D.D.`.`.`.`.`.S.`.`.S.D.`.D.`.`.S.`.`.`.`.`.`.D.`.`.`.`.`.`.`.'.+X*X*X,X6X7X*X*X*XoX_.s.z h I ' B 3 2 2 2 9 R R T R q.u._.`.`.`.`.`.`.`.`.`.`.`.`.`.`.`.`.`.`.`.`.`.`.`.`.`.`.`.`.`.`.`.`.`.`.`.`.`.`.`.`.`.`.`.`.`.`.`.`.`.`.`.`.`.`.`.`.`.`.`.`.`.`.`.`.`.`.`.`.`.`.`.`.`.`.'.`.D.c.m k 6 h.7X,X,X.X Xa 2.2.: 3 3 6 l P Y m M.0X6X6X>X`.D.N.m k j j k v M.*X*X'.N.u.t.q.T T T T r.r.t.r.r.q.m v v U q.x.b.V.D.`.`.`.`.XXD.D.D.`.XXXX`.`.`.`.V.b.b.A.A.b.V.`.`.",
"g.g.g.g.g.g.g.g.k.g.g.g.g.g.g.g.g.g.g.g.g.g.g.g.g.g.g.g.g.g.g.g.g.g.g.g.g.g.g.g.g.g.g.g.g.g.g.g.g.g.g.g.g.g.g.g.g.g.g.k.h.E R f.g.g.g.g.g.g.g.g.p.f.g.g.f.' h 2 ; @ $ ; = 9 / ` Q W W Q ` [ ' U.R.E.E.E.E.E.E.E.E.E.E.E.E.E.E.E.E.E.E.E.E.E.E.E.E.E.E.E.E.E.E.E.E.E.E.E.E.E.E.E.E.E.E.E.E.E.E.E.E.E.E.E.E.E.E.E.E.E.E.E.E.E.E.E.E.E.E.E.E.W.W.W.E.W.W.[.{.{.{.{.{.{.{.{.}.{.{.{.W.I.*.*.' ' ' h.W 3 - $ ; 3 [.qX6X6X6X<X`.N.V.V.V.S._.`.`.`.`.V.b.V.V.N.N.M.V.C.D.S.D.D.`.`.`.`.`.`.`.`.`.`.`.`.`.`.S.`.`.`.`.`.`.`.`.`.`.`.`.`.`.`.`.`.S.S.S.S._.N.u.q.T n v z v v v v n m m r.u.N.V.D.`.`.`.`.`.`.`.`.`.`.`._.`.`.S.`.`.D.`.`.S.`.`.`.`.`.`.`.`.`.`.`.`.`.`.'.+X+X*X*X*X*X*X*X+X'._.s.z h L ' B 3 2 4 4 h R T T R q.i._.`.`.`.`.`.`.`.`.`.`.`.`.`.`.`.`.`.`.`.`.`.`.`.`.`.`.`.`.`.`.`.`.`.`.`.`.`.`.`.`.`.`.`.`.`.`.`.`.`.`.`.`.`.`.`.`.`.`.`.`.`.`.`.`.`.`.`.`.`.`.`.`.`.`.`.'.D.B.m g 6 x {.7X{.|. Xa <.<.: 3 3 5 l P Y m _.qX7X6X*XZ.Z.c.r.x l C v j.*XK.D.`.oXoXXX`.`.`.`._.j.r.E Y n v ^ _.~.`.+X+X`.`.'.'.`.`.`.`._._.~.N.N.c.c.A.i.i.i.b.V.S.`.`.D.D.`.",
"g.g.g.k.g.g.g.g.g.g.g.g.g.g.g.g.g.g.g.g.g.g.g.k.g.g.g.g.g.g.g.g.g.g.g.g.g.g.g.g.g.g.g.g.g.g.g.g.g.g.g.g.g.g.g.g.p.s.k.] C j z p.g.g.g.g.g.g.g.g.f.f.g.g.f.' h 2 ; ; ; ; % 9 D Z Z Z D D D D I ` h.R.E.E.E.E.E.E.E.E.E.E.E.E.E.E.E.E.E.E.E.E.E.E.E.E.E.E.E.E.E.E.E.E.E.E.E.E.E.E.E.E.E.E.E.E.E.E.E.E.E.E.E.E.E.E.E.E.E.E.E.E.E.E.E.E.E.E.E.E.E.W.W.W.^.).{.{.{.{.{.{.{.{.{.{.{.{.W.h.*.' ' ' ' ' H 3 - ; ; 1 W.,X7X6X6X>X`.N.V.V.V._.S._.`.`.V.b.S.S.S.S.C.D.D.D.`.`.`.`._._._._.`.`.`.`.`.`.`.`.`.S.S.`.`.`.`.`.`.`.`.`.`.`.`.`.`.`.`.`.`.`.D.S.N.j.t.r.R T R ^ r.p.s.f.c.M.!._.`.`.`.`.`.`.`.`.`.`.`.`.`.`.`.`.`.`.`.`.`.`.`.`.`.`.`.`.`.`.`.`.`.`.`.`.`.`.`.].+X+X+X*X*X*X*X+X+X'.'.s.L L I ` B 3 3 4 4 h E T T R q.i._.`.`.`.`.`.`.`.`.`.`.`.`.`.`.`.`.`.`.`.`.`.`.`.`.`.`.`.`.`.`.`.`.`.`.`.`.`.`.`.`.`.`.`.`.`.`.`.`.`.`.`.`.`.`.`.`.`.`.`.`.`.`.`.`.`.`.`.`.`.`.`.`.`.`.`.D.D.G.T g f 8 Y _.i.[. Xs <.,.; 3 3 6 l P Y U _.8X7X7X&XF.S._.N.T E Y r.'.oXXXK.K.K.D.D.D.K.K.D.u.T Y K z z x g.1XXX`.N.u.q.U q.q.q.q.q.q.q.q.y.y.t.i.c.c.N._.`.oX`.`.`.D.D.D.D.",
"g.g.g.g.g.g.g.g.g.g.g.g.g.g.g.g.k.g.g.g.g.g.g.g.g.g.g.g.g.g.g.g.g.g.g.g.g.g.g.g.g.g.g.g.g.g.g.g.g.f.g.g.f.g.f.f.k.g.' l k j L h.g.g.g.g.g.g.g.g.g.f.f.f.f.' h 2 ; ; @ ; @ 7 G Z Z Z Z Z D W ' U.R.E.T.E.E.E.E.E.E.E.E.E.E.E.E.E.E.E.E.E.E.E.E.E.E.E.E.E.E.E.E.E.E.E.E.E.E.E.E.E.E.E.E.E.E.E.E.E.E.E.E.E.E.E.E.E.E.E.E.E.E.E.E.E.E.E.E.E.E.E.E.W.W.W.^.^.[.|.{.{.{.{.{.{.{.[.[.[.W.h.*.' ' ' ' ' H 3 ; ; 2 < r.S.+X,X<X*X_.N.V.V.V.V._.`.V.N.b.V.S.S.S.S.S.S.S.S._._._.`._._._._.`.`.`.`.`.`.`.`.S.`.`.S.`.`.D.`.`.`.`.D.`.`.`.`.`.`.`.`.D.`.D.S.V.N.N.!.M._._._._._._.S._.`.D.S._._.`.`.`.`.`.`.`.`.`.`.`.`.`.`.`.`.`.`.`.`.`.`.`.`.`.`.`.`.`.`.`.`.`.`.`.`.`.'.+X+X+X+X+X+X+X+X+X'._.p.L I ` ` V 3 2 4 2 h E T T R q.i._.`.`.D._.`.`.`.`.`.`.`.`.`.`.`.`.`.`.`.`.`.`.`.`.`.`.`.`.`.`.`.`.`.`.`.`.`.`.`.`.`.`.`.`.`.`.`.`.`.`.`.`.`.`.`.`.`.`.`.`.`.`.`.`.`.`.`.`.`.`.`.`.`.`.`.`.D._.s.l 6 5 f U f./.>.s ,.#.; 3 3 5 l P Y U _.6X<X<X*XF.D._._.t.R m A.OXoXK.K.K.K.K.K.K.K.XXV.q.Y L l l l x P l._.'.N.u.t.y.u.u.u.d.j.c.m.V._.`.`.XXXXoXXXXX`.`.`.`.`.`.`.`.`.",
"g.g.g.g.g.g.g.g.g.g.g.g.g.g.g.g.k.g.g.f.g.g.g.g.g.g.g.g.g.g.g.g.g.g.f.f.g.g.g.g.g.g.g.g.g.g.g.g.g.f.g.f.g.g.g.g.R.` j h j B ` g.g.g.g.g.g.g.g.g.g.f.p.f.f.` h 2 ; $ @ ; @ 7 ;._ D Z Z Z D _ ' ' h.U.U.R.R.R.E.E.E.E.E.E.E.E.E.E.E.E.E.E.E.E.E.E.E.E.E.E.E.E.E.E.E.E.E.E.E.E.E.E.E.E.E.E.E.E.E.E.E.E.E.E.E.E.E.E.E.E.E.E.E.E.E.E.E.E.E.E.E.E.E.E.E.E.W.W.).[.{.{.{.{.{.{.{.[.[.[.).h.' ' ' ' ' ' D 3 ; ; ; < ^ M.N.].*X+XS.N.V.V.V.V._.V.c.b.V._.S.V.V.V._._._._._._._._.`.`._._.`.`.`.`.`.`.`.`.S.`.`.S.D.`.`.`.`.`.S.S.S.S.S.S._._.`.`.S.D.D.S.V.N.N.N.N.N.N.N.b.b.V.D.S.D.D.D._._.`._.`.`.`.`._.`.`.`.`.`.`.`._.`._._._.`.`.`.`.`.`.`.`.`._._._._._._.`.`.`.'.].].+X+X+X+X+X].+X'._.r.l L I ` V 3 2 2 2 9 I Y U U q.s._._._.`.`._._._.S.S.S.S.`.`.`.`.`.`.`.`.`.`.`.`.`.`.`.`.`.`.`.`.`.`.`.`.`.`.`.`.`.`.`.`.`.`.`.`.`.`.`.`.`.`.`.`.`._._.`.`.`.`.`.`.`.`.`.`.`.`.`.`.`.`.`.'.D.`.N.Y 6 5 f L a./.>.s ,.+.; 3 3 5 l P n U ].6X<X<X*X`.S.S.`.c.m n u._._.`.`._._._._._._._.M.E P C C l j x c q._.`.'.+X+X+X+X+X+X+X+X+XoXXXXX`.`.`.XX`.`.XXXX`.`.`.`.`.`.`.`.",
"g.g.g.g.g.g.g.g.g.g.g.g.g.g.g.g.g.g.g.g.g.g.g.g.g.g.g.g.g.g.g.g.g.f.f.g.g.g.g.g.g.g.g.g.g.g.g.g.g.g.g.f.g.g.g.p.H h 9 N j H h.k.k.g.g.g.k.k.g.g.f.f.f.f.h.Q h 2 $ $ @ @ % 9 ;.U.-.W Z G / _ ' U.U.T.T.T.T.E.E.E.E.E.E.E.E.E.E.E.E.E.E.E.E.E.E.E.E.E.E.E.E.E.E.E.E.E.E.E.E.E.E.E.E.E.E.E.E.E.E.E.E.E.E.E.E.E.E.E.E.E.E.E.E.E.E.E.E.E.E.E.E.E.E.E.E.E.E.E.W.).{.{.[.[.[.[.[.[.[.).).h.' ' ' ' ' ' C 1 ; ; ; 2 E n.j.m._.'.S.V.V.V.V.V.V.b.A.S.S.S.V.S.S.S._._._._._.S.S.S.`.`._._.`.D.D.D.`.`.`.`.`.S.S.`.`.`.`.`.`.`.S.S.S.S.S.S.S.S.V.V.S.S.D.S.V.N.N.N.N.N.m.N.N.N.V.S._._.`.`.`._._._._.`.`.`.`.`.`.`.`.`.`.`.`.`._._.`.`.`.`.`.`.`.`.`.`._._._._._._._.`.`.'.'.].].].+X+X+X].].'._.r.k j l I 9 2 2 2 2 9 P U U U R t.n._.~.V.V._._._.S.S.S.S.`.`.`.`.`.`.`.`.`.`.`.`.`.`.`.`.`.`.`.`.`.`.`.`.`.`.`.`.`.`.`.`.`.`.`.`.`.`.`.`.`.`.`.`.`._._.`.`.`.`.`.`.`.`.`.`.`.`.`.`.`.`.`.'.D.D._.r.g 6 f P r.(.:.s ,.+.; 3 1 5 x P n T }.6X<X>X*XoX`.'.D.G.n j l Y ^ r.r.r.r.r.^ ^ ^ ^ ^ n v z z z l x c q.`.XXXXK.XXK.K.XXXXXXXXD.`.D.`.`.`.D.D.D.`.`.XX`.`.`.`.`.`.`.`.",
"g.g.g.g.g.k.k.k.k.k.g.g.g.g.g.k.f.f.g.g.g.g.g.g.g.g.g.g.f.f.f.f.g.k.g.g.k.k.g.g.g.g.g.g.g.g.g.W.r.^ R.g.h.] W j 9 9 h j C ^ g.k.k.g.g.g.g.k.k.g.g.p.p.p.f.Q 9 2 @ @ @ @ # 9 Y.U.Y.-.I _ -.U.U.R.R.R.T.E.E.E.E.E.E.E.E.E.E.E.E.E.E.E.E.E.E.E.E.E.E.E.E.E.E.E.E.E.E.E.E.E.E.E.E.E.E.E.E.E.E.E.E.E.E.E.E.E.E.E.E.E.E.E.E.E.E.E.E.E.E.E.E.R.E.E.E.E.E.E.E.E.E.W.^.^.^.^.^.W.W.W.E.E.E.h.' ' ' ] ' _ A 4 ; ; : < E l.j.c.M._.S.V.V.S.V.V.V.i.b.S.V.S._.N.c.A.i.u.i.j.c.N.S.S.S.`.`._.D.D.D.D.`.`.`.`.D.S.S.S.`.`.D.D.S.`.S.V.N.N.b.c.b.b.N.V.S.S._._._.V.V.V.V.V.V.V.V.V.V.S._._.`._.`.`.`.`.D.D.S.S.`.`.`.`.`.`.`.`.`._.`.`.`.`.`.`._._._.`.`.`.`.`.S.S.S.S.D.D.`.`.].].'.].].'.'.'.'.`._.^ k j C W 9 2 2 2 2 9 L P U U R q.t.s.d.d.j.c.c.n.c.b.N.V.`.`.`.`.`.`.`.`.`.`.`.S.`.`.`.`.`.D.D.`.`.`.`.`.`.`.`.`.`.`.`.`.`.`.`.`.`.`.`.`.`.`.`.`.`.`.`.`.`.`.`.`.D.D.D.D.D.D.D.`.`.`.`.`.`.D.D._.s.k 6 g T r.T.H s ,.+.; 2 2 5 j P n U ,X6X<X>X*XoX`.D.D.G.K 6 f f k n n n n n n m Y R r.s.s.k.l.j.n.!._.`.`.D.K.K.XXXX`.`.`.XXXX'.'.`.`.`.`.XX`.`.`.D.D.K.D.D.`.D.D.D.D.",
"h.h.h.h.g.R.g.g.R.g.h.h.R.R.W.W.g.g.g.g.g.g.g.g.g.g.g.g.g.g.k.k.k.k.g.g.g.g.g.g.g.g.g.g.g.g.g.W.r.z I L C h 9 7 9 9 j H ^ g.g.k.g.g.g.g.g.k.k.g.g.p.p.h.h.Q 6 < @ @ # = # 9 Y.U.U.U.' ` ' ' ' U.U.h.h.I.h.R.E.E.E.E.E.E.E.E.E.E.E.E.E.E.E.E.E.E.E.E.W.W.W.R.W.W.E.E.R.E.E.E.E.E.E.E.E.E.E.E.E.E.E.E.E.E.E.E.E.E.E.E.E.W.E.E.E.E.E.E.E.E.E.E.E.E.E.E.E.E.E.R.R.R.R.R.g.g.h.h.h.h.h.' ' ' ' ' ' / V 4 ; ; ; < E l.j.j.c.N.N.V.V.V.V.S.N.i.N._.~.V.c.i.b.N.N.N.c.d.i.d.c.N.V.S.`.`.D.D.D.D.`.`.`.`.`.`.D.S.`.`.D.V.V.V.N.b.c.c.c.b.b.N.S._._._.`.`.`.S.S.S._._._.`.S.S.S.`.`.`.`.`._._._._.D.D.D.`.`.`.`.`.`.`._._._._.`.`.`.`.`.`._._._._.`.`.`.`._._._._._._._.{.{._._._.`.`.'.'.'.`._.Y j j C I 7 ; 2 2 2 6 L P P U U U E Y U R R q.r.r.t.y.c._.`.`.`.`.`.`.`.`.`.`.`.S.`.`.`.`.`.`.`.`.`.`.`.`.`.`.`.`.`.`.`.`.`.`.`.`.`.`.`.`.`.`.`.`.`.`.`.`.`.`.`.`.D.D.D.D.D.D.D.D.`.`.`.`.F.D.D.`.p.k f x r.p.' V u a a ; 2 2 5 j L n U ,X6X<X>XoX`.`.`.`.S.p.Y Y T r.j.j.c.c.M.N.S._.`.`.oXK.oXoX+XoXoXoXoXoX'.D.`.XX`.`.XXXXXXXXXXXXXX+X'.`.`.`.`.`.`.K.D.D.`.`.D.`.XX`.",
"I I I I I ` ` ' ] Q L C L I ^ ' h.h.h.h.h.h.h.g.h.h.h.h.' ' ] ^ p.h.U.R.g.g.g.g.g.g.g.g.g.g.f.R.] l h h 9 7 7 9 9 B I ' g.g.g.k.g.g.g.g.g.k.k.g.g.p.^ ` ' H 5 @ @ @ @ $ # 9 Y.U.U.U.*.I ` ` ` ` ' ` ' ' ' U.U.T.R.R.R.T.R.R.R.R.R.R.R.R.R.R.U.U.I.I.h.h.h.h.' h.h.I.I.U.U.U.U.U.R.R.R.R.R.R.T.T.T.E.T.T.E.T.T.T.T.R.U.U.h.h.R.R.R.T.R.U.' ` ` ' *.U.U.U.U.U.U.U.U.U.U.U.-.*.' ' ' ' ' ' ' ' ' G u 2 ; ; ; < E j.j.j.j.c.N.N.N.V.V.S.N.i.d.d.d.i.i.m.N.V.V.V.V.V.!.N.m.V.V.V._._.S.S.S.D.D.S.S.S.S.S.S.S.`.S.V.V.V.V.V.V.V.V.V._._.S.S._._._.`.`._.S.V._._.`._.`.D.D.`.`.`.`.`.`._._._._.D.D.D.D.`.`.`.`.`.`.`.`._._._._._._.`.`._._._._._._._._._._._._._._._.!.M.n.n.N._._._._.`.`.!.n j l H H 3 ; ; ; 2 9 L L K L P P I I I I P P P P m s.!._.`.`.`.`._.S.D.D.S.S.S.`.`.`.`.`.`.`.`.`.D.`.`.`.`.`.`.`.`.`.`.`.`.`.`.`.`.`.`.`.`.D.`.`.`.`.`.`.`.`.`.`.S.D.S.S.D.D.D.D.`.`.`.`.D.D.`.l.K h f n p.p.E h 9 y y 2 ; 2 1 j L n R ,X7X*XoX`.`.`.'.'.'.'.].].].+XoXoXoXoXoXoXK.K.oXL.oXXXXXXXoXoXoXoXoX'.`.`.`.`.`.`.K.D.`.'.].~.N.n.n.n.n.n.n.M.N.N.N.S.D.`.`.`.`.`.",
"H H H H D H C L H C C C C C C C L L L L L L I I I I L L H H C C C C H I ` R.g.g.f.f.g.g.g.g.g.R.Q h 9 u 9 7 7 7 B Q h.g.g.g.k.k.g.g.g.g.g.g.g.g.g.h.I ` Q D 5 @ @ @ # ; # 9 I.U.R.R.-.I H D D D W Q ` _ ' ' ' U.U.U.U.U.R.R.R.R.R.R.R.R.U.*.' ' ' _ ` ` ` ` ` ` ` ` ` ` ` ' ' ' ' ` ` ` ] ' ' h.U.U.U.U.U.' ' ' ' ' ` ` W W W ` _ Q H C B B C D H I / ` ` ` ` ' ' ' ' ' ' ` _ _ ) _ ' ' _ ' _ D u 2 - ; ; < E l.j.j.c.c.m.N.N.N.V.V.N.i.y.y.u.n.V.V.V.~.V.~.~.V._._.S.V.V.S.S.V.S.S.S.S.S.`.D.`.`.D.S.S.S.S.V.V.V.V.V.V.V.S.S.V.V.S.S.S.S.S.S._.`._._.`._._.`.`.S.D.D.S._.`.`._._.N.N.S.S.S.S.S._._._._.S.S.V.V.V._._._._._._._._._._._._._._._._._._.V.M.d.u.u.u.u.d.n.!._._._.S._.p.C l C I H 2 ; ; ; ; 6 C z C C K L L K K P P L P n f._.S.C.`.`.`.`.S.S.S.D.S.S.D.`.`.`.`.`.~.~.~._._.`.`.`.`.`.`.`.`.`.`.`.`.`.`.`.`.`.`.`.D.D.D.`.`.`.`.`._.`.`.`._._.S.S.D.D.D.`.`.`.`.`.`._.f.L h 5 l r.p.p.I h 9 w : $ $ ; 1 h C n U ].oXD.D.oX`.`.'.oXD.D.D.D.XXXXD.`.D.XXoX`.'.`.oXoXoXoXoXoXoXoXoXoXoXoXoX+X+XoXoX+XoX].].!.k.r.^ ^ ^ r.r.r.p.p.p.s.j.N._.`.`.`.`.S.",
"I L L L H H C C C C C C C C Z D C Z Z D C C C Z C C D D D D D D D C C C C L ^ h.f.h.h.h.p.] ` H B h h 9 9 9 9 h I ' g.g.g.g.g.g.g.g.g.g.g.g.g.g.g.h.E I I D 7 @ @ @ @ $ @ 9 -.U.U.U.-.W H D Z D H H W W W W W Q ` ` ` ' ' ' -.-.U.U.U.U.-.' _ ` W G G G H H D D W / W / W W / I D D D H H D W W ` ` ` ` W W H H I W D D D D C B B B B B B Z D D D H D D D G W W W ` ` ` _ _ _ _ ` ` ' ' _ / G B 7 2 ; ; ; 2 ! l.j.j.j.c.c.N.N.N.V.V.N.m.c.c.N.~.V.V.~.~.V.V.V.V._.S.V.V.V.S.S.D._.`.`.S._.S.S.b.n.c.j.f.f.j.j.j.j.l.M.M.N.N.N.N.S.S.S.S.S.S.D.D.C.`.`._._._._.`.`.S.S.D.D.`._.S.n.u.u.u.c.N.S.S.V.V.V.V.V.V.S.S.S.S.S.S.S.S.S.S._._._._.S._._.!.N.M.l.u.r.r.r.t.u.d.l.N._._._._._.!.P l C L I Z ; ; ; ; ; 5 j x z z z z L L L L P n P U p.M.G.D.D.S.D.`.`.`.`.`.`.`._.N.B.B.j.s.p.q.q.u.d.n._.`.`.`.D.D.D.D._._._._.S.S.S.D.S.V.D.D.D.D.`.`.`.D._._.`.`.`.`._._.S.S.S.S.D.S._._.M.^ z f 6 f E t.t.p.Y h 5 : : $ $ @ 1 9 C z n s.].].'.oXXXXXXXXXD.D.D.D.D.D.XXXXD.D.D.oXoXXXXXoXK.oX'.].oXoX`.].M.t.r.r.t.p.p.t.r.Y n x k h 9 f f k x z z v P U T t.s.u.u.u.u.t.",
"I ` ` ^ ^ I I I I I I L L C C H C C Z H C C C C C C D D C C C C C C C C B B j C C C C C l j h h h h h 9 9 9 9 N ' f.f.f.g.g.g.g.g.g.g.g.g.k.k.g.g.g.` L L D 9 = # = * * # 9 -.U.U.U.h._ D V V A A A D D D D H H H H H H H H I W ` _ _ _ / G H D Z B A B V V Z Z B Z Z Z Z Z Z B h h B B C C C B C Z D Z Z Z B D D Z A A V V V V B B B B D D H H H G G G G W W W ` _ _ _ _ _ _ _ ` ` _ _ _ G D u 3 ; ; ; ; 2 ! l.j.j.j.j.c.n.M.N.N.N.M.!.M.n.n.n.j.j.l.M.n.n.N.N.N.~.~.~.~._.`.`.D.C.V.V.V.n.s.T I Y L C L C C L L L I I E R ^ r.p.p.f.M._._._._.S.S.S.S.S.S.S.S.S.S.S.S.V.N.n.d.d.s.s.u.u.j.N.V.V.N.V.V.V.V.V.V.V.V.V.V.S.S.S.S.S.V.V.V.b.c.j.u.t.r.q.R T r.t.s.l.N.N.!._._.N.N._.k.v C L L I V ; ; ; ; 2 5 f j l l z z C C L L L L P P U T t.j.n.M.M.M.f.f.j.l.l.s.t.T Y m U U U U T q.y.y.d.~.~.`.D.D.D.D.D.S.S.S.S.S.S.S.S.S.D.D.S.S.S.D.D.D.S.S.S.S.D.D.D.D.D.D.D.D.S._.M.u.P x 6 8 x E r.t.t.p.L h 9 : : % $ @ 2 5 j l z v r._.].].]._._.'.`.'.].'.oX'.oXoXoX'.'.oXoXoXoXoX'.`.S.b.x.i.u.p.E c z z x x x k k h 6 8 8 8 8 f x z K v P P P U T T T T T T T T ",
"I ` ^ ^ ^ ^ ^ ` ` ` ` ^ ` I I I L C C C C C C C C C C D C C C C C C C C C B B B N N V N N N u u 9 9 u 9 9 9 9 B ' f.f.f.f.g.g.g.f.g.g.g.g.g.g.g.g.h.U.` I H 9 = * * * - @ 7 &.U.U.h.U.' D V B A D D S H H G G G W W W D H H H Z H D D D D D H H D D S D D A V u V V V N N N V B Z D G W W W G G G D H D D Z B B B A V V V V V V V B B B B D H H G G W W / _ _ _ _ _ _ _ _ _ _ ` ` ` _ _ G Z V 7 2 ; ; ; ; < ! f.j.j.j.j.j.l.l.j.j.s.p.t.t.r.r.r.r.R r.r.r.t.t.t.t.u.s.s.d.c.m.N.b.b.c.s.p.R x f 9 6 6 5 5 5 6 6 6 6 6 6 f f h k j x z ^ s.p.p.s.s.u.p.p.u.u.u.s.d.j.j.d.s.s.p.p.p.p.p.p.p.s.j.M.N.N.N.N.N.N.N.N.N.N.N.N.N.N.N.N.N.M.c.c.j.s.t.T R R Y E r.p.l.W.M.M.M.M.!.!.!.l.k.E C L I I G 3 = ; ; - ; 3 7 h j C C C C C C L K K L P P P P U Y T Y U n n n P P L v L K L L L L P E r.t.t.t.j.~._._._.D.`.`._.`.`.`.`.`._._.`._._._.G._._._._.G.G.N.N._._._._._._._.!.M.p.U x f 8 8 x R r.t.t.t.r.L V 9 : - # # # @ 1 h j l l x z P U Y Y Y Y Y Y R R ^ r.r.p.p.p.p.p.p.p.f.l.l.!.!.M.l.l.l.l.s.t.^ ^ ^ ^ ^ E I C f 5 8 8 6 j K L P P P P P P U Y Y Y E E E E ",
"H Q ` ` ' ] ` ` ` ^ ^ ^ ^ ^ ` ` I L C C C C C C C C C C C C C C B B B B l j B B V h 9 9 9 9 9 9 9 9 9 u 9 9 h C ' h.p.h.h.h.g.g.f.g.g.g.g.h.p.p.] ^ ` I C D u 2 = : y w ; 2 / -.' h.h.' C D / / / _ _ _ _ _ _ ' ' ' ' ' ' ' ' ' ' ' ' ' ' _ ' _ ' ' &._ _ _ H Z V h B B D D G / _ _ _ ' ' ' ' ' _ ' ' _ _ / G B B h h N V N N N V V B B B D G W / / ` ` _ _ _ _ ` ` ` ` Q ` ` ` ` _ _ W A u 7 2 ; = ; ; ; < I f.s.j.f.l.f.f.s.s.p.r.r.r.r.r.r.r.r.r.r.r.r.^ ^ ^ ^ ^ ^ ^ r.t.s.s.i.s.s.^ C f 5 5 5 5 5 6 6 6 6 6 6 6 6 6 9 6 9 h h j P ^ R R R R R R T Y R E Y Y Y T Y Y Y Y E ^ R ^ ^ ^ r.p.u.d.l.l.l.l.l.l.l.l.j.j.j.j.l.l.j.l.f.s.s.s.r.R R E E E E ^ p.p.p.p.p.p.r.t.r.R E Y v x C H I D 9 ; ; ; - - o # $ < 6 j C C z z z z z K L L L L L L L L L L L C C C K L C C C C L C K K P R r.t.t.t.d.N._._._.M.j.s.f.f.p.p.p.p.p.f.f.s.p.p.p.r.r.r.^ R R Y ^ ^ E E ^ ^ ^ R n x f 6 5 6 k Y q.r.r.r.t.r.C V 9 ; - # # # @ < 5 6 h h h 6 6 5 6 6 6 6 6 6 6 6 8 8 6 6 8 8 8 6 6 6 f f k z Y ^ p.g.g.p.p.r.^ ^ ^ E E L j 6 5 1 1 5 5 j L L v n n n n P P P U Y Y Y Y U ",
"j h j C C I ` ` ` ` ` ` ` I I I Q I I C Z Z Z Z H H H H L L L L L Z B B C B B h 5 5 5 5 6 9 6 9 9 9 9 9 u h N D I Q E E E E ` ` ^ ^ ^ ^ ` ` C B B B h h h h 9 = : a { y - $ u %.-.-.-.-.&._ _ _ _ _ _ _ _ _ _ _ ' ' _ _ ' ' ' ' ' ' ' ' &.&.&.&.&.&.&.&.&._ G A B D G / _ _ _ _ _ _ _ ' ' ' _ _ _ _ _ _ / / W G D D Z B Z Z Z Z Z Z Z D D G / / _ _ _ / / / ` ` _ _ / / W W W W W G D V u 3 2 ; $ @ @ $ $ , L f.s.f.f.f.f.s.p.p.p.t.t.p.r.r.r.r.r.r.r.r.^ R R R R R R r.^ r.p.s.s.p.E j 5 5 5 3 7 5 7 5 5 5 5 5 7 3 3 7 3 3 7 7 6 C I P P P P P P P P P L L L L P P L P P P P Y Y Y Y E T R T R R R R R ^ ^ R R R R R R R R T Y E Y P P L C C z K C C K z z K K C z z l l l l l l C C j B 9 @ ; ; ; - # # # # # < 9 B Z C C z z z v v v L n v z C C C z l x x x x x x l C l l l l x z L n Y R R q.r.t.p.f.R x f k x x k j j j j x x l l l l l x x j k h h f f f h h 6 6 5 5 8 6 6 j I Y T R ^ ^ r.E l h 9 % % o o o # % < 3 6 6 6 9 9 9 9 6 9 6 6 6 6 6 6 6 6 6 6 6 6 6 6 6 6 6 6 8 5 8 6 f f f f f f f 6 6 6 6 8 8 5 5 3 5 5 6 l L L P P P P P P P U Y U U Y Y ",
"3 1 1 1 1 1 1 5 9 h B C D I W I W / / I I I W W Q ' ' ' ' ' ' ' ' I C B V h 9 5 3 3 5 5 5 7 7 7 9 9 9 9 9 h B D D / / I I I I I I I I C Z h 6 9 6 6 9 9 9 9 3 = : a { y - $ , 6 S / / %.%.~ H H G G G H H H H H G G H H H H H H H S S S S S H H S S D D S D Z V V Z D D D Z Z Z Z Z D D D Z Z B V V u N u u u N u V J Z Z Z S H H H H H ~ ~ ~ G G H H H H H D D D Z Z Z V V V u u 9 3 3 2 2 ; @ @ $ ; ; - = 5 ` f.f.f.p.p.p.p.p.r.r.r.r.r.r.r.^ ^ ^ ^ ^ R R R ^ ^ ^ ^ ^ w.^ R E L h 1 @ @ 2 $ $ ; = ; ; ; @ @ @ @ @ @ @ $ @ @ 2 6 B B C l l j j j j j l j j j j l l j l l l l l l l l l C l j j j j l j j j j j j j j j j j j j j j h h h h h h h h h h 9 9 9 9 9 9 9 9 9 9 9 9 9 9 3 2 $ @ % - * * * o * * # ; ; 4 1 1 3 5 h C B C C l C C C C C C C l j j j j j j j j j j j j h j k j l z C K L L L L L l f f f f 6 6 6 6 f f f f f f f f f h h f 6 5 8 6 6 5 5 1 1 1 1 5 6 6 f C I U Y Y Y Y U v j N 3 # o : y - o # # < 3 3 3 5 5 5 5 5 5 5 5 5 5 3 5 5 5 5 5 5 5 5 5 5 5 5 5 5 5 5 3 3 3 3 5 5 8 8 5 5 5 5 5 5 5 5 5 5 5 5 6 h j j l l l l z z z z C C C C ",
"* * * * * # # # # # @ @ , 1 7 9 9 9 9 N V V V B B Z Z D Z D D D Z N 6 5 3 1 1 2 2 3 3 3 1 3 3 3 3 7 7 7 7 5 9 h C H L L D D D D A B V h 9 3 4 3 3 3 3 3 3 2 $ # : { { r # # @ # @ 2 2 1 2 2 2 2 2 2 2 2 < $ < < < < < < $ $ $ < 2 2 2 2 2 2 2 2 4 4 2 2 2 2 2 2 2 2 2 2 2 2 2 2 2 2 2 2 < < < $ $ $ @ @ @ @ ; @ $ $ $ $ < < < < 2 2 2 < < 4 4 3 4 4 2 2 2 2 2 2 2 2 2 2 : ; ; ; ; ; ; - # # # # # # * ; : - @ 1 h j B B j j j j j j j j j j j j j j j j h h h j j j h h h 9 1 @ @ . # # # o o # # # o # o o # # # # # o # # # # @ $ < < < < < < < < < < < < < < < < < < < < < < < < < < $ $ 2 < < < < < @ , < < 2 2 2 2 , @ $ $ $ $ ; 2 2 2 ; 2 2 ; ; ; ; = = = = = # # # # # # o o o & # % o - * * & & & & - o o o . o o o # @ @ @ @ , , < < < 1 1 1 1 1 1 1 1 3 1 3 3 3 3 5 5 3 7 7 5 5 9 9 6 9 9 9 9 5 1 1 1 1 1 3 3 3 1 5 5 5 5 7 7 5 5 5 6 6 6 5 3 5 1 1 1 1 < < 1 1 5 7 5 6 h j C C C C C x h 9 7 2 o & a O.s - o # # # # @ @ $ $ @ @ @ @ @ @ @ @ @ @ @ @ @ @ @ @ @ @ $ < 2 2 2 2 2 2 1 2 2 1 1 2 2 2 2 3 3 3 3 3 3 3 5 5 3 1 1 1 1 1 8 5 8 8 8 8 1 1 1 1 ",
"o o o o o o o o . o # # o     .     X o         . . . . . . . o . . # # @ @ @ # @ @ @ @ @ @ @ @ @ @ @ @ $ $ @ $ 2 2 < < < < < $ $ $ @ # # @ @ @ # # # # # . . X q { { r # # o & o o     X X o X   . . .     o X o o o o o o o o . . o o o o o X o o o o     X X o                       . . . o . . . . . . . . . o o o o o o o o o # o o . . . # # # # # # # # # o o o o o o o o o o o o o o # # * - - * % % # o o # # # # # # o # # o . . # # # # # # # # # # # # # # . . . o # # # # o . # . o # o o # # # o # # # # # # # # # o o   o o o . o o # # # # # # # o # o o o # o o o o o o o # o # # o o . # # # o o o o   . . . o o o o . o . . o o . o o o o o # o o o o o o # # # * * * * * * * & y s a r o o . . . o o o o . o o o . o o o o o o o o o o o o o X X o X o o # o o o . # # . . . . . . . . .   . . . # . . # @ @ @ $ $ < 2 2 2 1 1 2 2 < < @ @ @ $ $ @ $ $ < < < < 1 1 5 9 9 6 5 3 4 ; # o r +.+.+.i & & o o . . . . . .   . . . . . . . . . . # # # # . . # # # # # # # # # # # # # # # # # # @ @ @ @ $ $ $ $ = = ; $ ; ; ; ; ; ; 2 2 2 ; ; ; ",
"o o o o . o o . o o o X o o o o O O O O o X o o         X o X   o o   O O O X X               .                 .               . . . . o o o o o o o X . . . o i  . .p o o o o o o     X X X X X X X               X X X               X X X X X o o o X X X X o o X X X X     X X O O O     . O O O O . O O O O O O O . . . . . . . . . . . .     . . X X X X X X O O X o o X o o o o o o o & : i y : - * # o o # o & o o o o o o o o o o o o o o o o o o o o o o o o o o o   o o o o o o   # . . . . o o . . # # # # o # # # o o # # o o o o o # * * # # # o o o o # * o o & & & & & o o o o o o o o o o o o o o o o o o o o o o o o # # o o . o . o # o o o o # # * & o o # # # # * * * & & o r  . .O.{ o O o o o o o o o o o & o o o o o o o o o o o o o o o o o o o o o o o o o o o . . . X X X X o o o o o o X X .       . . . . . . . . .           . . . . # . # o o o . # # # @ @ $ @ # # # # * o a #.<.,.@.i o o o .       .   . o . . o o . . . . . . . o o . . . . . o . . o o o X         o o o o X X o X           . . . o . . o o o o o . .   . ",
"o o o o   o o o o o o o o o o o X X o o o o o o         X X X o X X X X X X X X                 o o . .         o   o   . . o o . . . .         o o o o o . o q  .......q O & o o o o o o o o o o o o o o o o o o o o o o o o o o o X X X X X X o o X X X X X X X O O O .                 X X X X X X X         O X o o X       X X X X       X o o o o o o o o o o o o o o o o o o o o o o : i +.5.2.+.a q : & o o o * o o o o o o o o o o o o o o o o o o o o o o o o o o o o o o o o o o . o o o o o o o o o X X o o o o o # o o o # # # # # # o # # o # # # # # # # # # # o o o o o # # o o o o o o o o o o o o o o o o o o o o o o o o & & & & > & X X O O O O O O O O o o o o o o # # # o :  .+.@.@.@. .: O O o o o o o o o o o o o o o o o o o o . o o o o o o o o o . o   . o o X X X X         . .           . # o o o o o . . o o o o       . . o o # . # # # o # o o o o # # # o o o     X o o y <.2.3.2.2.<. .: : : - - % o o o o o o o o o o o o o o o X X X X X o X X X X                       .   .   . o o o o o o o o o o o o o o o o o o o o ",
"X   X X X X X o o o o o o o o o o & & o o O O o o o X o O O O o X X o o X X X X o X X X o o X O O O O O O O O o o O X O O O O O   O .   O O X X o o o o o o : { o.o.o.,.} > > & # * o # # # * * * * - - - * * * * * * * * * * * - - * * - - * * * * & & * * * * & & & & o o + o * * - - * * * - - : : : - - - - - - - - - - * * - * * * * * * - - - - - - - - - - - - - & & & - : - - - : y @.7.pXtXtX7.2.@.{ i : - - & - * * * # # o o o # # o # # # # # # # # # * # # o o o o * o o # * * * o o o o o o o o o o & & & & & & o o o o o o o o o o o o o o # o o & & o o o o o X o o O o X o & & * & & & & & & & & * * * & * * * & & * * - : : r @.6.7.6.6.<.<.@.@.+. .{ i y r r r r r q q q : y +.2.2.3.7.3.2.@.{ r : : - > > > - - * * & & & & & o & & & > & o o o & & o o o & o o o o & & & & o o o O O O O O O O O O O O   X   X X o o o # # # # # * - - * # # * * # # # # # # o o   o & * & - : q y a <.6.6.7.7.7.6.2. .q q : : : : : : : : : : : : : : : : : : - - - - * * * o o o O O O O O O O O O O O O   o     o o o o o o o o o o o o o o O O o o o o ",
": : : 2 w w y y y i i i i i i i i i y y y y q & O o o o & o o o o & & * * & & & & & & & o o o & * * * * * - - : - - - - * * * * # # o o - - - - - : : q y s  .@.,.,.,.1...r q : - : : : : : : : : : : : w w w w w y y y y y y y y y y y y y y y y y y y y y y y y y y y y y y y i i i i i i i i i i s s s s s s i i s s a a a a a a a a a a a a a a a a a a a a a a a a a { { { {  .O.+.<.8.gXgXhXgXaXpXpXtX6.#.+.s & o # # # o # # # o # # # # * * * * # # # - * * * * * & * - : : : : - - - - - : - : * - : w y y y y y y y i i p a a { { { { { { { p { a p p i r r r r r i i p }  . . . .a i q : : : : : : : : : : : : : : : : q q y y r r { yXzXzXzXzXxXcXcXxXxXxXzXaX2.<.,.@.+.+.+. . . .2.rXaXzXnXnXxXsX7.3.<.@.+.+.+.O.+.+.@.@.,.,.,.,.,.,.,.,.,.,.,.,.,.,.,.,.,.,.,.<.<.<.<.<.<.<.<.<.<.,.,.@.@... .{ } p p s i s s a a a F F O.F F F J a a a F F a F F F | O.| | F F | | a a F s u s s { O.#.<.<.<.2.3.6.7.6.6.7.tXpXtXrX7.6.<.+.{ { { { { { { { { { { { O.O.O.O.O.O.{ a p s i i i i i i i i i r r r r r q r r r y y y y y y y y y y y y y y y y y y y ",
"+.@.@.#.#.<.<.<.<.2.5.5.2.2.2.2.2.2.2.2.5.5.6.#.p r q q q q q r y i y i i i i i i i i i a a a a a a a a a i s s s s s s s s s s s s s { a q y s {  .@.,.,.2.4.4.4.4.3.3.3.1.+. .{ y y y y y y y y i i s s a { | O.O.O.O.O.O.O.O.O.+.O.O.O.| { { { { { { { { { { a { { { { { { {  . .+.+.+.+.+.+...........+.@.@.@.2.rXtXaXaXaXaXpXrX7.7.6.6.6.3.3.6.6.6.6.6.7.rXrXtXsXaXaXhXzXhXzXzXxXzXzXzXzXzXzXzXzXhXhXgXpX6.@.{ q - - - % # # % - - - % % ; : : 2 2 2 y y y w 2 w y i O.<.5.6.tX8.2.<.#.O.O.a a a { { O.,.6.7.tXtXtXtXpXpXtXpXpXgXgXgXgXgXaXgXaXtXtX7.7.rXrX2.+. .{ {  ...+.<.3.rXpXsXaXpX6.#.@.+.+.@.@.@.@.@.@.@.@.+.+.+.@.#.2.7.pXgXzXpXtXzXxXxXxXvXnXnXnXnXnXnXvXzXyX6.2.2.2.4.2.2.2.3.sXzXnXbXGXGXbXnXzXyX2.<.<.<.<.<.<.2.2.rXyXpXpXpXpXsXpXpXyXyXyXyXyXtXtXtXsXsXsXsXsXaXaXaXaXaXdXhXhXaXaXsXsXsXyXyXrX6.3.3.4.2.2.2.2.5.9. X X(.(.>.:.$.$.#.#.#.#.#.#.#.#.#.#.#.#.#.#.#.#.#.$.F V V J s +.6.6.tXpXgXhXjXvXbXNXDXJXJXJXJXJXDXbXtX7.6.6.5.6.6.6.6.5.5.6.6.6.7.7.6.3.3.2.3.2.2.2.2.4.1.1.1.,.1.1.,.,.,.,.@...X.X.o.4.3.3.3.3.7.7.3.3.6.3.3.3.4.4.1.<.@.@.",
"tXtXtXtXtXaXgXgXgXgXgXgXhXhXhXhXzXzXzXzXhXhXhXhXgXtXrX7.7.rXrX3.3.7.rXrXrXyXrXrXrXrXrXpXaXaXaXdXdXzXzXaXgX6.$.>.(.(.(.(.>.:.:.:.0.0.5.tX6.q w O.<.6.rXrXrXrXrXrXrXrXtXtXpXpXpXtX7.6.O.a a s s a s a a F O.#.5.6.6.6.6.6.6.7.7.7.6.6.6.6.5.6.7.7.6.6.6.6.6.6.6.7.7.7.rX7.8.tXtXtXpXpXaXaXpXaXaXaXaXaXaXaXsXdXdXdXzXbXNXNXNXDXMXbXbXbXbXvXbXbXbXbXbXbXbXbXbXbXbXbXbXbXbXbXbXbXbXvXvXzXhXhXjXxXvXmXbXbXvXvXvXvXvXvXxXjXkX8.8.8.9.9.9.9.9.5.5.5.5.9.9.9.9.9.9.9.5.5.5.9.5.6.fXbXNXNXNXMXbXbXGXDXDXNXpX,.,.,.<.<.<.7.tXaXzXgXaXyXtXrXrXtXtXaXtXtXgXaXaXgXaXdXxXbXMXbXzXaXsXaXgXzXzXxXnXnXnXxXzXhXaX7.<.#.#.#.,.,.,.<.<.2.4.3.4.<.2.4.3.yXzXnXDXFXFXFXDXDXDXDXDXDXDXDXDXDXDXDXbXzXhXgXgXgXgXaXaXgXxXbXDXDXDXNXDXNXnXnXcXyX6.6.6.6.6.6.6.rXzXnXnXnXnXnXnXnXnXnXnXnXnXnXbXbXnXnXnXnXbXNXbXNXDXNXDXDXGXGXGXGXnXnXxXxXzXpX3.3.4.4.4.3.2.6.5.5.(. X X(.:.9.iXfXgXfXtX8.iXiXtXfXfXfX X X X XiXfXkX>.J A D F  XMXJXHXLXLXLXLXHXJXNXvXhXaXpXhXvXNXNXNXDXDXNXMXvXvXxXxXxXhXgXiXfXfXgXfXgXgXkXkXkXkXkXkXfX#.+.+.1.1.,.,.,.1.1.4.4.4.4.4.uXdXdXdXdXdXdXdXdXsXdXdXdXdXdXdXdXzXgXgX",
"mXmXmXmXBXBXBXBXBXBXBXBXBXBXBXBXUXUXUXUXUXUXUXBXBXBXBXBXmXmXVXkXkXfXVXBXBXBXBXNXNXMXNXNXBXBXNXBXBXBXNXNXDXBXkX X4X.X/./.(.(.(.(. X X X8.8.2 u :.9.8.8.tXtXtXpXfXfXfXfXfXkXkXfXfXfXiX8.$.F F F F F F F F ~ $.:.0.0.0.9.8.8.8.8.8.8.8.tX8.$.5.iXfXfXfXfXpXaXaXpXpXpXpXtXtXpXpXpXpXpXgXfXgXjXjXjXjXjXjXjXlXlXVXVXVXlXlXlXVXVXVXlXVXVXVXVXVXVXlXlXlXlXlXlXlXkXkXkXkXkXkXkX5X X X X9.>.>.:.(. X X X X X X X X X X X X X X(.(. X X X X X X X X X5X5X5XkXlXlXlXlXkX X8.8.iXfXxXvXvXvXxXnXnXbXbXNXbXbXDXtX@.@.,.<.<.2.rXtXaXgXgXaXaXtXtXtXtXtXtXfXgXfXtXtXpXpXMXLXJXFXMXxXxXMXNXFXLXLXPXIXIXIXPXPXxX5.#.O.O.O.O.| O.O.O.$.5.5.8.tX6.6.7.8.gXxXMXFXJXJXLXLXLXLXLXLXLXLXLXHXHXHXHXFXMXbXbXxXxXxXxXbXDXFXJXJXJXJXFXDXDXDXNXvXjXgXgXkXkXhXhXhXvXNXNXFXFXFXJXFXJXJXJXJXJXDXDXDXDXDXDXJXDXDXJXJXJXJXJXJXDXDXDXNXbXbXcXzXzXxXzXyX3.3.6.6.6.0.#.$.D C I I K C :.xXxXvXxXkX5.kXjXjXLXLXBXjXjXjXxXmXMXMXBX:.D W H kXLXLXJXJXJXJXJXJXBXjX8.0.:.#.:.0.7.MXHXHXLXPXPXPXPXPXPXLXPXFX X/./..X.X|.}.}.|.}.}..X4X%.2 w w p +.4.3.uXyXsXsXsXsXsXaXdXnXGXGXGXGXGXGXnXnXnXnXnXnXnXNXMXMXlX5X",
"^./././././././.^.^.^.^.^.^.^.[.[.[.|.|.|..X.X.X.X.X|.[.).).).^.^.E.^.|..X.X.X.X|..X|..X4X0X4X4XlXlXlXCXCXCXCX4X4X[.^ ^ ` ` ] ' ' ' &.;.Y./ U.E.T.T.Y.;.;.;.;.;.;.;.;.(. X X X5X X X(._ D W W D H I I I D G G G W ` ' *.*.' ' ' ' ' ' ' ` ' Y.>.>.>.(.>.>.>.>.>. X XgXzXvXMXMXMXNXvX$.>. X4X4X0X0X0X0X0X0X0X0X0X0X0X0X0X0X0X0X0X0X0X0X0X4X0X0X0X0X0X0X0X0X0X0X0X0X0X0X0X0X0X0Xr.Y P n v v v v v v v v n n n P n n n m T r.t.t.p.t.t.p.p.p.p.s.k.k.W.W.W.W./././.(.(.>.>.>.9. X XfXfXkXfX X$.6.BXtXO.#.5.6.6.8.pXgXgXhXjXjXjXxXjXkXfXfXfXfXfX X8. X X XVXVXVXVXlXjXVXmXBXZXUXLXLXLXLXLXUXVX$.V Z D D D D D H H H G %.;.:.:.:.:.:.:.:.>. XkXlXlXVXVXVXVXVXCXCXCXVXCXlXlXlXlX5X5X5X5X5X5XkXlXlXlXlXkXlXkX5X5X5X4X4X.X.X.X4X4XlXlXlXlXlXlXlXlXlXlXlXlXlXBXUXJXJXFXFXFXFXFXFXFXFXFXJXLXZXBXmXVXlXkX XiXtXtXsXsXzXxXxXsX6.6.#.$.H D Z C I p.p.E U L :.jXxXxXjXfX0. XkXjXLXLXVX X XkXVXVXVXVXZXlX_ L W W  XmXBXBXBXBXUXLXZXVXlX X>.&.&.;.:. XVXLXLXHXKXHXHXHXHXHXKXmXU.p.s.k.k.j._.`.oX'.`.{.).f , 2 2 2 2 a 6.sXaXaXaXsXaXaXaXtXiXfXjXxXmXMXMXMXMXMXMXMXMXmXVXkX.X|.{.",
"i.i.i.i.A.A.A.A.A.A.A.A.A.A.A.A.A.b.b.Z.b.b.b.b.b.V.V.V.N.N.N.N.N.N.N.N.N._._.].oX+X*X,X,X,X,X,X,X6X7X0X0X0X0XeXAX0Xf.l.l.l.l.l.j.j.l.f.k.W.M.j.n.j.s.p.r.^ E Y Y I I E ` ' ' ' ] ^ ^ ^ ^ ^ ^ ^ ^ ^ ^ ` ^ ^ ^ ^ ^ ] p.p.p.p.p.p.p.p.p.p.p.p.p.p.p.p.p.p.r.r.r.h.] ;.mXJXJXJXJXMXBXkX/ R.p.k.0XqX8X8XqXqXqXqXqXqXqXqXqXqXqXqXwXqXwXwXqXqXqXqX0X0X0X0X0X0X0X0X0X0X0X0X0X6X7X,Xu.M n n m m T T T T T T r.r.^ r.r.r.y.j.N.S.S.V.V.V.S.V.V.Z.b.b.N.V.S.oXoXoXoX'.'._.!.l.p.p.h.^ ^ ` ` I I L C 9 $.BX<.a 5.fXkXkXjXlXVXVXVXlXlXlXkX X(.(.;./ W G D D H H C H ` ` ` ' ' &.-.U.U.Y.Y.Y.T.T.Y.Y.` z I I I I I I I I I I I I I I I I I I I I I I ^ a.h.p.p.h.h.h.p.p.p.p.p.p.p.p.p.p.p.p.p.p.p.p.f.h.f.f.f.f.g.g.g.f.g.f.f.f.f.f.g.g.f.f.f.f.h.h.p.g.R.h.E I .XlXlXVXCXVXlXlXlX4X4X4X4X4X4X.X/.(.(.E.U.Q F F @.6.rXaXzXzXsX#.O.V j C U r.l.W.k.p.E I L &. X X X>.:.%./..X.XlX0X.X.X.X4X0X0X0X0X0X0X[.I W H H W &.:.;.;.(.4X4X0X0X0X0X0X7X7X7X7X7X4XCXZXLXLXLXHXHXHXHXmX' r.r.p.p.u.N.+XOXoXoX*Xb.Y l 6 1 1 1 4 y @.sXyXsXsXpX9.:.~ W _ ;.Y.(.(.(..X.X.X.X.X[.[.[.}.,X,X*X",
">X>X:X:X:X:X6X6X8X8X8X8X8X8X8X8X8X8X8X8X8X8X8X8X8X8X8X6X6X6X:X:X<X<X>X>X>X*X*XK.'.F.oXF.D.S.Z.Z.Z.b.b.b.b.b.D.*XwX0XN._._._._._.S.S._.u.p.n.~.N.~.~.!.!.M.n.j.j.p.p.p.p.r.r.r.r.r.r.r.r.p.p.p.p.p.p.p.p.p.p.p.p.p.s.s.s.s.s.s.s.s.s.s.p.u.s.s.s.s.s.s.s.s.u.t.U U I.VXFXFXFXJXfX9. X` g.^ r.{.1X'.'.].].'.'.].]._._._.V.Z.Z.A.A.i.i.i.i.t.t.H.H.H.H.H.H.t.t.t.i.u.u.u.t.e.M M Y T ^ r.r.r.r.p.p.u.p.p.p.i.x.B.S.'.'.`.D.D.D.D.D.D.D.D.D.D.V.b.b.C.oXOXOXOX*X'.V.b.j.u.t.s.p.r.r.^ ^ ^ ^ ` G F 9.s F VXLXZXZXCX4X.X.X/.T.R.I.' ^ ` ` I L L L L C L L E ] g.g.g.E.W.W.W.W.k.g.g.E.E.E.E.R.` I I L z n ^ p.p.p.p.p.f.f.f.f.f.f.f.f.p.f.p.p.p.p.p.f.f.g.f.f.p.p.p.p.f.f.f.p.] ' ' ' h.h.h.I.g.h.g.k.W.W.W.k.W.W.p.f.g.f.g.p.p.f.h.h.p.f.h.r.^ ` I C K ` R.g.W.W.W.W.W.W.W.W.W.W.W.W.W.R.f.f.g.g.p.I h V O.,.4.yXsXsXpXs 9 Z I ^.{.{.!.s.p.T U E E E ^ h.g.E.W.).}.,X*X*X*X-X-X-X-X-X=X=X=X=X*X,Xf.a.r.r.R U E R t._.*X%X=X=X-X-X>X>X:X<X-X>X>X,X0X0XlXCXBXVXBXBXlXr.r.w.w.w.u.!.+XoXoXoXoX*X,X{.!.^ l 5 1 3 w { 3.yXyX6.~ L ^ g.l.E.M.M.M.s.s.s.f.j.j.j.c.b.].].].].",
"2X6X6X6X6X6X6X6X6X6X6X6X6X8X8X8X6X8X8X8X8X8X8X8X8X8X8X8X8X8X8X8X8X8X8X8X8X8X8X6X6X>X>X>X=X%XOXK.F.Z.Z.Z.v.Z.Z.Z.Z.D.D.S.D.D.D.D.D.S._.i.u.N.C.S.V.V.V.~.S._.S.S.!.~.V.N.N.N.N.N._.!.!.!.N.N.N.N.N.N.N.N.N.N.m.m.n.n.n.n.M.n.c.c.c.j.j.u.d.i.i.i.d.d.d.d.s.u.t.c c U lXJXFXFXFXtXu :.^ p.T T e.e.t.t.e.e.t.H.H.H.H.e.e.e.m M M M M M M M M M M M M M M M M M m m m m m m M m m m e.q.y.t.u.i.A.c.b.b.S.D.oXoXOX%XOXOXOXOXOXOXOXOXOXOXoXoXoXoXD.Z.Z.OXOXOXOX@X`.V.b.c.u.y.s.t.t.t.r.r.r.r.h.H 7 y y u  XVXCX4XR.r.R R R ^ ^ ^ p.^ r.R Y P Y Y E E E r.g.k.k.k.k.l.l.k.k.k.k.p.p.p.^ ` L K z z z z n p.W.W.l.l.l.k.k.k.k.k.k.k.k.k.k.k.k.k.p.r.p.h.p.p.h.g.g.g.g.f.f.p.p.^ I x f 6 9 9 9 9 9 9 h C ^ f.k.k.k.g.r.^ ^ ] p.^ ^ g.k.g.g.r.U v z z v I ^ g.k.j.l.f.k.k.k.k.k.k.k.k.k.k.f.g.h.h.f.p.] I 9 Z F | O.#.rXsX7.s 9 Z p.,X}.n.s.f.R U P U m l.,X,X<X<X:X:X;X;X-X-X-X-X-X-X@X*X*X*X*X%X=XOX~.~.V.S.!.!.N.V.D.oX*X*X-X=X=X-X-X-X>X-X-X-X-X>X<X,X*X,X}.}.}.|.|.!.d.d.d.d.i.V.+XoXOXOXoXoXOXoX+XoXN.^ 6 1 1 ; { rXyX5./ ^ ).,X,X}.}.,X[.k.W.k.l.l.l.l.M.M.M.m.b.b.",
"2X2X2X2X6X6X6X6X6X8X8X8X8X8X8X8X8X8X8X8X8X8X8X8X8X8X8X8X8X8X8X8X8X8X8X8X8X8X8XqXqX8X8X8X6X>X-X%XoXD.D.S.V.V.V.V.V.V.S.S.`.`.`.`._._._.i.u.S.S.S.S.S.S.S.V.S.S.V.V.V.Z.b.N.N.G.G.V.S.S.S.S.S.S.S.S.S.S.S._._.`.`._._.S._._._.S.V.N.N.M.j.d.d.s.d.s.s.s.s.u.u.p.c g z  XhXtXtXtXO.; 5 I r.^ T }.7X<X<X>X,X*X*X*X*X].'.`.'.`._._._._._.!.!.V.V.V.S.D.`.D.`.`.`.`.`.`.`.`.D.S.V.V.V.V.D.D.D.oXoXOXOX#X#X-X=X%X%XOX=X=X=X#X#XOXOX#X#X=XOXOXOXOX*XoXC.S.oXOXOXOXOX`.b.c.j.t.q.s.t.r.r.r.r.r.p.p.Z 3 w w 9 V H P ] r.r.r.r.r.r.r.^ R T R ^ p.] ` E E ^ r.g.k.k.k.k.k.k.k.k.g.g.^ I L L z z l l z v Y ^ g.W.k.k.k.k.l.l.W.W.W.W.W.k.W.W.W.k.k.W.R.E I L L L L L I I ' I.h.h.h.h.h.' D 6 5 1 1 1 3 1 9 C h.R.k.k.g.g.k.p.p.g.g.g.g.k.k.g.g.^ U P E ^ p.g.p.p.k.k.k.k.k.k.k.k.k.k.f.W.W.f.f.f.f.h.r.^ ' Z 6 A Z Z J F @.rX7.y 9 Z p.,X_.l.f.T P P P R c.>XqX8X8X8X2X:X=X=X=X#X#X#X=X#XOXOX#X#X#X#X#XOXXXK.D.D.V.V._.`.XXOXOX%X%X=X=X=X-X-X-X-X-X-X=X=X;X=X>X>X>X>X-X>X>X>X*X*X*X-X*X*X%XOX%XOXoXoXoXoXD.D.S.G.^ 6 1 $ s uXuX5./ ] [.,X_._.{.{.[.p.k.k.l.M.N.N.N.G.S.'.oX*X",
"8X8X2X2X6X6X6X6X6X6X8X:X:X:X>X-X-X-X=X=X-X-X-X-X-X-X-X-X>X:X:X:X:X:X:X:X6X6X6X6X6X6X:X>X%XOXoXoXK.D.D.D.D.D.D.D.S.S.S.S.D.D.D.D.D.S.S.A.i.S.S.S.S.S.S.S.S.V.S.V.S.V.V.V.N.V.V.V.V.V.V.V.V.V.S.S.S.S.S.S.V.V.V.V.V.V.V.V.V.V.V.N.N.M.n.j.d.d.s.s.s.s.s.u.u.u.s.v g z  X8.+.#.#.a ; 1 C r.r.r.<XqX8X8XqXqXwXqXwXqXqXqXqXqXqXqXqXqXqXqX8X8X:X:X:X:X:X:X:X;X:X:X;X;X:X:X:X:X:X:X:X:X;X;X;X;X;X;X-X-X=X=X=X=X=X#X=X#X#X#X#X#XOXOXOXOXOXOXOXOXOXOXOXXXD.OXOXOXOXOX`.N.c.j.t.q.k.n.n.n.M.l.p.r.p.l 2 2 4 3 9 B z ^ r.^ ^ R T T Y T r.p.k.l.W.h.E L L ^ p.k.k.k.k.k.k.k.k.k.f.E K z z z v P E ^ r.f.W.W.k.k.W.W.l.k.k.k.W.W.W.W.k.k.k.k.W.W.W.W.E c z C C C l x j j j x C C C C L I I C Z C C C l C L ] k.k.k.k.k.k.k.k.k.k.k.k.k.k.k.k.k.k.k.g.k.k.k.k.k.k.k.k.k.k.k.k.l.k.k.k.k.r.^ h.g.h.h.f.r.^ Z 5 u B D H D |  .@.#.2 9 C p.,X_.l.Y z L n t._.S.>XqXqX8X8X2X=X#X#X#X#X#X#X#X#X#X#X#X#X#XOXOXOXK.K.D.C.V.V.N.V.V.XXOX=X=X=X-X-X-X-X;X;X;X;X;X;X;X;X=X-X-X=X>X>X>X-X>X>X>X>X>X-X=X*X*X%XoXB.j.S.D.S.S.c.p.h 2 < i 3.uX5._ p.}.}.p.r.f.k.l.f.k.N.+X*X*X<X<X<X<X<X>X>X",
"6X6X:X:X6X6X6X:X:X>X;X=X=X=X%XOXOXOXOXOXOXOXOXOXL.K.K.K.OXOXOXOXOXOX%X%X%X%X%X%XOXOXL.K.K.K.oXXXD.D.D.D.`.`.`.D.D.D.D.D.D.D.D.D.D.D.S.N.b.S.S.`.D.S.S.D.D.S.S.S.V.V.V.V.V.V.V.V.V.V.V.V.V.V.V.V.S.S.S.S._.S.V.V.V.V.V.V.V.V.N.m.n.j.s.s.s.u.u.u.u.t.t.t.t.u.f.n x z (.8.#.#.#.a @ 1 C r.r.y.,X8X8X8X6X>X>X:X:X:X-X-X-X-X-X-X=X=X=X=X=X=X=X-X-X-X=X=X=X=X=X=X=X=X=X=X=X=X-X=X-X-X=X=X=X=X=X=X=X-X=X=X=X=X#X#X#X#X#X#XOXOXOXOXOXOXOXOXOXOXOXOXOXoXK.OXOXOXOXOX`.N.c.c.r.n t._.`.`.]._.p.p.p.l < 2 2 3 9 B l I ^ Y Y Y T r.p.k.W.W.l.W.f.Y I L P E p.k.k.k.k.k.k.k.k.k.R v v K I ` h.g.W.W.k.k.k.k.k.k.W.W.l.l.k.k.W.W.W.W.k.k.k.k.k.k.W.r.Y ^ ^ ^ ' ` ` I L K z z x x x x x x z L E ^ h.h.h.R.R.g.k.k.k.k.k.k.k.k.k.k.k.k.k.k.k.k.k.k.k.k.k.k.k.k.k.k.k.k.k.k.k.k.k.k.k.k.k.r.E P P r.h.r.p.^ k 6 9 j I I G 5.5.@.a ; 5 C p.,X_.p.n n n r.{.+XC.-XqXqX8X8X2X=X#XOX#X#XOXOXOXOX#XOXOXOXOXOXOXOXK.K.D.V.Z.N.N.N.Z.D.OX=X=X=X=X-X-X-X;X;X;X;X-X-X-X-X-X;X;X;X;X;X-X-X-X=X=X=X-X-X-X-X*X%X'.e.q.S.D.S.Z.c.^ 6 < < y 4.uX5._ p.}.{.^ r.|.].n.j._.<X:X6X8X8X8X2X6X:X>X>X",
":X:X:X:X:X:X=X=X=X=X=X#X@X@XOXOXOXoXOXOXOXOXoXoXoXoXoXoXoXOXOXOXOXOXOXOX%XOXoXoXoXoXoXoXoXoXoX`.D.D.`.`.`.`.D.D.D.D.D.D.`.`.D.D.D.D.S._.S.S.D.D.D.S.D.D.D.D.S.S.S.S.V.V.V.V.V.V.V.V.V.V.V.V.V.S.S.S.S._.S.S.V.V.S.S.V.V.S.N.n.c.d.s.s.u.t.t.t.t.t.t.t.t.t.u.s.P c l (.8.$.#.#.s @ < L p.r.y.,X8X8X*Xt.Z.-X=X-X-X=X=X=X#X=X=X=X:X=X=X=X=X-X-X-X-X;X;X;X;X;X-X-X-X-X-X-X-X-X-X-X-X;X;X;X-X-X-X-X-X=X=X=X=X#X#X#X#XOXOXOXOXOXOXOXOXOXOXOXOXOXOXOXOXOXOXOXOXOX@X`.N.c.c.q.z m M.S.S.].!.p.p.p.l @ ; 2 4 9 h l I E Y ^ p.k.W.W.W.W.W.l.!.p.R E L P ^ k.k.k.k.k.k.k.k.k.h.P L h.g.W.W.W.W.k.k.k.k.k.k.k.k.W.W.l.l.l.l.l.W.W.W.l.l.l.l.k.k.f.p.f.p.p.p.r.p.h.f.g.g.g.R.g.g.R.R.g.R.R.W.W.W.k.k.k.k.k.k.k.k.k.k.k.k.k.k.k.k.k.k.k.k.k.k.k.k.k.k.k.k.k.k.k.k.k.k.k.k.k.k.k.k.k.k.k.k.W.g.p.^ r.p.p.h.' ` K I ] I ~ 9.5.#.a ; 5 C k.,X_.r.v v U _.,X+XC.:XqXqX8X8X2X-XOXOXOXOXL.L.oXOXoXOXOXOXOXOXoXXXK.D.D.V.Z.b.m.N.Z.D.OX=X=X=X-X-X-X-X;X;X-X-X=X=X=X=X;X;X:X:X;X;X;X-X-X-X-X-X-X-X-X-X%X%X_.m r.'.D.D.b.j.^ 8 $ , y 1.uX5._ p.}._.] p.7X7X*XG.*X2X2X8X6X6X6X:X:X:X>X>X",
":X:X>X=X-X=X%X%X%XOXOXOXOXOXOXoXoXoXoXoXoXoXoXoXoXoXoXoXoXoXoXoXoXoXoXoXoXoXoXoXoXoXoXoXD.D.oX`.D.D.`.`.`.`.D.D.D.D.D.D.`.`.D.D.D.`.`.S.D.D.`.D.D.D.D.D.S.D.V.S.S.S.S.S.S.S.S.S.V.S._.V.V.V.V.V.S.S.S.S.S.V.V.V.V.S.V.V.V.N.c.d.s.u.t.t.t.t.t.t.t.t.t.t.t.u.s.P x l >.8.$.#.#.s $ < C p.R y.*X6X`.s.q.b.=X=X-X-X=X-X-X=X;X;X;X;X;X;X;X;X;X;X;X;X;X;X;X;X;X;X;X-X=X=X=X=X-X-X-X-X=X=X=X=X-X-X-X-X=X=X=X=X#X#X#X#XOXOXOXOXOXOXOXOXOXOXOXOXOXOXoXoXOXOXOXOXOXOX`.N.n.m.q.z z p._._.].!.s.p.p.l @ ; 2 4 9 h z I h.k.W.W.W.W.l.W.W.W.W.!.W.^ E L I g.k.k.k.k.k.k.k.k.W.p.v I g.E.W.l.W.W.k.l.k.W.k.k.W.k.W.W.l.l.l.l.l.W.W.W.l.l.l.l.k.k.r.r.r.p.h.f.f.f.f.k.k.k.k.k.k.k.k.W.W.k.W.k.W.W.W.W.W.W.W.W.k.k.k.k.k.k.k.k.k.k.k.k.k.k.k.k.k.k.k.k.k.k.k.k.k.k.k.k.k.k.k.k.k.k.k.k.k.k.g.g.h.h.r.p.p.h.f.f.h.f.R.] ~ 0.5.#.a ; 5 C l.,X{.r.z n r.,X*XoXZ.<XqXqX8X8X:X-XOXOXL.L.K.K.oXoXoXoXoXOXoXK.XXXXD.D.D.V.Z.N.N.N.Z.D.OX=X=X=X-X-X-X-X-X=X-X-X=X=X=X=X;X;X:X:X>X>X*X*X*X*X,X,X>X>X>X>X>X>X_.M r.'.K.`.S.j.^ 1 @ @ y 1.4.5._ p.,X_.^ f.7X<X6X*XoX:X8X6X:X6X6X:X6X:X-X+X",
"-X=X%XOXOXOXOXoXOXoXoXoXoXoXoXoXoXoXoXoXoXXXoXoXoXoXoXoXoXoX`.`.oXoXoX'.XXoXoXoXK.K.D.D.`.`.`.`.`.`.`.`.`.`.`.`.`.`.`.`.D.D.D.D.D.D.D.D.D.D.D.D.D.D.D.D.D.S.S.S.S.S.S.S.S.S.S.S.S.S.S.S.V._.S.V.S.S.V.V._._.S.V.V.V.V.V.V.c.i.u.u.t.t.t.t.t.q.r.r.r.r.t.u.u.s.P c z >.6.$.#.#.s @ < C r.R R oXoXi.p.q.Z.=X=X=X;X;X-X-X-X;X;X-X-X-X-X-X-X-X-X-X-X=X=X=X=X;X;X=X=X;X-X-X=X-X-X-X-X=X=X=X=X-X-X-X-X-X-X=X=X=X=X#XOXOXOXOXOXOXOXOXOXOXOXOXOXOXOXOXOXOXOXOXOXOXoXD.b.b.b.r.z z P l.D.`.!.p.p.p.K , ; ; 3 5 h l ^ W.W.W.W.W.W.l.l.l.l.l.l.W.p.E L U f.k.k.k.k.k.k.k.k.k.p.z l I ^ r.p.k.k.k.k.k.f.f.g.k.k.k.k.k.W.l.l.k.k.W.W.k.k.l.k.k.k.p.p.k.k.k.k.k.k.l.l.k.k.k.k.k.k.k.k.k.k.k.k.k.W.W.W.k.k.k.k.k.k.k.W.k.k.k.k.k.k.k.k.k.k.k.k.k.k.k.k.k.k.k.k.k.k.k.k.k.k.k.k.k.k.k.k.k.k.k.k.f.p.r.^ h.f.f.f.f.s.g.] ~ #.#.#.a ; 7 C k.,X].p.v P s.,X*X].b.*XqXqX8X8X:X-XOXK.L.K.K.K.K.K.K.K.K.K.K.K.K.D.D.D.V.V.V.Z.N.b.Z.K.OX#X#X=X-X-X-X-X-X-X-X-X=X=X-X-X;X;X:X:X=XS.i.u.d.j.n.N.b.S.S.S.D.oXN.M t.].`.`.S.x.^ 1 @ @ w <.4.5./ k.,X).r.s.7X6X8X>XD.>X:X6X8X8X:X6X:X>X%XoX",
"OXOXOXoXoXoXK.K.K.XXoXoXXXXXXXXXoXoXoXoX`.`.`.`.`.`.`.`.oX'.`.`.`.`.`.`.D.D.D.D.D.D.D.D.`.`.`.`.`.`.`.`.`.`.`.`.`.`.`.`.D.D.D.D.D.D.D.D.D.D.D.D.D.D.D.D.D.D.D.S.S.S.S.V.S.S.S.S.S.S.S.S.V.S._.V.S.S.V.V._._.S.S.V.V.V.V.V.b.c.c.j.n.M.M.l.s.t.t.q.q.q.t.u.u.s.U c z >.6.$.#.#.u @ < C r.R R '.V.i.t.q.V.=X=X=X;X;X-X-X-X-X-X;X;X-X-X-X-X-X-X-X-X-X;X;X;X;X;X=X=X;X;X-X-X-X-X-X-X-X=X-X-X-X-X-X-X-X-X=X=X#X#X#X#XOXOXOXOXOXOXOXOXL.L.L.L.oXoXOXOXOXOXOXOXOXOXD.V.b.b.s.n z z r.S.`.M.p.p.p.C , ; ; 3 6 j C p.W.W.W.W.W.W.l.l.l.l.W.l.W.g.` L P k.k.k.k.k.k.k.k.k.k.f.E L n v n T r.p.p.p.r.r.r.p.s.k.k.k.W.W.W.W.l.l.W.k.k.k.l.l.k.k.k.k.k.k.k.k.k.k.k.k.k.k.k.k.k.k.k.k.k.k.k.k.k.k.k.k.k.k.k.k.k.k.k.k.k.k.k.k.k.k.k.k.k.k.k.k.k.k.k.k.k.k.k.k.k.k.k.k.k.k.k.k.k.k.k.k.k.k.k.k.f.h.r.^ p.h.f.f.f.s.g.^ ~ #.#.#.a ; 9 Z l.<X1Xr.z P n.<X*X].A.*XqX8X8X8X:X-XK.K.K.K.K.K.K.K.K.K.XXK.K.D.D.D.C.Z.V.V.V.V.V.V.D.OX#X=X=X=X-X-X-X-X-X-X-X-X;X;X;X;X;X;X;X;X*XN.u.t.d.n.m.N.V.~.S.V.Z.D.c.m p.].`.'.V.j.E , @ @ w 1.4.5.%.p.,X!.r.j.7X8X8X<XV.K.oX%X:X2X:X6X:X-XOXoX",
"oXoXoXoXXXoX'.'.`.`.`.`.`.D.D.D.`.`.`.`.D.D.D.D.`.`.`.`.`.`.`.`.D.D.D.D.D.D.D.D.`.`.`.`.`.`.`.`.`.`.`.`.`.`.`.`.`.`.`.`.D.D.D.D.D.D.D.D.`.`.`.`.D.D.D.D.D.D.D.D.`.D.S.S.S.S.S.S.S.S._._.V._.S.V.S.V.V.V._._._.S.V.V.V.V.~.V._.S.~.N.V._.!.M.l.s.t.t.t.t.u.u.s.U c z >.8.$.#.#.s $ 2 l r.Y R '.`.i.t.q.V.=X=X-X;X-X-X-X-X-X-X;X;X;X;X;X;X;X;X;X;X;X;X;X;X;X;X;X;X;X;X;X-X-X-X;X;X;X;X;X;X-X-X-X-X-X-X=X=X#X=X#X#XOXOXOXOXOXOXOXOXL.L.L.L.oXoXOXOXOXOXOXOXOXOXD.V.N.b.j.n L z T !.`.M.s.p.p.L , 2 2 3 h C L p.l.l.W.l.W.W.l.l.l.l.W.M.k.] I L P k.k.k.k.k.k.k.k.k.k.k.g.f.h.f.g.W.W.k.k.k.k.k.k.W.l.l.k.W.W.W.W.W.l.l.k.k.k.k.k.k.k.k.k.k.W.W.g.p.r.r.r.W.k.k.k.k.W.W.k.k.k.k.k.k.k.k.k.k.k.k.k.k.k.k.k.k.k.k.k.k.k.k.k.k.k.k.k.k.k.k.k.k.k.k.k.k.k.k.k.k.k.k.k.k.k.k.k.k.k.k.k.k.f.h.^ ^ ^ h.f.f.f.f.k.` ~ #.@.$.s $ 9 C ).<X{.^ z m V.>X+XV.A.&XqXqX8X:X:X=XK.C.D.K.K.D.K.D.D.C.D.C.V.V.Z.V.V.V.Z.C.C.D.C.D.OXOX#X=X=X=X;X;X;X;X;X;X;X;X;X;X;X;X;X;X;X;X-X`.!._.`.+X+X*X,X+X+X+XoXoXc.M p.].`.'.V.c.E , @ @ w 1.4.5.%.p.}.!.p.l.7X8X8X<XV.V.C.D.OX:X2X:X>X*XoXoX",
"'.'.'.'.`.`.D.D.`.`.`.`.D.D.D.D.`.`.`.`.D.D.D.D.`.`.`.`.`.`.`.`.D.D.D.D.D.D.D.D.`.`.`.`.`.`.D.D.D.`.`.`.`.`.`.`.D.D.`.`.D.D.D.D.D.D.D.D.`.`.`.`.D.D.D.D.S.S.D.D.S.V.V.S.S.S.S.S.S.S.S.S.V._.S.V.S.S.V.V._._._.S.V.V.V.V.~.~.V.V.V.V.V.V.N.n.j.d.s.u.t.u.p.u.p.U c z >.8.$.#.#.s # < j R Y R '.<XV.t.q.V.=X=X-X;X-X-X;X;X;X;X;X;X;X;X;X;X;X;X;X;X;X;X;X;X;X;X;X-X;X;X;X;X-X-X;X;X;X;X;X;X;X-X-X-X-X-X=X=X=X=X#XOXOXOXOXOXOXOXOXL.L.L.L.L.OXOXOXOXOXOXOXOXOXOXD.V.N.b.n.T L K U !._.M.s.p.p.L , 2 2 9 Z H P p.l.l.l.l.W.W.l.l.l.l.W.l.Y z z z I W.k.k.k.k.k.k.k.k.k.k.k.k.l.k.k.W.k.k.k.W.k.k.k.k.k.k.k.l.W.k.l.k.k.k.l.l.k.k.k.k.k.k.k.k.p.^ Y U E r.g.W.W.W.k.k.k.W.W.k.k.k.k.k.k.k.k.k.k.k.k.k.k.k.k.k.k.k.k.k.k.k.k.k.k.k.k.k.k.k.k.k.k.k.k.k.k.k.k.k.k.k.k.k.k.k.k.k.k.k.k.k.f.h.^ ^ ^ h.f.f.f.k.k.` ~ $.+.$.s $ 9 C ).{.r.L l r.+X>X*X_.A.,XwXqX8X8X:X=XK.C.C.C.Z.Z.Z.b.Z.Z.b.b.b.b.V.V.V.V.C.D.D.XXXXXXL.OX=X=X=X=X-X-X-X-X;X;X;X;X=X=X-X-X-X-X;X;X;X@X`.K.D.D.K.OX%X%X%X%XoX'.j.M p.].`.'.S.c.E , @ @ w ,.4.<.%.k.{.l.p.j.7X8X8X<XV.V.V.C.OX:X:X:X-XOXoXoX",
"'.`.`.`.`.`.`.`.`.`.`.`.`.`.`.`.`.`.`.`.`.D.D.D.`.`.`.`.`.`.`.`.`.`.`.`.`.`.`.`.`.`.`.D.`.`.`.D.`.`.`.`.`.`.`.`.D.D.D.D.D.D.D.D.D.D.D.D.D.D.D.D.D.D.D.D.D.D.S.V.N.V.V.S.D.D.V.V.S.S.V.V.V.V.C.C.S._._._.V.V.V.V.V.V.V.V.V.V.V.V.V.V.V.N.c.s.p.u.u.s.u.u.s.u.s.Y z z :.8.$.$.#.s # < f P E q.].8X*Xd.q.V.-X=X-X-X-X;X-X-X-X;X;X;X;X;X;X;X;X;X;X;X;X;X-X;X;X;X;X;X;X;X;X;X-X-X-X-X-X-X-X-X;X-X-X-X-X=X=X=X=X=X=X#XOXOXOXOXOXOXOXOXOXoXoXoXOXOXoXOXOXOXOXoXL.OXXXV.N.b.n.^ n L P l._.n.s.p.p.L , < 1 h C L Y f.W.k.k.k.l.l.l.l.l.l.l.W.P l C C L g.k.k.k.k.k.k.k.k.k.k.k.k.k.W.W.W.k.k.k.k.k.k.k.k.W.W.k.k.l.l.l.l.l.l.W.W.k.k.k.k.k.k.k.k.p.^ r.p.g.k.k.k.W.l.W.W.k.k.k.k.k.k.k.k.k.k.k.k.k.k.W.k.k.k.k.k.k.k.k.k.k.k.k.k.k.k.k.k.k.k.k.k.k.k.k.k.k.k.k.k.k.k.k.k.k.k.k.k.k.k.k.k.f.h.^ ^ ^ h.f.f.f.f.k.^ H ~ O.+.s ; 9 C ).p.g j l p.,X>X>X+XA.,XwXqXqX8X6X>X=XOXK.D.Z.Z.V.V.V.V.Z.V.V.V.V.V.Z.V.C.XXXXK.oXK.OXOX#X=X-X-X;X-X-X-X;X=X=X;X=X=X=X=X;X;X;X;X;X;X#XOXOXOXOXOXOXOXOXOXK.`.d.M p.'.`.`.S.c.E , @ @ w ,.4.<.&.k.).l.p.j.7X8X8X:XD.V.V.K.-X:X:X-X=XOXOXOX",
"`.`.`.`.`.`.`.`.`.`.`.`.`.`.`.`.`.`.`.`.`.`.`.`.`.`.`.`.`.`.`.`.`.`.`.`.`.`.`.`.`.D.D.`.D.D.`.`.`.`.`.`.`.`.`.`.D.D.D.D.D.D.D.D.D.D.D.D.D.D.D.D.D.D.D.D.D.S.N.N.N.V.S._._.S.S.S._.S.S.S.S.S.S.V.S._._._.V.V.V.V.V.V.V.V.V.V.V.V.V.V.V.n.u.t.q.t.u.t.t.p.t.u.p.Y z z :.8.$.$.#.s . < f v Y y.+X8X6X!.q.V.-X=X-X-X;X;X-X-X-X-X;X;X;X;X;X;X;X;X;X;X;X;X;X;X;X;X;X-X;X-X=X;X-X-X-X-X-X;X-X-X-X-X-X-X-X-X-X-X=X=X=X=X=X#X#XOXOXOXOXOXL.L.L.L.OXL.L.L.K.oXoXOXOXOXXXV.N.A.c.t.P L P l._.M.s.p.p.I 1 1 3 h C L Y h.W.k.k.k.k.l.l.l.l.l.l.k.E ` Q K P g.k.k.k.k.k.k.k.k.k.k.k.f.^ ^ p.W.k.k.k.k.k.k.k.k.W.W.k.k.l.W.W.W.W.W.W.W.k.k.k.k.k.k.k.k.W.W.W.W.k.k.k.k.W.W.W.k.k.k.k.k.k.k.k.k.k.k.k.k.k.k.k.k.k.k.k.k.k.k.k.k.k.k.k.k.k.k.k.k.k.k.k.k.k.k.k.k.k.k.k.k.k.k.k.k.k.k.k.k.k.k.k.k.f.h.^ ^ ^ h.f.f.f.f.k.^ G s O.+.s ; 9 C [.!.v l l l.<X<X<X+XA.,XwXqXqX8X8X6X:X-X-X*XoXK.K.K.D.D.D.S.S.V.b.b.Z.C.D.XXK.K.K.K.K.K.K.K.OXOX=X-X-X-X=X=X=X;X;X;X-X;X;X;X;X;X;X;X;X-X=X=X#X#X#XOXOXOXK.`.s.M p.'.`.`.S.c.E , @ @ w ,.4.<.&.k.).W.f.j.7X8X8X6XoXC.XX-X:X:X:X-X-X-X-X-X",
"`.`.`.`.`.`.`.`.`.`.`.`.`.`.`.`.`.`.`.`.`.`.`.`.`.`.D.`.`.`.`.`.D.`.`.`.`.`.`.`.`.D.D.`.D.D.D.`.`.`.`.`.`.`.`.`.D.D.D.D.D.D.D.D.`.`.`.`.D.D.D.D.D.D.D.D.S.V.b.N.V.V.V.V.V.V.V.V.V.V.V.V.V.V.S.S.S.S._._.V.V.V.V.V.V.V.V.V.V.V.V.V.V.N.s.r.R T t.t.t.t.t.t.t.p.E z z :.8.$.#.$.s . < 6 v q.u.,X8X6X].q.D.-X-X-X-X-X-X-X-X-X;X;X;X;X;X;X;X;X;X;X;X;X;X;X;X;X;X;X-X-X;X;X-X-X;X-X-X-X;X-X-X-X-X-X-X-X-X-X-X-X-X=X=X-X-X=X#X%XOXOXOXOXOXOXOX@XOXOXOXoXoXoXoXoXoX`.N.!.n.n.t.P L n s.!.n.s.p.p.I 1 2 3 N C L I p.k.k.k.k.k.k.l.l.l.l.l.k.p.^ I R p.k.k.k.k.k.k.k.k.k.k.k.W.^ z z P g.k.k.k.k.k.k.k.k.l.W.W.k.k.k.k.k.k.k.k.k.l.k.k.k.k.k.k.k.k.k.k.k.k.k.W.k.k.l.k.k.k.k.k.k.k.k.k.k.k.k.k.k.k.k.k.k.k.k.k.k.k.k.k.k.k.k.k.k.k.k.k.k.k.k.k.k.k.k.k.k.k.k.k.k.k.k.k.k.k.k.k.k.k.k.k.k.f.h.^ ^ ^ h.f.f.f.f.k.^ G i O.+.s ; 9 C [.6X!.n v M.,X<X7XoXA.<XwXqXqX8X8X6X:X>X=X-X=XOXK.K.D.D.D.V.V.b.b.Z.V.D.C.C.D.C.C.C.C.C.C.C.D.K.K.OX=X=X=X=X-X-X;X;X;X;X-X;X-X;X;X;X-X=X=X=X#XOX=X#XOXoXK.`.s.M p.'.`.`.S.M.E , @ @ w ,.4.<.&.k.).l.f.j.7X8X8X6XoXoX-X>X:X:X:X-X-X-X-X-X",
"`.`.`.`.`.`.`.`.`.D.`.`.`.`.`.`.D.D.D.D.`.`.`.`.D.D.D.D.`.`.`.`.D.`.`.`.`.`.`.`.D.D.D.`.D.D.D.D.`.`.`.`.`.`.`.`.D.D.D.D.D.D.D.D.`.`.`.`.D.D.D.D.D.D.D.`.D.Z.N.N.V.V.V.N.N.N.N.N.N.N.N.N.N.V.V.S.S.S._._.V.V.V.V.V.V.V.V.V.V.V.V.V.V.j.q.T U R t.t.t.t.t.t.t.t.E z z :.8.$.#.$.s # , 6 v p.i.<X8X:X].y.D.-X-X-X;X;X;X;X-X;X;X;X;X;X;X;X;X;X;X;X;X;X;X;X;X;X;X;X;X;X;X;X;X;X-X-X;X;X;X-X-X-X-X-X;X-X-X-X-X=X=X=X=X-X-X=X=X=X=X=X=X+X]._._._.N.N.n.c.j.d.d.d.s.p.r.a.p.t.R P L n s.!.n.s.p.p.I 1 3 3 N C L I p.g.k.k.k.k.k.l.l.k.k.k.l.p.Y r.k.W.k.k.k.k.k.k.k.k.k.k.k.g.Y l C P g.k.k.k.k.k.k.k.k.k.k.k.l.k.k.k.k.k.k.k.k.k.k.k.k.k.k.k.k.k.k.k.k.k.k.k.k.k.l.k.k.k.k.k.k.k.k.k.k.k.k.k.k.k.k.k.k.k.k.k.k.k.k.k.k.k.k.k.k.k.k.k.k.k.k.k.k.k.k.k.k.k.k.k.k.k.k.k.k.k.k.k.k.k.k.k.k.f.f.h.^ ^ h.f.f.f.f.k.^ H y | +.s ; 9 H [.6Xn.U n N.*X<X<XoXA.<XwXqXqX8X8X8X:X:X=X=X-XOX`.`.D.D.V.b.N.N.V.V.V.V.C.C.C.D.C.D.D.D.K.K.K.K.L.OX=X-X=X;X;X-X=X=X=X=X-X-X-X-X;X;X=X=X=X=X#X#X=X=XOXoXD.`.s.v p.'.`.`.S.N.E , @ @ w ,.4.<.&.k.!.k.f.j.7X8X8X6X%XXX-X:X:X:X=X=X-XOX=X-X",
"`.`.`.`.`.`.`.`.D.D.D.D.`.`.`.`.`.`.`.`.`.`.`.`.`.`.`.`.`.D.D.D.`.`.`.`.`.`.`.`.`.`.`.`.`.`.D.D.D.`.`.`.`.`.`.`.D.D.D.D.D.D.D.D.D.D.D.D.`.`.`.`.S.D.D.D._.V.V.V.V.N.N.N.N.N.N.N.m.N.N.N.N.V.V.V.V.S.V.V.V.V.V.V.V.V.V.V.V.V.V.V.V.c.r.R U U r.t.t.t.t.t.r.r.t.Y z C :.8.$.#.$.s @ , 8 v p.i.<X:X:XoXq.C.;X-X-X;X-X-X;X;X;X;X;X;X;X;X;X-X;X;X;X;X;X;X;X;X;X;X;X;X;X;X;X;X;X;X;X;X;X;X;X;X=X=X=X=X-X-X-X=X=X=X-X-X-X-X%X-X$X+X_.B.u.r.T Y Y Y Y U Y Y U U U U U U P U U E P L P p.!.l.p.p.p.I 8 1 5 h C L I ^ ^ f.k.k.k.k.k.k.k.k.k.k.k.k.k.k.k.k.k.k.k.k.k.k.k.k.f.k.f.P C v P f.k.W.W.k.k.k.k.k.k.k.k.k.k.k.k.k.k.k.k.k.l.k.k.k.k.k.k.k.k.k.k.k.k.k.k.k.k.k.k.k.k.k.k.k.k.k.k.k.k.k.k.k.k.k.k.k.k.k.k.k.k.k.k.k.k.k.k.k.k.k.k.k.k.k.k.k.k.k.k.k.k.k.k.k.k.k.k.k.k.k.k.k.k.k.k.k.g.f.p.r.r.p.p.f.f.k.g.^ S y O.@.s ; u C [.6Xn.U m _.*X<X<XoXA.<XwXqXqX8X8X8X:X-X-X-X-X=XXXD.C.V.V.V.V.V.V.V.D.D.K.K.oXOXOXOXOXOX#X=X#X=X=X=X=X-X-X-X-X-X-X-X-X-X-X-X-X-X-X-X-X-X=X=X=X#X=XOXOXoXXX`.u.M r._.D.`.S.N.E , @ @ 2 ,.2.<.*.k.).l.f.j.7X8X8X8X-XXX-X-X=X%XOXOXOXOXOXOX",
"`.`.`.`.`.`.`.`.D.D.D.D.D.`.D.`.`.`.`.D.`.`.`.`.`.`.`.`.`.D.D.D.`.`.`.`.D.D.D.D.`.`.`.`.`.D.D.D.D.D.D.D.`.`.D.D.D.D.S.S.D.D.D.D.D.D.D.D.`.`.`.`.S.D.D.D.`.V.V.V.V.N.N.N.N.N.N.N.N.N.N.N.N.V.V.V.V.S.V.V.V.V.V.V.V.V.V.V.V.V.V.V.N.p.T U U R r.t.t.t.r.r.r.r.t.T z C 0.8.$.#.$.s @ , 8 K p.i.<X:X:X+Xq.K.;X-X;X;X-X-X;X;X;X;X;X;X;X;X;X;X;X;X;X;X;X;X;X;X;X;X;X;X;X;X;X;X;X;X;X;X;X;X;X;X=X=X=X=X-X-X=X=X;X=X;X$X$X-X*XoXN.u.r.R T Y Y U Y Y T T q.r.r.r.t.t.u.u.p.t.q.U U P v p.!.l.p.p.p.^ j f h B H C I ` P Y k.k.k.k.k.k.k.k.k.k.k.k.k.k.k.k.k.k.k.k.k.k.k.k.f.f.h.K z z E g.W.k.k.W.k.k.k.k.W.k.k.k.k.k.k.k.k.k.k.k.k.k.k.k.k.k.k.k.k.k.k.k.k.k.k.k.k.k.k.k.k.k.k.k.k.k.k.k.k.k.k.k.k.k.k.k.k.k.k.k.k.k.k.k.k.k.k.k.k.k.k.k.k.k.k.k.k.k.k.k.k.k.k.k.k.k.k.k.k.k.k.k.k.k.k.g.f.f.h.p.h.f.f.f.f.f.g.^ Z y O.@.s ; u C [.<Xn.T T _.,X<X<X+Xb.7XwXqXqX8X8X8X:X:X-X-X-X-XOXD.Z.V.V.V.V.C.D.oXOXOXOX*X-X-X=X=X=X-X-X-X=X=X-X-X-X-X-X-X-X-X-X-X-X-X-X-X-X=X-X-X=X=X=X=X#X#X=XOXOXoXD.`.u.M r._.D.`.S.N.^ , @ @ : ,.4.<.-.k.).l.f.j.7X8X8X8X-XXX@X-XOXOXOX@XOXOXOXOX",
"`.`.`.`.`.`.`.`.D.D.D.D.D.D.D.D.`.`.D.D.`.`.D.D.`.`.`.`.`.D.D.D.`.`.`.`.D.D.D.D.`.`.`.`.D.D.D.`.D.D.D.D.D.D.D.D.D.D.D.D.D.D.D.D.S.S.S.S.`.`.`.`.S.D.D.D.`.S.S.V.V.V.V.V.V.V.V.V.V.V.N.V.V.V.V.V.S._.V.V.V.V.V.V.V.V.V.V.V.V.~.~.d.T U U T r.t.t.t.r.r.r.r.r.t.R z C 0.8.$.@.+.s @ , 8 P p.j.<X:X:X+Xt.K.;X-X-X-X-X-X;X;X;X;X;X;X;X-X;X;X;X-X;X;X;X-X-X;X;X;X;X;X;X;X;X;X;X;X;X;X;X;X;X;X=X=X=X=X-X=X=X=X;X=X=XOX@X+Xm.u.r.^ R R q.t.p.s.j.M.!.~._._.`.`.`.'.XX`.`.`.!.p.R ^ T k.!.l.p.p.p.R E I H C C C I ` Y ^ k.k.k.k.k.k.k.k.k.k.k.k.k.k.k.k.k.k.k.k.k.k.k.k.f.g.^ C Z I ' h.p.p.f.k.f.k.k.W.W.k.k.k.k.k.k.k.k.k.k.k.k.k.k.k.k.k.k.k.k.k.k.k.k.k.k.k.k.k.k.k.k.k.k.k.k.k.k.k.k.k.k.k.k.k.k.k.k.k.k.k.k.k.k.k.k.k.k.k.k.k.k.k.k.k.k.k.k.k.k.k.k.k.k.k.k.k.k.k.k.k.k.k.k.k.k.g.f.f.f.h.h.f.f.f.f.f.k.' V y O.+.i ; u C {.<Xc.q.T N.*X<X<X@Xb.7XwXqXqX8X8X6X:X:X;X;X-X-X=XOXK.K.K.K.oXOX-X-X-X-X-X-X=X=X=X=X=X=X=X=X=X=X-X-X-X-X-X-X-X-X-X-X-X-X=X=X=X=X=X=X#X#X=X=X#X#X#XOXOXoXD.`.u.n r._.`.`.S.N.^ , @ @ : @.2.,.-.E.).l.f.j.7X8X8X8X-XXX@X=XOXOX@X@XOXOXoXoX",
"`.`.`.`.`.`.`.`.D.D.D.D.D.D.D.D.S.D.`.`.`.D.D.D.`.`.`.`.`.D.D.D.`.`.`.`.D.D.D.D.`.`.`.`.D.D.`.`.D.D.D.D.D.D.D.D.D.D.D.D.D.D.D.D.S.S.S.S.`.`.`.`.S.D.D.S.S.S.D.S.S.S.V.S.V.V.V.V.S.V.V.V.S.S.S._._._.V.V.V.V.V.V.V.V.V.V.V.V.V.c.r.m n Y r.p.r.t.t.q.T T q.q.r.R z C :.8.$.+.+.s @ , 8 P p.j.<X:X:X+Xt.K.;X-X-X;X;X-X;X;X;X;X;X;X;X;X:X:X;X;X;X;X;X;X;X;X;X;X;X;X;X;X;X;X;X;X;X;X;X;X;X;X;X=X=X=X=X=X=X#X=X=X%XoXN.t.r.T R T q.u.m.V.`.XXK.XXXXXXK.K.K.K.K.K.P.P.K.C.V.s.r.^ r.l.M.l.p.p.r.^ E I L l C H I ^ E f.k.k.k.k.k.k.k.k.k.k.k.k.k.k.k.k.k.k.k.k.k.k.f.f.R.h.C j j C I P n R r.p.p.^ Y ^ g.W.W.k.k.k.k.k.k.k.k.k.k.k.k.k.k.k.k.k.k.k.k.k.k.k.k.k.k.W.k.k.k.k.k.k.k.k.k.k.k.k.k.k.k.k.k.k.k.k.k.k.k.k.k.k.k.k.k.k.k.k.k.k.k.k.k.k.k.k.k.k.k.k.k.k.k.k.k.k.k.k.k.k.k.k.k.g.f.f.h.h.h.f.f.f.f.f.k.' h r  .O.y ; u C {.<Xn.q.T N.*X<X<X@Xb.7XqXqX8X8X8X:X:X:X:X:X;X-X=X-X=X@X=X=X-X-X-X-X=X=X=X=X=X=X=X=X=X=X=X=X=X=X-X-X=X=X=X=X=X=X=X=X=X=X=X=X=X=X#X#X#X#X#X#X#XOX#XOXOXoXD.S.u.n T _.`.`.S.N.^ , @ @ : @.1.,.-.E.).l.j.j.<X8X8X8X-XXX@X-XOXOX@X@XOXOXoXoX",
"`.`.`.`.D.D.`.`.`.`.D.D.`.`.`.`.`.`.`.`.D.D.D.D.D.D.D.`.`.`.`.`.`.`.`.`.`.`.`.`.D.D.D.D.`.`.`.`.D.D.D.D.D.D.D.D.`.`.`.`.D.D.D.D.`.`.`.`.S.S.D.D.D.D.S.S.S.S.S.S.`._.S.S.S.S.S.S.S.V.V.S.S.S.S._.V.V.V.V.S.V.V.V.V.V.V.V.V.V.N.p.Y n U R r.r.r.q.R Y U T T q.r.R z x :.8.$.$.$.s ; , 1 L r.c.<X>X:XoXt.XX;X;X;X;X;X;X;X;X;X:X:X=X-X@XOXOXOXOX%X%X%X%X=X=X-X-X-X-X-X-XOXOX#X-X-X-X;X;X;X;X;X;X;X;X=X=X=X=X-XOXS.i.q.T T T r.s.N.C.`.`.XXXXXXK.K.K.K.K.K.K.K.K.P.P.~.C.V.T R R R l.!.l.p.p.r.I C D C j C C I ` R f.k.k.k.k.k.k.k.k.k.k.k.f.f.k.k.k.f.k.k.f.f.k.f.g.h.H 6 5 5 j Y E R p.f.p.p.r.L j z ` W.l.k.W.k.k.k.k.k.k.k.k.k.k.k.k.k.k.k.k.k.k.W.W.W.W.k.W.k.k.k.k.k.k.k.k.k.k.k.k.k.k.k.k.k.k.k.k.k.k.k.k.k.k.k.k.k.k.k.k.k.k.k.k.k.k.k.k.k.k.k.k.k.k.k.k.k.k.k.k.k.k.k.g.g.g.f.f.f.f.h.h.f.f.g.s.k.' 9 y  .O.y ; 9 C {.<Xm.q.q.N.OX<X,X+Xb.7XqXqX8X8X8X:X:X:X:X;X;X-X=X=X=X-X-X=X=X=X=X=X=X=X=X=X=X-X-X-X=X=X-X-X=X=X=X=X=X=X=X=X=X%XOX%X=X=X#X#X=X=XOXOXOXOXOXOXOXOXOXOXoXoXD.S.u.n T _.`.`.S.V.p., @ @ : @.<.#.-.W.!.l.j.j.<X8X8X8X*XoXOX=XOXOXOXOXOXOXoXoX",
"`.D.`.`.D.`.`.`.`.`.`.`.`.`.`.`.`.`.`.`.D.D.D.D.S.S.D.`.`.`.`.`.`.`.`.`.`.`.`.`.D.D.D.D.`.`.`.`.D.D.D.D.D.D.D.D.`.`.`.`.D.D.D.D.`.`.`.`.S.S.S.S.D.D.S.S.D.D.D.S._._.S.V.S.S.S.S.V.V.S.S.S.S.S._._.S.S.S.V.V.V.V.V.V.V.V.V.N.s.T n n R r.r.r.R T T T q.r.p.q.r.R z C :.8.$.$.$.s @ , 1 L T n.<X-X:X+Xt.oX-X-X-X-X-X-X-XOXoXXXD.b.A.A.A.i.i.i.A.A.A.A.Z.D.K.L.L.L.K.K.P.C.C.C.C.C.C.K.K.OXOXOX@XOX*XOXOXK.b.i.q.e.T q.u.c.N.D.XXK.K.K.K.K.XXXXK.K.K.K.K.K.K.K.C.C.P.P.l.z L I E l.!.j.p.p.^ l 1 5 8 h C C Q h.f.!.!.l.l.k.f.k.k.k.k.k.k.k.k.k.k.k.W.R.g.f.k.f.f.p.H 6 7 1 B ` f.f.g.g.k.k.k.W.' C j j I g.k.k.k.k.k.k.k.k.k.W.k.k.k.k.k.k.k.k.k.k.k.W.k.k.k.k.k.k.l.l.k.k.k.k.k.k.k.k.k.k.k.k.k.k.k.k.k.k.k.k.k.k.k.k.k.k.k.k.k.k.k.k.k.k.k.k.k.k.k.k.k.k.k.k.k.k.k.k.k.k.k.g.g.g.f.f.f.f.h.f.f.f.f.s.k.[ 9 y { a : ; 9 L {.<XN.t.r._.*X,X&X+XZ.<XqX8X8X8X8X:X:X:X;X:X-X-X-X-X=X-X=X-X-X-X=X=X=X=X-X=X=X-X=X=X=X=X=X=X=X=X=X%X=X=XOXOXOXOXOXOXOXOXOXOXOXOXOXOXOXOXOXOXOXOXOXOXoXoXD.V.u.n T N.D.`.S.V.p., @ @ : +.<.,.-.W.W.l.j.j.<X8X8X8X*XoXOX%XOXOXOXOXOXOXXXXX",
"D.S.`.D.`.`.`.D.D.D.D.D.D.D.D.D.`.`.`.`.S.S.S.S.S.S.S.S.`.`.`.`.S.S.S.S.`.`.`.`.S.S.S.S.D.`.S.S.D.D.D.D.D.D.D.D.`.`.`.`.D.D.D.D.`.`.`.`.S.S.S.S.D.S.S.S.S.S.S.S.S.S.V.V._._._._.S.S._._.S.S.S.S._._._.S.V.V.V.V.V.V.V.V.~.l.T n P Y r.r.q.T R r.u.d.n.M.!.r.Y R z C :.8.$.$.$.s , , 1 P T N.:X-X:X+Xt.oXOXXXK.C.Z.Z.A.A.A.A.A.b.b.b.V.V.m.m.V.V.D.XXoXOXOXOX#X=X#X#X#X=X-X#XOXOXK.K.K.C.C.C.C.Z.Z.Z.Z.A.A.A.c.B.N._.`.XXK.K.K.K.XXXXXXoXXXXXXXK.K.K.K.K.K.D.D.D.D._.E h h j v l.!.f.p.p.E l < 1 8 h C C ! f.l._._._._.!.l.k.f.k.k.k.k.f.f.f.k.g.f.h.p.f.k.f.f.L h 5 1 h ! f.p.f.f.f.k.k.k.f.f.! j B C ^ W.k.k.k.k.k.k.k.k.k.k.k.k.k.k.k.k.k.k.g.h.p.g.g.k.k.k.k.k.k.k.k.W.W.W.W.W.W.k.k.k.k.W.k.k.k.k.k.k.k.k.k.k.k.k.k.k.k.k.k.k.k.k.k.k.k.k.k.k.k.k.k.k.k.k.k.k.k.k.k.k.g.g.g.f.f.f.h.h.f.f.f.f.s.k.` 9 y { s : ; 9 L {.7X].t.r.p.n.,X&X+XV.<XqX8X8X8X:X:X:X;X-X-X-X-X-X-X-X-X-X-X-X-X=X=X=X=X=X=X=X=X=X=X=X#X=X=X%X%XOXOXOXOXOXOXOXOXOXOXOXOXOXOXOXOXOXOXOXOXOXOXOXOXOXOXoXoXD.V.u.n U M.S.~.V.V.p., @ . ; +.<.,.-.W.W.l.l.j.<X8X8X8X*XoXOX%XOXOXOXOXOXoXXX`.",
"D.S.D.D.`.D.D.C.D.D.C.V.S.D.D.D.`.`.`.`.S.S.S.S.D.D.S.S.`.`.`.`.S.S.S.S.`.`.`.`.S.S.S.S.S.S.S.S.D.D.D.D.D.D.D.D.`.`.`.`.D.D.D.D.`.`.`.`.S.S.S.S.S.S.S.S.S.S.S.S.S.S.V.V.S._._._._._._._.S.S.S.S.V.V.V.V.V.V.V.S.V.V.V.V.m.q.n P I R q.t.u.d.l.M.N.!.N.m.n.T Y R v C :.8.$.$.$.u , , 8 P T _.:X-X:X+Xt.Z.Z.A.A.A.A.b.Z.D.K.oXoXOXOXOXOXOXOXOX#X#XOX#X#X#X#X=X=X=X=X=X=X=X=X=X=X=X=X=X=X#X#XOXOXOXOXOXOXOXOXOXoXoXoXOXOXK.oXoXXXXX`._.V.V.~.XXXXXXXXXXXXoXoXXX`.V.j.P f 6 9 6 z l.!.s.p.p.R x 1 4 3 h C C ` h.j._._._._._.[.!.l.k.k.k.f.k.f.k.g.p.R Y E f.k.k.^ l h 5 5 C ] p.p.f.f.f.k.k.p.k.f.E j j l Y W.k.k.k.k.k.k.k.k.k.k.f.s.f.k.k.g.g.p.^ ! L L I E ^ ' h.h.U.R.R.g.f.f.f.g.g.k.k.k.k.k.k.k.k.k.k.k.k.k.k.k.k.k.k.k.k.k.k.k.k.k.k.k.k.k.k.k.k.k.k.k.k.k.k.f.k.k.f.f.g.g.f.h.f.f.f.h.h.f.f.f.f.k.` 5 y p i : : 9 L {.,X,Xl.T U T S.&X+XS.7XqX8X8X6X:X:X:X;X-X=X=X-X=X-X-X=X-X-X-X-X=X=X=X=X=X=X=X=X=X=X#X#XOXOXOXOXOXOXOXOXOXOXOXOXOXOXOXOXOXOXOXOXOXOXOXOXOXOXOXOXOXOXoXXXD.V.u.n U j.V.~.V.V.f., @ . ; +.1.,.-.W.W.l.l.l.<X6X6X8X*XXXoXOXOXOXOXOXOXXX`.`.",
"D.D.D.D.D.D.S.D.D.V.Z.b.V.`.`.D.D.D.S.S.S.D.D.D.D.D.D.D.`.S.D.`.S.S.`.`.D.D.S.S.S.S.S.D.D.D.S.S.S.S.S.`.`.`.`.`.S.S.D.D.S.S.S.S.D.D.D.D.S.`.`.V.V.V.S.S.S.S.S.S.S.S.V.V.C.C.C.C.`.~.C.V.C.C.V.V.V.V.V.V.S.S.S.V.V.V.V.N.r.U P P Y r.s.n.N.N.N.N.N.V.N.N.l.U P Y z l :.8.+.+.$.s 2 , 8 U m _.<X>X<XoXu.D.P.P.K.oXOXOXOXOX#X#X#X#X#X#X#X#X#X#X#X#X#X#X=X=X#X=X-X-X-X-X-X-X=X;X=X=X=X=X=X=X#X#X#X#X#XOXOXOXOXOXOXXXXXoXK.C.~.N.j.u.t.q.T T t.d.j.n.m.N.n.c.s.R P x f f 6 6 6 6 z l.!.s.f.r.R B 1 1 3 h Z C E f.l._._._._._._._._.M.l.k.f.f.f.g.f.f.^ Y r.k.k.W.h.n h 9 5 C ` h.f.p.^ p.g.k.f.f.h.L h V j I W.k.k.k.k.k.k.k.k.f.p.f.p.g.k.k.f.p.^ ^ ^ I L L H L I L C C I I Y I E E E ^ p.g.W.W.k.k.k.l.k.k.k.k.k.k.k.k.k.k.l.l.k.k.k.k.W.k.W.k.k.g.k.k.k.k.g.g.g.k.k.k.g.g.g.g.g.f.h.f.f.f.h.f.f.h.f.p.k.` 3 y a i ; ; u L {.6X].t.U P m c.<X+XS.7X8X8X8X:X:X;X-X-X-X=X=X-X=X-X-X=X-X=X=X=X=X=X=X=X=X=X=XOX#X#XOXOXOXOXOXOXOXOXOXOXOXOXOXOXOXOXOXOXOXOXOXOXOXOXOXOXOXOXOXOXOXoXoXoX`.S.u.P U s.m.V.V.Z.p., # @ - +.1.#.' k.W.l.l.c.>X6X6X8X-XK.OX%X=X%XOXoXXX`.`.D.",
"D.D.D.D.D.S.D.D.V.b.b.b.V.`.S.D.`.D.S.S.S.S.D.D.D.D.D.D.S.`.`.S.S.S.`.`.D.D.S.S.D.S.S.D.D.D.D.D.S.S.S.`.`.`.`.`.S.D.D.D.S.S.S.S.D.D.D.D._._.`.V.V.V.V.S.S.S.S.V.V.V.V.V.V.V.V.V.V.V.V.V.S._._._.V.V.V.V.V.V.V.C.C.~.!.p.P I P Y p.l.!.!.!.!.!.N.V.N.N.!.t.n P Y v j :.8.+.O.O.s ; , 8 U U ].:X*X<XXXt.D.oXOXOX@X$XOXOX$X#X#X$X$X=X=X#X#X#X#X#X#X#X#X#X#X=X=X;X;X;X;X;X;X=X;X;X=X;X;X;X=X;X-X-X-X@XOXXXD.V.N.b.c.d.d.p.r.T Y n n v z z z x x g g x x k h 6 6 9 9 6 9 7 9 9 5 z !.N.d.p.r.R j 2 1 3 9 C z E f.l._._._._._._._._._._.!.R.L L ^ h.f.g.g.g.k.k.k.R.] l h 9 f C ^ h.^ P ^ g.k.f.h.I h h j l E k.k.k.k.k.k.k.k.f.p.f.f.g.k.k.k.f.^ ^ ^ ^ E L L L I L z f 6 f x E ^ ^ ^ ^ ^ ^ ^ r.p.f.W.k.l.l.l.k.k.k.k.k.k.k.W.k.g.g.h.] h.] ^ ^ ^ p.h.f.f.g.k.g.g.g.k.k.k.k.g.f.g.g.g.f.h.h.h.f.f.h.f.f.p.f.I 4 y a y ; ; 9 L {.}.y.Y U P m c.,X+XS.<X8X6X6X:X-X-X-X-X-X-X-X-X=X-X-X=X-X-X-X=X=X=X=X=X=XOXOXOXOXOXOXOXOXOXOXOXOXOXOXOXOXOXoXoXXXXXXXXXOXOXOXOXOXOXOXOXOXOXOXOXoXoXoX`.`.S.s.U m t.d.b.V.b.p.1 @ . -  .,.#.-.k.W.l.l.c.<X6X6X8X-XoXOX*X%XOXOXXX`.D.S.S.",
"S.D.S.S.S.S.S.S.V.b.Z.V.S.D.S.D.S.S.S.S.D.D.D.D.S.D.D.D.S.D.D.S.S.S.D.D.D.S.S.S.D.S.S.D.D.D.D.D.S.S.S.`.`.`.`.`.S.S.D.D.`.`.S.S.S.S.D.D._._._.V.V.V.V.V.V.V.V.V.V.V.V.V.V.V.V.~.V.V.V.S.S.V.V.V.V.V.V.V.C.C.~.~.V.l.T P L P R f.M.M.M.!.!.n.l.n.N.N.N.n.T P P U K j %.8.+.O.O.s ; , 8 U q.,X<XOX,XXXq.D.oXOXOXOXOXOXOX@XOXOXOXOXOXOXOXOXOXOXOXOXOXOX#X#X#X=X=X=X-X-X-X-X@X@X@XoXoXXXD.D.V.N.c.c.i.u.t.y.q.q.T T U U P L z z z z z z K C C C C C j j h h h h N u 9 9 6 6 6 6 v !.m.d.p.r.R j < 3 3 9 C z ` h.k.[._._._._._._._.~._.).Q f j L ^ p.f.k.k.k.k.k.g.g.' x f h k z E E I ^ f.k.p.L f 6 j C C E f.k.k.k.k.k.k.k.f.f.f.k.k.k.k.k.f.r.^ ^ ^ ^ E I P I L z h h C ` U.h.' ^ L L L ` ^ E E ^ g.W.l.l.k.k.k.k.k.W.W.h.^ I C x k k k k x z ` ] p.h.g.g.g.g.g.g.k.g.g.g.g.g.f.f.h.h.h.h.f.f.h.f.f.p.f.D 4 y a y ; ; 9 L ).l.r.Y P P U c.*X+X_.&X8X:X:X>X-X-X-X=X-X-X-X-X-X-X-X-X-X-X-XOXOXOXOXOXOXOXOXOXOXOXOXOXoXXXXXXXoXoXXXK.XXXXXXXXXXXXXXXXoXoXoXoXoXoXoXoXoXoXoXoXXXXX`.`._.S.j.T U t.u.d.A.b.p.1 @ @ -  .,.#.-.k.W.l.l.c.<X6X6X8X*XoXOX*XOXoXXXD.S.V.N.N.",
"S.S.S.S.S.S.S.S.S.V.V.S.S.S.S.D.S.S.S.S.D.D.D.D.S.D.D.D.S.S.S.D.S.S.D.D.D.D.S.S.D.S.D.D.D.D.S.D.S.S.S.`.`.`.`.`.S.S.D.D.D.D.D.D.S.S.S.S._._._.V.V.V.N.N.V.V.V.V.V.V.V.N.N.N.N.N.N.N.V.V.V.V.V.V.V.V.V.V.S.V.N.j.^ Y n v Y r.l.b.N.M.N.n.s.t.s.s.c.N.N.u.n P P U L j $.8.+.O.O.s ; , 8 U t.,X-XoX*X`.q.`.K.XXoXoXoXOXOXoXXXOXOXOXL.L.OXK.K.OXOXOXOXOXK.K.`.`.D.S.V.V.N.b.c.A.i.u.u.t.y.q.T Y Y U U U U U U U E I L L L L v L L L L K z z l l j j h h h f 6 6 6 6 6 f f x v L Y _.~.n.f.r.E j < 3 3 9 C l ` h.k.[._._._._.!.~.!.!.[.W.x f V C ` p.f.f.k.k.k.g.k.f.f.I.H j j l L L P ^ k.k.I l C L I I C I f.k.k.k.k.k.k.k.k.k.k.k.k.k.k.W.k.k.f.h.f.p.p.p.^ ^ I C h h j L I H l h 6 h h Z ` I L L I h.E.E.l.k.k.W.W.] Q C j h f f j C C C C Q ' r.p.h.f.f.g.g.g.g.k.k.g.g.g.f.f.f.h.h.h.h.p.f.f.h.r.p.f.D 4 y a y ; : 9 L p.s.p.R n P U c.`.V.N.*X6X:X:X-X*X*X%XOXOX*X*XOXOXOXOXOXOXOXOXOXoXoXK.oXoXoXXXXXXXK.K.K.XXXXK.K.K.K.XXXXK.K.K.K.XXXXXXXXXXXXXXXXXXXXXXXXXXXX`.`.XXXX`.`._.S.b.u.t.t.u.u.s.A.r., @ @ * { ,.+.-.^.W.k.l.c.<X8X6X*XoXoXOXOXoXXXD.V.N.N.N.N.",
"`.D.S.S.D.D.S._.S.S.S.S.S.S.S.S.S.S.S.D.S.D.D.D.S.S.S.S.D.D.D.D.D.D.D.D.D.D.D.D.`.S.S.`.D.D.S.S.S.S.S.S.D.D.D.S.S.S.S.S.D.D.D.D.`.`.S.S.S.S._.N.N.N.N.M.n.n.n.m.M.n.c.c.c.c.c.b.c.b.N.N.V.V.N.N.N.V.V.V.N.j.r.U n n v n r.s.d.n.N.N.M.d.t.r.t.p.d.!.M.t.U T T P n 6 $.5.$.O.O.s $ 2 8 U u.<X@XXX@X~.q.`.K.D.`.`.`.`.`.`.D.XXK.XXK.K.`.`.D.V.N.n.j.u.t.r.r.T T Y Y P n n P P P P P L L L n L L L L L L L L K L K n n n P P Y Y P K z l k h k f k x x z P U E ^ r.p.f.M._._.l.r._.+X'.].r.E h 2 4 3 h C l E f.l.[.!.~.~.~.~.!.~.!._.^ k j B L ^ f.k.k.k.k.k.f.p.p.h.f.f.R C l C L P h.k.f.p.g.g.h.` L C ` f.W.W.k.k.k.k.k.k.k.k.k.k.k.k.k.k.k.k.k.k.k.k.k.k.f.^ L j h f f 6 6 5 5 5 5 5 9 h h h C Z C E R.W.R.h.E C j f 9 f h j C H L H l C ` p.f.f.f.h.h.f.f.g.R.g.g.g.g.f.f.f.f.f.h.h.f.p.p.h.^ I ^ ' H 2 y a y - ; 9 L p.u.j.s.P P Y c.V.c.u.'.6X:X-XK.K.D.K.XXXXXX`.`.K.K.K.K.XXXXXXXX`.`.`.`.`.`.`.`.XXXXXXXX`.`.`.`.`.`.`.`.D.D.D.D.D.D.D.`.`.`.`.`.D.D.D.D.D.D.D.D.`.`.D.D.S.S.V.m.j.d.t.t.t.s.^ , @ @ - { ..+.U.W.W.l.l.n.,X6X%XK.oXoXoXoX`.`.V.V.b.b.c.c.",
"l.!.`.D.D.C.D.C.D.D.D.D.S.S.S.S.S.S.S.S.S.S.D.D.S.S.S.S.D.D.S.S.S.S.S.S.S.S.S.S.S.S.S.D.D.D.S.D.D.S.D.S.S.S.S.S.S.S.S.S.D.D.S.S.D.D.D.D.S.V.V.N.N.j.t.y.q.r.t.t.p.t.u.u.u.u.i.j.c.c.b.b.b.b.b.N.N.N.n.i.t.Y n v v v E r.p.s.d.N.N.N.n.j.u.t.t.t.u.d.d.t.s.l.l.U v 6 $.5.$.O.O.s $ 2 8 U n.7XOXXX*X~.q.!.N.N.N.N.N.N.n.n.n.n.n.j.s.p.r.^ ^ E Y L P L L K C C C C C C C C C C C C C C C Z C D D D C z z C C K C K L P ^ r.y.t.p.t.t.q.T ^ r.p.f.l._.}.,X<X:X6X6X6X:X>XOXK._.u.q.].+X'.{.r.E h < 2 3 h C l E p.l.[._.!.N._._._.[._.W.C h B H I ^ f.k.k.f.f.p.^ ^ r.p.f.f.f.h.^ E E r.g.k.k.k.f.f.^ I C C ` k.k.k.W.k.k.k.k.k.k.k.k.k.k.k.k.k.k.k.k.k.k.k.k.k.g.g.h.` I C C C l B j j h h 9 6 6 6 6 6 6 h l C l h 6 6 6 9 9 j C L I E E I I ` ' h.g.f.f.h.h.f.f.f.g.g.f.g.f.f.f.f.f.f.f.f.f.p.h.^ L C ` ' Z ; y a r - ; 3 L l.n.M.l.U P Y j.V.c.t.S.6X:X-XOXXXK.K.K.`.`.`.`.K.K.K.K.XXXXXXXX`.`.`.`.`.`.`.`.`.`.`.`.D.`.D.D.`.`.`.`.D.D.D.D.D.D.D.D.D.D.D.D.D.D.D.D.D.D.K.K.K.D.D.D.`.~.V.V.N.c.u.q.q.t.I , # @ * i { O.U.W.l.l.l.n.+XoXD.K.oXoXoXD.`.V.N.N.n.j.j.s.",
"n T s.N._._.D.C.D.S.D.S.D.S.S.S.S.S.S.S.S.S.S.D.S.S.S.S.S.S.S.S.S.S.S.S.S.S.S.S.S.S.S.S.S.S._.S.D.D.D.D.`.`.`.`.S.D.S.S.S.`.`.`.`.`._.S.S.V.N.c.t.T U U U U Y U T q.t.u.u.d.j.c.c.b.b.b.b.b.b.b.c.u.t.U n n K z P ^ r.t.r.t.s.M.N.N.N.N.c.j.i.u.i.u.u.u.d.n.n.U v 6 O.5.O.O.O.s $ = 8 Y !.,X*XoX*XN.m p.p.t.r.r.R T T T Y U U n n n v v C C z v K K v v P P n n P P P P P P P n P P n n n K K K C C C C C L P P r.M._.*X*X*X*X&X,X7X7X6X6X6X8X8X8X8X6X8X6X6X6X:X*XD.S._.N.u.t.`.+X].{.r.E h $ 4 3 h C l E p.W.[.!.!.!.s.p.g.g.f.I j N B C I ` r.r.r.^ R ^ ^ p.f.f.k.k.f.f.k.f.f.k.k.f.l.f.f.r.P C C I p.k.k.k.g.g.f.p.f.k.k.k.k.k.k.k.k.k.k.k.k.k.k.k.k.g.g.k.W.f.h.f.h.' ^ ` I I I L C l j h 6 5 5 5 5 5 7 9 9 9 9 h C L I ^ r.p.p.p.p.h.h.h.f.h.h.h.h.f.f.f.f.f.f.f.h.f.f.f.f.f.f.f.f.h.` I l C ` ' Z ; y a r - ; 3 I ]._._.n.U P T d.V.c.t.V.:X:X>X%XoXXXXXXX`.`.`.`.D.D.K.XXXXXXXXXX`.`.`.`.`.`.`.`.D.D.D.D.D.D.D.D.D.D.D.D.D.D.D.D.D.D.D.D.D.D.D.D.D.D.`.`.`.`.D.D.D.S.V.V.N.N.b.c.c.c.u.y.U R L < @ # * p { O.U.^.l.l.l.n.N.S.D.oXoXoXoXD.D.V.b.c.j.d.u.p.",
"Y P U R s.!._._.S.S.V.S.D.S.S.S.V.V.S.S.S.S.S.S.S.S.S.S.V.S.V.V.S._.`._.`.`.`.`.`.`.`.`.`.`.`.`.`.D.D.D.`.`.D.`.`.`.`.`.S.S.V.N.M.n.n.n.j.s.u.y.T U Y P P U T q.t.d.j.j.n.n.m.b.b.b.b.b.b.c.c.i.i.t.r.R P v z P ^ r.t.r.r.r.s.M.N.V.N.N.N.N.N.N.c.c.d.d.j.c.n.U z 8 F 0.O.O.O.s $ @ 6 Y _.S.Z.*X<X!.U U Y U P n L L L L n P P P Y Y T q.q.t.u.d.n.M.N.S.D.D.D.F.K.oXoXoXOXOXOXoXoX`.S.V.b.c.j.j.d.d.d.d.j.M.N.`.*X6X6X8X8X8X8X8X8X8X8X8X8X8X8X8X6X6X6X6X:X>X-XoX~.V.D.C.N.t.y.`.+X+X].r.P h $ 2 3 h j l ^ r.k._.[.).E.P l l C l k h h j z L I E E ^ r.h.k.k.k.k.k.k.k.k.k.f.f.k.s.k.l.f.k.f.L K L I ^ p.g.g.g.p.p.p.h.f.k.k.k.k.k.k.k.k.k.k.k.k.k.k.k.k.k.k.f.f.f.f.f.f.f.f.f.p.r.^ R E Y C Z B B h 9 9 9 9 9 6 h B L E ^ h.f.f.h.h.h.h.R.h.g.h.h.h.h.h.f.f.f.f.f.f.h.h.h.h.f.f.h.h.f.h.^ L C j Z ` ` h ; w a r - 2 3 I {.+X]._.q.P T d.V.c.t.b.:X-X-X*XoXXXXX`.`.XX`.`.`.`.XXXXXXXXXXXX`.`.D.D.D.D.D.D.`.D.D.D.D.D.D.D.D.D.D.D.D.D.D.D.D.`.D.D.D.D.D.D.V.V.V.V.N.N.c.c.c.j.j.j.j.j.j.x.c.c.d.u.U n j , # # - p } O.U.W.W.l.l.n.N.`.+X+X*XoXoXoX`.V.b.c.c.c.c.c.",
"K E U R T q.d.!._.D.S.S.D.S._._.V.V.S.S.S.S.S.V.D.D.D.S._.~.`.'._.c.p.T T t.u.s.c.n.N.N.S._._._._._._.`.`.`.`._.S.c.d.s.t.r.r.r.^ T T U Y U U U Y Y T T T r.t.s.d.d.d.i.d.j.c.c.b.b.b.b.c.c.c.c.j.d.s.r.n M Y r.p.r.r.r.^ r.s.M.N.N.N.N.b.N.V.V.N.N.b.b.m.N.n.U z 5 F 0.O.| O.s @ @ 7 U S.G.t.j.N.i.m T r.r.r.p.s.j.M.N.V.`.'.+X@X*X-X-X>X>X:X:X:X:X:X:X;X;X:X:X:X;X;X:X:X:X:X:X:X:X:X:X:X:X:X:X:X:X:X:X:X:X8X8X8X8X8X8X8X8X8XqXqX8X8X8X8X8X8X8X8X8X6X:X>X>X*XD.V.V.V.V.c.r.y.`.oX+X{.q.I h , 2 1 9 j j ^ ^ Y R r.h.I C C j j j C C j j K L ^ r.f.g.W.k.k.k.k.k.k.k.k.k.k.k.f.f.k.k.k.k.k.p.E ! ` ] p.p.p.p.r.r.p.p.f.f.f.k.k.k.k.k.k.k.k.k.k.k.k.k.k.k.f.k.g.g.k.k.k.f.f.f.k.k.g.g.f.p.^ E I C C C j h 9 h j C H Q ^ r.p.f.g.f.f.h.^ ^ ` ` ` ^ ^ ^ h.g.f.f.f.f.f.g.h.f.f.f.f.h.p.p.h.^ I C j h l I ` h $ : a y - ; 3 R ].+XoX_.q.P Y s.~.A.e.n.,X-X-X*XoXXXD.D.XXXXXXXXXXXXXXXXXXD.D.`.D.D.D.D.D.D.D.D.D.D.D.D.D.D.D.D.D.D.D.D.D.D.S.S.V.N.N.b.c.c.j.j.d.d.i.i.d.d.u.i.d.j.d.c.n.n.c.b.b.m.l.t.U z f , # . - p  .O.R.!.!.M.l.l.N.*X,X*X>X*XoXK.`.`._._.`.`.oXoX",
"z K I E E R T t.j.!.S.S.D.C.D.D.D.D.D.D.S.S.S.V.C.D.D.D.`._.!.r.P c x x x x z z z v n P U U U U Y T ^ ^ ^ r.^ Y U v v v z z z v z z z z z v P P T T T r.t.p.s.s.d.d.i.i.d.j.c.c.b.b.b.b.c.b.m.n.c.j.u.q.q.s.l.s.t.t.r.r.q.r.d.N.N.N.N.N.N.N.N.V.N.N.N.N.N.N.c.m z 1 s #.O.O.O.s @ @ 1 R ].N.i.i.A.b.S.oX%X*X*X<X<X:X:X:X:X:X:X:X:X:X:X;X;X;X;X;X;X;X;X;X;X;X=X=X=X=X=X=X=X=X=X=X=X=X-X-X-X-X=X=X-X-X-X-X=X>X:X8X8X8X8X8XqXqXqXqXqXqX8X8X8X8X8X8X6X:X:X:X:X<X*XD.V.S.S.V.n.r.t.`.oXoX{.R I h , 2 1 9 h j I L L z z z x l C C L I ` ] ! ! ' g.W.k.k.k.k.k.k.k.k.k.k.k.k.k.k.k.k.k.k.k.k.k.k.k.g.g.f.p.p.r.r.^ r.p.p.f.f.g.k.k.k.g.k.k.k.k.g.g.g.g.R.R.k.k.k.f.p.k.f.f.f.f.f.f.f.f.f.k.f.p.p.p.^ ^ I I L C C L I ` ^ h.p.p.f.f.f.f.f.p.^ E E E E E E ^ p.h.h.f.h.h.f.f.f.f.p.p.p.p.h.' ` L C j f h Z I ` 9 # : a y - ; 3 ^ ].`.`._.q.T U u.m.A.t.d.*X-X%X@XoX`.`.`.`.`.`.`.`.`.`.`.`.D.D.D.D.D.D.C.D.D.D.D.D.D.D.C.C.C.C.D.D.S.V.b.c.j.d.u.u.u.u.u.u.u.s.s.u.u.u.j.d.j.c.c.c.b.b.b.m.N.b.b.c.j.u.m v j 5 @ # . * { ,.O.h.l.).[._.!.S.`.'.+X*X>X*XXXD.S.V.V.N.N.N.N.",
"v L U R ^ R R R R t.n.S.`.`.`.~.N.N.N.c.n.n.n.M.N.N.N.~.c.T v f h j j h j j j j j j j k x x x x x x x x x x x l x x x x x x x x x x z v n P E R r.t.u.s.d.d.d.d.l.j.c.c.c.n.b.b.b.b.b.b.c.c.c.d.u.q.y.s.j.n.c.d.u.s.s.s.s.d.c.N.N.N.N.N.m.m.N.N.b.b.b.b.N.N.j.m z 1 s #.O.| | s @ @ 1 r.].V.V.oX*X<X:X;X;X;X=X;X;X;X;X;X;X;X;X;X;X;X;X;X;X;X;X;X;X;X;X;X;X;X;X;X=X=X=X=X=X=X=X=X=X=X-X-X=X=X=X=X-X-X-X-X-X=X=X=X%X%X%X=X=X=X-X-X>X>X>X%X%X%X%X%X*X%X%X-X>X*XoXS.V.S.V.V.n.q.u.].oXoX{.U L h = ; 2 7 6 h I Q ` ` ! E ` ^ p.h.g.g.f.W.k.W.W.k.k.k.k.k.k.k.k.k.k.k.k.k.k.k.k.k.k.k.k.k.k.k.k.k.k.f.f.f.h.^ ` ` ` ` ` ` ` ` ` ` ^ ^ E E I I I I L L I I E ^ ^ f.g.f.f.f.f.f.f.f.f.f.f.f.f.f.f.f.p.p.p.p.^ ^ ^ r.p.p.p.p.p.f.f.f.f.f.f.f.h.h.h.h.h.h.p.p.r.r.h.h.h.h.h.h.h.h.h.p.] ^ ` I L C h 6 6 h Z Q W 3 . : p y - ; 1 ^ ].`.].].j.s.u.d.n.d.t.u._.oXoX'.`.D.D.D.D.D.D.C.V.V.V.V.V.V.V.V.V.V.V.V.V.V.V.V.V.V.V.V.D.D.V.V.c.c.d.i.u.s.s.s.s.s.s.s.s.s.s.s.d.j.j.c.c.c.c.c.b.b.b.b.c.c.j.u.t.T n z j 6 < # # # * { 2.+.' k.!.].*X,X*X`.b.N.S.*X<XoXD.D.D.S.b.c.j.s.",
"Y ^ t.p.t.r.r.R R r.t.c.m.c.d.d.p.t.q.q.R R R q.t.t.p.p.U x j j j k j j x l l z z l l z l l l l x C C x l x x l z z v v P P P U Y T ^ r.p.s.l.l.l.n.n.c.n.n.c.c.n.n.c.n.c.c.b.b.b.b.b.b.c.c.i.u.s.j.c.c.c.c.c.c.A.c.B.B.n.c.n.n.b.b.b.b.m.m.N.N.b.b.b.b.N.N.d.m x < i O.| | | s # @ 1 p._.`.oXOX#X#X#X=X#X#X=X=X-X=X;X;X;X;X;X;X;X;X;X;X;X;X;X;X;X;X;X;X;X;X;X;X=X=X=X=X=X=X=X=X=X=X=X=X=X=X=X=X=X-X=X=X-X=X-X-X=X%XOXL.K.K.K.K.D.D.D.K.F.F.D.D.D.K.K.D.D.D.S.S.V.V.V.V.c.T s.].XX+X[.P L N = ; 2 1 1 6 I I ] h.f.f.k.k.k.k.k.k.k.k.f.k.f.g.f.f.k.k.k.k.k.k.k.k.k.k.k.k.k.k.k.k.k.k.k.k.f.k.f.f.k.h.L l j j h h j j h h h h h h j h h j j j j j j l l C C L ^ h.f.f.f.h.h.h.^ ^ ^ ^ ^ ^ ] h.f.f.p.f.f.f.f.f.p.p.p.p.h.h.h.p.] h.r.p.^ ^ r.^ ^ ^ ^ ^ ^ ^ ^ ^ ^ ^ ` ` ` ^ E I I I L C C h 8 5 6 h C H D < . : s y ; ; 3 E !.N.N.!.M.!.n.n.d.u.y.t.M.V.D.V.V.b.b.b.b.b.b.b.b.b.b.b.N.N.N.N.N.N.N.N.N.N.N.N.V.V.b.b.n.j.i.u.u.u.u.s.u.s.s.s.d.d.d.j.A.A.c.c.b.b.b.c.c.c.c.A.d.i.i.u.t.y.q.Y P z l h 6 1 @ # # # : +.2.@.' g.!.}.*X-X,X*XN.N.b.S.*X@XoX@X+X'.N.j.u.r.",
"R ^ R R L P R r.r.r.y.y.u.u.u.q.q.q.U U P P P P U P P U L L L L L L C z z C C C K C z z z z C C x x x j j x x x z v P E R r.p.p.p.p.p.p.p.t.r.r.r.r.y.t.t.t.t.u.u.i.A.c.c.c.c.A.c.d.d.i.d.d.c.j.j.j.j.j.j.j.c.c.c.c.c.c.c.c.c.c.N.N.N.N.N.b.b.b.b.b.m.c.c.n.q.v f < y O.| a | s # * 1 ` j.i.A.D.*X-X-X;X;X;X;X;X=X;X:X:X:X:X:X:X:X:X:X:X:X:X>X>X>X>X>X>X:X;X;X;X:X:X:X:X;X;X;X:X:X:X2X:X:X:X:X>X>X>X>X:X;X-X-X*X*X%XOXoXK.K.D.D.D.D.C.C.V.D.D.D.D.D.D.D.V.V.V.V.V.V.N.N.j.U p.].].|.p.v H h , ; 2 < @ 3 W I ] p.p.f.f.g.k.k.k.f.k.g.h.p.g.k.k.k.k.k.k.k.k.k.k.k.k.k.k.k.k.k.k.k.k.k.k.k.f.f.f.f.f.L j 9 6 6 6 6 6 6 6 6 6 6 6 6 6 6 f h h h h h j j j j l l l C C C C C C z l l l l l l C C L I ^ ` ` ^ ^ ^ ^ E Q I I I I I I I L L L L L L L L L L L L L L L L I H H L L L L L C B 6 1 1 3 9 9 h A u @ o : p r : - 1 C R r.s.s.s.j.s.l.s.q.q.q.u.d.d.c.A.c.c.c.c.n.n.c.c.c.c.c.c.c.j.d.d.s.s.s.s.s.p.t.t.r.r.q.R R T T q.q.r.r.r.t.t.p.u.s.d.i.i.i.u.u.u.u.t.t.t.t.r.q.R R T U P n z x j f 6 1 1 @ @ # # o q <.2.#.~ h.W.{.,X<X,X*X].'._.'.'.oXXXoXoX`.N.d.p.r.",
"j l k l z n n m m T q.q.q.t.q.q.q.r.^ m P n n n P P P Y U U Y U U P z x x x x x x x x x x x j j B B j h N h h j x x K P U E R R R R E Y Y U U Y Y U U U Y Y T ^ r.t.s.s.s.p.t.t.r.r.r.r.^ r.r.r.r.p.p.p.p.p.p.p.p.p.t.t.t.t.p.p.s.s.f.f.f.j.j.j.d.d.d.s.p.T v f 5 @ y O.a a a s # * , f v P R p.n.!.`.`.].].{.{.!.!.k.p.^ ^ Y P P P P P P P L L P P I E ^ p.s.l.M.M.!.!.!.M.l.l.l.l.j.f.s.s.u.t.t.t.t.t.q.q.T T T T q.r.r.r.t.t.p.p.t.t.t.t.t.s.s.s.s.s.j.d.j.l.l.f.s.p.Y v P T r.U z C j 5 ; * @ @ , 1 H Q ^ p.h.f.h.h.h.R.g.h.' I Q ` ^ h.h.h.h.h.h.f.h.h.h.h.h.h.h.h.h.h.h.h.h.h.h.h.h.h.h.^ L j h 6 6 6 6 6 5 5 5 6 5 5 5 5 6 6 6 6 6 6 9 h h h h h j j j h h h h h h h h h h h h h h h h h j j j j j j j j h h h h h h h h h h h h h h h h h h h h h h h h h f h j j j B B h 5 1 1 1 5 7 7 7 7 $ # O : p i q - $ 5 z v v n U Y ^ r.R R E R R q.q.p.r.r.r.r.r.r.r.q.r.q.T T T T T U U m n n n n n n n n n n v v v v v v K K v L P P P P P P P P P P P P L L L L n z z z x k k f 6 6 5 8 1 , @ @ # # # X i <.<.<.J I ` g._._.!.l.j.l.j.j.M.B.c.c.c.j.f.r.P I ",
"f h j C K L P R q.r.q.q.q.q.r.r.q.R E P P K K L P P P P P P P P L z x j j j B B B B V h h 9 5 5 1 2 < $ @ @ < 1 5 6 h B C C C C j j f f f f h j j j B C C C K v C l l k f f f f f h h h h h h h j j j j j j j j j x x l l l C C z z C C C L L P I L L z k f 5 1 $ # y O.a a a s # # @ < 1 5 6 j j Z C C L L C C j 8 , @ # # . . . . . . . . . . . # # # @ , 8 8 f f k f f f f 8 6 6 6 6 f f f f f f f f f f f f k k k k f x x x x x x x x x x x x x z z z c z z c x x x k k k k k f f 6 5 2 * y y * = = 5 V B Z D D Z Z B B j j 6 5 6 9 h h h h j h h h h h h h h h h h h h h h h h h h h h h 6 5 5 3 3 1 1 1 1 2 2 2 2 1 1 1 1 1 1 1 1 5 5 5 5 5 5 5 5 5 5 5 5 5 5 5 5 5 5 5 3 3 3 3 3 3 5 5 5 3 3 3 3 1 1 3 3 1 1 1 1 3 3 3 3 3 3 3 3 3 3 3 3 3 5 3 3 5 5 5 5 5 5 5 5 7 7 3 3 1 < 2 2 1 3 3 2 ; # o o o q { } i - % # 1 9 h f f f f k f k f f k k f x j j j k k k x x x x x x k k k k k k k k k k k k k k k k k k k k j h f f f f f f f f f f f f f f f f 6 6 6 6 6 6 6 5 5 1 1 1 2 2 , @ @ # # # # # # & O.2.<.2.s h C K L L z v n v n n L n n n v z l k h f ",
"$ 2 1 5 5 5 9 h j l l l C x j j 6 5 1 1 1 1 1 3 5 6 9 9 9 9 6 6 7 5 1 1 4 2 2 2 ; $ @ @ # # # o o o o o o o # # # @ @ @ @ @ @ @ # # # # # . . # . . @ @ @ @ @ @ @ # . # # # @ @ # @ # @ @ @ @ @ @ < 2 2 1 3 3 1 < < < < < < < < < < < < < < < 2 2 < < @ @ @ @ # # # y O.a a a a - o # # @ @ = = 1 1 1 < 1 2 2 @ @ @ @ @ @ @ @ @ # # # # @ @ = ; = = @ @ @ @ @ @ , , , , , , , , , , , < < < < 1 1 5 8 6 f h j j j j x x x x x x x x x x x x x x x x x x j j B B j j h h h f h 9 9 9 9 7 1 = y { } i : * # # % # $ @ # # # # # @ @ $ % # = ; @ @ ; ; ; ; ; ; ; ; ; ; ; ; $ $ $ $ ; ; ; ; * # # # % # # # # # # # o o o o # # # # # # # # # = = = @ @ @ @ $ $ $ $ % % % $ $ $ $ $ ; ; @ @ ; ; $ $ $ $ $ $ $ $ $ $ @ @ $ $ < < 2 2 2 2 2 2 2 2 2 2 2 2 2 2 2 2 2 2 ; ; 2 2 ; ; $ @ $ $ ; ; 2 ; % # . o o & q s { } { r & & o # 7 B B V 6 1 1 1 1 < < 1 1 1 5 5 5 5 5 5 6 6 5 6 6 6 6 6 6 6 6 6 6 6 6 6 6 6 6 6 5 5 5 5 5 5 8 8 8 8 1 1 1 1 8 1 8 8 1 8 5 8 1 1 1 1 1 1 1 1 1 < < , , , @ @ # # X X o o X # X y 2.2.2.2.O.4 9 9 9 9 9 9 h 9 9 9 6 6 6 5 5 5 5 5 1 1 ",
"  . .   . . . . . . . # # # # # # # # # # # # # # # # # o # o X o o # o o X     o o o o o o o o # o o o o o o o o o o o o o o o # X X # # # # # # # # # o o o o # # # # # # # # o o o o # # # # # # # # # # # # # # # . # # # # # # # # # # # # # # # # # # # # * * y O.a a a a y # # # # # # # @ @ @ @ # # # # # # # # # # # # # # # # @ = = = @ @ ; = ; ; @ # # # # # # # # # # # # # # @ # # # @ @ @ $ < < 1 8 8 6 6 6 h h h j j h h h h h h h h h h 9 9 9 9 6 6 6 6 7 7 7 5 3 3 3 2 : y  .X.X. .p : & & & # o o # # # # # # o o o o o o o X X X X X O O O O O O O O O O O O O O O O O O X X X X X o O O o o O o O o . . . . o o o o o o o o o o o o o o o o o o o o o o o o o o o o o o o o # # o o o o o # # o o o # o o # # o o o o # o o # # o o # o o o o o o o o o o # o o o o # # o o o o - : i { { { ..} q & & o # $ 4 9 u < @ @ # # # @ @ @ @ @ @ @ , < 2 2 < 2 2 2 2 2 2 2 1 1 1 1 1 1 1 1 1 1 1 < 1 < , , < < , , < < , , @ @ @ @ @ @ @ @ @ @ @ @ @ @ @ @ # # # # #   . . .     o # # o & r #.6.2.2.<.#.y ; 2 1 3 3 3 3 3 3 3 3 3 2 < < < < < @ , ",
"# # # # # # # # # # # # # # # # * * * * * * * * # # # # # # # # o o o o o o o o o o o # o o o o o o o & o o o o o o o o o o o o o o o o o o o o o o o o o o o o o o o o o o o o # # # # # # # # # # # # # # # # # # # # # # # # o o o o o # # * # # # # # # # * ; * i O.a a a a s q ; ; # # # @ # # # # # # # # # # # # # # # # # @ @ = = = @ @ @ = ; ; ; = # # # # # # # # # # # # # # # # # # # # # # % % % $ $ ; ; $ 2 $ < 2 2 2 2 2 2 2 2 2 2 2 2 2 ; ; ; ; ; ; 2 2 ; ; ; ; : : q y p  ...X.X.,.,. .r > & o O & o o o o o o X o O o o X O O O O O O O O O O O O O O O O O O O o o o o o o o o o o & o o o o o o o o o o o o o o o o o o o o # o o # o o o o o . . . o o o o o o o o o o o o o o o o o O O O o o O O o o X   O O o o o o o o o o o o o o o o o o o o o o o o o o o o o o o & & : q i  . . .2.3.1. .y * & * # . . # # # # # # # # # # . o # # . . # # # # # # # # # . # # # # # # # # . . . # # # # # # # # # # # # # # # # # # # # # . . . . # # # # o . . . o o # # # # # % * & q a ,.2.2.2.<.,.,.+.: % $ ; 2 2 2 2 2 < $ $ $ $ @ @ @ # # # ",
"* # # o o * * * * * * * * * * * * * - - # * - * * * # o o o o o o o o o o o o o & & & & o o o o X o X O o o o o o o o o o o o o o o o o o o O O o o o o o o o o o o o o o o o * - - : : : : : - - - - - - - - * - & & & & & o o & & & & & & & & * * * o * * * - y { 6.@.a { a { +.#.a q * * # # * # # # # # # # # # # # * * = = = = = = = ; ; : : : : ; ; ; = = # # * = = ; ; ; ; ; - - - - - - - - ; : : : : : q q q q : q y i p p p p p p p p i i i i i i i p p p p p p p p p } { { X...o.o.o.o.,.4.4.+.{ i r q > > : > > > > > > > > : : : : : : : : : : : : q q q q q q q q q q q q q r r r r r r r w w q q q q q q q q q q q q q q q q q : : : - - - - - - - - + o & & & & > > & > > > > > > > > & & o o o & o o o o o o o O O o o O O O O O O O O O O O O o o o O O O o o o o & & & > > : q p { ,.,...2.sXaXaXrX1.{ y - * # # # # # # # # o o o o o o o o o o o # * * & & o o o o # # o o o o o o o o o o o o o o o o o o # o o o o o # * o o & & * * * * * * - - - - - - * * # # # * & - y { #.<.<.<.<.<.<.,.#.+.a : .       # # @ # # # # # # # # # # # ",
"o o o & & & & * - * - - - - - - - - - - - : : : : - - - - : : : : : : q r r r y y i i i i i i i i i y y y q : - : - & & & & & & > : : : > > > > > > & & > > > & > & & & & - : : q q y y i y y y y y i s i i i i y y q r q q q q q q : : : : : : : : : q y s { @.rXhXxX@.i { a  .6.hXgX7.O.y : o o o # # * # * # # # * # # # # # * - - : : 2 y y y y 2 : : : : : ; : : : : : ; ; ; ; ; ; : : : : : : : q w y y i i s s s s a  . . . . . . . . . ... . . . . . . . . .{ { X.X.X.X.X.X.......o.,.,.,.1.3.3.4.1... .{ } p i i i i i i i i i i i i i i i i i i i i i i i i i i i y y y y y r r r r r r r r r r r r r r t r t t t t t t i i i i i i i t r r q q q q q q q q q : : q : : : : : : : : : : : q q q q q r r r r r r q q r q q r r r r r r r r r r r r y y y y i i i i i i i i s p p a { O.@.2.rX3.,.3.aXzXxXzXdXaXrX2.+.p r r q : : ; - - - * * * * * * o # * * # # X X   X X X o o # X X o # # # * * * * & * : : : : : : 2 2 : : : : : : - * * * - - : : : : : : : : q q y y i s a a O.@.5.6.6.7.7.7.tX7.7.gXjXkXpX8.#.O.s : - * # # # o o X o X o o o o ",
"@.@.@.@.@.@.+.+.+.+.+.+.+.+.+.@.@.+.{ a {  . . . . . . .O.+.+.@.@.<.<.<.<.<.4.3.7.7.7.7.6.2.2.2.2.6.6.<.#.@.+. .{ { { } p p } a {  . . ....... . . . . . . . . .{ p { ..@.@.@.$.+.O. .a  . .+.@.2.2.2.2.2.2.@.@.@.+.+.@.@.<.,.,.,.,.2.<.<.<.<.2.2.3.3.yXaXzXxXnXnXxXnX6. .@.2.7.hXxXvXnXvXhXtX2.O.p y : - : : : : y y s a  .O.+.+.@.+.@.@.@.@.@.+.{ i r y r y y y i i i i y r r r r r r q q q q q q q q q q y y i i s p a p { { { {  . .{  . . . . . . . . . . . . . .X.X.X. . ...............,.,.1.4.4.4.2.,.+. .{ { } } } } } } } } } } } } } } } } } } p p } } } } } } {  . . ...,.,.2.3.3.uXrXrXyXyXyXyXyXyXsXsXaXaXdXdXzXzXzXzXzXzXzXzXzXdXaXaXsXsXyXyXyXyXyXrXrXrXrXrX6.6.3.3.3.3.3.2.2.2.4.2.2.2.2.<.<.<.1.,.,.,.,.,.,.,.,.<.<.2.2.2.4.4.2.2.2.2.2.2.2.2.2.2.2.2.2.3.3.3.2.2.2.3.2.3.rXrXpXaXzX3.7.zXxXnXnXnXnXzXzXdXsXyXrX3.3.4.2.1.1.<.@.@.@.+.+.+.{ a i q q q t i i p { { { { { { { { {  . . . . . .| { O.#.#.0.5.5.5.0.0.0.0.0.0.#.$.O.O.$.$.#.#.0.0.0.5.5.5.5.5.9.8.8.kXjXjXxXxXmXmXmXmXmXMXMXMXNXgXxXFXUXUXUXUXJXFXBXMXxXfX#.$.#.<.5.5.0.5.2.<.#.+.",
"gXgXhXzXcXxXzXzXhXzXzXzXzXzXzXxXxXgXpXtXtXtXtXtXtXtXtXpXtXpXpXaXaXaXaXaXfXfXgXaXaXaXaXpXrXrXrXrXrXpXpXpXrX3.2.<.,.@.@.@.@...o.@.,.2.4.2.2.2.2.2.1.1.1.,.,.,.1.1.2.3.yXpXsXaXpXpX7.2.,.@.2.rXaXzXxXxXxXxXzXzXdXdXdXaXaXaXaXdXdXdXdXdXdXdXzXzXdXzXzXxXcXnXnXnXnXnXnXnXbXbXvXvXbXbXbXbXbXbXbXNXDXDXDXbXxXgX,.} X.,.aXvXnXnXGXGXGXNXbXbXvXxXxXxXzXhXaXrX .p p {  .....+.@.@.@.+.+. ... ... . . . . . . . . . .X. .....+.+.+.+.+. .{ { { { { { } } } } } } } { { { } } } } } { X.....@.,.1.4.3.3.rXyXsXaXaXdXzXzXzXzXdXdXdXzXzXzXzXzXzXxXxXnXnXnXnXnXnXnXbXbXnXnXnXnXnXnXnXnXnXnXnXnXNXGXDXDXJXHXHXPXPXKXKXHXHXKXHXHXHXHXHXHXHXHXHXHXHXHXHXJXJXHXHXHXHXHXHXJXDXDXDXGXGXGXnXcXcXcXcXxXxXxXcXnXnXnXnXnXnXnXxXzXhXaXsXsXaXaXaXsXsXsXsXsXsXaXzXxXxXxXxXcXxXbXvXbXbXbXvXxXxXxXxXxXxXxXzXzXxXxXxXxXxXxXxXnXxXnXzXyXxXnXnXnXnXnXnXnXzXzXzXzXzXcXdXdXdXdXdXdXdXdXsXsXyXuXuXuXuXuXuXuXyXsXsXsXsXsXsXsXdXsXsXsXyXyXyXpXyXrXrX,.O.5.8.tXiXfXkXkXkXkXkXkXkXjXjXjXlXVXmXmXVXVXBXVXVXVXVXBXBXBXBXBXBXZXZXBXBXBXBXBXBXBXBXBXBXBXmX XkXBXBXZXZXBXBXBXZXLXLXBX9.5.9.iXjXfXpXfXgXgXiXiX",
"lXlXlXlXlXlXlXlXlXlXlXVXVXVXVXVXVXVXlXlXlXlXlXlXlXlXlXlXlXlXlXVXVXVXVXlXVXVXVXVXjXjXjXhXfXpXpXpXpXpXaXaXpXtXrX7.3.3.2.2.<.,.@.#.#.#.#.#.#.#.#.#.@.@.@.@.+.@.#.#.<.2.2.5.5.5.2.2.@. . . .O.#.2.5.7.8.tXtXtX7.7.7.7.7.8.tXpXhXxXnXbXbXbXNXNXNXNXDXDXDXDXDXDXJXJXDXFXDXDXJXDXJXJXJXJXJXJXJXJXJXJXJXJXHXHXHXhX+.+.,.pXNXJXJXJXDXDXDXNXNXbXbXbXxXzXhXpX2.{ a  .+.@.<.2.2.2.2.2.2.4.4.4.4.4.4.4.4.4.4.4.3.3.3.rXyXyXyXsXsXaXgXaXaXpXpXtXtX7.6.6.6.6.6.6.6.6.6.6.6.6.6.7.tXtXtXgXgXxXvXMXNXNXFXFXJXJXLXLXLXLXPXPXPXPXPXPXPXPXLXLXLXLXLXLXLXLXLXPXPXPXPXLXLXLXLXLXLXLXLXLXLXLXLXHXLXLXLXLXLXLXLXLXLXLXHXHXPXPXPXPXPXPXPXPXHXHXHXHXHXHXJXJXHXHXHXJXJXJXJXJXJXDXJXDXDXDXDXDXDXDXnXaXdXdXdXsXsXsXsXsXsXsXsXsXsXsXsXaXgXfXtX6.5.$.$.O.$.$.%.:.>. X X5X5XkXkXfXfX X XiXiXiXiXfXfXfXfXfXgXgXkXjXxXxXxXxXxXvXvXvXvXgXgXnXbXGXGXbXbXGXbXGXGXbXbXbXbXbXbXMXMXMXMXMXbXxXzXcXhXaXyXsXaXhXhXdXaXgXaXgXgXgXgXgXkXgXzXzXzXxXzXxXzXaX<.s J F H ~ ~ ~ ~ $.%.%.%.%.%.%.$.%.%.%.:.:.:.:.:.:.%.%.:.&.;.;.:.>.(.T.(.(.>.>.;.>.>.>.>.>.>.:.~ %.;.;.;.;.;.;.;. X X:.%.H H ~ $.%.%.%.%.$.$.$.$.",
"}.}.,X}.{.{.{.}.,X,X,X,X,X,X}.}.}.,X,X,X,X,X,X,X,X,X7X7X7X7X0X0X0X0X0X0X0X0X0X0X0X0X0X4X4X4X4X4X4X4X4X5X5X XtXyXrXrX7.6.3.2.~ / [.|.|..X|.|..X.X[.[.[.|..X.X.X.X|.|.|.|.4X4X.X/.T.T.T./././././.[.[..X.X.X.X/.E.R.R.R.R.T./..X.X.X4X4X4X4XlXlXCXCXCXCXCXCXCXCXCXZXZXBXBXBXBXBXBXVXBXBXBXZXZXZXUXLXUXUXLXVX9.9.>.9.kXBXBXBXBXBXMXMXmXmXmXxXjXkXfX9.:.%.:.:.:.:.>.>.>.(.(.>.:.$.#.7.yXyXyXyXyXyXyXyXrXyXaXzXdXxXnXbXMXMXmXmXmXmXmXmXBXBXBXBXBXBXBXBXBXUXBXBXBXBXBXZXUXFXBXBXBXmXmXmXmXmXmXmXmXBXBXBXBXmXjXkXkXkXkXfXfX X X X X X X8. X8. XkXmXBXFXBXLXLXLXLXLXLXUXBXVXfX X8. XkXmXBXZXLXLXIXIXLXPXPXFXmXxXmXmXmXmXBXFXLXLXLXLXLXLXLXFXFXJXJXMXmXNXBXUXLXLXJXJXJXLXFXFXFXNXMXxXdXsXsXyXyXrXyXyXyXyXyXrXrX7.2.$.Z C I L L P Y T r.p.f.j.l.j.k.k.g.g.p.U U U m Y ^ p.p.g.g.g.g.k.k.k.^.^.^.^././././.(.(.(.Y.(. XkXVXVXlXlXVXVXVXVXCXCXCXCXCXCXZXZXCXCXCXCXCXCXCXlX4X4X.X.X.X.X.X.X.X|.|.|.|.|.|..XY.:.:.#.pXNXbXgXO.2 1 I R.r.v v c z z z c x x f f g g f k k x x x x x x x x g f f x v M v v v n n n n n n U U U R R R R ^ ^ r.t.p.s.s.p.p.f.j.l.k.l.W.).).).).[.[.",
"oXoXoXK.K.K.K.K.K.K.K.K.K.K.K.K.K.L.K.K.K.K.K.K.K.K.K.K.OXOX%X%X*XoXoXK.oXoX*X&X&X<X<X<X,X6X3X3X0X7X}.7X4X/.8.tXtXrXrX7.2.$.u P ,XqXqXwXwXwXwXqXqXqXwXqXwXwXwXwXwXwXwXwXwX8X&X].'.*X8XqXqXqXwXqXqXqXqX8X8X8X6X>X-X-X*XOXoXoXoXK.D.D.D.D.`._.S.V._.V.V.V.!.!.!._.!.!.!.!.!._._._.[.[._._.[.[.[.|.}.}.,X,X3X3X.X0X0X}..X4X.X4X0X4X4X4X.X4X3X.X.X.X{.{.].{.].{.{.{.{.].].].{.{.g.D $.rXyXyXrX3.2.2.3.3.tXhXzXzXxXMXmXkX X(.T.(.(.(.(.(.(.(.(.>.:.%.~ %.>.:.%.%.(.(.(.>.$.F V 9 u u u J $.>. X(.(. X X X>.;.%./ G G G D D Z B B B B B B V B Z H $.$.~ :. XlXVXlXlXlX:.F J J J F $.:.:.:. X5XlXVXlX9.>.H J V u u u V H :.(. X5X5X5X5X X X X X X X X4XlXlXlXlXVXCXlXlXVXmXBXBXBXBXMXxXhXaXsXpXtXyXyXrXrXrX<.a u V g.].'.'.].1X*X*X*X,X-X-X-X*X*X*XoX'.`.u.N.1X*X*X*X*X*X*X*X+X*XoXoXoXoXoX*XoX*XoX'.F.'.'.G._._.S.S.'.}.}.N.M.{.}.,X,X,X,X,X,X,X,X,X7X,X,X,X,X<X<X<X7X7X6X6X6X6X6X6X7X7X7X<X,X,X,X].r.H H F 8.aXpX5.~ 4 8 l.8X8X`._._._.`.'.]._.].'.`.G.S._.]._.G._._.N.V._._._.l.v g r._.D.oXXXoXoXoX%X%X%X*X@X*X*X*X@X*X*X*X&X>X<X>X-X:X:X:X:X:X:X:X6X6X6X6X:X6X6X6X",
"'.'.oXoXoXV.A.x.c.j.d.d.A.A.A.A.A.m.c.A.b.m.m.m.m.m.m.m.m.N.V.V.V.`.D.XXXX`.`._._.'.*X,X*XM.r.Y L n p.).7Xh.F #.tXrXrX7.#.u 7 P ,X6X8X6X>X=X-X-X-X-X-X-X-X%X%X-X*X*X*X-X>XS.c.c.A.S.<X6X:X:X:X:X-X-XOXOXK.K.K.K.oXoXoXoXoXoXoXoXoXoXoXoXoXoXoXoXoXoXoXXX`.`.`.`.XXXXXXXXXXXXXXXX`.`.`.D.J.L.OX=X:X:X:X:X:X:X:X:X>X>X;X=X=X=X=X=X=X=X=X=X-X-X;X-X-X=X=X#X#X#X=X=XOXOXOXOXOXOXG.L u ,.rXrX7.{ r i +.6.fXkX X9. X X/./.(.E.(.T.T.U.U.U.U.U.U.` C B N h N B B H Y.T.R.E.T.Y._ D h 9 h S  X X(.;.*.-.Y.Y.;.;.;.-.-.*.%./ G G W / / / _ W G D D B B V Z V 9 V V Z H H J 9 9 9 9 9 V V J Z F H ~ S F V u 9 9 9 5 h D / ' *.Y.*.;.&.&.&.&.' Q L C C ! E R ^ r.h.^..X.X' =.-./..X4X.X(.:.#.+.+.,.<.4.rX6.6.6.{ 3 Z E.,X,X+X+X+X~.N.G._._._._._._._._._._.E.n Y E._.[.{.{.].1X1X1X].].*X*X+X+X+XoX+X'.'.`.K.D.'.oXoXoXoXoXoXK.A.A.D.oXK.oXoXoX*X%X*X*X*X*X*X*X*X*X*X*X*X*X@X+X+X+X*X*X*X*X*XoXoXoXoX@X].p.Q G H $.O.a a s 4 5 W.:XqXoXc.b.S.oX*X*X-X=X-X=X=X#X#X#XOXK.K.K.C.F.L.L.P.C.l.g q.*XK.OX#X#X=X=X;X;X;X;X;X;X$X#X#X=X=X#X=X=X=X%XOX%X%X%X%X*X*X*X*X*X-X-X-X-X-X*X",
"`.'.'.'.`._.x.y.q.q.e.m m m m m m m m m m m m m m m m m e.e.H.t.A.V.`.`.'.`.A.d.d.j.N._.n.z 6 1 6 n [.}.}.R k u 6.rX7.6.a 3 1 z ,X8X8X8X>X%X-X-X-X-X-X=XOXOXOXL.OX*X-X>X-XXXV.N.V.oX%X%X%XOXL.L.K.K.K.oXK.K.K.K.oXoXXXXXoXoXoXoXoXXXK.XXK.K.K.K.XXXXXXK.XXXXXXXX'.`.`.D.`.`.D.D.D.F.K.%X-X:X8X8X8X8X8X8X8X8X8X8X8X2X2X:X;X:X;X;X;X;X;X-X;X;X;X-X*X-X-X#X%XL.L.L.L.OXOXK.K.K.B.z N s 2.rX7.s y O. X X X X X/..X/./.T.T.T.E.E.T.R.h.h.h.U.U.` C C B B B B B C ' T.T.T.T.T././.(.&.G D D h Z ' -.-.' U.U.U.U.Y.Y.U.Y.-.-.-.Y.Y.Y.;.;.*.' ' ' _ _ / G H D B B j B Z D / / / G G H D Z Z Z D D B B B h B B H &./..X.X.X/.Y._ G G H D ` h.g.k.f.W.[.[.).W.W.k.N.}.}.l.Y E Y R h.r.E ` -._ F s a ,.rXrX6.2.a u / ).+X+X*X}._.y.v v v v v n n n n n P U M v z v n M U U n m U Y T r.p.p.f.l.!.!.!._.[._._._.`.'.oXoXoXoXoXF.Z.`.oXoXoXK.oX'.oXoX*X*X+X+X*X*X*X*X+X+X+X+X+X+X+X+X+X+X+X+X+X+X+X+X@X@X`.p.^ ` I D V u s 3 2 6 W.:X8Xb.t.i.i.D.#X#X=X=X=X%XOXOXOXoXXXXX`.D.C.D.oXK.K.Z.n.s.A.XXK.OXOXOXOXOXOX%XOXK.D.F.D.D.D.K.D.C.C.K.K.K.oXoXoXK.D.D.Z.Z.Z.Z.D.oXOX@X*X*X",
"`.`.`.`.F.'.'.`.`._._._._.!.N.N.N.b.b.c.c.c.j.j.j.d.d.i.c.b.S.'.'.'.'.'.D.`.V.A.s.s.x.N.d.n 6 9 g W.{.{.W.P l 9 <.tX7.#.2 1 1 x ,X6X8X8X-X=X-X-X-X-X*XOXOX%XOXOX-X:X8X2X:X>X*X+X+XoXL.L.oXoXoXoXK.K.oXK.K.K.K.K.XXoXoXoXoXK.K.K.F.'.F.D.`.`.`.`.`.`.XXXXXXXX`.`.D.D.C.C.C.K.oXOX=X-X:X2X8X8X8X8X8X8X8X8X8X8X8X8X9X8X2X;X;X#X#X=X;X;X-X-X=X-X=X=X-X-X#X#XOXOXOXOXoX+XoXoXXXoXj.x 6 9 O.rX7.i y J (.(././..X.X/./.Y.Y.(.(.E.T.T.R.U.U.U.U.U.;._ D B B B V V A C _ T.T.T.T.T.(.;.;.;.G 6 9 9 h D &.-.-.Y.Y.;.;.;.Y.Y.Y.Y.Y.Y.Y.U.-.&.' ' ' &.-.-.-.&.&.&.;.-.;.Y.Y.Y.U.Y.Y.Y.Y.Y.Y.U.Y.Y.Y.Y.Y.Y.Y.T.(..X4XlX4X.X/.Y./ Z Z D G *.T./.[.|.|.}.}.,X,X,X,X,X<X,X,X,X,X{.{.W.U Q ` ^ f.|.7X/.H O.2.rXrXuXrXO.V D I k.+X@X+X+X_.l.d.s.l.M.!.!.!.N.N.N.n.N.N.N.N.c.c.u.t.r.T U v v z c c x x x g x c c c v P m m q.t.p.s.s.s.k.l.l.l.l.l.j.j.l.l.l.l.l.l.n.n.n.j.j.j.j.j.j.j.j.l.M.M.N._._.].].].'.`.N.r.^ ^ E C h 7 u 4 2 6 W.;XqXb.y.y.t.V.@XL.K.D.S.N.p.q.r.^ T r.r.r.r.p.t.p.p.T M s.S.K.K.oX+XoXoXOXOXOXXXXXD.V.b.A.d.d.d.d.i.b.D.D.`.`.C.b.b.b.N.V.Z.V.D.oXoXoX`.V.",
"`.`.`.`.oX`.`.`.`.`.`.`.oXXXoXoXoXoXoXoXoXoXoXoXoXXXoXoXoXoXXX`.`.`.`.`.`.oX`.S.d.u.u.d.l.v f 8 b ).j.f.T Y / 3 @.tX7.O.2 4 1 x ,X6X8X8X>X=X-X-X-X-X=XOXOXOX%X:X:X:X:X:X:X:X-X%XoXXXK.XXK.K.K.K.XXXXXXXXK.K.K.oXK.K.K.K.K.K.K.K.XXK.K.K.`.`.`.`.`.`.`.`.D.C.C.Z.Z.C.K.XX#X;X;X:X2X2X2X2X2X8X8X8X8X8X8X8X2X8X2X8X8X8X2X;XOXoXOXOXOXOX=X=XOXOXOXOXOXOXOXK.K.K.oXoXoXoXoXoXoXoXf.v x 6 a 6.7.i w V >././././././.Y.' ' T.T.T.T.T.R.U.U.U.U.-.-.-.` W W G G G G G W ' *.Y.U.U.-.*.' *.;.%.G u 9 9 ~ _ _ _ _ / G W _ -.Y.Y.Y.Y.Y.-.W D Z B B D D D D Z B Z ` Y.(.Y.-.*.*.-.Y.Y.Y.Y.T.T.T.T.T.T.(.T.T.(.T.T.(./..X(.W D Z D D S D I ` ' R.^.E.p.f.].,X,X,X*X*X,X,X,X7X<X<X,Xk.E h.p.p.{.<X{.W F 2.yXrX6.<.9._ D L u.*X*XoX@XoX].N.u.f.n._.oXK.`.`.`.D.D.D.D.D.`.`.`.`.'.`._._.!.!.!.n.l.s.r.q.R U n v c c c g x x x x c c c c c c c c v v v v c c c c c c c g g g c c g x c c c c c v m m m j.G.N.j.r.r.r.R L j 7 u 4 $ f l.-XqXoXZ.V.Z.XX@XOXoXC.d.m g g g f g f f f g g g g g g M M.D.D.XXoXoXoXoXoXoXXXXX+X+XXX`.V.c.i.u.u.u.c.D.D.D.D.C.b.A.b.V.V.V.V.V.`.b.i.t.e.",
"`.D.`.`.`.`.`.`.`.`.`.D.`.`.D.D.`.`.`.`.`.`.`.`.`.`.`.`.`.`.`.`.D.K.XX`.`.`.`.`.N.i.s.t.s.^ f f f.G.B.M.G.)./ 3 +.7.7.a $ 2 1 x ,X8X8X8X-X%X-X-X-X-X=XOXOX=X:X:X:X:X:X:X>X>X-X=XOXoXXXXXXXXXXXXXD.`.`.D.XXXXXXXXK.D.D.XXD.XXD.D.D.`.XXD.`.D.D.D.V.V.V.Z.Z.Z.C.XX@X*X-X;X;X2X2X2X2X2X8X8X8X8X8X8X8X8X8X8X8X8X8X8X8X2X2X;XOXOXOXOXL.OXL.K.L.OXOXL.XXK.XXK.D.D.D.oXoXoXoXoXoXoXf.Y Q B y <.7.i w u ;././././.(.-.` ` ` -.Y.Y.U.' ` ` ` ` U.U.U.U.U.U.*.' W H H H C C I ` ' -.-.-.' ' ' &.&.) B h V H D Z D D D D D ' Y.-.U.;.&.G Z V V V V V V V V u V Z / ;./ G D C B B D H G G / _ _ _ _ / W G D D D C C Z Z D D H H H H D D D S H I R.W.^ ` p.{.,X,X&X>X<X<X*X'.,X<X7X}.f.l.n._.<X6X}.` F +.3.2.{ i >.4X).{.,X,X*X*X*XoX`.N.i.y.q.i.N._.S.S.V.V.S.D.D.D.`.`.`.`.`.`.`.`.`.`.`.`._._._._._.N.!.M.l.l.l.l.l.l.f.f.j.l.j.j.l.l.l.l.M.M.M.M.M.l.l.j.f.f.s.u.s.p.t.t.t.t.t.t.p.u.u.s.d.d.u.c.'.S.j.p.p.r.R L j 7 u 4 $ f n.-XqXOXXXXXoXoXoXoXoXoX_.t.n v v v m m m T T T T T t.j._.`.D.XXXXoXoXoXoXoXoXoXXXXXXXXX`.`.`.~.N.b.m.V.`.D.D.`.D.Z.b.b.b.V.V.V.V.V.N.c.A.d.",
"D.D.D.`.`.`.`.`.`.`.`.`.`.`.`.`.`.`.`.`.`.`.`.`.D.`.`.`.`.`.`.`.`.`.`.`.`.`.`.`.`.`.l.q.q.r.z P }.'.oX}._.p.j 2 O.6.6.s @ $ 1 x ,X8X8X8X-XOX%X=X-X=XOXOXOX-X:X:X:X:X-X=XOXOXOXOXoXoXXXXXK.K.K.K.D.`.D.D.`.`.`.`.`.D.D.D.`.`.`.D.D.V.Z.Z.Z.Z.Z.Z.Z.Z.C.D.XXOX-X-X-X-X;X;X;X2X2X2X8X2X2X9X8X8X8X8X8X8X8X8X8X8X8X8X8X8X8X;X#XOXOXoXOXOXOXXXoXoXoXoXoXoXoXXXD.V.C.oXOXOXoXoXoX+Xs.Y ! B y +.6.i y u %.(././.T.` ` _ / W W ` ` ` W W W I ` -.U.U.U.U.I.U.*.' ` Q Q ` ' -.-.-.U.-.' ' ' ' ' &.&.%.B V V Z Z H H G ~ / _ &.;.;.&._ D Z Z V V B Z H D Z D H G H Z B B B V V V V V V V V B B B B D D Z A B B B A Z A Z Z Z Z Z Z D D D D D L h.!.p.^ r.{.,X,X<X<X<X<X7XV.,X6X:X7X<X<X<X<X6X6X,X` H O.p p y y &.6X<X<X<X,X,X*X*X*XoX`._._.N.c.c.b.N.N.N.V.V.V.S.S.S.D.`.`.`.`.`.`.D.D.D.D.D.S.V.V.Z.Z.N.b.b.b.b.N.b.b.b.N.V.V.V.V.V.V.N.V.S.`.'.'.'.'.+X'.'.'.'.oX].].].].'.'.oXoX+XoXoXoX`.+XN.m.+XD.d.p.p.r.R L j 5 u 4 @ f W.-XqX@XK.XXK.oXoXoXoXK.oXn.j._.!._._._._._._._._.'.].`.`.K.D.D.XXXXXXoXoXXXXXXXXXXXXXXXXXXXXXXXXX`.`.XXXX`.`.`.`.C.V.V.V.V.V.V.V.V.V.V.N.N.",
"D.D.D.D.D.D.`.`.`.`.`.`.`.`.`.`.`.`.`.`.`.`.`.`.D.`.`.`.`.`.D.V.V.~._._.`.`.`.`.D.`.d.q.q.R n U ].`.D.'.p.n h 3 | 6.5.s $ < 1 x ,X8X8X8X-XOXOX%X=XOXOXOXOXOX-X-X-X*XOXOXOXOXoXoXoXXXK.K.K.K.K.K.`.`.`.`.`.`.`.`.`.`.D.S.V.b.b.A.i.A.A.b.D.`.oXoX@X*X*X@X@X-X-X-X-X;X;X;X;X2X2X2X8X8X2X2X2X2X8X8X8X8X8X8X8X8X8X8X8X8X8X2X;XOXOXoXoXOXOXoXoXOXOXoXoXoXoXoXXXV.V.XXOXOXoXoXoXoXp.P I h y  .2.i y u / Y.T.T.' ` ` ' / G / W W W W W ` ' U.U.U.U.U.U.U.U.U.U.Y.Y.U.-.-.U.U.' ' ' ' ' _ ' *.*.&.&./ V V Z Z S G / _ _ _ _ &.;.-.-.&./ / G G / / _ / / ' ' _ / G G G D S D D D D H G G W W W W W G W / / / / %.%._ / W W W W W W _ ' h.R.W.).{.[.[.{.,X,X<X<X<X:X:X6X+X<X6X6X6X6X6X6X6X6X8X<X^ H F i i q r &.,X-X-X-X-X*X*X*X*X@XoXXX`.`.D.S.b.b.c.c.c.c.b.b.b.b.b.V.V.D.D.D.D.D.D.`.`.`.`.`._.S._._._.V.V.V.V.N.N.N.N.N._.N.N.N.N.N._.D.D.`.`.`.`.`.`.XXXXXXXX`.`.`.`.`.`.XXXXXXXXXXXX`.'.b.b.+XD.d.p.p.r.w.L j 5 u 4 $ f l.@XqX*XK.XXXXXXoXoXXXXXoXb.A.`.~.~.D.C.C.D.D.V.S.D._._.`.D.D.D.D.XXXXoXoXXXXXXXXXXXXXXXXXXXXX`.`.`.K.K.XX`.`.`.`.`.`.`.`.S.V.V.V.V.N.b.m.c.",
"V.V.V.C.C.D.`.D.`.`.`.`.`.`.`.`.`.`.`.`.`.`.`.`.`.`.`.`.XX`.S.x.y.t.t.i.Z.D.D.D.D.`.d.R E E n m '.'.'.].r.l N 3 | 6.5.s $ 2 < x ,X8X8X8X-XK.K.oXoXoXoXoXoXoXoXoXK.K.K.K.XXXXoXoXD.D.D.D.XXXX`.`.`.XXXX`.`.D.S.Z.c.c.i.i.i.i.c.N.V.S.`.oXOXOXOX@X*X@X@XOX@X$X$X-X-X;X;X2X2X2X2X2X2X2X8X8X2X8X8X8X8X8X8X8X8X8X8X8X8X8X8X8X2X;XOXoXoXOXOXoXOXOXoXoXoXoXoXoXoXV.Z.XXOXOXOXoX@X`.T C f 1 y  .2.p i y G -.U.Y.' ` _ ' _ W W Q ` _ ' ' -.U.U.U.U.U.U.U.U.U.U.U.U.U.U.U.U.U.-.' ' ' ' ' ' ' -.-.-.-.&.D V A Z S / / _ _ _ _ _ -.Y.U.Y.Y.;.;.-.&.' *.*.*.*.*.*.-.-.-.-.-.&.&.&.&.-.-.-.-.-.-.-.-.*.-.-.-.-.-.-.-.-.-.-.-.-.-.-.-.' R.[.}.,X,X,X,X,X<X<X<X<X<X:X:X<X6X6X<X6X6X6X6X6X6X6X6X6X8X:X^ H s q q : w ' ,X-X-X-X-X+XM.c.V.+X@X@XoXoXoXoXXX`.V.b.b.b.b.b.b.b.b.b.V.D.D.D.`.`.`.oXoXXXXX`.`.`.`.`.`.`.`.`.`.`.`.`.`.`.V.V.V.S.S.S.S.`.`.`.`.'.oX'.oXXXXX`.`.'.'.'.'.'.`.`.'.'.'.'.'.XX'.N.N.oX`.j.t.p.r.w.L j 5 u 4 $ f l.OXqX-XK.XXXXoXoXXXXXoXoXV.A.`.D.D.`.`.V.N.N.N.N.N.c.b.b.N.V.`.XX`.XXXXXXXXXXXXXXXXXXXXXXXX`.XXXX`.XXXXXXXX`.`.XXXX`.D.V.A.A.A.i.u.u.u.u.u.",
"d.A.A.N.D.C.C.D.`.`.`.`.`.`.`.`.`.`.`.`.`.`.D.D.`.`.`.`.D.`.`.A.q.q.q.i.b.D.D.D.D.D.d.T E R n T '.D.XX`.r.l h 2 { 6.5.i $ 2 < x ,X8X8X8X-XK.K.'.oXXXK.D.K.K.XXXXD.K.K.K.D.D.D.D.D.D.D.D.XXXX`.`.`.`.XX`.`.`.V.b.A.c.b.V.D.'.oXoXoX'.D.K.XXoXoXoXoXoXOXOXOXOXOX#X=X;X2X2X2X2X2X2X8X8X8X8X2X2X8X8X8X8X8X8X8X8X8X8X8X8X8X8X8X2X-XOXoXoXOXoXoXoXoXXXoXoXoXoXD.Z.C.oXOXOXOXOX@X_.` 8 1 3 y  .6.p i 3 G *.*.-.' ` ` _ %.` ' -.U.U.U.U.U.U.U.U.U.U.U.U.U.U.U.U.U.U.U.U.U.U.U.U.-.*.*.*.-.-.-.-.-.-.-._ D Z D G / / _ _ _ _ ` ' Y.U.Y.Y.Y.Y.-.-.-.*.*.-.*.*.*.*.*.-.*.*.&.&.*.*.*.*.*.*.&.*.*.*.*.*.*.*.*.*.-.*.*.*.*.*.*.*.*.*.' ' h.W.|.}.}.B._.,X,X,X<X<X:X:X6X6X6X6X6X6X6X6X6X6X6X8X8X6X:X^ H s : : : 2 _ ,X-X*X*X>XN.m m t.S.oX@XOX@X@X@XOX@X@XoXXX`.`.`.D.D.D.`.`.`.`.XXoXoXoXoXoXoXXXXXoX`.`.`.`.`.`.`.`.`.`.`.`.`.`.D.D.`.`.`.`.`.`.`.`.oXoXoXoXXXXX`.`.'.'.'.'.'.`.'.'.'.'.'.'.XX'.b.N.oX_.j.t.p.t.w.L j 5 u 4 @ 6 l.OXqX-XD.K.`.oXoXoXXXoXoXV.c.`.`.D.`.`.V.c.c.c.c.c.A.c.b.V.`.`.`.`.XXXXXXXXXXXXXXXX`.XXXX`.`.`.`.XX`.`.`.`.`.`.XXXXD.Z.c.A.d.u.t.t.t.t.t.t.",
"d.A.m.V.V.V.C.`.`.`.`.`.`.`.`.`.`.`.`.`.`.`.D.D.`.`.`.`.D.`.`.V.m.d.n.V.D.D.D.D.D.D.c.q.U Y M p.+X`.XX`.r.j h 2 { 5.<.i $ 2 3 x ,X8X8X8X-XK.K.XX`.`.`.`.`.`.XX`.`.`.`.`.`.`.XXXXXXXXXXXXXXXX`.`.XXXXXXXX`.`.`.XXoXoXoX'.`.XXD.D.`.oXXXK.XXoXoXoXXXoXOXOXOXOX#X=X;X2X2X2X2X2X2X2X2X8X8X8X2X2X8X8X8X8X8X8X8X8X8X2X8X8X8X2X2X2X#XK.oXoXoXoXoXoXoXoXoXoXK.Z.b.V.XXOXOXOXOXOX@Xp.1 , 1 3 i +.6.p i 3 G ' ' -.*.' ` _ _ ' -.U.U.U.U.U.U.U.U.U.U.U.U.U.U.U.U.U.U.U.U.U.U.U.U.U.U.U.U.U.U.U.U.U.U.-.&.&.G B D G / / / _ _ _ ` _ U.U.U.U.U.-.U.U.-.-.-.-.-.-.-.-.-.-.-.-.-.*.*.*.-.-.-.-.*.-.-.*.-.-.-.-.-.-.-.-.-.-.-.-.-.-.-.-.*.h.h.h.g.[.,X}.M._.].,X<X<X:X:X6X6X6X6X6X6X6X6X6X6X8X8X8X8X6X^ H s - : : 2 ` {.*X,X*X*XN.m n T c.`.@XOXOX@X@XOX@XOXOX+XoXoXoXoXoXoXoXoXoXoXoXoXoXoXoXoXoXXXXXoX'.'.'.`.`.`.`.`.`.`.XXXXXXoXXXXX`.`.'.'.XXXXXXXXoXoXoXoXXX`.`.`.'.'.'.'.'.`.`.'.'.'.'.'.XX'.b.N.oX_.j.t.p.t.r.P j 5 u : @ 6 k.oXqX>XD.XX`.oXoXoXXXoXoXV.c.`.`.D.`.`.`.V.S.S.S.S.`.`.`.`.`.`.`.`.XXXXXXXX`.`.`.`.`.`.`.`.`.`.`.`.`.`.`.`.`.`.`.`.`.Z.A.A.d.u.t.t.t.r.r.r.",
"V.V.V.C.C.`.`.`.`.`.`.`.`.`.`.`.`.`.`.`.`.`.`.`.`.`.`.`.`.`.`.`.V.V.V.D.D.D.D.D.S.D._.d.p.T m t._._.~.[.r.j h 2 a <.#.y $ 2 3 z ,X8X8X8X-XK.XXXXXX`.`.`.`.`.`.`.`.XX`.`.`.D.XXXXXXXXXXXXXXXX`.`.XXXXXXXX`.`.`.`.D.D.D.D.XXXXXXoXXX`.K.K.XXXXXXXXoXoXOXOXOX#X-X:X:X2X2X2X2X2X2X2X2X2X2X8X2X2X8X8X2X2X2X2X8X8X8X2X8X8X8X8X8X2X#XK.oXoXoXoXOXOXoXoXoXK.C.Z.D.oX@XOXOXOXOXOXOXp., 1 2 2 s ,.6.p i 3 G ' ' -.-.' _ / ` ' U.U.U.U.U.U.U.U.U.U.U.U.U.U.U.U.U.U.U.U.U.U.U.U.U.U.U.U.U.U.Y.U.U.Y.U.U.;.&./ / _ W / / / / _ _ ` ' U.U.U.U.U.U.U.U.-.U.-.-.-.-.-.-.-.*.*.*.-.-.-.-.-.-.-.-.-.-.-.-.-.-.-.-.*.*.*.*.-.-.-.-.-.-.-.-.I.U.U.-.' h.{.3X,X]._.*X7X6X:X:X6X6X6X6X6X6X6X6X8X8X6X8X8X6X6X^ D s - : : 2 Q ].*X,X*X*X_.m n U j.`.@XOXoXOXoXoXoXoXoXoXoXoXoXoXoXoXoXoXoXoXoXoXoXoXoXoXoXXXoXoX`.`.`.`.`.`.`.`.`.XXXXXX`.XXXXXXoXoXoXoXoXoXXXXX'.'.oXoXXX`.`.`.'.'.'.'.'.`.`.'.'.'.'.'.XX'.c.N.oX_.j.t.p.r.r.P j 5 u : # 8 f.oXqX<XD.XX`.XXoXoXoXoXoXV.c.`.D.D.`.`.`.`.`.`.`.`.`.`.XX`.`.`.`.`.`.`.`.`.`.`.`.`.`.`.`.`.`.`.`.`.`.`.`.`.`.`.`.`.`.`.`.V.N.b.c.j.u.u.u.u.",
"`.`.`.`.`.`.`.`.`.`.`.`.`.`.`.`.`.`.`.`.`.`.`.`.`.`.`.D.`.`.`.D.D.D.D.D.D.D.D.D.D.D.`.`._.n.r.T R r.r.t.R l 9 2 a #.@.y $ 1 3 l ,X8X8X8X*XD.`.`.XXXXXX`.`.`.`.`.`.`.`.`.`.`.`.`.`.`.`.`.`.`.`.`.`.`.`.`.`.`.`.`.`.XXXXXX`.XX`.XX`.`.`.XX`.XXXXXXoXoXXXOXOX=X;X2X2X2X2X2X2X2X2X2X2X2X9X8X8X8X8X8X8X8X8X8X8X8X8X8X8X8X8X8X8X:XOXoXoXoXoXoXOXOXOXOXXXXXXXoXOXOXOXOXOXOXOXoXoXc.8 < 3 y a <.6.a i 2 H ' ' U.*.' _ _ ` ' Y.U.U.U.U.U.U.U.U.U.U.U.U.U.U.U.U.U.U.U.U.U.U.U.U.U.U.U.U.U.U.U.U.U.Y.-.U.' ' -.-._ / / / / / _ _ &.Y.U.U.U.U.U.U.U.U.U.U.U.-.-.-.-.-.-.-.*.-.-.-.-.*.-.-.-.-.-.-.-.-.*.-.-.*.*.*.*.-.-.-.-.-.*.*.-.U.U.-.U.-.' p.!.{.,X,X*X<X6X6X6X6X6X6X6X6X6X6X6X8X8X8X8X8X8X7Xp.D J : : - : / {.*X*X*X@X'.U n U c.D.oXoX@X@X@X@XoXoXoXoXoXoXoXoXoXoXoXoXoXoXoXoXoXoXoXoXoXoXoXXXK.XXXXXX`.`.`.`.`.`.`.XXXXoXoX`.'.'.'.'.XXoXoXXX`.`.`.`.'.`.`.`.`.'.'.`.'.'.`.`.`.`.'.oXK.'.c.N.oX_.j.p.p.r.q.L j 8 u 2 # 1 p.`.qX<XC.D.D.XXoXoXoXXXXXV.c.`.D.D.`.`.`.`.D.`.`.`.`.`.`.`.`.`.`.`.`.`.`.`.`.`.`.`.`.`.`.`.`.`.`.`.`.`.`.`.`.`.`.`.`.`.`.`.`.`.`.`.`.`.`.`.",
"`.`.`.`.`.`.`.`.`.`.`.`.`.`.`.`.`.`.`.`.`.`.`.`.`.`.`.D.`.`.`.D.D.D.D.D.D.D.D.D.D.`.D.V.V.N.s.T R R t.p.^ l 9 2 s +.O.y $ 1 3 l ,X8X8X8X*XD.`.`.XXXXXX`.`.`.`.`.`.`.`.oX`.`.`.`.`.`.`.`.`.`.`.`.`.`.`.`.`.`.`.`.XX`.`.`.`.XX`.`.D.D.`.`.`.XXXXXXoXoXoXOX#X;X:X2X2X2X2X2X2X2X2X2X9X8X8X8X8X8X8X8X8X8X8X8X2X8X8X8X8X8X8X8X2X#XOXoXoXoXoXoXOXoXoXOXXXOXOXoXOXOXOXOXoXoXOXoXoXN.6 < 2 y a ,.7.a i 2 H ' ' U.-.' ' _ ' -.U.U.U.U.U.U.U.U.U.U.U.U.U.U.U.U.U.U.U.U.U.U.U.U.U.U.U.U.U.U.U.U.U.U.Y.U.U.Y.;.;.;.' / / / / / ` _ -.U.U.U.Y.U.U.U.U.U.U.U.U.-.-.-.-.-.-.*.*.-.-.-.-.-.-.-.-.-.-.-.-.*.*.-.*.*.*.*.-.-.-.-.-.*.-.-.*.*.*.*.*.U.*.' ' h.E.[.}.,X7X6X6X6X6X6X6X6X6X6X6X8X8X8X8X8X2X7Xp.D F : - - : / ].@X*X@X@X'.T n T M.D.oXoXoXOXOX@XOXOXOXoXoXoXoXoXoXoXoXoXoXoXoXoXoXXXoXoXXXD.`.`.oXoXoXoXoXK.K.K.`.`.`.`.'.'.oXoX'.'.'.'.XXoXoXXX`.`.`.`.`.`.`.`.`.'.'.'.`.XX`.`.`.'.oXoXoX`.j.N.oX`.n.p.p.r.R L j 8 V 2 . 1 r.D.8X<XD.D.D.XXXXoXoXXXXXV.c.`.D.D.`.`.`.`.D.D.`.`.`.`.`.`.`.`.`.`.`.`.`.`.`.`.`.`.`.`.`.`.`.`.`.`.`.`.`.`.`.`.`.`.`.`.`.`.`.`.`.`.`.`.`.`.",
"`.`.`.`.`.`.`.`.`.`.`.`.`.`.`.`.`.`.`.`.`.`.`.`.`.`.`.D.`.`.`.D.`.`.`.`.D.D.D.D.D.D.D.S.V.m.s.T R T r.p.r.l 9 2 s O.O.y $ 1 3 l ,X8X8X8X*XD.`.`.XXXX`.`.`.`.`.`.`.`.`.`.`.`.`.`.`.`.`.`.`.`.`.`.`.`.`.`.`.`.`.`.`.`.`.`.`.XX`.`.D.D.D.`.`.XXXXXXK.K.OXOX-X:X:X2X2X2X2X2X2X2X2X2X2X9X8X8X2X2X8X8X8X8X2X2X8X8X8X8X8X2X2X:X=XK.oXoXoXoXoXoXXXOXOXoXOXoXoXOXOXOXoXoXK.oXOXoXOX_.h < 2 y a ,.7.{ i 2 D ' *.U.U.' ' ' *.U.U.U.U.U.U.U.U.U.U.U.U.U.U.U.U.U.U.U.U.U.U.U.U.U.U.U.U.U.U.U.U.U.U.U.U.U.-.-.-.-.-.-.' ` W ` ` _ *.-.U.U.U.Y.U.U.U.U.U.U.U.U.-.-.-.-.-.-.-.*.-.-.-.-.-.-.-.-.-.-.-.-.-.-.-.-.*.*.*.*.-.-.-.-.*.-.-.*.*.*.*.*.I.U.*.-.-.' h.g.l._.].,X6X6X6X6X6X6X6X6X6X6X6X6X6X8X7Xp.C F - - : : W _.@X@X+XoX'.r.U t._.oXoXOXoXoXOXOXoXoXoXoXoXoXoXoXoXoXoXoXoXoXoXoXXXoXoXD.V.b.b.N.N.V.S._.`.`.`.`.`.`.`.`.'.'.`.`.`.'.'.`.`.'.'.`.`.`.`.`.`.`.`.`.`.'.'.'.oXoXoXoX`.oXoXXXK._.i.V.oX'.n.p.p.t.R L h 8 V 4 # < ^ S.8X<XD.D.K.XXoXoXoXXXXXV.c.`.D.D.`.`.`.`.D.`.`.`.`.`.`.`.`.`.`.`.`.`.`.`.`.`.`.`.`.`.`.`.`.`.`.`.`.`.`.`.`.`.`.`.`.`.`.`.`.`.`.`.`.`.`.`.",
"`.`.`.`.`.`.`.`.`.`.`.`.`.`.`.`.`.`.`.`.`.`.`.`.`.`.`.D.`.`.`.D.`.`.`.`.D.D.D.D.D.D.D.V.V.N.s.q.R T T r.R x 9 2 s O.| 3 $ 1 5 l ,X8X8X8X*XD.D.`.XX`.`.`.`.`.`.`.`.`.`.`.`.`.`.`.`.`.`.`.`.`.`.`.`.D.`.`.`.`.`.`.`.`.`.`.`.`.`.`.D.D.D.`.`.XXXXoXoXoXOX@X-X:X:X2X;X2X2X2X2X2X2X2X2X2X2X2X2X2X2X8X8X8X2X8X2X2X:X;X;X;X;X;X-XOXoXoXoXoXoXoXoXoXoXOXoXoXoXoXOXoXOXoXK.oXoXoXOXS.f 1 2 y a @.7.{ i 2 D ' U.U.U.U.-.-.U.U.U.U.U.U.U.U.U.U.U.U.U.U.U.U.U.U.U.U.U.U.U.U.U.U.U.U.U.U.U.U.U.U.U.U.U.U.Y.U.U.Y.U.U.-.*.&.&.&.-.-.-.Y.U.U.U.U.U.U.U.U.U.U.U.U.U.-.-.-.-.-.-.-.-.-.-.-.-.-.*.-.-.-.-.-.-.-.-.*.*.*.*.-.-.-.-.*.*.*.*.*.*.*.*.' ' *.I.I.' ' ' ' ' p.l.,X6X6X6X6X6X8X6X6X6X6X8X6X6X7Xp.j F - - : : G _.oX+X+XoX'.t.U s._.oXoXoXoXoXOXoXoXoXoXoXoXoXoXoXoXoXoXoXoXoXoXoXoXoXXXD.V.b.b.c.c.c.c.c.c.c.c.c.c.m.N.V.S.`.'.`.`.`.`.`.`.`.`.`.`.`.`.`.`.`.`.`.`.'.'.oXoXoXoXoX`.oXoXoXoXV.u.S.oX'.M.p.p.r.R L h 8 u 2 o < ^ V.6X:XD.D.D.XXoXoXoXXXXXV.c.`.S.D._._.`.`.D.D.`.`.`.`.`.`.`.`.`.`.`.`.`.`.`.`.`.`.`.`.`.`.`.`.`.`.`.`.`.`.`.`.`.`.`.`.`.`.`.`.`.`.`.`.`.`.",
"`.`.`.`.`.`.`.`.`.`.`.`.`.`.`.`.`.`.`.`.`.`.D.D.`.`.`.D.`.`.`.`.`.`.D.D.D.D.D.D.S.S.V.V.V.V.d.r.T T U U L j 6 2 s F a w ; 4 5 z ,X8X8X8X*XD.oXoX`.`.`.`.`.`.`.`.`.`.`.`.`.`.`.`.`.`.`.`.`.`.`.`.`.D.D.`.D.`.`.D.`.`.`.`.`.`.`.`.`.`.`.`.XXXXoXoXoXOXOXOX-X-X:X2X:X2X2X2X2X2X2X2X2X2X2X2X2X2X6X8X2X2X2X2X:X:X:X;X;X;X;X;X;X-XOXOXoXoXoXoXoXoXOXOXOXOXOXoXOXoXoXXX`.oXoXoXOXS.6 , 1 3 s @.6.{ i ; D &.*.U.U.U.U.U.U.U.U.U.U.U.U.U.U.U.U.U.U.U.U.U.U.U.U.U.U.U.U.U.U.U.U.U.Y.U.U.U.U.U.U.U.U.U.U.U.Y.Y.Y.Y.U.U.U.U.U.U.U.U.Y.Y.Y.U.U.U.U.U.U.U.U.U.U.U.U.U.U.U.U.-.*.*.*.*.*.*.*.-.*.*.*.*.*.*.*.*.*.*.*.*.*.*.*.*.*.*.*.*.*.*.*.*.*.*.*.*.*.-.' I.R.-.h.g.].,X6X:X6X6X:X8X6X:X6X6X8X6X6Xp.h F - - : : H !.+X+X+X+X`.q.U t._.oXOXoXoXoXoXoXoXoXoXoXoXoXoXoXoXoXXXXXoXoXoXoXoX'.oXoX'.'.`.`.N.N.N.M.n.c.j.i.i.d.j.B.N.N._._._._.`.`.`.`.`.`.`.`.`.`.`.`.`.`.'.`.oXoXoXoXoXoXoXoXoXoXoXB.i.S.oX'.M.t.p.r.r.P j 5 3 ; # , E V.8X:XD.D.D.XXoXoXXXXXoXV.x.S.`.`.`.`.`._.`.D.D.~.`.`.`.`.`.`.`.`.`.`.`.`.`.`.`.`.`.`.`.`.`.`.`.`.`.`.`.`.`.`.`.`.`.`.`.`.D.D.D.D.`.`.D.`.",
"`.`.`.`.`.`.`.`.`.`.`.`.`.`.`.`.`.`.`.`.D.D.`.`.`.`.`.`.`.`.`.`.`.`.D.D.D.D.D.D.S.S.V.V.V.V.N.u.R R U P C j 6 2 s a s w = < 5 z ,X8X8X8X*XD.oX`.`.`.`.`.`.`.`.`.`.`.`.`.`.`.`.`.`.`.`.`.`.`.`.`.`.D.D.`.`.`.`.`.`.`.`.`.`.`.`.`.`.`.`.`.`.XXoXoXOX%XOX$X=X-X-X;X:X:X2X2X2X2X2X2X2X2X2X2X2X2X2X2X2X2X2X:X;X;X;X;X:X;X;X;X;X;X-XOXoXoXoXoXoXOXOXOXOXOXOXOXOXXX`.C.V.XXoXOXOXS.6 , 1 3 s @.6.{ i ; S -.U.U.U.U.U.U.U.U.U.U.U.U.U.U.U.U.U.U.U.U.U.U.U.U.U.U.U.U.U.U.U.U.U.U.U.U.U.U.U.U.U.U.U.U.U.U.Y.Y.Y.Y.U.U.U.U.U.U.U.U.U.Y.Y.U.U.U.U.U.U.U.U.U.U.U.U.U.U.U.U.-.*.*.*.*.-.-.-.-.*.*.*.*.*.*.*.*.*.*.*.*.*.*.*.*.*.*.*.*.*.*.*.*.*.-.-.*.*.-.' R./.g.p.k.].,X6X:X6X6X6X:X6X:X6X6X8X6X6Xp.h F ; - - ; D !.+X+X+X+X`.q.U q._.XXoXoXoXoX+X+XoXoXoXoXoXoXXXXXoXoXXXXXoXoXoXoXoXXXXXXXK.oXoXoXoXoX'.`.`.`.`.~.N.c.c.M.N.N.N.V.S.S._._.`.`.`.`.`.`.`.`.`.`.`.`.'.'.oXoXoXoXoXoXoXoXoXoX`.j.y.N.'.`.M.p.p.r.r.n j 6 3 % # , E V.8X:XD.D.D.XXXXoXXXXXoXV.j._.~.n.d.s.q.l.~.D.D.C.`.`.`.`.`.`.`.`.`.`.`.`.`.`.`.`.`.`.`.`.`.`.`.`.`.`.`.`.`.`.`.`.`.`.`.`.D.D.D.D.`.`.`.`.",
"`.`.`.`.`.`.`.`.`.`.`.`.`.`.`.`.`.`.`.`.D.D.`.`.`.`.`.`.`.`.`.`.`.`.D.D.D.D.D.D.S.S.S.S.S.V.V.d.r.R U P z j 9 2 s a s 2 = 2 6 z ,X6X8X8X-XK.XX`.`.`.`.`.`.`.`.`.`.`.`.`.`.`.`.`.`.`.`.`.`.`.`.`.`.D.D.`.`.D.D.`.`.`.`.`.`.`.`.`.`.`.`.`.`.XXoXoXOX%XOXOXOXOX=X=X-X;X:X:X;X2X2X2X2X2X2X2X2X2X2X2X2X2X2X;X;X;X;X;X;X;X;X;X;X-XOXOXoXoXoXoXoXOXOXOXOXOXOXoXoXD.V.V.V.XXoXoXoXG.6 < 1 3 i @.6.{ i ; Z -.-.U.U.U.U.U.U.U.U.U.U.U.U.U.U.U.U.U.U.U.U.U.U.U.U.U.U.U.U.U.U.U.U.U.U.U.U.U.U.U.U.U.U.U.U.U.U.Y.Y.Y.U.U.U.U.Y.U.Y.U.Y.Y.Y.U.U.U.U.U.U.U.U.U.U.U.U.U.U.-.-.-.*.*.*.*.-.-.-.-.*.*.*.*.*.*.*.*.*.*.*.*.*.*.*.*.*.*.*.*.*.*.*.*.-.*.*.*.*.-.' R.[.).).{.,X<X7X7X6X6X6X6X8X6X6X8X6X6X<Xg.9 F : - - - D !.oX+X+X+X'.T n T N.D.D.`.XXXXoXoXoXoXoXXXoXoXoXoXoXoXoXoXoXXXXXXXXXXXXXoXXXoXoXK.XXXXK.K.XXXX`.XX`.`.S.V.N.V.S.V.S.S._._.S.`.`.`.`.`.`.`.`.`.`.`.'.`.'.oXoXoXXXXXoXoX'.`.`.j.t.n.`.`.M.p.p.r.r.P j 6 3 $ # , E N.6X:XD.D.D.XXXXXXXXXXXXV.d.t.c g g x g l M.`.C.D.D.D.D.D.D.D.`.`.`.`.`.`.`.`.`.`.`.`.`.`.`.`.`.`.`.`.`.`.`.`.`.`.`.`.`.`.D.D.D.D.`.`.`.`.",
"`.`.`.`.`.`.`.`.`.`.`.`.`.`.`.`.`.`.`.`.`.`.D.D.`.`.D.D.D.`.`.`.`.`.D.D.D.D.D.D.D.S.S.S.S.V.V.n.s.t.T U L j 6 2 i s s 2 @ 1 8 z 7X6X8X8X-XD.XX`.`.`.`.`.`.`.D.`.`.`.`.`.`.`.`.`.D.D.D.D.D.D.D.D.`.D.D.`.`.D.D.`.`.`.`.`.`.`.`.`.`.`.`.`.`.XXoXoXoXOXOXOXOXOXOX#X=X-X;X:X:X;X2X2X2X:X2X2X2X2X2X2X2X2X:X;X;X;X2X:X:X:X;X=X#XOXL.K.oXoXoXoXoXOXOXOXOXOXoXXXD.V.Z.V.`.oXoXXXoXG.6 < 1 3 i @.7. .i ; Z &.-.U.U.U.U.U.U.U.U.U.U.U.U.U.U.U.U.U.U.U.U.U.U.U.U.U.U.U.U.U.U.U.U.U.U.U.U.U.U.U.U.U.U.U.U.U.U.Y.Y.Y.U.U.U.U.U.U.U.Y.U.Y.Y.U.U.U.U.U.U.U.U.U.U.U.U.U.U.-.-.*.*.*.*.*.-.*.*.*.*.*.*.*.*.*.*.*.*.*.*.*.*.*.*.*.*.*.*.*.*.*.*.*.*.*.*.*.*.*.*.U.[.|.}.,X,X}.{.{.1X<X6X6X6X6X6X8X6X6X<Xk.9 F 2 - - - Z W.oXoXoXoX].R n T M.V.V.S.D.`.`.`.`.`.`.`.`.`.`.`.`.`.`.`.`.`.`.`.V.V.N.N.V.S.`.'.XX`.`.`.`.`.`.D.XXXX`.`.S.S.S.V.S.S._._.S.D.`.`.`.`.`.`.`.`.`.`.`.`.`.'.XXXX`.`.`.`.`.D.`.j.y.n.D._.M.p.p.r.q.P j 6 3 ; # , E m.:X:XD.C.C.XXXXXXXXXXXXV.i.d.r.Y v g g x t.V.P.D.`.D.D.D.`.`.`.`.`.`.`.`.`.`.`.`.`.`.`.`.`.`.`.`.`.`.`.`.`.`.`.`.`.`.`.`.D.D.D.D.`.`.`.`.",
"`.`.`.`.`.`.`.`.`.`.`.`.D.`.`.`.`.`.`.`.`.`.`.`.`.`.`.`.D.D.D.D.`.D.D.D.S.D.D.D.D.D.D.C.D.V.V.N.c.s.t.q.E k 7 2 i s s : @ 1 6 v 7X6X8X8X*XD.`.`.`.`.`.`.`.`.`.`.`.`.`.`.`.D.D.D.D.`.`.`.D.D.`.D.D.D.D.D.`.`.`.`.`.`.`.`.`.`.`.`.`.`.`.`.`.`.oXoXoXOXOXOXOXOXOX#XOX=X-X;X:X:X:X:X2X2X2X2X2X2X2X2X2X2X;X;X;X;X;X;X=X=XL.L.OXXXoXOXoXXXXXXXoXOXOXOXOXOXK.K.K.K.K.XXK.oXXXXXOXG.8 < 1 3 i @.rX .i ; Z &.-.-.U.U.U.U.U.U.U.U.U.U.U.U.U.U.U.U.U.Y.Y.Y.U.U.U.U.U.U.U.U.U.U.U.U.U.U.U.U.U.U.U.U.U.U.U.U.U.Y.U.Y.Y.Y.U.U.U.U.U.U.U.U.U.U.U.U.U.U.U.U.U.U.U.U.U.U.-.*.*.-.*.*.*.*.*.*.*.*.*.*.*.*.*.*.*.*.*.*.*.*.*.*.*.*.*.*.*.*.*.*.*.*.*.*.*.*.*.*.*.I.E.^.^.E.W.W.W.W.n._.<X:X6X6X6X8X2X6X<Xk.9 J y * - - B W.'.oXoXoX].r.v R n.V.Z.V.V.V.V.S.S.V.S.S.S.S.S.S.S.S.S.V.S.S.V.N.V.b.c.c.j.j.N._.`.'.`.`.`.XXXXXX`.`.`.`.`.`.`._.S.S.D.`.`.`.`.`.`.`.`.`.`.`.`.`.`.`.`.`.`.`.`.`.`.`.`.D._.c.y.c.D._.j.p.r.r.r.P j 6 3 $ # < R N.:X:XC.D.C.`.XXXXXXXXXXV.x.N.~.!.!.l.P f r.~.C.S.`.C.C.C.~.`.D.D.D.D.D.D.D.D.`.`.`.`.`.`.D.`.`.`.`.`.`.`.`.`.`.`.`.`.`.`.`.`.`.`.`.`.`.`.",
"`.`.`.D.`.`.`.`.`.`.`.`.D.`.`.`.`.`.`.`.`.`.`.`.D.D.D.D.D.D.D.D.`.`.`.S.S.S.D.D.D.D.D.C.D.V.V.N.n.d.p.r.E k 7 2 y s s : @ 1 6 v 7X6X8X8X*XD.`.`.`.`.`.`.`.`.`.`.`.`.`.`.`.`.D.D.`.`.`.`.D.`.D.D.D.D.D.D.D.D.`.`.`.`.`.`.`.`.D.`.`.`.`.`.`.`.`.oXoXOXoXoXoXOXOXOXOX#X=X=X#X=X-X-X;X;X;X;X;X;X;X;X=X=XOXOXOXoXK.K.XXXXK.XXXXXXXXoXOXOXOXOXOXOXOXOXOXOXOXOXOXOXOXOXOXoXoXoXOXM.8 < 1 3 i @.rX .i ; Z &.-.-.U.U.U.U.U.U.U.U.U.U.Y.U.Y.U.U.U.Y.Y.Y.Y.U.U.U.U.U.U.U.U.U.U.U.U.Y.U.U.U.U.Y.Y.Y.U.U.U.U.U.U.U.U.Y.U.U.U.U.U.U.U.U.U.U.U.U.U.U.U.U.U.U.U.U.U.U.U.-.*.*.*.*.*.*.*.*.*.*.*.*.*.*.*.*.*.*.*.*.*.*.*.*.*.*.*.*.*.*.*.*.*.*.*.*.*.*.*.*.*.*.*.' ' ' ' h.h.W.W.W.!.,X6X6X6X6X6X2X6X<Xk.8 s y & - : B k.`.oXXX]._.r.v U n.V.Z.V.S.V.V.V.S.S.V.V.V.V.V.V.S.V.V.V.V.V.N.N.N.M.M.s.q.q.s.n.V.S.`.`.'.`.XXXX`.`.`.`.`.`.`._.S.D.`.D.`.`.`.`.`.`.`.`.`.`.`.`.`.`.`.`.`.`.`.`.`.`.`.`.`.N.i.A.S._.j.p.p.p.r.P j 6 3 $ # < w.N.:X8XC.S.V.`.XXXXXXXXXXV.j.N.n.n.n.M.p.f E !.d.j.j.j.c._.D.C.D.C.D.D.D.D.`.`.`.`.`.`.`.S.D.`.`.`.`.`.`.`.`.`.`.`.`.`.`.`.`.`.`.`.`.`.`.`.",
"`.`.`.D.D.D.`.`.D.D.D.D.D.`.`.`.`.`.`.`.D.D.D.D.D.D.D.D.D.D.D.D.`.`.`.S.S.S.S.D.D.D.D.C.S.V.V.N.n.d.u.r.E k 7 2 y s y ; @ 1 6 v 7X6X8X8X*XD.`.`.`.`.`.`.`.`.`.`.`.`.`.`.`.`.`.`.`.`.`.`.D.`.D.D.D.D.D.D.D.D.`.`.`.`.`.`.`.`.D.`.`.`.`.`.`.`.`.XXoXOXoXoXOXOXOXOXOXOXOX#X#X#X#XOXOXOXOXOXOXOXOXOXOXK.K.K.K.K.K.oXXXXXXXXXXXXXOXoXOXOXOXOXOX#X#X#X#X#X#X#XOXOXOXOXoXoXoX+X`.y.1 < 1 3 i @.7. .i = A &.-.U.U.U.U.U.U.U.U.U.U.U.U.Y.Y.Y.U.U.Y.Y.Y.Y.U.U.U.U.U.U.U.U.U.U.U.Y.U.U.U.U.Y.Y.U.Y.U.U.U.U.U.U.U.U.U.U.U.U.U.U.U.U.U.U.U.U.U.U.U.U.U.U.U.U.U.U.-.-.*.*.*.*.*.*.*.*.*.*.*.*.*.*.*.*.*.*.*.*.*.*.*.*.*.*.*.*.*.*.*.*.*.*.*.*.*.' *.*.*.*.*.*.*.*.*.*.' ' h.R.R.W.,X6X6X6X6X6X:X6X<XE.6 u : * - : B f.`.D.`.].p.v z P W._._._.G._.~.~.V.V._._.S.S.V.V.V.V.V.N.V.N.N.N.!.l.t.U U q.d.n.b.b.V.S.'.'.XX`.`.`.`.`.`.`.`._.S.`.`.`.`.`.`.`.`.`.D.`.`.`.`.`.`.`.`.`.`.`.`.`.`.`.`.`.D.`.N.N.S._.j.s.p.p.r.Y j 6 3 $ # < r.N.:X8XD.V.V.`.XXXXXXXXXXN.d.N.M.M.M.N.s.k l R p.r.t.t.u.!.`.D.D.D.D.D.D.D.`.D.D.C.C.V.V.V.V.V.V.V.V.C.`.`.`.`.`.`.D.D.D.D.`.D.D.D.D.S.S.S.",
"`.`.D.D.`.D.`.`.D.D.D.D.D.`.`.`.`.`.`.`.D.D.D.D.D.D.D.D.D.D.D.D.`.D.S.D.S.S.D.D.`.D.D.D.D.V.V.N.m.d.u.t.I f 7 ; y y w - @ 1 6 v ,X6X8X8X*XD.D.`.`.`.`.`.`.`.`.`.`.`.`.`.`.`.`.`.`.`.`.`.D.D.`.D.D.D.D.D.`.`.`.`.`.`.`.`.`.D.D.D.`.`.`.`.`.`.D.`.XXoXoXoXOXOXOXOXOXOX#X#X#X#X#X#X#X#X#X#X*X@XOXOXOXOXOXOXOXOXOXOXOXoXOXOXOXOXOXOX=X=X#X#X=X=X-X-X=X#X=X#X#X#XOXOXoXXX`.C.A.m 1 < 1 3 i @.7. .i @ A &.-.-.U.U.U.U.U.U.U.U.U.U.U.U.Y.Y.U.U.U.U.Y.U.U.U.U.U.U.U.U.U.U.U.U.U.Y.Y.U.U.U.U.Y.Y.U.U.U.U.U.U.U.U.U.U.U.U.U.U.U.U.U.U.U.U.U.U.U.U.U.U.U.U.U.U.-.-.*.*.*.*.*.*.*.*.*.*.*.*.*.*.*.*.*.*.*.*.*.*.*.*.*.*.*.*.*.*.*.*.*.*.*.*.' ' *.*.' *.*.*.*.' ' ' ' ' ' h.' g.,X6X:X6X6X6X:X6X<XE.9 4 - # - - V p.V.C.`.j.c j j C ` Y m P P U q.B.N.N.m.n.c.N.N._.V.N.N.N.N.N.N.N.n.t.q.t.n._.N.b.c.b.b.b.V.S.`.`.`.oXoX`.`.`.`._.`.D.`.`.`.`.`.`.`.`.`.`.`.`.`.`.`.`.`.`.`.`.`.`.`.`.`.`.`.`._.`.S.S.j.s.p.p.r.E l 6 3 $ # < r.N.>X8XD.V.V.D.XXXX`.XXXXc.u.N.M.B.n.m.j.l k U t.r.t.t.t.d.j.c.N.N.C.D.D.D.D.C.C.V.V.V.N.N.m.b.c.b.b.V._.S.V.S.S.S.D.D.C.D.D.D.D.D.S.S.S.S.",
"`.`.`.`.D.D.D.D.D.D.D.D.`.`.`.`.`.`.`.D.D.D.D.D.D.D.D.D.D.D.`.`.D.D.S.S.D.D.D.D.C.C.C.C.S.S.N.n.l.j.p.r.P f 7 ; y y w * $ 1 f v ,X6X8X8X*X`.`.`.`.`.D.`.`.`.`.D.`.`.`.`.`.`.`.`.D.D.D.D.`.`.`.`.`.`.D.D.`.`.`.`.`.`.`.`.`.`.`.`.`.`.`.`.`.`.`.`.`.oXoXoX@X@X*X*X-X-X-X-X-X-X-X-X-X-X-X-X-X-X-X-X-X#X#X#X$X@XOXOX#X#X#X#X=X=X=X=X-X-X$X$X$X;X;X-X-X#XOXOXOXOXXXXXV.b.b.N.N.s.8 2 2 3 i @.rX .i # V &.*.-.U.U.Y.-.' *.-.U.U.U.U.U.U.U.U.U.U.U.U.U.U.U.U.U.U.U.U.U.U.U.U.U.U.Y.U.U.U.U.U.U.U.U.U.U.U.U.U.U.U.U.U.U.U.U.U.U.U.U.U.U.U.U.U.U.U.-.-.U.U.U.-.-.-.-.*.*.*.*.*.*.*.*.*.*.*.*.*.*.*.*.*.*.*.*.*.*.*.*.*.&.*.*.*.*.*.*.*.*.*.' ' *.*.*.*.' ' ' ' ' ' ] ' ' ' k.,X6X6X8X6X6X:X7X<XW.9 2 * # - : V p.N.C.`.q.c x f f 6 6 8 8 f g v j.N.M.p.T q.m m s.!.!.!.!.!.!.l.t.q.u.M.G._._.S.S.S.V.N.V.N.N.N.N.V.V.V.S.S.`.`.D.S.S.D.D.`.`.`.D.`.`.`.`.`.`.`.`.`.`.`.`.`.`.`.`.`.`.`.`.`.`.S._._.~.n.s.p.t.r.E x 6 3 ; # < r.N.>X8XD.V.V.D.`.`.`.`.`.u.T M.m.c.c.b.l.x k t.M.c.n.d.u.t.y.t.y.u.i.c.b.N.V.V.V.V.V.V.V.V.V.V.V.b.V.V.N.m.b.b.b.N.b.V.V.D.D.D.D.D.S.D.D.D.",
"`.D.`.`.D.D.D.D.D.D.D.D.D.D.D.D.D.`.`.D.D.D.D.D.D.D.D.D.D.D.D.D.D.D.S.S.D.D.D.D.C.D.S.N.d.r.E L L P R r.P f 7 ; y y : * # 1 f n ,X6X8X8X*X`.`.`.`.`.`.`.`.`.D.D.`.`.`.`.`.`.`.`.D.D.D.D.`.`.`.`.`.`.S.S.`.`.`.`.D.D.D.`.`.`.`.`.`.`.`.`.D.`.`.`.`.`.`.oXoXoXoXOXOXOX@X$X=X=X%X%X=X=X-X-X-X-X=X=X#X-X-X-X@X@XOX@X$X$X$X$X-X-X-X-X-X-X$X$X#XOXOXOXOXoXK.K.D.D.V.Z.b.c.b.N.V.j.8 < 2 3 i @.7.+.y # V &.*.-.U.U.Y.&.' &.-.-.-.U.-.-.U.U.U.U.-.-.-.-.U.U.U.U.-.-.-.-.-.-.U.U.U.U.-.-.-.-.-.U.U.U.U.U.-.U.U.-.U.U.U.U.U.U.U.U.U.-.-.U.Y.Y.-.-.U.U.Y.Y.Y.Y.-.-.-.&.' &.&.&.&.*.*.*.&.&.&.*.*.&.*.*.*.*.*.*.*.*.*.*.*.*.*.*.*.*.*.*.*.*.' *.*.&.*.*.' ' ' ' ' ' ' ' ' ' ] k.,X<X,X'.b.'.:X7X>XW.9 2 * # - : N s.`.XX`.!.p.z g f k k k x x x m M.V.N.q.e.q.r.m q.t.t.t.r.^ U n n t.N._.S.S._._._.`._.S.S.V.N.N.N.V.V.S._.S.S.D.D.S.S.D.D.`.D.D.`.`.`.`.`.`.`.`.`.`.`.`.`.`.`.`.`.`.`.`.`.D.`.S._._.N.j.s.p.p.r.E l h 3 $ # < r.N.>X8XD.V.V.D.`.`.`.D.`.u.m M.n.c.c.c.k.x x !._.`.`.`._.V.V.V.N.N.N.b.b.Z.V.V.C.D.D.C.D.C.S.D.D.D.S.V.V.V.V.N.b.b.b.V.S.S.D.D.D.D.D.D.D.D.",
"D.D.D.D.D.D.D.D.D.D.D.D.D.D.D.D.`.`.`.`.D.D.D.D.D.D.D.D.D.D.D.D.S.D.D.D.D.D.S.S.S.M.p.n c x h 6 5 6 K r.P 6 3 ; y y : * # 1 f v ,X6X6X8X*X`.`.D.`.`.`.`.D.D.D.D.D.D.D.`.`.`.`.`.D.D.D.D.`.`.`.`.`.`.`.`.`.`.`.`.D.D.D.D.`.`.`.`.`.`.`.`.D.D.`.`.`.`.`.`.`.D.D.D.D.K.K.K.K.K.K.K.XXXXXXXXoXoXoXoXoXoXOXOXoXoXoXoXOXOXOXOXoXoXoXoXoXoXXXXXXXXXK.K.D.D.D.D.S.S.V.N.b.A.n.N.V.f.8 2 2 3 i @.7.+.i # V &.*.U.U.U.Y.*.' _ &.;.;.-.-.-.-.-.U.-.-.-.-.-.-.-.-.-.-.-.-.-.-.-.-.-.-.-.-.U.Y.-.-.-.U.U.U.U.-.-.-.-.-.-.U.U.-.-.-.-.-.-.-.-.-.;.;.;.;.;.-.-.&.' / W G H D H H H G W ` _ &.&.*.&.&.*.&.&.&.&.*.*.*.*.*.&.&.&.*.*.*.*.*.*.*.*.&.&.' _ _ _ W W I W Q Q ` ` ` [ h.[.,X*XN.N.N.`.<X7X,XE.9 $ o * * > h j.+XoXoX`._.Y x v U Y U Y U T d.N._.A.c.G._._.!.M.n.s.M c x v Y k.N.N.S.S._._._._.`.S.S._._._.S.S._._._._.S.S.D.D.S.S.S.D.`.S.S.D.`.D.`.D.`.`.`.`.`.`.`.`.`.`.`.`.`.`.`.`.D.D.S._._.N.j.s.p.p.r.U l h 3 $ # < p.V.-X<XC.b.b.C.`.`.D.D.`.u.v k.n.j.l.M.p.f v ~.V.D.D.D.D.D.D.D.D.D.C.`.D.C.D.D.D.`.D.D.D.D.D.D.D.D.D.D.D.D.V.V.N.V.V.D.`.S.S.D.S.S.S.S.D.D.",
"D.D.D.D.D.D.D.D.D.D.D.D.D.D.D.D.`.`.`.`.`.D.D.D.D.D.D.D.D.D.S.S.S.S.D.D.S.D.S.S.j.Y z j l l B 6 6 f C ^ L 6 3 ; y y : * # 1 f v ,X6X6X8X*X`.`.D.`.`.`.`.D.D.D.D.D.`.`.`.`.`.`.D.D.D.D.D.`.`.`.`.S.S.S.S.`.`.`.`.D.D.D.D.D.`.`.`.D.D.D.D.D.D.`.`.`.`.`.`.`.`.D.D.D.D.D.D.D.D.D.D.D.D.D.D.D.D.D.D.D.D.K.K.D.D.D.D.D.D.D.D.`.`.`.`.`.`.D.D.D.`.`.D.`.`.D.D.C.V.V.V.m.c.N.N.V.f.1 < 1 3 i @.7.@.y # V &.*.U.U.U.Y.' W D W / ' *.-.-.U.U.-.-.-.-.-.-.-.-.-.-.-.-.-.-.-.-.-.-.-.-.' ' ' *.-.-.U.U.U.U.-.*.*.-.U.U.-.-.-.-.-.*.&.&.' _ ' ' _ _ / / D D D D C B Z Z Z Z Z B Z Z Z H W W _ _ _ _ ` _ ' &.&.&.&.&.&.&.' ' &.&.&.&.*.*.*.' _ ` W D D H D D I I W W I I I ` E.[.{._._.].].].*X>X<Xk.9 $ o & & - h l.+X'.oXXXb.P k Y l.n.c.n.M.N.Z.C._.V.S.D.S.D.D.D.`.~.t.U R s.!.S.V.S.V.C.S.S.S.S.S._._.S._._.S.S.S.S._._.D.S.D.`.S.S.S.D.S.D.S.S.S._._.S.S.S.D.S.D.`.`.D.`.`.`.`.`.`.`.`.D.D.S._.V.M.M.f.p.t.T P x h 3 @ # < f.V.-X<XC.b.b.C.`.`.`.D.`.n.v m n.M.M.l.n g n ~.S.D.C.D.D.S.S.D.D.D.`.D.D.D.`.`.`.`.D.D.D.D.D.D.D.`.D.D.D.D.C.`.V.C.S.S.S.D.`.D.S.S.S.S.`.`.",
"`.`.`.`.`.`.`.`.`.`.`.`.`.`.`.`.`.`.`.`.D.D.D.D.D.D.D.D.D.D.D.D.S.S.S.S._.D.D.b.T v C l l l l B B x L R K 6 3 ; w w ; # @ 1 6 z ,X8X8X8X*XD.`.`.`.`.`.`.`.`.`.`.`.`.`.`.D.D.D.D.`.`.`.`.D.D.D.S.V.b.N.N.N.V.`.`.`.`.D.D.D.D.`.`.`.`.`.`.`.`.`.`.`.`.`.`.D.`.D.D.`.`.`.`.`.`.`.`.`.`.`.`.`.`.`.D.`.`.`.`.`.`.`.`.`.`.`.`.`.`.`.`.`.`.`.`.`.`.`.`.`.D.S.S.V.V.V.N.m.c.N.V.S.f.1 < 1 0 i ,.7.,.i # V &.*.U.Y.Y.Y./ H D S D D D G / _ &.-.*.&._ _ _ _ _ _ _ ` ` ` W W H Z Z D D B Z C H W _ &.&.' _ _ _ _ &.&.&.*.;.&._ W D D H H D D D D D D D D D Z Z Z Z Z Z D D A A D D D D H H G W W W H W _ &.&.&._ W W _ &.&.' ' ' ' ' ' ' ' W H H H H H D W D D D W W W ` ' R.).,X+X+X,X,X,X&X*X`.W.5 @ o & * : B M.+XoXoX].j.Y x U n.!._._.c.b.b.V.C.D.S.S.C.D.D.D.D.S._._._._.~.~.S.S.V.S.V.V.V.S._.S.S._._._._.S.S.S.S.S.D.D.D.D.D.D.D.D._._._._.`._._._.S.S.S.S._._._._.D.D.D.D.D.`.`.D.`.`._._.N.M.n.j.s.r.P K x h 3 @ # < f.V.-X:XC.b.b.V.D.D.`.C.V.n.k.c c Y L k 6 8 R `.C.C.D.D.D.D.D.D.D.D.D.D.D.D.D.D.D.D.D.D.D.C.D.D.D.D.C.C.D.D.D.D.D.C.D.D.D.D.D.D.S.S.V.V.V.V.",
"`.`.`.`.`.`.`.`.D.D.D.D.D.S.S.S.D.D.D.D.S.S.S.S.D.D.S.D.D.S.S.D.S.S.S.S.S.D.V.n.T L z z z x x C C l K E L 6 2 ; 2 2 - # @ 1 f z ,X8X8X8X*XD.`.`.`.`.S.S.`.`.`.`.`.`.`.`.D.D.D.D.`.`.`.`.D.D.D.S.N.b.N.N.m.N.V.`.`.D.D.D.D.D.`.`.`.`.`.`.`.`.`.`.D.D.D.D.D.D.D.D.D.D.D.D.`.`.D.D.`.`.`.`.`.`.`.`.`.`.`.`.`.`.`.`.`.`.`.`.`.`.`.`.`.`.`.`.`.`.`.`.`.D.S.S.V.V.V.N.m.c.N.V.`.s.1 < 1 3 s ,.6.,.i # V &.*.-.Y.Y.Y.G D Z Z Z Z Z A A B D G / / / / W _ _ _ _ &.&.' &.&.&._ D D D D D Z A A D D D D D D D D G W W _ ' ' / H D D D D D D D Z Z D D D D D D Z Z D / / W W W W / / / / / / W W W W W _ ' &.&._ W W W &.&.' ' ' ' ' ' &.' _ _ _ _ _ / W W W / _ ' &.*.I.h.W.!.,X7X7X6X6X7X7X,X+Xg.5 @ o o * > V M.`.oXoX].d.P K P T T Y U T p.j.N.V.V.V.S.S.S.S.S.S.V.V.~.S.V.S.S.S.S.S.S._._.`.`._.S.S._._._._._.S.S.S.S.S.S.S.S.D.D.D.D._._._._._._._._.S.S.S.S._._._._.D.D.S.D.S.`.`.S.S.`._.N.N.n.n.j.s.r.v z x h 1 # # < f.V.-X<XZ.c.c.V.`.D.`.D.D.c.n.Y 1 1 8 8 k P !.V.C.C.D.D.D.D.D.D.D.D.D.D.D.D.D.D.D.D.C.D.D.D.D.D.C.C.C.C.C.C.V.C.V.V.V.V.V.V.V.V.N.b.c.c.c.c.",
"`.`.`.`.D.D.D.D.D.D.D.D.D.S.S.D.`.`.D.D.`.`.`.`.S.S.S.S.S.S.S.S.S.S.S.S.C.C.N.l.U P I E E P K C C C L I C 6 2 % : : - # # 3 f z ,X8X8X8X,XD.`.`.`.`.`.`.`.`.`.`.`.`.`.`.D.D.D.D.`.`.`.`.D.`.S.V.N.c.c.c.n.c.b.N.V.S.`.`.D.D.`.`.`.`.`.`.`.`.`.`.D.D.D.D.D.D.D.D.D.D.D.D.D.D.D.D.D.`.`.`.`.`.`.`.`.`.`.D.S.`.`.D.D.`.D.D.`.`.`.`.`.`.`.S.`.`.`.`.D.S.S.V.V.V.V.N.m.N.S.S.`.f.1 2 1 3 s ,.6.,.i # V &.*.-.Y.Y.Y.D Z B V V V V Z Z V V A A B D W W G W H H / _ _ _ _ _ &.%./ D D D Z Z D D D D D H H D G W / / W W W W G D G G G G G G D D D D D G G H G / %.%.&.&.&.%.&.&.&.&.%.%._ _ _ _ _ _ ' &.&.&.&.&.' ' &.&.&.&.&.' ' ' ' &.&.&._ _ / / / _ _ _ ' &.*.*.' ' W.|.,X6X6X6X6X6X6X<X,Xk.5 # o o & & h n.`.'.'.+Xj.M z L z x k 6 k I r.l.N.S.V.C.S.S.S.S.S.S.S.~.S.S.S.S.S.S.S.S.V.V.V.S.S._._.S._._._._.S.S.S.S.S.S.S.S.D.D.D.S._._._.S.S.S.S.S.S.S.S.S._._._._.S.S._.S._.S.S.S._._.N.N.n.n.n.l.k.T v l j h 2 # # < r.N.*X<Xb.c.c.N.`.`.`.D.D.c.t.r.U R t.j.N._.~.D.D.D.D.D.D.D.D.D.D.D.D.D.D.D.D.D.D.D.~.~.`.C.V.V.V.V.V.V.V.N.N.N.N.V.N.N.N.b.c.c.c.c.n.c.c.c.",
"D.D.D.D.D.D.D.D.`.`.`.`.D.`.`.`.V.V.V.V.S.V.S.S.S.S.S.S.S.S.S.D.D.S.S.S.C.D.N.q.U E E R R E I K z K L I C 6 2 % ; : - # # 3 f z ,X8X8X8X>XD.`.D.S.S.D.`.`.D.`.`.`.`.`.`.D.D.D.D.D.D.`.D.D.`.S.V.c.c.c.c.j.j.c.c.b.V.S.D.D.`.`.`.`.`.D.`.`.`.D.S.S.S.S.D.D.D.D.D.D.D.D.`.D.D.D.D.D.D.D.D.D.D.`.`.D.D.D.D.S.`.`.S._._.S.S.D.D.D.D.`.`.S.S.`.D.D.`.D.S.S.V.V.V.V.N.b.N._.S._.f.1 2 1 3 s ,.7.<.i # V %.*.Y.U.U.;.W C B B V V V V j V V V V h B G G G G G G D D D B Z Z B B D D Z D D D H H G G G G / _ %.&.&.&.' ' ' _ %.%.%.%.&.&.&.&.&.&.&.%._ _ &.&.%.&.%.' ' ' &.' ' ' &.%.%.%.' =.' _ %.&.' ' ' &.&.' ' ' &.' ' ' ' ' ' ' ' &.' ` I W W W _ _ ' ' ' &.' ' ' ' W.}.,X6X6X6X6X6X6X<X>XE.5 # o o & & h n.`.'.`.]._.q.c x j 6 1 < 1 j P p.c.S.V.~.S.S.S.S.S.V.V.V.V.S.S.S.S.S.S.S._._._._.S._._.S._._._._.S.S.S.S.S.S.S.S.S.S.S.D._._.S.S.S.S.S.S.V.~.~.~.S.S.S.S._._._._._._._._._.N.N.n.M.M.M.M.p.U v l l h 2 # # $ r.N.@X>Xi.u.u.N.`.`.`.D.`.c.y.s.!.V.D.S.S.C.C.C.D.D.D.D.D.D.C.D.C.D.D.D.D.D.D.D.D.`.`.~.V.V.V.N.m.m.m.m.m.c.c.c.c.c.c.c.c.c.c.c.c.c.c.c.c.c.",
"`.D.D.`.D.S.S.S.S.S.D.D._.`.S.V.V.V.S.V.S.S.S.S._.S.S.S.V.V.V.V.S.S.V.V.V.N.c.u.p.r.E E E E P C C L L I C 6 2 * - : ; # @ 1 f z ,X8X6X6X-XD.`.S.D.D.D.D.S.S.S.D.D.D.D.D.D.D.D.D.D.D.D.D.D.D.S.N.c.d.d.d.j.j.j.c.c.B.V.D.D.`.D.`.S.S.S.D.`.S.D.`.`.D.D.`.D.`.`.`.`.`.`.`.`.`.`.`.D.D.D.D.S.S.D.D.S.S.S.S._._._.S.D.S.S.S.S.S.S.S.D.D.D.D.C.C.D.S.D.S.V.V._.V.N.N.n.M._.V._.f.1 < 2 3 s <.rX<.i # u %.*.U.U.U.U.-.&.%.%._ _ %.%.%.%._ / W H C Z D D D S S D Z Z Z Z Z Z B Z D / _ _ _ _ _ _ _ %._ &.&.&.&.&.&.&.&.&.' &.&.&.&.&.&.&.&.' ' &.&.&.&.&.&.&.&.%.%.%.&.&.&.&.&._ ' ' ' _ _ _ =._ &._ =.&.&.%._ _ _ &.' ' ' ' _ _ _ _ _ / I W W W G W / _ ` / _ ` / / I r.}.<X6X6X6X6X6X<X:X<Xl.5 @ o o & & h j.D.`.`.`.`.!.r.v f 1 , , 1 1 f Y p.M._._.S.S.S.S.c.i.i.j.M.S.S.V.S.S.S.S.S.S.S.S._._._._.S.S.S.S.S.S.S.S.S.S.S.S.S.S.S.S.D.S.S._._.V.V.V.~.~._.S.S.S.S.S.S.V.V.S._.V.V.S.N.M.M.M.l.n.M.!.^ P z z x 9 2 = # $ r.N.oX,Xm v r.`.C.S.~.`.`.`.l.t.n.V.S.D.V.C.C.C.C.C.`.S.D.S.C.C.C.C.D.D.D.D.D.D.S.S.~.d.q.d.n.c.c.c.c.c.d.d.d.d.d.j.d.c.A.A.d.d.c.c.j.j.j.j.",
"V.V.S.V.S.S.S.S.S.D.D.D.D.S.V.V.!.s.t.r.r.t.p.s.j.n.N.!.!.~.N.N.N.N.N.N.b.c.c.j.d.s.R E Y I L C C C L I C 5 2 - - : ; # @ 1 f z }.6X6X6X*XV._.S.S.S.S.S.S.S._._.S.D.`.`.`.`.`.`.`.`.D.S.D.D._.N.d.d.d.d.d.d.j.j.c.c.N.V.D.D.D.D.S.S.S.S.`.D.C.`.`.D.D.D.D.D.D.D.D.D.D.D.S.S.S.V.S.S.S.S.S.N.N.N.N.N.N.N.N.N._._.S.S.S._.~.~._._._.N.N._.~.V.V.V._._.~.~.N.N.N.N.n.M._.V.`.f.1 < 2 3 s <.pX2.r # u %.-.Y.Y.U.-.;.(.(.Y.Y.Y.Y.Y.Y.Y.Y.Y.Y.;.-._ D h h V 9 u u u u B D G W / %.&.&._ _ %.&.&.&.&.&.&.&.&.&.&.&.&.&.' ' &.&.&.&.' ' &.&._ _ &.&.&.&.&.&.&.&.%.%.%.%._ _ _ _ _ _ _ _ _ _ _ _ _ _ _ _ _ _ _ _ %._ _ %.' _ ` W W / _ _ W D G D H D G W W W W _ ` / I ` W.,X7X6X6X6X6X6X<X:X,Xk.5 @ o o & & 6 s.V.~.`.`.C.V.!.k.R K k 8 1 < 8 j Y p.n.V.V.V.N.c.p.r.r.r.u.c.N.V.V.S.S.S.S.S.S.S.S.S.S.S.S.S.S.S._._.S.S.S.S.S.S.S.S._._._.!.M.l.l.M.M.!.!.!.V.V.S.S.S.S.S.S.S.S.S.S.S.b.N.N.M.c.j.n.M.l.Y K C C j 9 ; * @ @ r.N.D.*Xr.c r.~.XXD.D.C.D.D.~.t.d.~.C.D.C.C.`.`.~.C.C.C.D.F.C.C.C.C.D.C.C.C.C.C.`.V.d.T T q.s.d.d.u.p.y.t.t.u.u.s.u.s.s.s.s.s.s.d.d.d.d.d.d.",
"`.`.`.`.`.`.`.`._._._._.S._.!.f.U c c z v v n n n m U T t.p.s.s.s.u.u.u.t.u.u.s.d.p.E I Y I L C C z L I C 5 ; # - : ; # @ 1 h x ).6X:X6XoXb.M.N.N.N.N.N.N.N.N.N.N.V.V.V.V.S.S.S._.`._.S.S._._.c.s.s.s.d.d.d.d.j.n.n.N.N.G.N.N.N._._.N.N.!.!.!.!.N.M.M.N.M.M.n.n.M.M.B.c.l.j.j.j.f.f.p.p.p.r.r.r.r.r.r.r.r.r.r.r.r.r.r.r.r.r.r.r.r.r.r.r.t.y.u.c.M.n.c.j.j.j.j.c.j.c.N.V.].r.< < 3 y a 2.aX2.q # u %.-.;.' _ _ _ *.Y.T.Y.T.T.Y.T.T.Y.Y.T.Y.Y.Y.Y.W h 9 u 9 9 9 V D / %.%.%.%._ ' ' ' ' ' &._ &.&.&.&.&.&.' ' &.&.' ' ' ' ' ' ' ' ' ' _ _ &.&.&.&.&.%.%._ _ _ _ _ _ _ _ _ _ _ / _ _ _ / / / / / _ _ _ _ _ %._ _ _ _ W H W W W W W W W / W W / _ _ _ _ _ ' ' ` p.).,X<X6X6X6X:X6X:X:X>X}.p.5 @ o o & & 7 t.m.V.V.V.V.V.m.n.n.s.r.Y l 6 5 9 C E t.d.j.j.s.t.T T Y R r.s.N._.V.S.S.S.S.S.S.S.S.S.S.S.S.S.S.S.S.S.S.S._.S.V.V.V.N.l.q.n v c c c v n P r.p.s.l.M.M.n.j.M.M.n.n.c.B.M.M.!.M.j.j.l.n.l.T L C C C h 2 # # # @ R ~.D.XX].q.m q.u.c.!._.N.N._.r.q.!.!.!.!.N.!.!.~.~.`.`._._._._._._._.`._.~.N.N.n.d.R Y Y U t.s.s.s.u.q.t.r.R E E ^ r.t.t.p.u.u.u.u.i.i.d.A.",
"R R R r.p.p.k.k.l.l.l.n.M.f.r.P z v L L P P P U U U U U m T T ^ q.q.r.p.p.s.f.p.R U P P L L L C C z C L j 1 ; # - : ; # # 2 6 j T ,X8X6XoXc.j.j.j.j.j.j.j.c.c.c.b.b.b.b.c.b.b.b.b.N.N.V.V.S._.j.s.d.s.s.s.d.d.j.j.l.j.j.f.s.p.p.r.r.r.R R R T R E E E E E Y Y Y I P P n z z z z x x z z x x x x x x x x x x l l z z z z n P Y Y Y T R T T r.t.s.s.s.u.u.u.s.s.s.s.j.c.N.~.n @ 2 1 y a 6.gX2.q # u ) &._ _ / / / / &.Y.Y.Y.Y.Y.Y.Y.Y.Y.Y.T.Y.Y.U.Y._ Z J V V D / _ _ _ _ _ &.&.' _ _ _ ' ' _ &.&.' ' &.&.' ' &.&.' ' ' ' ' ' ' ' &.' _ _ %.=.=.=.%.%._ _ _ _ _ _ _ _ _ _ _ W W / W W W W / / W _ _ _ _ _ _ _ / W H G W W W W / / _ _ _ ' _ ` / _ _ ' ' ' R.E._.,X,X<X:X6X6X:X6X:X:X>XG.L 1 = * - & & 5 T d.c.c.n.n.n.n.A.x.i.d.s.R K j j l L U R ^ r.^ Y U U U U T t.l.M.N.N.V.V.V.V.V.V.V.V.V.V.S.S.S.V.S.V.V.V.N.b.b.b.c.j.p.v z C C C z z C C L P U R r.r.p.r.p.p.p.p.p.p.k.l.k.p.r.p.p.f.R v z C C B 1 @ # # o % z j.N.!.l.k.T n n v n E p.k.p.z x z v P P n n U U Y R q.q.r.t.t.t.t.t.p.q.T U Y U P n n U E r.p.r.R P P L z f 6 8 6 6 h h j C C C C C C L I ",
"f f f f f f k l z z z z z x x x z z v v n U U Y Y Y Y Y U T R ^ r.r.r.r.R U L C z z C C C C C l C B B h 5 2 # % - : : * # < 5 j v p.}.*X_.s.f.f.p.p.p.p.p.p.s.s.s.s.d.d.f.f.f.f.j.f.f.f.f.s.s.u.s.s.p.p.r.r.^ R R E E Y I L L z C C z C z z z z z z z z z z z z C C C z C C C C C C l l l l l l l l l l l l z z z z L P Y Y E E E E R R r.r.t.s.s.s.s.s.s.s.s.s.s.s.l.!.n.f $ < 3 y a 6.gX<.: # 9 / ) / / / / / / / &.;.Y.Y.Y.Y.Y.Y.Y.Y.U.Y.Y.;.%._ %._ / / / / ` ` _ &.&._ _ ' _ _ _ _ ' ' ' ' ' ' ' ' ' ' ' ' ' _ _ _ _ _ _ %.%._ _ _ ' ' _ _ _ _ _ _ _ _ _ _ _ _ _ / W W G G W W W W W W W W W W W W W W W W W W / / W ` W W ` ] h.I.U.U.U.U.^ ^ U.E.).{.{.,X,X<X<X6X6X6X7X<X<X].I h 2 @ ; q p > < C r.s.i.i.d.d.i.i.u.u.u.t.r.Y K C z z K P P P P P P P P P n Y T r.t.p.s.s.s.s.s.d.j.l.n.n.M.N.N.N.!.!.M.n.l.s.u.u.p.r.E n C C H H H L L L L K L P P P P P P P P Y Y E E E E I I P L K z l z x h 1 @ @ # # # ; 5 k l l x x z x x j k h j C f 8 8 6 v K K K L v v v v v v v v v v v v v v K K v K P n P E E E Y z k j j 6 8 1 < < < , , @ @ @ , , , , , < < ",
"h h f h 9 9 9 9 9 h h h j j x C z z P E E E E E E E E R R E Y P L K z x x k j j j j j j j h f h 9 6 5 3 1 2 - - y i i q - ; 1 9 C l z n K K C Z C K z C z z v n C C C C n n L L z n L L L n L Y Y L z z l k h 6 6 6 h h h k k k l l l l z z z z K K K K z z z z z z K K n K K z z K K K K z z K v v n n n v n n P U U U Y U T T Y Y T ^ q.t.p.u.s.p.t.t.t.t.p.t.u.i.n.l.z 1 $ 1 3 y a 6.pX#.- # 7 ~ %./ / / / W W W / _ *.Y.U.Y.Y.Y.Y.Y.R.(.&.h , @ u ~ / W W / / / G A H %.&.' ' ' ' ' ' ' ' ' ' ' ' ' &.&.' ' ' ' ' ' ' ' ' ' ' ' ' ' ' _ _ _ _ _ _ _ _ _ _ _ / / / W W W W G W W G W W W W W W W W W W W W W W W W W / / ' (.[.}.3X0X0X0X0X.X[.[.[.{.{.}.,X<X<X<X<X<X<X<X<X*X_.R h 3 @ = : q @.i # 8 z E R r.r.r.r.r.r.r.^ Y Y L z l l l l l l l l l l l x l l l x x l z z z z z z z z L L Y Y E ^ ^ ` E I L C C l l x k h 6 6 8 8 6 6 h h j C C C C C C C C L L L L L L L v K K C C z C C C h 5 2 @ # # # # # # < 5 6 6 h k h h k k j j h f 8 8 6 Q E E E E E E U U P P P P P P P P P P P P Y E E E Y Y P P z x x j 9 8 < 1 2 < < < < < < < < < 2 1 2 < < < ",
"5 5 5 5 5 5 5 5 5 5 6 6 5 7 6 6 6 6 f h h h h h h h h h j f 6 6 5 5 5 5 5 5 5 5 5 5 7 7 7 7 7 3 3 3 2 2 ; ; ; q a O.O.i : : @ 2 6 N j B j j j j j h h f 6 9 h h h h f f 9 9 9 9 9 9 9 9 9 9 V B j j f 6 8 1 1 5 8 6 h k j j x C z z z z l l l l z z z C C z z z z K K K L L L L P P P P P P P I P P Y Y U U U U Y Y Y Y Y T T T U T T T R R R R T T R R R r.r.r.p.f.^ k < $ $ 1 3 y a 5.tX@.> # 2 u H ~ / / / / / / / / _ &.&.&.;.&.;.;.;.%.3 . # # . 3 F H H H Z 7 @ . # u %.&.&.&.%.%._ / / / / / / / / / W G G G G G G G G G H H H H H H Z Z Z Z Z Z S Z Z Z Z Z Z Z Z Z Z Z Z Z Z Z S S F F S S S H D D D D Z Z Z Z Z Z H W ` ` [ ] ] ^ ^ E ` ` E ^ ^ p.g.k.l.M.M.M.!.W.f.q.z 6 2 * = - - r @.@.: $ < 8 8 6 h h h k k k j h f 6 6 6 7 6 6 6 6 5 5 5 5 5 5 5 5 5 5 5 5 1 1 1 1 1 1 1 1 1 1 1 1 1 1 1 1 1 1 1 1 1 1 1 1 1 1 3 3 3 3 3 3 5 5 5 5 6 9 h j j j j j j j j l C C C B j j h h 6 5 1 2 @ # # # # # # # o @ 3 7 9 h h h h h h j h h h h h C L L L L P P P P P P P P P P P P P P P L L L L L z v z z l j h 6 1 < < $ $ $ $ $ $ < < 2 2 2 2 1 1 1 1 1 1 ",
"@ @ @ @ @ # . . . . . @ . . . . # # . . . . . . # # # # # # # # # # # # # # # # # # @ @ # # # % # # # # # # : i O.#.<.+.i q ; = $ 2 2 3 3 5 5 5 5 5 5 5 7 7 5 5 5 5 1 1 1 1 < 1 2 < $ $ @ @ $ @ $ < < ; < < 4 2 4 3 5 6 9 h h h h h h h h h h h 9 6 6 6 7 5 5 5 5 5 5 5 6 6 6 6 6 6 6 9 9 9 9 h h h j C l l C Z C C C C C C L L L K K K K K z z z K L L L L L C x 9 < @ ; $ ; 4 3 y a #.7.+.&   o # ; u H ~ H Z V V V V u u u 9 9 9 3 3 2 @ . # . . #   # = @ # . . . # .   1 V u u 9 3 3 4 < < 2 < $ @ @ @ @ @ @ # # # # @ # # # # # # # # # . # # # # # # # # # @ @ @ # # # @ @ @ @ @ = = @ @ @ @ @ @ @ @ @ @ @ @ @ $ $ $ @ @ # # @ @ @ @ @ @ $ $ $ < < 3 3 3 5 7 9 6 5 5 3 < @ # o o # * - i o.<.{ - ; @ @ @ # @ @ @ @ @ @ = = = @ @ @ @ , , , , , , @ , , @ , $ $ $ < < , < < < < , 2 2 2 < 2 2 2 2 2 1 2 2 < 1 1 1 1 1 1 1 1 1 1 3 5 5 5 5 7 5 5 5 6 6 6 6 6 6 6 6 6 6 6 6 5 3 1 < < @ @ @ @ # @ # # # # % # o # 2 6 9 h h j j j j h h h j x j j j j x x x j j j j x x x x x x x x x l j j j j j j j j 9 5 1 < @ @ @ @ = * % $ @ @ 2 2 2 2 2 3 3 3 3 3 3 3 ",
"# # o # # # # # o o o o o . o o o # # # o o o o o # # # o o o o . . o o o o o o o o o o o o o o o o o & # # - y a { { a y : - # o # # # $ $ $ $ $ $ $ $ $ $ @ @ # # # # # # # # # # # # . . . . . . . . . o . . o o . . # # # @ @ @ @ @ @ @ @ # # # # # # # # # o o o o o o o o o o o o . . . # . . . . . . . . @ @ @ @ @ @ @ @ @ @ @ @ @ @ @ @ @ @ @ @ # # # . # # @ @ @ $ $ 2 2 2 i @.3.@.& o # # X X = ; $ # . . . .                     o o . . . . o     X o # o o . .             X X X X X o o   . . o o # o o o o o o o o o # # o o o o o o o o o o o o o o o o o o o o o o o o . . . . o . . o . o . . . . . . . . . o o o o o o o o o o o o o   X o o     o # . . o o # # # # # - : } ,.,.2.y # ; @ @ * - @ @ % $ ; ; ; @ @ @ @ @ @ @ $ $ $ $ $ @ @ @ @ @ @ @ @ @ @ ; $ ; ; ; $ $ 2 2 < < < < 2 2 2 2 2 2 2 2 < 2 < < 2 1 3 3 3 3 1 1 3 3 5 5 3 3 3 3 1 1 1 1 < < < < $ $ $ @ @ @ @ $ @ # # # o o o o o o o % 3 7 7 6 5 5 5 5 5 5 5 5 5 5 5 5 5 5 5 5 6 6 9 9 9 9 9 9 9 6 6 5 7 7 7 7 5 3 3 1 3 < $ $ $ $ @ @ $ # # # # # # # # # # # # . . # # # # # ",
"# o o o # # # # o o o # o o o o o o o o o o o o o o o o o o o o o . o o o # o o o o o # o o o o o o o o o % % - : : - - * # # # & # % # o # # # # # # # # # # # # # # # # % - % % # # # # o o o o o # # o o o o o # # # # # # # o o o o o o o # # # # # # # # # # # # o # # # # o o o o o o # # o o o o o o o o o o # # # # # # o # # # # # # # # * * * % % - - @ @ ; ; @ @ ; @ ; * y @.7.@.> o o o o o X   . . . # # # o o # o o o o o o o o o . o .   o # o o o X o o     . . # # # # o o # # o # # o # # # # # o o o o o o o o # # # # # o o o o o o o o o o o o o o o # # o o o o # o o o . o o o o o o o o # # # # # # o # # # o o o o o o o # # # o o # # # # # # # # * # # # # @ = : r ..,.,.,.<.y * ; @ = # @ @ @ @ @ @ # @ @ @ @ @ @ @ @ @ @ @ @ # # # # # # # @ @ @ @ ; ; ; @ @ @ $ @ $ $ $ @ # # % @ # # # # # # # # # @ # $ @ @ @ @ $ $ $ $ $ $ $ $ @ @ @ @ @ @ @ # # # # # # # # @ # # # - q s O.{ - o o # # # @ @ # # # # # # # # # # # # o o # # # # # # # # # # @ @ @ @ ; @ # # # # # # # # % # # # # # # o . . . . .   . .                   O ",
"# # o o o o o o o o o o o o o o o o o o o o o X o o o o o o o o o o o o o o o o o o o o o o o o o o o o & & > > & & & > > : - - > & - % - - - % # # # # * # # # # # * * * - ; - % % o o # # # # # # # # o o o o o o # # o o o o o o o o o o o o o o o o o # o o * * o o o o o o o o o o o o o o o & o & & & & & & & & & & & > > & & & & & & & & & & * - - - - - - - * * * * * * - : p 3.rX@.: & o o o o # o # # # # # # # # # # # # # # # # # # # # # # # # # # # # # o X X X X o o # # o o o o X o o o o o # o o o o o o # # # o o o # # # # # o o o o o o o o o o o o o o o o o o o o o o o o o o o o o o o o # # # # # # # # # # o o o o o # # # # # # o o o o o o o o o * * * * - - q i ..,.+.,.,.2.2.p : > * * * # = = = = # = = @ # # # # # # # # * * * * * * # # * * - - - - # # # # # # # # # # o o o o o o o o . . . o o o o o o o o o o o o o o o o o . o o o o o o o # # # # # # # # # * o i @.<.<.5. .O o o + o # # o o o & & * * & & & & & * * * * o o o o o o o o o o o o o o o o o o o o o o o o . o o o o o o o o o o o o o o o o # # # o o o o ",
"o o o o o o o o o o o o o o o o o o o o o o o o o o o o o o o o o o o - > > > > > : : r r y y y p p p p { { { {  . . . ... . . . .s : - # # # # # # # # # # o o o o o o o o o o o o o o o o o o o o o o o o o o o o . . . O O O .   .   O o o o o o + o o o o o o o o o o o X O O O O O O O O O         O O X X       . o o o o . . o . o o o o o # o o * # o o o o * * * * * : i { <.aXvX6.q & # * - - - - - - - - - - - - - - ; - - ; - - ; ; ; ; ; ; ; ; ; ; ; ; - - - - - - * = = ; - - - - - - - - ; ; ; ; - - - - # # # # - - - - - ; ; ; ; ; ; ; ; ; ; ; ; : : : ; - - ; ; - - - - - - - * * * - - - - - * - * - - - - - - - - - - - - - - - - - - - - - - - - - r i i i i i p }  .@...+.+...o.,.1.4.@.{ i q : : - - - # # # # # # # # # # # # # o o o o o o # # # # - - - - % o o o o o o o o o o o X X X X             X X X X X X X X X X X o o o o o # # # # o o o o o o o o X X X X o o i +.,.<.<.<.@.- O o o o o # # # o X o o o o o # # # & & & & * # # # o o o o o o o o o o o o o o o o o o o o o o o o o o o o o o o o o # * * * - - * * * & & ",
"p p p a p p p p p p { { { { { { { } p p s p p p p p p p } { { { {  . . . .......+.@.@.@.,.,.,.,.,.,.<.2.2.3.3.3.4.2.2.1.1.,.,.,.,.,. .i r r r r y r r r r r t t t t t i p p p p p p p p p i i i i i y y r r r y i i p p { { p p p p i i i y r q q : : : : q r r r i i y r r y p a a { { {  . . . . . . . . . . . .{ { { {  . . . . . . . .{ {  ...@.@.@.,.@.@.@.@.@.@.@.@.,.2.7.pXhXbXDXJXDX2.r - - - : : : : : : : 2 2 2 w w w w 2 w w y w 2 2 : : : w 2 2 w w 2 2 2 2 : : : : : : : : : : : : 2 2 2 2 : : : w q : 2 : : : : : : : : : : : : : 2 2 w w w y y y y y y y y y y y y y y y y y y y y y y y w q y y r q q q q q q q q q q q : : q q q : : q : q q q q w w y {  . . . . ...+.........+.+.+.,.,.1.4.4.2.,.+..... .{ p y r r q q : : : : : q y a ..@.2.6.7.tXpXpXpXpXaXpXpX7.2.#.+.O.O.a s i y y y y r r r q r r y y y y y i i y y y y y r : : * # # # & o o o - - : : q q y y y y i i a +.6.6.6.6.2.2.<.O.i y q : : - : : q q q q q q : : : : > : : - : : : : : q : > & * & * o o & > > - : : : : : q q q q q q q q q r r r y r y i i i i i r i i i i ",
"1.1.1.1.2.2.2.1.2.<.<.<.2.2.2.2.4.4.4.1.,.,.,.1.,.,.,.<.4.4.2.2.2.2.4.4.2.4.4.4.4.4.4.2.3.4.3.7.5.5.0.0.>.5.5.<.,.,.,.1.<.4.3.6.rXsXdXaXaXdXdXdXzXzXzXzXzXzXzXzXzXdXdXdXdXdXdXsXsXaXaXsXyXyXyXyXrXyXyXyXrXrXrXpXsXsXaXaXaXsXsXsXsXsXaXaXsXsXsXpXyXrX3.3.3.rXyXpXpXpXyXyXyXyXpXsXaXtXyXrXrXuXuX3.3.3.3.3.3.6.3.6.6.6.6.6.6.6.3.3.3.3.3.3.3.3.3.3.3.rXrXrXrXyXrXyXpXpXsXsXaXhXxXbXDXHXHXPXKXHXDXpX6.#.+.O.a a { { a s s s s s s s i i i i s s s s i i s s i y y y y y y y y y y w 2 2 2 2 w y y y y y y y y y y y y y w 2 2 : : : : : 2 2 2 2 w w y y w y w w y y y y y y y y y y y y y y y y y i i y i i i i s s s a { { { { { O. . .{ { { { { p i i y y y i i y i i y i  .{ } { { { { { {  .X.X. . . ...+.,.,.,.,.1.1.<.4.3.3.7.rXyXsXaXaXaXgXgXgXhXxXbXNXJXHXJXHXHXHXHXHXHXHXHXHXHXDXbXvXzXzXzXzXhXhXgXhXhXhXhXhXzXzXzXzXzXvXbXbXbXbXbXbXbXbXvXvXxXhXaXaXtXyXtXrX7.6.2.5.5.6.7.tXtX8.7.6.6.6.8.8.tXtXfXhXhXzXvXxXxXxXhXpX6.#.#.<.<.2.7.tXpXaXgXaXaXaXaXsXpXpXpXpXaXhXhXgX6.5.O.s i i a O.#.2.2.2.6.7.rXtXtXtXtXtXtXtXtXtXtXpXsXaXgXzXxXvXbXMXNXDXDXDXDXDXNXbXbX",
"2.2.3.3.3.3.7.rXrXrXrXrXrXrXrXrXrXrXrXrXrXrXtXtXpXyXtXpXpXpXfXfXfXkXkXkXkXkXkXfXkXkXkXgXkXfXfX X(./..X.X.X4XkXkXhXxXvXvXbXbXbXNXDXDXGXGXDXDXGXGXDXDXDXDXDXDXDXDXDXDXGXGXGXGXnXnXnXnXzXaXsXsXaXsXsXsXsXpXpXyXyXpXsXsXsXsXsXsXsXsXpXpXsXaXsXsXsXsXsXsXsXsXsXsXsXsXsXaXsXsXsXsXsXyXrX3.4.1.1.4.3.3.3.4.4.4.2.1.1.1.1.1.1.1.1.,.,.,.,.,.,.@.@.@.@.,.1.4.3.rXsXaXdXzXzXxXvXnXNXDXJXHXPXIXIXPXLXHXDXNXNXbXhXaX8.6.2.<.<.#.+.O.O.O.O.O. . . . .O.O.O.O.O.| | { a a a s s s s s s a { { { { {  .| O. .{ { {  . . . . .{ { { a s s y y 0 2 w y y y y y y i i s i i y y i i s i a a s i y y i i i i i i i i i i s i a a a { O.+.O.O.O.O.O.+.+.+.+.+.+.+.@.@.@.@.+.@.@.,.<.@.@.<.2.2.2.2.,.,.,.,.,.,.,.,.,.,.,.,.,.,.,.,.1.<.2.3.rXtXaXzXxXnXbXDXDXJXJXHXHXKXPXPXPXPXPXKXKXPXPXPXPXKXPXPXPXPXHXHXHXJXJXJXDXDXDXDXDXDXDXDXDXNXNXNXDXDXDXDXDXJXJXDXDXDXDXDXDXDXDXDXDXDXDXDXDXbXxXhXhXgXgXgXhXgXpXpX7.2.<.#.#.#.+.#.6.6.7.bXJXDXDXbXzX7.} i i a +.@.2.7.pXzXvXnXnXnXnXnXnXnXvXvXvXvXhX6.O.s a a a a { O.<.7.pXhXhXzXnXJXHXLXLXLXLXPXPXPXPXPXPXPXPXPXPXPXHXJXJXDXDXDXDXDXDXDXDX",
"8.8.tXtXpXpXpXpXpXpXpXaXaXaXaXaXaXhXzXzXpX8.8.5.>. X5X4X4XlXlXlXCXCXCXlXlXlXlXlXlXlXlXlX4X4X.X4X0X0XqX6X0X0XCXCXVXBXBXBXBXBXBXBXBXBXBXBXNXNXBXNXDXDXDXDXJXDXDXDXDXDXDXDXDXDXDXNXbXbXxXzXhXgXaXaXaXaXaXgXhXhXxXvXvXvXvXvXvXvXvXvXxXzXgXgXdXaXsXsXsXsXsXsXsXaXzXzXsXsXsXsXsXsXsXzXrX1.1.<.2.6.<.<.2.pXgXhXzXzXhXgXgXgXgXzXzXxXxXzXzXhXaXaXaXaXaXgXgXzXbXHXLXPXPXLXPXPXPXIXIXIXIXPXFXMXxXxXxXxXxXbXNXDXFXJXJXJXFXNXzXtXtX6.2.2.2.2.2.2.2.2.2.2.2.6.5.2.<.+. .a a a { { | O.O.5.pXgXpXtXrXrXrXtXtXtXtXsXsXaXaXaXaXaXaXaXaX7.#.| J J u u J J F O.F O.O.O.O.O.$.#.5.6.8.tXpXgXhXgXtX6.#.{ a a { { O.O.@.6.7.8.tXtXtX7.<.+. . . .{ { { { { {  . .2.zXzXhXhXhXhXhXzXgXaXtXpXpXsXaXaXpXaXgXgXgXgXgXhXzXzXhXhXzXzXzXzXzXxXvXMXNXNXFXJXHXHXFXJXJXHXHXHXHXLXHXHXHXLXLXLXLXLXLXLXLXLXLXLXLXLXLXHXJXJXFXDXDXDXDXDXDXDXDXDXNXNXNXNXDXDXDXDXJXJXDXDXDXDXNXMXvXvXxXhXgXaXpXtXrX7.5.@.O.{ a a { { a i i y 2 : : : : : y O.2.aXNXDXDXDXbXgX7.6.5.<.5.6.7.7.tXhXxXnXnXnXnXnXnXbXvXvXvXhXpXtXpX6.O.O.| | #.8.5.5.#.<.6.hXvXNXFXJXJXJXHXJXJXJXJXJXJXJXJXJXJXJXJXDXJXHXJXHXLXLXLXLXLXLX",
"jXlXlXlXlXlXkX8.fXhXzXzXzXzXxXxXvXnXvX7.$.~ G [ z.[.7X0X0X7X7X,X}.,X0X0X0X0X0X7X7X7X0X0X}.}.}.7X,X,X,X&X,X,X7X7X4X4X4X4X4X4XlXCXCXCXCXCXCXCXCXCXVXVXVXVXVXVXVXVXVXVXVXVXVXVXjXVXmXmXlXlXlXlXlXVXVXmXBXBXBXZXZXZXZXBXBXBXBXBXBXBXBXmXmXmXvXxXxXhXgXgXzXzXxXjXpX5.gXgXaXdXzXbXDXJXaX@.,.,.2.O.a s <.LXLXPXPXLXPXPXPXPXPXPXPXPXPXPXPXPXPXPXDXbXbXbXMXNXLXIXIXIXIXIXIXIXIXIXIXIXFX0.O.F F F $.#.5.5.8.fXgXjXjXmXJXPXFXgXfXtX6.6.6.6.8.fXhXgXgXhXhXhXhXaXaX6.@. .a a F F O.0.0.jXLXJXJXHXLXLXLXLXLXLXLXHXHXHXHXHXLXLXHXHXFXMXhX0.~ H H F H :.kXmXBXBXJXFXBXBXMXMXNXNXNXFXFXDXJXDXDXDXNXvXhXhXjXjXjXxXvXmXmXmXBXBXmXVXkXkXkX X X X X X X X5X5XfXjXVXVXVXVXVXjXjXVXjXkXkXkXkXgXkXjXjXjXjXjXVXxXmXmXNXNXBXNXDXDXFXFXJXJXLXLXLXLXLXJXMXNXJXJXJXHXHXLXJXNXFXJXHXLXHXHXHXLXLXLXLXPXPXLXLXLXLXHXJXJXDXDXDXDXDXDXDXDXDXDXDXNXbXvXhXgXpXtXtX8.8.6.5.5.5.#.#.#.#.#.#.#.<.<.<.#.#.#.$.#.#.#.#.<.#.#.#.#.#.O.O.a | O.8.mXJXJXJXFXNXMXxXjXjXkXfXfX8.5.8.fXhXvXNXNXNXNXNXDXDXFXFXFXFXMXMXMXxXjX X0.:.~ 0.kX5X X>.#.gXBXBXFXFXJXLXLXLXLXLXLXLXLXLXLXLXLXLXLXLXLXLXLXLXLXLXLXLXLXLXJX",
"kX5X5X5X X5X5X XxXvXnXnXbXbXnXnXbXnXxX2.~ D p._.D.D.K.K.D.S.V.N.N.N.B.j.B.N.S.S._.].{.).M.s.y.q.y.u.x.x.b.N.G.G._.].,X7X6XqXqXqXqXqXqX6X7X,X{.[._.M.l.l.l.l.l.W.M.!.).).^.^.^.[.4X4X.X.X.X.X4X0X0X0XCXCXCXCXCXCXCXCX0X0X0X0X0X0X4X4X4X.X.X.X.X.X.X.X.X.X.X.X;.H VXZXBXNXDXJXDXJXdX@.+.p s u u V ~ VXBXMXfX$.5.jXmXxXjXgXfXfXfXgXgXjXjX8.0.:.:.0.:.9.kXVXBXBXUXLXLXLXLXLXLXmX$.u J F F H ~ / %./ / %.%.%.%.:.>.kXkX(.>.:.:.:.:.:.:. XkX XiXiXiXfXkXfXfXpX9.$.J J J J F $.$.9.ZXLXLXLXBXmXkXfXkXmXLXLXLXLXLXLXLXPXLXLXLXJXmX5X>._ / _ &.(.VXLXIXIXIXIXPXPXLXJXjX5X5XkXjXjXkXMXNXMXNXMXBXVXkXlXkX5XlX4X4XlXlXlX0X0X0X0X0X4X4X0X0X0X0X4X4X4X4X4X4X4X.X.X4X4X.X.X.X.X.X.X4X4X4X4X4X4XlXlXlXlXlXlXVXVXZXZXZXLXLXLXLXLXLXLXLXLXLX5.O.0.BXFXBXBXZXBX>.$.0.mXLXLXLXLXLXLXLXLXLXLXLXLXLXLXLXLXLXHXHXJXFXFXNXNXDXDXDXDXNXbXNXgX+.@.#.#.#.#.#.<.2.5.6.tXgXjXxXbXMXMXNXNXNXNXNXNXNXNXNXNXNXNXNXNXNXNXNXMXNXNXNXDXDXJXJXJXJXgX5.#.$.$.$.$.$.~ ~ $.$.$.:.5.fXjXjXjXmXxXVXVXVXjXjXjXkX5X9.:.G H H H H / >.>.>.:.>. X X X X XiXkXkXkX X X9.>.>.9.5XlXVXVXVXkX:.:.%.:.:.:.:.:.0.0.",
"D / _ _ &.' ' >.5XkXhXhX7.aXbXnXnXnXxX#.J r.Z.D.D.D.F.S.S.t.m m r.u.s.j.j.y.H.H.q.t.r.Y U U q.q.y.t.t.i.A.b.D.*X6X8XqXqXqXqXqXqX8X8X6X-X'.B.i.x.b.`.`.`.D.D.`.'.K.XXXXoXK.K.OXOXoXoXoXoXOXOXOXOXOX%X%X*X*X*X*X*X*XoXoXoXOXOXoXoXoXoXoXoXoXK.K.K.oXoXoXoXOX@Xl.I CXSXZXCXVXmXDXJXzX.. .2 0 V D ~ H ~ %.$.S A V %.>.>.:.:.:.:.;.;.:.%.H G G G G W W W _ _ ;.;.;.;.:.:.:.:.%.G H G / / _ &.-.-.I.I.U.U.U.I.-.-.-.' ` ' -.-.-.-.*._ ' &.:.:.:.>.5X X(.>.;.&.%./ H Z Z D D D H H :. X X>.~ J V V u u 9.LXBXlXkX X5XVXZXZXZX5X>.-.' ' ' ' -.' (.BXLXLXIXLXLXZXZXVX X(.Y.(.(.:.$.9.mXmXmXjX XH W _ ` ^ ` ` ] g.W.{.,X*X*X}.}.{.].{._.].].}.}.,X,X,X}.{.{.{._.).).{.).).).).^.W.E.k.f.p.r.r.r.r.r.p.g.k.^..X.X4XlXCXZXZXLXLXLXLXSX XY./.(./..X.X.X/.^./.).4X0X0X0X0X0X0X0X0X0XCXCXCXCXCXCXCXCXCXCXVXlXlXlXmXvXbXNXNXNXbXMXMX8.5.<.xXxXzXxXvXnXbXbXNXNXNXNXbXbXvXxXxXjXjXjXxXvXMXNXNXNXNXNXMXBXMXMXMXMXMXmXMXNXNXBXNXBXjX0.$.$.$.~ %.%.%.%.%.%.%.%.$.~ $.$.$.:.:.:.%.%.%.:.:.) ~ G G W W G W / G D ~ H G D C Z A A A Z Z A Z D G G G / G G G H / / W W W H H I ` _ _ Q _ ",
"' -.-.-.-.U.U.*.' _ %.~ s #.vXbXbXbXhXO.Z c.J.F.D.D.D.D.V.H.m v z v n T T m T m P n m m T q.r.t.i.b.S.+X<X6XqXqXqXqX9X8X8X8X8X6X%X>X%XF.S.Z.Z.oX&X6X:X:X>X-X-X=X=X%X%X%X*XOX*XOXOXOXOX#X%X%XOXOXOXOXOX%XOXOXOXOXOXOXL.L.OXOXOXOXoXOXOXoXOXOXoXoXOXOXoXoXoX*Xj.P 0XwX7X*X,X>.hXNXzX..s 3 u ~ / _ _ _ _ _ _ _ _ &.Y.Y.Y.Y.Y.Y.Y.Y.;.' / I G G W / ` _ *.-.U.U.-.-.;.-.-.;.-.-.-.-.;.Y.-.-.U.-.-.-.-.-.-.-.U.U.Y.Y.Y.U.U.Y.Y.Y.*._ _ &.&.&.-.T././.Y.Y.-.` ' ' ' / W D D D G W D D H D G H D D Z H :.(.;.;.-.-._ / &.;.;.-.' h.p.' ' ' ' ' [ ;. XlXlXlX X;.T././.[.^.E.Y.H F s 9.lX X%.Z 8 h h f f 6 f k x z ^ !.].].].+XXX'.].*X<X<X<X*X*X+X'._.S._._.!.M.!.l.s.t.q.R T U m q.r.t.u.s.j.l.m.~._._.D.S._._._.{.{.}..X0X0X0X7X,X{._.'.*X*X*X*X*X*X*X*X%XoXoXK.K.K.K.D.D.D.D.`.`.D.D.S.S.S.`.D._.{.[./. XjXvXbXbXDXDXMXpX#.#.$.8.gXfXgXgXkXfXiX8.5.0.:.$.O.F F J J J J J F $.:.:.0.:.:.:.$.$.$.$.F F F F F $.$.O.~ ~ ~ H H H H G G ~ ~ ~ ~ / / ~ ~ $.~ / %.~ ~ ~ ~ ~ ~ ~ ~ ~ G G G G G G G G D D D B B A A Z A Z Z Z A Z G / / / / / / / G ~ / _ _ _ _ ` _ ' *.*.*.*.",
"U.U.U.U.U.U.U.U.U.' -.' Z F gXMXbXMXtXF D b.D.F.F.F.D.D.C.t.m v z z v U m n n n n m e.H.i.b.D.%X:X8X8XqXqXqX8X8X9X6X:X>X-XF.u.M m *X:X;X=X;X:X2X:X:X:X:X:X:X:X:X;X-X=X#X#X#X=X=XOXOX#XOX%X%X%X%X%X%X%X%XOXOXOXOXOXOXOXOXOXOXOXOXOXOXOXOXOXOXOXOXOXOXoXoXOXOXc.Y }.7X8X6X`.U.9.zXsX{ y 9 Z W _ _ _ _ _ _ _ _ _ ' -.Y.Y.Y.U.U.U.U.;._ W G G G G / ' *.*.-.-.U.U.U.U.U.U.U.U.U.U.U.U.U.-.U.-.-.-.-.U.-.-.U.U.U.U.U.U.U.U.U.Y.Y.&.W W _ %.&.*.*.*.Y.T.Y.U.' W W ` ' ' _ W W W W W W W W W ` _ ' &.Y.T.T./././././.' ` ' ' U.U.T.E.E.g.h.h.' ' [ ` -.R.(.T.` E.[.).[.).^.U.D 5 2 u / Z h 6 f f 6 f 6 6 9 h h x c m y.d.~.@X<X6X8X8X8X:X-X*X'.V.N.c.i.u.t.y.q.T U U q.t.s.s.l.n.N.N.S.S.S._._.`.`.`.`.XXoXoXoXXXXXoXoXoXoXoXoX%X%X*X-X-X-X%X%X%X%XOXOXOXOXOXOXOXOXoXOXoX`.`.'.K.K.K.K.D.D.D.D.'.`.'.'.p.S $.jXNXNXMX8.a : ; 2 3 u u u u 9 9 9 7 7 7 7 9 9 9 u u u N V V N u u 9 N V V V V V V V V V V V V V V V V V V A B V V V V V N N 9 9 9 u N N V V V V V V V V V V V V N h B H W G G G G G G G G H S D Z B B B V B B G / / / G D A V V V D G _ ' ' _ &.&.*.*.*.*.",
"U.U.U.U.U.U.U.U.U.U.U.U._ u #.fXhXfX5.$./ b.D.F.F.F.C.C.C.b.q.v z z v n n n n m H.b.'.*X6X8X8X8X8X8X:X>X-X*XoXK.F.b.A.p.P v m j.F.>X:X>X:X:X:X:X:X:X:X:X:X:X:X:X:X;X;X-X=X=X=X=X#X#X#X#X=X%X%X%XOX%X%X%XOXOXOXOXOXOXOXOXOXOXOXOXOXOXOXOXOXOXOXOXOXOX%XoXK.OXB.T ,X}.i._.|.h.$.dXrXi y u H / _ _ _ _ _ _ _ _ _ &.-.;.;.Y.Y.Y.U.-.-.&.W G G G W _ &.-.-.U.;.Y.U.U.U.U.U.U.U.U.U.U.U.U.U.U.U.U.U.U.U.-.-.U.U.U.U.U.U.U.U.U.U.Y.&.H H G / / _ ` _ _ &.-.-./ Z B B Z W _ _ _ _ _ _ _ ` -.U.U.R.T.R.U.U.T././.^././.T._ ` ` ` Q ` R.W.^.E.h.' ' I.h.^ ` ` ` ` E.[.!.).).^.U.B < < 6 ^ ] L z l x x x x x z L I t.j.S.+X<X8XqXqXqXqXqX8X*X`.c.t.q.m m U e.q.y.t.u.d.n.n.N.N.V.V.V.V.C.D.D.D.D.`.D.D.D.D.`.`.`.`.`.`.'.oXoXoX*X*X*X*X-X-X-X-X*X*X%X%X%X%X%XOXOXOXoXoXD.S.D.`.D.D.F.D.D.D.`.`.D.D.`.`.`.S.R B u O.jXxXjXs : 2 3 3 7 7 9 u u u u h V V A A A Z Z F S Z D D Z Z A A V V V V A A B B A A A A N N V V V V V V B B B Z B D D D D D Z B A A A V V V h h h h N N h h B Z G W _ _ / / / / / _ _ / / / / ~ S Z Z B B V D / _ W B V V V V V N h C W _ &.*.*.*.-.-.-.",
"U.U.U.*.U.U.I.U.U.h.U.' -.%.J F | O.:.$.` b.Z.S.C.D.D.D.D.N.s.n z z z n K z P ).,X,X*X'._.n.i.y.q.m M n M v v v c x g c q.N.-X2X:X;X:X>X;X:X:X:X:X:X:X:X:X:X:X;X;X;X-X-X-X-X=X=X=X=X=X=X=X=X%X%XOXOX%X=XOXOXOXOXOXOXOXOXOXOXOXOXOXOXOXOXOXOXOXOXOXOXOXoXoXOXb.q.7XeX].M n K V 2.2.r 2 u H / _ _ _ _ _ _ _ _ ' *.;.;.Y.;.;.-.-.-.-.&.W G G G W %.&.&.*.&.&.*.U.U.U.U.U.U.U.U.U.U.-.*.-.U.U.U.U.U.U.U.-.U.U.U.U.U.-.-.U.U.U.-.' H H G G W W G G G G G G D Z Z B B B B B D W / _ &.' U.U.U.R.R.R.R.U.T././.^.[./.Y._ _ _ _ _ ` W.).[.W.g.h.h.h.U.U.' ' ` ' R.).!.!.W.W.' h 2 @ C }.<X6X7X&X*X*X,X7X6XqXqXqXwXwXeXeXwXwXqXqXqXqXqX8X*Xb.A.i.u.u.u.d.c.c.c.N.V.V.D.`.oXoXoXOXOXOXOXOXK.K.K.K.D.D.D.D.`.`.`.`.`.`.`.`.oXoX@X*X*X*X-X-X-X-X-X-X%X=X%X%X-X-X%XOXD.Z.b.b.Z.D.`.oXD.D.D.D.`.`.`.`.`.D.D.D.T 5 w s 8. XkX$.3 3 7 7 7 9 u V B B D H G G G G H / / / / / / W G G G G H H H H G G / / / / / G D B B B V B D G / _ _ _ _ _ _ _ %.%._ / G G / / / W W G D H H D G G W _ _ _ _ _ / G H D D G / / _ _ _ _ / D D D Z B D / _ / B V V V V V N V N V A G ` ' *.-.-.-.",
"*.*.*.*.*.*.*.*.h.U.h.h.U.Y.&.u 3 F 0.$.W b.S.S.Z.Z.b.b.b.u.R z x x x x k k z M n v v g g g g f f f f g g g g g c m i.K.:X:X;X=X-X-X-X-X;X;X;X;X:X:X:X:X:X:X;X;X-X-X-X-X-X-X=X#X=X=X=X#X=X=X%X%XOXOX#X#X%XOXOXOXOXOXOXOXOXOXOXOXOXOXOXOXoXOXOXOXOXOXoXoXoXoXV.y.,XwXeX{.n C u | @.: 4 9 H W _ _ _ _ _ _ _ _ ' *.*.*.&.' &.' _ _ _ _ W G H G W _ _ _ ` Q ` _ *.U.U.U.U.U.U.U.U.U.` D W / ' &.-.-.-.U.U.U.U.U.U.U.-.-.U.U.-.-.&.W G H G W W W W G G S S D Z Z B Z D D D Z C C C H ' -.U.Y.Y.U.Y.Y.T.T.^./././.E.' _ _ _ _ &.U.W.[.[.!.E.g.' ` ` ' ' ' ` _ R.).!.!.!.W.' 9 : = h r.'.6X8XqXeXeXeXeXeXqXqXwXqXqXqXwXqXqXqXqXqXqXqX8X8X>X*X+XoXoXoX+XOX*X*X*X*X*X%X-X*X*X-X%XOXOX+X+XoX`.`.`.`.`.`.`.`.`.D.D.D.D.`.oXoXoX@X*X*X-X-X-X-X-X-X-X-X=X%X%X*X-XOXoXD.D.`.D.`.D.D.D.D.D.D.D.`.`.D.D.`.D.S.S.r.1 2 u 8.fXkX:.9 9 7 9 6 9 V Z D W %.&.&.&.&.&.' ' &.&.&._ _ _ _ &.&.%.' ' ' &.&.&.&.%.%._ _ / / G G / / %.&.;.&.&.&.&.*.&.&.&.*.&.&.&.%.G D W _ ' ' ' &._ _ _ _ _ _ _ ' _ _ _ / W D D D D W / _ _ _ _ _ / / / / W W _ _ _ G Z V V V V V V V u u V B I ' ' ' ' ",
"I.I.*.I.I.I.*.*.h.I.I.U.U.U.;.G 0 $.9.$.Q B.c.i.i.t.t.t.T c k g k g z M v v c g c M m q.t.p.s.f.f.f.u.u.u.u.u.x.b.oX>X:X:X=X=X=X;X;X;X-X;X;X-X-X-X-X-X;X:X;X-X-X-X-X-X=X=X=X=X=X%X=X%XOX=X=X%XOXOXOX%XOX=X=X=X%XOXOXOXOXOXOXOXOXOXOXOXOXoXOXOXOXoXoX+X'.'.].G.i.7XeXeX0Xp.C N s F w : 9 H ~ / _ / _ _ ' ' &.*.*.&.&.&.&._ _ _ W / W G G G D D W W W ` _ ' ' -.U.U.U.U.U.U.U.U.U._ H D H G / &.;.-.-.-.U.U.U.U.-.-.-.-.-.-.;.-.&.' _ _ _ _ _ / W G H H H D D D ~ _ _ _ _ _ _ _ &.&.' ' ` ` ` _ _ &.*.U././.R.' _ _ _ _ _ -.R.).).[.).W.E.' I I ` h.' ` Q R.).!.).W.W.' 9 2 = 5 g m }.qXqXqXqXqX9XqXqXqXqXqXqX9XqXqXqXqXqXqXqX9X8X8X8X:X:X:X:X<X<X-X-X-X-X-X-X-X%X%X%XOXoXOXoXoX`.K.D.D.`.`.`.`.`.D.S.S.S.S.`.D.oXoXoX%X*X*X-X>X>X-X-X-X-X>X*X*X*X*X*X@XoXoXD.D.D.D.D.D.D.D.D.D.D.D.D.D.D.D.D.S._.r.1 2 w 8.fXfX>.u 9 h 9 9 V D / ' &.&.&.&.-.-.-.*.-.&._ / G G G / _ &.' &.&.&.&.&.&.&.&.&.&.&.&.&.&.&.&.&.&.&.&.&.&.&.&.&.' _ &.&.&.&.' ' / D A / &.*.' ' ' ' ' _ &._ &.' _ _ / / / / ) / / / _ _ _ _ _ / / ` _ _ _ _ / / _ _ / G B B B B V V V V V j C _ _ _ _ ",
"h.R.E.E.R.h.' I.h.U.*.*.I.' -.G s 9.0.$._ M.u.q.y.y.q.q.M g c n T s._.]._.j.u.j.S.oX*X-X;X;X;X=X-X-X-X-X*XOXOX@X*X-X-X;X;X;X-X=X-X;X-X-X;X;X;X;X-X-X-X-X-X-X-X-X-X-X=X=X=X=X=X#X=X=X=X%X=X=X%XOXOXOX%XOXOXOXOXOXOXOXOXOXOXOXOXOXOXOXOXOXOXOXoXoXoXoXN.u.i.N.N.c.0XeXeXqXl.L V u s y ; 9 H / / W / &.-.-.-.-.-.*.*.&.&._ / W W W G G G D G W / ` _ &.*.-.-.-.-.U.U.U.U.U.U.U.-.-._ D D G D G _ -.-.-.-.-.-.-.-.-.-.-.-.-.-.-.-.-.;.;.;.;.;.-.&.&.&.&.&.&.&.&.;.;.;.;.;.;.;.;.-.&.*.' ' *.*.*.*.&.&.' ' U.T.-._ _ _ _ _ ' *.W.).[.[.).).W.E.h.` ` h.U.[ ` R.^.!.W.W.W.' 9 ; ; 3 f k n M.7XqXqXwXwXqXqXqXwXqXwXwXqXqXqX9X9X8X8X8X8X:X:X<X<X<X-X-X*X*XOXOXOXOXOXoXoXXXXXXXXXK.K.D.D.D.D.D.D.`.`._._._._.~.V.V.S.D.`.'.oX+X*X*X*X*X*X*X*X*XOXoXoXoXoXXXXXXXD.D.D.D.D.D.D.D.D.D.D.D.D.D.D.S.S.V.V.S.S.R 1 2 w 8.kXfX X>.;.%.Z V / %.&.*.-.-.-.-.-.-.-.*.&._ W G W W W / _ &.&.&.&.&.&.&.&.&.&.&.&.&.&.&.&.&.&.&.&.&.&.&./ G D D Z Z D G _ ' &.' _ G A Z _ *.&.*.&.&.' &.&.&.&.' _ / D B B B Z D H G / / / / / / / / ` _ _ _ _ _ _ _ _ / / W G G G G G G G W _ ' ' &.&.",
"[.[.[.[.[.E.g.h.h.' ' ' ' h.-.D u #.#.$._ u.u.u.u.u.u.u.r.r.f.~.,X<X*XD.b.Z.OX<X-X;X=X=X-X-X-X-X=X=X=XL.=X#X#X#X=X=X;X;X-X-X-X-X-X-X-X-X-X-X-X-X-X-X-X-X-X-X-X-X-X-X=X=X=X=X#X#X=X=X=X%X=X=X=XOXOXOXOXOXOXOXOXOXOXOXOXOXOXOXOXOXOXOXOXoXoXoXoXoXoXS.i.t.t.u.c.N.eXAXeX0Xl.Y h 9 y y ; u H ~ ~ G / &.Y.U.-.-.-.*._ _ _ _ _ %._ _ _ _ _ _ &.&.-.-.;.Y.U.U.-.-.-.U.U.U.U.U.U.U.-.-.*._ W G W / ` ' -.-.-.-.-.-.-.-.-.-.-.-.-.;.Y.;.-.-.-.-.-.-.-.-.-.-.-.-.-.-.;.-.;.-.-.;.-.-.-.-.U.Y.U.;.;.;.;.;.-.&.' ' ' ' &._ _ _ _ &.U.W.).[.[.[.).!.).W.W.g.W.T.[ ` R.W.!.W.W.W.` 9 $ $ 3 9 h C n Y u.N.S.+X-X-X<X<X<X<X-X-X-X@XOXOX+XoXoXoXoXXXD.D.D.D.XXXXXXXXXXXXXXoXXX`.XXXXXXXX`.`.`._._._.!.N.n.j.s.u.s.u.u.d.c.c.b.b.b.b.b.Z.Z.Z.V.V.V.V.V.Z.V.V.V.V.V.V.V.V.D.D.D.D.D.D.D.D.D.D.D.D.D.S.N.c.n.b.S.S.T 1 1 w 8.VXjXkX(.;.%.D D &.&.&.*.*.*.*.-.-.-.-.*.-.&._ _ / W / _ &.&.&.&.&.&.&.&.&.&.&.&.&.&.&.&.&.&.&.&.&.&._ / D B V V V V V D G _ ' _ _ G A B _ *.&.-.*.&._ G H W / ' &.W D D B V V V V B B D G G G ~ / / / / _ _ _ _ / / _ _ _ _ _ _ _ _ _ _ _ ' ' ' ' ' ' ",
"[.[.[.[.[.[.[.W.R.h.' ' ' ' *.A 4 y s O.` u.i.i.i.i.i.i.i.i.N.OX*XV.A.A.C.-X-X-X-X-X-X=X-X-X=X=X-X-X=X=X=X=X-X-X=X=X=X-X-X-X-X-X-X-X;X-X-X-X-X-X-X-X-X-X-X-X-X-X-X=X=X=X=X=X#XOX%X%X%XOX%X=X%X%X%X%X%X%X%X%X%X%XOXOXOXOXOXOXOXOXOXOXOXOXoXoXK.K.K._.s.p.t.s.j._.eXAXeX7Xl.P B 0 y y ; 9 Z Z D G W ' Y.-.-.-.-.*._ / / W W / / _ _ _ _ &.&.&.' ' ' ' ' ' ' ' ' ' ' ' -.U.U.U.-.-.-.*.&._ _ _ ' -.-.-.-.-.U.U.U.U.-.-.-.-.-.;.;.-.-.Y.U.-.-.-.-.-.-.-.-.-.U.U.-.-.-.;.;.-.-.Y.-.-.U.U.-.-.;.;.Y.Y.U.U.-.-.-.-.*.&._ ' ' *.R.^.).[.[.[.[.!._.).).W.W.R.` ` R.^.!.W.W.W.` 5 @ $ 2 5 j K U U n m m q.q.t.u.i.i.A.A.A.A.A.b.A.b.b.b.b.Z.Z.Z.C.D.D.XXoXXXXXXXoXoXXX`.`._._.~.N.n.l.s.t.q.T m n v v v v v n m q.d.c.m.N.N.V.V.V.V.V.V.V.V.V.C.C.V.S.S.S.S.V.V.V.D.D.D.D.D.D.D.D.D.D.D.D.D.S.j.q.q.j.S.S.T 1 1 w 9.VXjXlX(.&./ Z D &.-.-.*.*.*.-.*.*.*.*.-.*.&.&.&.&.&.%.&.&.&.&.&.&.&.&.&.&.&.&.&.&.&.&.&.&.&.&.&.&.&.W D A A A A A A V V D W _ _ _ G B B W *.&.*.*.;.*._ W G W &.&._ G S D Z A V V V V V B Z D H G G / / / _ _ _ / / ` _ _ ` _ ` ` _ _ ' ' _ &.' ' ' ' ",
"[.[.[.[.[.[.[.[.[.^.h.' ' ' ' B 4 2 y $.' d.j.j.j.A.A.i.u.c._.V.i.i.A.oX:X:X;X-X-X-X-X-X-X-X-X-X-X-X-X-X-X-X-X-X-X-X-X-X-X-X-X-X-X-X-X-X-X-X-X-X=X=X=X=X-X=X=X=X=X=X=X=X-X$X#XOXOX@X@XOXOXOXOXOXOXOXOXOXOXOXOXOXOXOXOXOXOXOXOXOXOXoXoXoXF.F.`.`.`.N.d.u.u.s.j._.eXAXeX7Xl.Y B y y y : 0 V Z H G W _ -.U.-.-.-.-.&._ / / W W W W W W W / _ _ _ _ _ _ _ ' ' ' ' ' ' ' *.U.U.U.-.-.-.-.-.-.-.-.-.-.-.U.U.-.-.-.-.-.-.-.-.-.Y.U.-.-.-.-.;.;.-.-.-.-.-.-.-.-.-.U.-.-.-.-.-.-.-.-.-.-.U.U.U.U.U.U.U.U.U.U.U.U.-.-.' _ _ %.' h.E.).).[.[.[.[.[._.[.!.!.W.I.Q ` E.^.W.W.W.W.` 7 = ; $ 7 f C P m T r.t.u.u.i.d.d.A.A.c.c.c.b.b.b.b.b.V.D.`.`.XXoXoXoXXXXXXXXXXXXXoX`.`.V.c.d.d.u.u.y.q.q.T U m m m m m U r.u.j.!.D.D.D.D.D.D.`.`.`.`.`.`.`.`.`.D.D.D.D.D.S.S.S.S.S.S.D.D.D.D.D.D.D.D.D.D.D._.y.U T u.~.~.^ 1 3 w 5.VXjXkX>.' D B Z / %.&.' &.&.&.*.*.*.*.-.&.&.&.&.&.' &.&.&.&.&.&.&.&.&.&.&.&.&.&.&.&.&.&.&.&.' ' &._ G F F D S H S S Z A B D W / _ G B B D &.*.*.*.U.U.U.;.-.-.*.&.%.W D D D A B B V V B V B V Z D H G G / / ` _ _ _ _ _ _ _ _ ' ' _ _ _ _ ' ' &.&.' ' ",
"{.[.{.[.[.[.[.).[.[.^.' ' ' *.B 4 4 s 8._ d.j.j.i.A.A.u.r.l.i.A.Z.@X<X:X:X:X-X-X-X-X-X-X-X-X-X-X-X-X-X-X-X-X-X-X-X-X-X-X-X-X-X-X-X-X-X-X-X-X-X-X=X=X-X-X-X-X-X-X=X=X=X=X=X=X#X#XOXOXOXOX$X$XOXOX$X$X$X$X$XOXOXOXOXOXOXOXL.L.L.L.K.K.K.K.K.'._.n.s.t.t.p.u.s.j._.AXAXeX7XM.Y Z u y y : 0 V Z H G G _ -.-.-.-.-.-.*.-.&.&.&._ _ _ _ _ _ _ _ _ _ ' &.&.&.&.*.*.*.*.*.-.-.U.U.U.-.-.-.-.-.-.-.-.-.-.-.U.U.-.-.-.-.-.-.-.-.-.-.-.-.-.U.-.-.;.;.-.-.-.-.-.-.-.U.U.-.-.-.-.-.-.-.-.-.U.U.U.U.U.U.U.U.U.U.U.U.U.-.' _ _ _ _ ' R.W.).).[.[.[.[.[.].[.).!.g.` / ) E.W.W.W.W.W.Q 3 = $ $ 3 f C R s.M._._._.`.`.`.`.`.'.'.'.`.`.`.XXXXoXoXXXXXXX`.`.XXXXXXXXoXXXXXoXXXXX`.V.N.c.c.c.c.c.n.n.n.n.c.n.n.N.!._.`.`.`.`.D.D.`.`.D.D.`.`.`.`.D.`.`.`.`.`.D.D.D.D.S.S.S.S.S.S.D.D.D.D.D.D.D.D.S.S.`.N.T Y Y u.~.~.T 1 3 2 0.VXjXkX>._ H A B D D D D D S S G G W G / _ &.&.&.&.&.&.&.&.&.&.&.&.&.&.&.&.&.&.&.&.&.&.&.' &.&.' %./ D D S G G H H H H F Z Z D H D Z B B D ' *.*.*.-.-.*.-.*.*.*.&.&.W W / W G D D B B V B B V V B Z D H W W W / / _ _ _ _ _ _ _ _ _ _ / / _ ' ' ' ' ' ",
"{.[.[.[.[.[.[.).[.).[.R.' ' ' A 2 ; s 8.' d.d.j.i.i.d.r.m y._.*X<X:X:X:X:X:X-X-X-X-X-X-X-X-X-X-X=X=X=X=X-X-X-X-X-X-X-X-X-X-X-X-X-X-X-X-X-X-X-X=X%XOX'.D.`.'.].].+X+X+X+X*X*X+X+X*X*X*X*X*X%X%X%X%X%X%X%X%X%X%X%X*X@X@X@XoXOX@X@XOX@X+X`.N.j.t.q.r.r.p.p.u.d.c.'.AXeXeX7XM.Y Z u y y : 3 V Z H H H / -.-.-.-.-.-.-.-.&.&.&.&.&.' _ _ ' ' &.&.&.-.-.-.-.-.-.-.-.-.U.U.-.-.U.U.U.U.U.U.U.U.U.U.U.U.U.U.U.U.-.-.-.-.-.-.U.-.-.-.-.-.-.-.;.;.;.;.-.-.-.-.-.-.U.U.-.-.-.-.-.-.-.-.U.U.U.U.U.U.U.U.U.U.U.U.U.U.-.' _ _ ' ' ' E.W.).).[.].].{.{.].].[.!.R.` ` ' E.W.W.W.W.W.Q 3 # % $ 3 6 L l._.`.`.`.XXXXXXXXXXoXoXXXXXXXXXXX`.XXXXXX`.XXXX`.`.XXXXXXXXXX`.`.`.`.`.`.`.`.V.~.~.V.V.V.V.V.V.V.V.V.V.C.C.D.D.D.D.D.D.D.D.D.D.D.D.D.D.D.D.`.`.`.`.`.`.`.`.D.D.D.D.S.D.D.D.S.S.S.S.D.S.S.S.S.j.m Y U t.~._.T 1 3 : $.jXjXkX>._ D V V V B B B A A A Z Z Z B B D G / _ _ _ _ _ %.%.%._ &.&.&.&.&.&.&.&.&.&.' ' ' &.&.' &._ G H G W W W W D D G H S D D D A A A H ' *.*.*.-.-.*.*.*.*.&.&.&._ _ &.%._ _ / G B V V V V V V A D S G W / / G W / _ _ _ _ _ _ _ / G G W ' ' ' ' ' ",
"[.[.[.[.[.[.[.[.[.[.[.^.' ' &.A 2 ; u 0.' d.d.d.i.i.s.m m b.-X-X:X:X:X:X:X;X-X-X-X-X-X-X-X-X-X-X-X-X-X-X-X-X-X-X-X-X-X-X-X-X-X-X=X-X-X-X-X-X-X=X%XoXb.i.q.m M M n m U U T T T q.r.q.q.r.r.r.p.p.t.t.p.s.s.s.s.f.j.j.l.M.n.M.M.!.l.l.p.r.Y n n T r.t.s.d.d.c.c.'.AXeXeX,Xj.n Z u y y : 3 V Z S D Z G -.-.*.*.*.*.*.-.-.&.&.&.&.&.&.&.-.-.-.-.-.-.-.-.-.-.-.-.-.-.-.-.-.-.U.U.U.U.U.U.U.U.U.U.U.U.U.U.U.U.-.-.-.-.-.-.U.U.Y.U.-.-.U.U.;.;.;.;.-.-.;.;.-.-.-.U.-.-.-.-.-.-.U.U.U.U.U.U.U.U.U.U.U.U.U.U.U.U.*.' _ _ &.*.U.W.W.W.)._.].].{.{.].{.[.!.W.I.' h.^.W.W.W.W.W.` 3 # % $ 3 6 I {.D.`.`.'.oXoXoXoXoXXXXXXXXXXXXX`.`.XX`.`.XXXXXX`.`.`.`.`.`.XX`.`.XX`.`.`.`.`.`.`.`.D.D.S.V.V.V.V.V.V.V.C.D.D.D.D.D.D.D.D.D.D.D.D.D.D.D.D.D.`.`.`.`.`.`.`.D.D.D.D.D.S.D.D.D.S.S.S.S.D.D.D.D.S.u.m Y Y t.N.~.T 1 3 : O.fXkXkX>._ D V V V V A G G H D Z Z A A A Z D S D G W W W / _ _ _ &.&.&.&.&.&.&.' &.&.&.' &.&.&._ &.%.W D I ` ' h.R.T.h.` I D D D Z A A A H _ *.*.*.-.-.*.*.&.' _ Q _ _ ' &.&.&.' _ / D Z B V B V V B A D G G G G D D G / _ _ _ _ / / G G G W _ ' ' ' ' ",
"[.{.{.{.[.[.[.[.[.[.).^.' ' &.Z 2 @ F >.&.s.s.d.i.d.p.m m V.=X=X:X:X:X:X:X;X-X-X-X-X=X=X-X-X-X-X-X-X-X-X-X-X-X-X-X-X-X-X-X-X-X-X-X-X-X-X-X-X=X-X-X-X-X-X*X]._.s.r.U m n v v v v v v K C K v v v v v v v z z C K v v v v v v K K K z z z v Y t.j.N.N.S.S.Z.Z.b.'.AXeXeX,Xf.n Z u i y ; 2 u V Z S Z G &.*.-.-.-.-.-.-.-.-.-.-.-.-.-.-.-.-.-.-.-.-.-.-.-.-.-.-.-.-.U.-.-.-.-.-.U.U.-.U.U.U.U.U.U.U.U.U.U.U.U.U.U.U.U.U.U.Y.Y.;.;.Y.U.U.U.-.-.-.-.-.;.;.;.;.-.-.-.-.-.-.-.-.-.-.-.-.U.U.U.U.U.U.U.U.U.-.-.*.&._ _ _ ' *.E.W.W.W.).).{.{.].].{.{.[.!.W.R.p.g.W.^.W.W.W.W.Q 3 # % @ 7 6 E ].`.XX`.`.`.XXXXXXXXXXXX`.`.`.`.`.`.`.XX`.XXXX`.`.`.XXXX`.`.`.`.`.`.`.`.`.`.`.`.`.`.`.D.D.D.D.D.D.D.D.C.D.D.D.D.D.D.D.D.D.D.D.D.D.D.`.`.`.`.D.D.D.D.D.D.D.D.D.D.D.D.D.D.D.D.D.D.D.D.D.D.D.D.N.r.U P Y t.!.~.E 1 3 2 F 8. X X>._ H V V V N B _ &.%.%.G B D G / / / / / / / / / / / / _ &.&.&.&.' &.&.' &.&.&.&.&.&.' ' &.&./ ` ^.[.|.}.0X0X0X|.^.` F Z A A A Z H _ *.-.-.-.-.-.' _ / G G G / ' &.&.&.&._ / H D Z B B B B V V Z H G G D Z B Z G / / / / / G D G W _ ' ' ' ' ' ",
"[.[.[.[.[.[.[.[.[.[.[.^.U.' *.Z 2 $ F 9.&.d.s.d.i.d.u.T T N.-X-X>X>X@XoX`.D.D.XXK.OX=X=X-X-X-X-X-X-X-X-X-X-X-X-X-X-X-X-X-X-X-X-X-X-X-X-X-X-X=X=X=X=X=X%X=X-X>X,X*X*X'._.!.l.p.^ E P v v v v v z z z z z z z z z v v v v v v v v n n U r.f.N._.`.`.D.D.D.D.D.b._.AXeXeX,Xp.L Z u i y 2 4 u u V Z Z H &.-.-.-.-.-.-.-.-.-.-.-.-.-.-.-.-.-.-.-.-.-.-.-.-.-.-.-.-.-.-.-.-.-.-.-.U.U.-.U.U.U.U.U.U.U.U.U.U.U.U.U.U.U.U.U.U.U.-.-.Y.Y.U.U.-.-.-.-.-.-.Y.Y.Y.;.-.-.-.-.U.U.U.U.-.-.-.-.U.U.U.U.U.U.U.U.U.-.-.&._ _ _ _ ' U.E.W.W.W.W.!.[.{.].].].].[.).).W.E.E.).).W.W.W.W.Q 3 # # @ 7 5 R 1XXXoX`.`.`.`.`.`.`.`.`.`.`.`.`.`.`.`.`.`.`.`.`.`.`.XXXX`.`.`.`.`.`.`.`.`.`.`.`.`.`.`.`.`.`.D.D.D.D.D.`.D.`.D.D.D.D.D.D.D.D.D.D.D.D.D.`.`.D.D.D.D.D.D.D.D.D.D.D.D.D.D.D.D.D.D.D.D.D.D.D.S.S.M.T U Y Y t.N.V.E < 3 2 s 8.9.9.:._ H V V V V h D / %.;./ W %.&.&.*.*.&.&.&.&.&.&.%._ _ / %.&.&.' &.&.&.&.&.&.' &.&.&.' ' &.' ` [.0X,X0X7X7X7X,X3X3X' B A A A A D G ' *.*.-.-.*.' ' / D D H G ` &.&.&.&.&.' W H D D Z B B B V V B D G G G Z B B Z D H G G H H G W _ *.*.' ' ' ' ",
"[.[.[.[.[.[.[.[.[.).).E.U.' -.D ; % O.0._ j.s.d.A.j.s.r.q.b.XXD.V.Z.b.b.b.Z.`.+X%X-X-X-X-X-X-X-X-X-X-X-X-X-X-X-X-X-X-X-X-X-X-X-X-X-X-X-X-X-X-X-X=X=X=X=X=X=X=X=X=X=X=X%X@X@X'._._.M.j.j.s.s.s.s.s.s.s.s.s.f.f.f.l.l.l.l.l.l.l.l.l.M._.].'.`.D.K.K.K.D.D.D.D.b._.AXeXeX}.p.n Z u s s 4 4 9 u V V V D &.&.*.-.-.-.-.-.-.-.&.&.-.-.-.-.-.-.*.-.-.-.-.-.-.-.-.-.-.-.-.-.-.-.-.-.-.-.-.-.U.U.U.U.U.U.U.U.U.U.U.U.U.U.U.U.U.U.-.-.-.-.-.-.-.-.-.-.-.-.Y.Y.Y.Y.U.U.U.U.-.-.U.U.-.-.-.-.U.U.U.U.U.U.U.U.U.-.-.' _ _ _ ' ' T.E.W.E.E.E.W.!.{.{.{.{.].[.[.).).).).).!.W.W.W.W.Q 3 # # @ 7 6 ^ ,XoXXX`.`.`.`.`.`.D.D.`.`.`.`.`.`.`.`.`.`.`.`.`.`.`.XXXX`.`.`.`.`.`.`.`.`.`.`.`.`.`.`.`.`.`.D.D.D.D.D.D.D.D.D.D.D.D.D.D.D.D.D.D.D.D.D.`.`.D.D.D.D.D.D.D.D.D.D.D.D.D.D.D.D.D.S.S.S.S.D.D.S.S.c.m P P n t.N.N.E < 3 2 s #.#.:.:._ D V V A ~ B Z D G / _ &.&.' *.*.*.&.&.&.&.&.&.%._ _ _ _ &.&.' ' &.&.&.&.' &.&.&.' ' _ &.` R.4X7X7X7X7X7X7X,X3X/.H B B D D D G _ &.*.*.*.*.*.*.&.W D D H W _ &.&.&.&.&.&.G D D Z Z B B B V B B Z G G G B B B Z B V Z D D W _ ' ' I.U.U.U.I.I.",
"R.E.E.W.).[.[.[.[.^.E.g.U.' -.D $ - a s _ j.u.i.i.d.s.t.u.N.D.b.Z.V.`.oX%X-X<X<X>X-X-X-X;X;X;X;X;X-X-X-X-X-X-X-X-X-X-X-X-X-X-X-X-X-X-X-X-X-X-X-X-X-X-X-X-X-X=X=X=X=X-X-X=X-X-X-X-X-X>X<X-X-X-X-X-X-X-X-X-X-X-X-X*X*X*X*X@X@X@X@X+XXXXXXXXXD.XX`.XX`.D.D.D.'.b.S.AXeXeX].p.K V u s s 2 2 3 u V V V Z _ &.*.-.-.-.-.-.-.-.&.&.-.-.-.-.-.-.-.-.-.-.-.-.-.-.*.*.*.*.-.-.&.' ' ' &.-.-.-.U.U.U.U.U.U.U.-.U.U.U.U.U.U.U.U.U.U.-.-.-.-.-.-.-.-.-.U.U.U.Y.Y.Y.Y.U.U.U.U.U.U.U.U.-.-.-.-.U.U.U.U.U.U.U.U.U.-.*.' _ _ ' &.U.T.E.W.E.E.E.E.!.[.{.].{.].[.[.[.!.).).).!.W.W.W.E.W 1 # # @ 7 6 ^ ,XXXoX`.`.D._._._.V.C.D.`.D.`.`.`.`.`.`.`.`.`.`.`.`.`.`.`.`.`.`.`.`.`.`.`.`.`.`.`.`.`.`.D.D.`.`.`.D.`.D.D.D.D.D.D.D.D.D.S.S.D.D.D.D.D.D.D.D.C.C.C.D.D.D.D.D.D.D.D.D.C.C.C.C.S.S.S._._.S.V.N.u.m P P n t.m.N.E , 4 2 i $.$.$.%._ D V V V / G H H H G _ ' &.' &.&.&.' &.&._ _ _ _ _ _ _ &.&.&.' ' &.&.&.' ' &.&.' ' ' &.' ' [..X,X7X6X7X7X,X7X^.D B B D G / / _ &.*.*.*.*.*.*.*.&.W G H G _ &.&.&.&.&.&.&.G D D D Z Z B B B B B Z G G G G D D D D D D H / _ ' ' U.R.R.U.U.U.U.",
"U.T.T.E.).).).).^.E.h.h.-.h.*.Z $ ; s s %.j.s.i.i.j.s.s.N.`.oX+X-X:X:X:X:X>X-X-X;X;X:X:X;X;X-X-X;X;X-X-X-X-X-X-X-X-X-X-X-X-X-X-X-X-X-X-X-X-X-X-X-X-X-X-X-X-X-X-X-X-X-X-X=X=X-X-X=X=X=X=X=X=X=X=X=X=X=X=X=X%X%X%X%X%XOXOXOXOXOXXXXXXXXXXXoX+X+X].`._._.V.G.N.i.N.AXeXqX{.p.K V u s s 2 4 9 V V V V B / &.&.&.&.&.-.-.-.-.*.*.*.-.-.&.&.*.*.*.*.*.*.-.-.-.-.-.*.*.&._ _ _ / / _ *.-.-.-.-.U.U.U.U.U.U.U.U.U.U.U.U.U.U.U.U.U.U.U.-.-.-.-.U.U.U.U.U.-.-.U.U.-.-.-.-.;.-.-.-.-.-.-.U.U.U.U.-.-.-.-.-.-.-.&._ _ _ ' *.U.E.W.E.E.E.E.W.!.].{.].].].].].{._.).).).).W.W.W.W.W 3 # # @ 5 6 ^ +XXX+X`.V.V.V.V.V.V.V._.V.S.D.D.`.`.`.`.`.`.`.`.`.`.`.`.`.`.`.`.`.`.`.`.`.`.`.`.`.`.D.`.D.D.`.`.`.`.`.D.D.D.D.D.D.D.D.S.D.D.D.D.D.C.D.D.D.D.`.D.S.S.D.D.D.D.D.D.D.D.D.D.V.V.D.S._.n.u.t.t.r.T P P n m r.M.N.E , 2 2 y O.O.O.%._ D V V V G _ / G W / _ &.&.&.&.&.&.&.&.&.%.W W W _ _ _ &.&.' &.&.&.&.' _ _ _ %.&.&.&.' -.^.).[.{.7X6X7X7X7X}.` B A B D / _ _ &.*.*.*.*.*.*.*.*.&.G D H / &.&.&.&.&.' ' ' G D D D Z Z V V V V B B H G W / / / W / / _ _ ' ' ' h.U.U.R.R.R.R.U.",
"Y.T.T.^.^.^.).^.E.R.h.h.-.h.*.Z $ $ 4 y %.j.s.x.i.j.d.u.c.`.OX*X-X-X-X-X-X>X>X>X;X;X;X;X-X-X-X-X;X;X-X-X-X-X-X-X-X-X-X-X-X-X-X-X-X-X-X-X-X-X-X-X-X-X-X-X-X-X-X-X-X-X-X-X-X-X-X-X-X-X-X-X-X-X=X=X-X-X=X-X%X%X%X%X%X%X*X*XOXL.OXOXoX'.{.[.W.g.^ Y n n P P n n M k.AXeXqX{.r.K V u u s 3 u ~ G S Z V A / &.&.&.&.&.&.&.&.&.*.&.&.*.&.&.&.&.*.*.*.*.&.&.&.&.*.&.&.' _ _ _ _ / / _ *.-.-.-.-.U.U.U.U.U.U.U.U.U.U.U.U.U.U.U.U.U.U.U.U.U.-.-.U.U.U.U.U.-.-.-.U.-.-.-.-.;.-.-.-.-.-.-.U.U.U.U.-.-.-.-.-.-.*._ _ _ ' *.U.R.E.W.E.E.E.W.W.[.{.,X}.,X1X{.,X]._.).).).).W.W.W.W.W 3 # # @ 5 6 r.*XXX+X`.V.~.V.V.V.V.V.S.V.V.S.D.D.D.`.`.`.`.`.`.`.`.`.`.`.`.`.`.`.`.`.`.`.`.`.`.`.`.D.`.D.D.D.D.D.D.`.D._.N.G._.`.C.D.S.C.C.S.S.D.D.D.D.D.D.S.S.S.S.S.S.S.S.S.S.S.S.S.S.V.V.V.N.d.m n n n m m P P P m q.n.N.I # @ ; s #.O.O.%._ D V V Z / _ _ _ _ %.&.&.&.&.&.&.&.&.&.&.&.W W _ _ %._ &.&.&.&.&.&.&.' / G W / _ &.' ' -.T.^.E.g.[.[.).^.E.' C Z Z D / _ _ &.*.*.*.*.-.*.*.*.*.&.W H W &.&.&.&.&.&.&.' ' G D D D Z A A V V B B B D G / / _ _ _ _ _ _ ' ' *.-.h.U.U.R.R.R.R.R.",
"T.T.T.E.^.^.^.^.R.h.' ' -.' *.Z $ $ 4 y %.j.s.i.i.d.s.q.q.V.=X=X-X-X-X-X-X-X>X>X-X;X-X-X-X-X-X-X-X-X-X-X-X-X-X-X-X-X-X-X-X-X-X-X-X-X-X-X-X-X-X-X-X-X-X-X-X-X-X-X-X-X-X-X-X-X-X-X-X-X-X-X-X-X=X=X-X-X-X-X-X=X%X%X%X%X*X*XOX+X_.l.t.Y n z k f f f h h j j l l x h.AXeXqX[.r.K A s J s u Z / _ _ D Z Z G ' &.&.&.&.&.&.&.&.&.&.&.&.&.&.&._ %.%._ _ _ _ _ _ _ _ _ _ _ _ _ _ / / _ *.-.-.-.-.U.U.-.-.U.U.U.U.U.U.U.U.U.U.U.U.U.U.U.U.U.-.-.U.U.U.U.U.-.-.-.-.-.-.-.-.;.-.-.-.-.-.-.U.U.U.U.U.-.-.-.-.-._ ` _ ' *.-.U.R.E.W.E.W.E.E.).{.1X,X,X,X,X,X,X]._.).).).W.W.W.W.W.I 3 # # @ 5 6 r.*XoXoX`.V.V.V.V.V.V.V._.V.V.S.S.S.D.`.`.`.`.`.`.`.`.`.`.`.`.`.`.`.`.`.`.`.`.`.`.`.`.`.`.`.`._._._.`.S._.d.m m p.N._._.S.S.S.S.S._.S.S.S.S.S.S.S.S.S.S.S.S.S.S.S.S.S.V.V._.V.c.i.t.m v n Y r.p.E P n Y q.n.N.I # @ ; $.tX5.$.%./ D V V B / ' ' ' &.&.&.&.&.&.&.&.&.' &.&.%._ _ _ %.%.&.&.&.&.&.&.&.&._ / H D G W _ &.' ' -.-.' I I W D H Z Z D S H / _ &.&.-.*.*.*.*.-.-.*.*.*.-.' _ &.-.&.&.*.*.*.*.*.' G D D D Z A A B B B B B D G / _ _ _ _ _ _ _ ' ' *.U.U.R.R.R.R.R.R.R.",
"T.T.E.E.^.^.^.R.R.U.U.-.-.' -.S $ $ 2 s _ j.s.i.i.i.d.y.T N.=X#X-X-X-X>X>X>X-X-X-X-X-X-X-X-X-X-X-X-X-X-X-X-X-X-X-X-X-X-X-X-X-X-X-X-X-X-X-X-X-X-X-X-X-X-X-X-X-X-X-X-X-X-X-X-X-X-X-X-X-X-X-X=X=X=X-X-X-X-X-X-X=X%X%X%XOX@X_.r.z k h 6 f h j j j h j j j j j l c p.eXeXqX_.^ l u s F F u D ` _ ' W Z D / &.&.&.&.&.&.&.' ' ' _ _ _ %._ _ _ _ / / / / / / / / _ _ %.&.&.&.%._ _ &.*.U.U.U.U.U.U.-.-.-.-.-.-.U.U.U.U.U.U.U.U.U.U.U.U.U.-.-.U.-.U.-.-.-.-.-.-.-.-.-.-.-.-.-.-.-.-.-.U.U.U.U.U.-.-.-.*.' / ` _ *.-.U.U.R.E.W.E.W.E.W.[.{.1X,X*X,X,X,X,X{.[.).).).W.W.W.W.W.L 3 # # @ 5 6 r.*XoX+X`.V.V.V.V.V.V.V.`.V.V.V.V.S.S.D.`.`.`.`.`.`.`.`.`.`.`.`.`.`.`.`.`.`.`.D.D.D.D.`.`.`.S.M.u.u.j.N.N.t.n M M m r.u.j.n.n.M.N.V._._.S.S.S.V.V.S.S.S.S.S.S.S.S.S.S.S.V.N.A.u.u.r.U v T s.f.s.^ n n Y q.n.N.L # @ ; #.iX8.0.%./ D V B B / ' &.' &.' &.&.&.&.&.&.&.' &.&.&.&.&.&.&.&.&.' ' ' &.&.&.&.%./ G H H W &.' _ _ _ ` G D Z Z Z Z Z Z D H Q ' &.-.-.-.-.-.*.*.-.-.-.*.-.-.-.*.*.*.*.*.*.*.*.*.*.' G D D Z Z A Z A B B B B Z G / _ _ _ _ ' ' ' ' ' -.U.R.R.R.R.R.R.R.R.",
"U.T.T.E.E.E.T.R.U.U.U.' -.' *.D $ $ 3 a _ j.s.u.i.i.d.r.m N.*X#X-X-X-X-X>X>X>X-X-X-X-X-X-X-X-X;X-X-X-X-X-X-X-X-X-X-X-X-X-X-X-X-X-X-X-X-X-X-X-X-X-X-X-X-X-X-X-X-X-X-X-X-X-X-X-X-X-X-X-X-X-X-X-X-X=X=X=X=X-X-X-X=X%X%X*Xb.M g f h h h k j x l z v n Y E E r.r.U p.eXeXqX_.^ C u s a s 3 V / ` ' G D G *.Y.-.-.-.-.-.-.&.' ' &.&.' _ ' ' _ _ _ _ _ _ _ %.%.' ' -.-.U.U.U.-.*.&.&.&.*.-.U.U.-.-.-.-.;.;.U.-.U.U.U.U.U.U.U.U.U.U.-.-.U.U.U.U.-.-.-.-.-.-.-.-.-.-.-.-.-.-.-.-.U.-.-.U.-.-.-.-.-.-.-.' / / _ &.-.-.U.R.E.E.E.E.W.W.).{.{.}.,X1X,X,X,X,X{.[.[.).).).!.W.W.W.H 3 # # # 5 6 ^ *XoX@X`.V.~.N.V.V.V.S.S.V.V.S.V.S.S.D.D.`.`.`.`.`.`.`.`.`.`.D.`.`.`.`.`.`.`.D.D.D.`.S.V.M.u.T m U T q.t.s.l.j.j.s.t.q.m m U T q.q.u.c.N.V.S.D.D.S.S._.V.S.V.N.c.N.N.M.j.s.u.u.t.r.M U p.s.u.s.r.n P Y q.c.N.L @ @ ; #.fX8.5.%.~ A V B B / &.&.&.&.&.&.&.&.&.&.&.' ' %.&.&.&.&.&.&.&.' ' ' &.&.&.&.' ' _ _ _ / _ &._ _ _ _ W H Z Z Z Z Z Z Z D W %.*.-.-.-.-.-.-.-.-.-.-.-.-.-.-.-.-.*.*.*.*.*.*.*.' *.&.G D Z Z Z B A B B B B B A H / _ _ ' ' ' ' ' *.' I.U.U.U.R.R.R.R.R.R.",
"U.U.T.T.T.T.R.U.U.U.U.-.-.' *.S $ @ 0 s _ j.s.u.i.i.d.r.q.m.-X#X-X-X-X-X-X-X-X-X-X-X-X-X-X-X-X-X-X-X-X-X-X-X-X-X-X-X-X-X-X-X-X-X-X-X-X-X-X-X-X-X-X-X-X-X-X-X-X-X-X-X-X-X-X-X-X-X-X-X-X-X-X-X-X-X-X-X-X-X-X-X-X=X=X-X*XS.s.p.w.^ r.p.f.j.l.M.!.!._._._._._.[.t.r.eXwX7X).E B u s s y $ 5 H ` ` W D _ Y.Y.Y.Y.Y.Y.Y.Y.Y.Y.Y.Y.Y.Y.-.-.-.-.*.*.*.-.-.-.-.-.-.-.-.-.U.U.U.*.' ' ' _ ' ' ' ' ' ' ' &.&.*.-.-.-.U.-.-.-.-.U.U.U.U.-.-.U.U.U.U.-.-.-.-.-.-.-.-.-.-.-.-.-.-.-.-.-.-.-.-.-.-.-.-.-.-.' _ / / ' *.-.U.U.R.E.E.E.E.W.!.[.{.{.1X1X1X,X,X,X,X{.{.[.).).!.W.W.W.W.I 3 # # # 3 6 r.*XoX@XoXV.N.N.N.N.V.S._.V.V.V.V.S.S.D.`.`.`.XXD.D.D.D.D.D.D.D.D.D.D.D.`.`.`._.N.M.c.s.t.r.m T q.q.r.r.q.T r.M.].`.K._.M.u.y.r.q.q.q.e.q.u.n.M.j.s.u.t.t.t.t.q.m q.t.t.t.t.t.u.p.r.m R p.t.u.t.q.m U U y.n.!.L @ $ ; #.iX8.>.%.G B V B B / &.&.&.&.&.&.&.&.&.&.&.' &.&.&.&.&.&.&.%.%.&.&.&.&.&.&.&.' ' &.&.&.' ' &.' _ _ _ G D Z Z Z Z Z Z D G %.&.-.-.-.-.-.-.-.-.-.-.-.-.-.-.-.-.-.*.*.*.*.*.*.*.' *.&.~ Z Z Z Z B B B A A B B B S W _ ' ' ' ' ' *.*.*.U.U.U.U.R.R.R.R.R.R.",
"U.U.U.U.U.U.U.U.U.U.-.-.-.' *.S $ @ s $._ s.s.u.i.i.d.r.q.A.@X#X-X-X-X-X>X>X>X>X;X;X;X-X-X-X-X-X-X-X-X-X-X-X-X-X-X-X-X-X-X-X-X-X-X-X-X-X-X-X-X-X-X-X-X-X-X-X-X-X-X-X-X-X-X-X-X-X-X=X-X-X-X-X-X-X-X-X-X=X-X-X-X=X=X=XOXoX*X*X+XoXoXoXoXoXF.XX`.D.D.S.V.V.V._.t.m 0XqX7XW.I B u s u 2 ; 3 Z W ` G W &.Y.U.Y.Y.Y.Y.U.U.U.U.U.U.U.U.U.U.Y.Y.U.U.U.U.U.U.U.U.Y.U.-.-.U.U.U.*.' _ _ ` / / / / _ _ _ _ ' &.-.-.-.-.-.-.-.-.U.U.U.U.-.-.U.U.U.U.-.-.-.-.-.-.-.-.-.;.;.;.;.-.-.-.-.-.-.-.-.-.-.-.-.' _ / / _ *.-.-.-.U.R.E.E.E.W.E.W.).{.{.,X1X1X1X,X1X,X,X}.].].).W.W.W.W.W.W 3 # # # 3 6 r.,XOX@X+XS.b.m.N.N.V.V.S.V.V.V.V.V.V._.`.`.`.`.`.`.D.`.`.`.`.`.`.`.`.`._.N.c.p.r.T m Y Y T T T r.r.r.r.T n v U l._.D.`.`.N.i.u.t.t.p.r.R T U n n n U U U R T q.q.q.r.r.t.t.t.u.t.r.T T T p.j.c.n.n.n.M.N._.!.z @ ; ; #.tX8.>.%.G B V V B / &.&.&.&.&.&.&.&.&.&.&.&.&.&.&.&.&.%.%.%.%._ _ _ _ &.&.&.&.&.&.&.&._ _ _ _ _ / / G H H D Z Z Z D ~ _ &.*.-.-.-.-.-.-.-.-.-.-.-.-.-.-.-.-.-.*.*.*.*.*.*.*.*.*.&./ Z Z A B Z D D D B B B B D W _ &.&.&.&.*.*.*.*.U.U.U.U.R.R.R.R.R.R.",
"U.U.U.U.U.U.U.U.U.U.-.-.-.' *.D $ ; | #./ u.s.u.i.i.u.r.q.u.XXOX-X-X>X-X>X>X>X>X;X;X;X;X;X-X-X-X-X-X-X-X-X-X-X-X-X-X-X-X-X-X-X-X-X-X-X-X-X-X-X-X-X-X-X-X-X-X-X-X-X-X-X-X-X-X-X-X-X-X-X-X-X-X-X-X=X=X=X=X=X=X=X=X#X=X%XoXOXOXOXL.oXoXOXK.K.`.`.`._.V.V.V.V._.r.v }.0X}.k.L h V u w 2 ; 4 Z G / G / Y.Y.R.Y.Y.U.U.R.T.U.U.Y.U.U.Y.R.R.R.R.U.U.U.U.U.U.U.U.U.U.U.U.U.U.U.-.-.&.&.' _ _ _ _ _ _ _ %.&.*.-.-.-.-.-.-.U.U.U.U.U.U.-.-.-.-.U.U.-.-.-.-.-.-.*.*.&.&.&.&._ _ _ ' -.-.-.-.-.-.-.-.&._ / / ` ' *.-.-.*.U.R.E.E.E.W.E.E.E.W.).[.{.}.,X,X,X*X*X+X].].[.W.W.W.W.W.W 2 # # # 7 6 p.,XOXOX+X'.N.c.N.V.V.V.V.V.V.V.V.V.~._._.`._._._._._.~.!.!.!.!.M.n.j.d.s.t.r.Y n n n P U T q.q.q.r.r.T n L L z z n T r.p.k.f.u.r.T P n v K K P E ^ f.f.f.f.p.s.p.r.r.r.r.t.t.t.p.q.m m m l._._._.V.S._.S.V.M.z @ ; ; #.8.8.>.%.G V V V B / &.&.&.&.&.&.&.&.&.&.&.&.&.&.&.&.%._ %.%._ _ _ _ _ ' &.&.&.&.&.&.' _ / / G G H D H D D D D H / _ &.&.&.*.*.-.-.-.-.-.-.-.*.*.*.-.-.-.-.-.-.-.*.*.*.*.*.*.*.*.&./ Z Z V V H ~ / G D B B B D W _ &.&.&.&.*.*.' ' I.U.U.U.R.R.R.R.R.R.",
"U.U.U.U.U.U.U.I.*.I.*.*.' ' -.D = ; $.#./ u.s.i.i.i.u.q.T y.V.XXoX@X>X<X>X>X>X>X>X-X-X;X-X-X-X-X-X-X-X-X-X-X-X-X-X-X-X-X-X-X-X-X-X-X-X-X-X-X-X-X=X=X=X=X=X-X-X-X-X-X-X-X-X-X-X-X-X-X-X-X-X-X=X=X=X=X=X=X%X%X%X%X%XD.b.N.N.N.m.m.B.M.G.XXXXD.C.~.S.S.`.~.V.S.r.z E.0X).f.L h s u 3 2 ; 3 B G W W ` -.Y.R.R.R.Y.Y.U.U.U.R.U.U.U.U.Y.Y.U.U.U.U.U.U.U.U.U.U.U.U.U.U.-.-.-.-.-.-.*.*.*.*.*.*.*.*.*.*.-.-.-.-.-.U.U.U.-.-.U.-.U.U.U.-.-.-.U.U.U.-.-.-.&._ / / / / / ~ / / / _ &.-.-.-.-.-.-.-._ / / ` ' -.-.-.-.-.I.R.E.E.W.W.E.R.g.g.R.W._.{.}.,X*X+X+X+X+X].[.W.W.!.!.W.I 3 # # # 7 f r.*XoX*X*X+XV.b.V.V.V.N.N.m.N.N.b.c.n.n.l.s.r.q.T ^ ^ T T Y Y Y n n m m T r.q.Y n v P U R R T q.q.r.Y v v v K L C z l x x x x x c z z x x j j f x x z z v v v n n n Y ^ r.p.t.u.p.T U m r.[.]._.S.S.V.!.S.S.M.z @ : ; #.8.8.5.%.H h V V B / &.' ' &.&.' ' ' ' &.&.&.&.&.&.&.' _ _ _ _ _ _ _ _ ' &.&.&.&.&.&.&._ / G G D D D D D D G / _ &.&.&.*.*.*.*.-.-.-.-.*.-.-.-.-.*.*.-.-.-.-.*.*.*.*.*.*.*.*.*.*.&./ B J J V H ) / / H Z A Z Z G _ &.&.' &.&.&.' ' U.U.U.U.U.R.U.U.U.R.",
"U.U.U.U.U.U.U.U.I.I.*.' -.' -.C ; : O.#./ u.s.i.i.u.t.T T r.V.C.C.D.XXoXOX-X>X-X-X>X-X-X-X-X-X-X-X-X-X-X-X-X-X-X-X-X-X-X-X-X-X-X-X-X-X-X-X-X-X-X=X=X=X=X-X-X-X-X=X=X=X=X=X=X=X=X=X=X=X=X%X%X%X%X=X=X=X=X%X%X%X%X*XA.i.y.r.^ R T U m m r.G.S._._.`._._._.S.S.r.z ^ k.l.p.L h u y 0 2 ; 3 B G W W / &.-.U.U.U.Y.Y.Y.U.U.U.U.U.U.U.U.U.U.U.U.U.Y.Y.Y.Y.-.-.&._ / W G G / _ &.*.*.*.*.*.*.*.*.*.-.-.*.*.-.-.-.-.-.-.-.-.U.-.U.U.U.U.-.-.-.-.*.*.-.&.` W W W W W / / / _ _ &.' *.*.*.-.-.-.' / W / ' &.*.*.*.-.-.*.R.E.E.E.E.R.R.R.R.R.E.W.!.[.{.}.+X,X+X1X,X{.W.W.!.!.W.I 3 # # # 7 f r.,XoX@X@X+X`.N.N.V.N.n.j.u.u.t.t.r.T U n v v v v z z v v v v n n n n m T R R Y Y Y E R R T q.r.r.T n v v v v z z K L I E I I L K z z x f f f f f f f f k k k k f f g x Y p.u.u.u.q.U U r.s.l.s.u.d.N.!.V.S.M.x @ ; ; #.8.6.0.%.H h V V B / &.&.*.*.*.' ' ' ' *.&.&.&.&.&.' ' _ _ _ _ _ _ _ _ ' ' &.&.&.&.&.&.&._ _ / / / _ _ _ &.&.&.-.-.*.-.-.-.-.-.-.-.-.-.*.-.-.*.-.*.*.-.-.-.-.*.*.*.*.*.*.*.*.*.*.-./ B V A B H / _ / G Z B B D W &.&.&.' &.' ' ' *.U.U.U.U.U.R.U.R.U.U.",
"U.U.U.U.U.U.U.U.I.I.*.' -.' *.C = : $.#._ u.s.u.i.s.q.T T t.V.C.D.D.D.D.D.D.oX%X*X-X>X>X-X-X-X-X-X-X-X-X-X-X-X-X-X-X-X-X-X-X-X-X=X=X=X=X=X=X=X=X-X-X-X-X-X-X-X-X-X-X-X-X-X-X-X-X-X-X-X-X*X-X*X%X-X-X*X*X%X%X%X%X#X=XOXoX'.'._._.~._.l.n v Y q.t.d.n.N.V.V.N.r.z L ^ k.p.C h u u y w ; 3 B G W W W W _ ` ` _ _ &.-.Y.U.U.U.U.U.U.U.Y.Y.U.-.*.&.' _ _ W H D D D Z A A A B D W =.*.*.*.*.*.*.*.*.*.*.*.*.*.*.-.-.-.-.-.-.-.-.-.U.-.-.-.-.*.*.*.*.' ` W W W / _ _ _ ' &.&.*.*.-.-.-.*.;.&._ W / _ &.-.*.*.*.-.-.*.R.R.W.E.R.R.R.R.R.R.R.W.W.W.W.[.{.,X+X1X,X].W.W.!.).).Q 3 # * # 7 f r.*XoX@X@X+X`.V.N.V.N.m.n.d.d.s.s.p.r.r.r.r.r.R R E E Y T R ^ r.r.t.t.t.t.r.T T T T R T R q.q.r.r.t.t.r.r.^ T n M M n U T T R T R R U Y U P P P P P P n n L z v v P P Y r.s.d.d.s.T U Y T m m m e.t.n.G.V.S.l.x @ = ; #.6.5.0.%.D V V V B W *.' *.*.' ' ' ' -.-.*.*.&.*.&.' ' ' ' ' &.&.&.&.&.&.&.&.&.&.&.&.&.&.&.&.&.&.*.-.-.&.-.-.*.*.-.-.-.-.-.-.-.-.-.-.*.*.-.-.*.-.*.*.-.*.-.*.*.*.*.*.*.*.*.*.*.*.*.G B B B B D W _ _ _ G H G W %.&.&.&.' ' ' ' &.' *.-.U.U.U.R.R.R.R.R.",
"U.U.U.U.U.U.U.U.I.*.' ' -.h.-.C = 2 $.$./ u.s.u.i.s.T T T q.N.C.C.D.D.C.C.V.C.D.D.D.XXoXOXOX%X-X-X-X-X-X-X-X-X-X-X-X-X-X-X-X-X-X-X-X-X-X-X-X%X%X%X*XoXoX*X*X*XoXoXoXoXoXoX'.'.oXoXoXoXoXoXoX+X+XOXOXOX%X*X*X*X-X-X-X-X*X-X-X-X-X-X>XM.L L n m m q.d.B.N.N.M.T z L ^ p.p.C h u s y w ; 9 Z G W W W G G G G G G W ` -.U.U.U.U.U.U.Y.Y.U.` W W H G G G H D D D C A A A A A B B D G _ &.&.&.*.*.*.*.*.*.*.*.*.-.-.-.-.-.*.*.*.*.*.*.-.-.-.*.*.*.*.*.&.' &.%.&.&.&.&.&.*.*.*.-.-.*.-.-.&._ W W _ &.&.&.*.-.*.-.-.' U.R.R.R.g.R.U.U.U.U.R.R.R.W.E.W.!.].+X1X{._.W.!.!.[.[.` 3 # * # 7 f ^ *XoX@X@X+X`.V.V.V.V.N.N.N.N.N.N.M.N.M.B.c.n.c.j.j.j.j.j.c.n.n.M.N.N.b.n.j.p.r.q.T T T q.r.t.s.s.d.d.i.u.s.l.n.M.n.l.n.M.N.c.b.b.N.N.N.N.N.N.V.V.V.V.S.N.!.l.l.f.l.n.b.N.c.j.s.q.P P P m q.s.n.N.N.N.N.V.S.l.x @ = ; #.5.#.$.~ D V V V B W &.&.' _ Q / _ *.-.-.-.-.-.-.*.*.*.*.*.*.*.*.*.*.&.&.&.&.' &.&.&.&.*.*.&.&.*.-.*.*.&.-.*.*.-.-.-.-.-.-.-.-.-.-.*.*.*.-.-.*.-.*.*.-.*.*.*.*.*.*.*.*.-.*.*.*.*._ B B D G W / _ &.&.&.&.&.&.&.&.&.&.&.' ' _ _ %._ ' *.U.U.U.R.R.R.R.R.",
"U.U.U.U.U.-.-.U.-.*.U.U.U.' ' B @ 2 O.#./ u.s.u.i.p.T T T q.N.C.C.D.D.D.C.C.C.V.Z.V.V.V.C.D.D.D.D.K.oXoXOXOX@X*X*X%X%XOX%X%XOXoXoXoX'.`.D.S.S.Z.b.b.c.c.c.c.c.c.A.A.A.A.c.c.c.c.c.c.c.c.c.c.c.c.b.b.b.Z.V.V.D.D.D.`.`.`.'.oX`.`.oXV.t.p.l.l.l.l.n.M.N.N.N.n.Y z L E p.^ l h u u y w ; 9 Z G W W G H H G D G G G I ' -.U.U.U.U.U.U.' ` I H G G D D D D D D D C A A A B V B B B V B D / _ &.&.&.*.' ' ' ' -.*.' *.*.*.*.-.*.*.*.*.*.' ' ' ' &.&.&.*.*.*.*.&.*.*.*.*.*.*.*.*.*.*.*.&./ W W _ &.&.&.-.-.*.*.-.*.*.U.R.R.h.R.U.U.U.U.R.R.R.R.R.R.R.W.{.*X,X{.!.!.!.!._.[.` 1 # * * 7 j ^ *XOX@X@X+X`.V.N.N.N.N.N.N.N.N.N.N.m.m.m.m.m.M.N.N.N.m.m.m.c.c.b.N.b.b.b.c.c.j.s.u.u.u.u.j.j.j.c.c.d.j.j.f.s.j.l.n.n.M.!.!.V.V.V.V.C.V.V.V.V.C.C.V.N.n.d.t.r.r.q.t.i.A.c.n.j.T n v v T k.!._.~.V.V.N.V.V.~.f.f $ : : $.#.$.$.~ D V V V B G ' ` W W I ` *.-.-.-.-.-.-.-.-.-.-.-.-.-.-.-.*.*.*.*./ Z V V V Z H &.;.*.*.*.*.*.*.*.*.*.*.*.*.*.*.-.-.-.-.-.-.-.-.-.-.-.-.*.*.*.-.-.-.*.*.-.*.*.*.*.*.&.&._ D B A / %.&.&.&.&.&.&.' ' ' &.&.' ' &.&.&._ _ _ _ _ %.*.U.U.R.U.R.R.R.",
"U.U.U.U.-.U.U.-.-.-.U.U.U.R.T.>.F y #.#./ u.s.d.i.t.T T T q.N.D.D.D.D.D.D.D.V.V.V.V.V.Z.V.V.V.V.Z.Z.Z.V.V.C.D.C.D.D.D.D.V.V.V.N.N.N.b.c.c.c.c.c.c.c.c.c.c.c.c.c.c.c.c.c.c.c.c.c.j.j.j.j.c.j.j.c.c.c.c.c.c.c.c.A.i.i.x.j.A.A.A.A.i.i.l.n.j.c.c.c.j.c.c.c.c.f.Y z L Y ^ ` l h u u 3 2 ; 9 Z G W W G H H H D D D G D ` -.U.U.U.U.*.` I H D D H D G G H D A A A A B V V V V N V V B V V B D H W _ _ ' &.&.&.*.*.*.*.*.*.*.*.&.&.' _ _ _ / / _ _ ' &.&.&.&.&.' *.*.&.*.&.*.&.*.*.*.&.` W / _ &.*.&.-.-.*.*.*.*.*.*.U.R.R.h.U.U.U.U.U.U.U.U.U.h.h.f.f.).{.{.!.W.W.W.).{.{.` 3 # & * 9 h ^ *XOX@X@X+X`.V.N.N.m.m.m.m.m.m.m.m.n.n.n.n.n.n.c.n.n.c.n.n.n.c.b.b.B.b.b.B.c.N.b.b.N.c.c.c.c.b.n.l.k.r.U n n v n n P n P E r.s.n.!.~.~.~.V.b.n.d.t.t.q.q.r.r.r.r.t.u.d.n.l.e.v n t.M._._.V.N.N.N.V.V.V.V._.s.f $ ; 2 $.$.O.$.~ D V V V B G / W W W / ' U.U.U.' U.U.U.' -.U.U.U.U.U.-.-.-.-.-.&.C 9 9 u u u u H ;.*.*.*.*.*.-.*.*.*.*.*.*.*.*.*.*.*.*.-.-.-.-.-.-.-.*.*.*.-.*.&._ _ _ ' &.&.*.*.*.&._ D Z B A G _ / _ _ %.&.&.&.' &.&.' ' ' ' &.&._ _ / / _ _ ' -.U.U.U.R.R.R.",
"U.U.U.U.-.U.U.' U.U.T././././.(.$.~ O.O./ u.s.s.i.t.T T T q.n._.S.S.S.S.S.D.D.S.V.V.V.Z.V.m.m.N.b.b.b.b.N.b.b.N.N.N.N.N.m.n.n.n.l.j.j.j.j.d.s.j.d.d.d.j.j.j.d.d.j.j.j.j.j.j.j.j.c.c.c.c.d.c.c.c.c.j.c.c.c.c.c.c.j.j.j.j.d.d.j.j.j.j.j.l.j.j.j.x.j.j.j.d.i.p.P z L E ^ ^ l h u u 3 2 ; 9 Z W W W G G D D D H D G G _ &.-.-.' _ W I D D G G G G G D Z A A V N N N N N u N N N N N N V V V V B Z D D G G / _ _ %._ _ _ ` / W W D H H H W W ` _ ' &.&.&.&.&.' &.*.&.&.&.&.&.&.*.*.&._ _ _ &.*.*.-.-.*.*.*.*.*.*.*.*.R.R.R.R.I.' ' ' U.I.I.U.U.h.h.h.W.).W.E.E.W.!.[.{.].^ 3 # & # 7 h E ].oXOX+X+X`.N.b.c.c.c.c.c.c.n.n.n.n.n.n.n.n.c.c.c.c.n.n.n.n.c.b.N.b.b.b.N.N.b.b.b.b.c.c.c.n.n.l.r.P v L L L L L L L x f f g v m T q.R ^ q.q.q.q.r.t.t.u.s.s.u.u.u.s.u.u.p.q.r.!.]._.V.V.N.N.N.N.N.N.N.N.M.R 6 ; ; 2 O.O.| F G Z B V A V / &./ D D _ &.&.' -.-.-.-.-.-.-.U.U.U.-.-.-.*.*.' _ D B B V V V V V C _ ;.*.*.*.*.*.*.*.*.*.*.*.*.*.-.-.-.-.*.*.*.*.*.*.*.*.*.-.&._ W W W / _ _ _ _ _ _ _ W G Z V A / G D G G G W W / _ &.&.' &.&.' &.&._ _ / / / _ ' *.U.U.U.U.U.R.",
"U.U.U.U.U.-.-.-.U.E.^.E.^./././ 2 s #.#._ u.s.u.i.p.T T Y q.j.N.N.N.N.N.b.V.S.S.S.S.V.V.V.V.N.b.N.N.b.N.N.m.c.c.c.d.d.i.u.s.u.p.p.p.p.t.t.p.p.s.d.d.d.d.d.j.d.d.d.j.x.x.j.j.j.j.j.j.j.j.x.A.c.c.c.c.c.c.c.A.A.A.c.c.c.x.d.s.s.s.d.d.j.j.d.s.s.u.u.u.u.u.u.r.v l C Y ^ I l h u u 3 2 ; 9 Z W W W W W W G G D D G / / _ ` ` I D H D H D G W G H Z V N N N u u u 9 9 9 9 9 7 7 9 9 9 9 9 u u V V V V B B B A Z Z Z Z Z Z Z B Z D D S H W _ ' ' &.&.&.' ' ' ' &.&.&.&.&.&.&.' &.&.&.&.&.&.&.*.*.*.*.*.*.*.*.*.*.*.*.U.R.R.R.U.U.' ' I.I.I.I.U.U.h.h.h.g.g.R.W.!.].{.,X].I 1 # * # 5 h Y ].oXoX+X+X`.N.c.c.n.c.n.c.n.n.n.n.n.n.n.n.n.c.c.c.c.c.c.n.n.c.b.N.b.c.B.M.M.n.n.n.n.j.j.u.y.q.Y n P P P P L P P P P L k k z L L P P P U T t.u.d.n.N.N.V.~.~.V.N.n.j.i.u.t.r.T q.q.t.p.s.s.s.s.p.t.r.r.T R L 5 ; = 4 O.| a F H Z B V V B G / H Z Z D D D D D H H G G G G W W / W G D D H H H D H H G G D G G / %.&.&.*.*.*.*.*.*.*.*.*.*.*.*.*.*.*.*.*.*.*.*.-.-.*.*.&.&.` D G G G W W W G H D C D D S Z h B ~ G D D D S S S H H W / ' &.&.' &.' &._ _ _ _ _ ' ' U.U.U.U.U.R.",
"U.U.U.-.-.U.U.U.U.R.T.E.E.T.&.5 # i #.#.%.p.u.u.u.t.T U T q.t.u.u.u.u.t.t.t.u.u.A.c.b.V.N.N.N.N.N.N.V.V.N.N.N.N.b.c.u.y.t.t.r.r.R T T R r.r.t.p.u.u.i.d.d.j.i.i.d.d.d.d.j.j.j.j.d.d.d.d.d.d.c.c.c.c.c.c.c.c.j.j.j.j.s.r.R U n Y r.s.d.s.s.s.u.u.u.u.p.p.r.Y z l z P ! I B 9 u u 3 2 2 9 Z G W W ` W W W G H H D D H H H H H H H D G G G H D V 9 9 9 7 7 7 7 7 3 3 3 3 3 3 3 3 3 7 7 7 9 u 9 9 9 9 9 9 9 u u u u N V V V V B Z Z D S / ' &.&.&.' &.&.&.&.&.&.&.&.&.&.&.&.&.' ' &.&.&.&.&.*.*.*.*.&.*.*.*.*.*.*.*.' U.U.R.h.h.I.I.U.U.U.h.U.U.' -.U.I.R.W.W.[.{.,X,X|.` 3 # # # 3 9 I _.D.XXXXoX`.N.c.b.m.c.m.m.c.c.c.m.c.b.b.n.M.b.c.n.n.n.n.n.M.c.c.j.s.p.p.t.r.T T T m P n n m U U Y Y Y Y U P U U U P P x f l P P P P P U t.n.N._.V.V.V.V.V.V.V.V.V.N.c.c.j.d.u.q.T m m m P P P P U U U E E z 1 ; # 2 O.{ s J H D B B A A A Z Z Z B B V Z Z V V B B B V V B B B B Z D H G / / G ~ / / / / W / / W W W / / _ %.' _ _ _ _ _ _ _ _ _ _ _ _ _ _ _ _ _ / / G G H D H H D H D D Z V V V V B A Z A B D D D H D H H H D D D H / _ &.' ' ' ' ' %._ _ _ ' *.*.U.U.U.U.U.",
"U.U.U.-.-.-.U.U.U.U.R.R.U.-.B $ - 2 $.#.) p.p.u.d.y.m m T r.u.t.u.u.u.y.q.q.q.U m T T q.y.y.u.u.u.d.d.j.d.d.d.d.d.d.s.t.t.r.q.T U m U Y T R r.r.t.u.s.d.i.i.i.i.i.i.i.i.x.x.x.i.i.i.i.i.A.A.i.i.A.A.A.A.A.c.d.t.t.q.U P L K z z P p.u.p.p.t.t.t.t.t.r.r.^ Y x j l C L C h u u u 2 2 2 9 V G W / Q Q W W G D D D D D D D D D D D D D B V 9 7 5 7 3 3 1 1 2 2 2 2 2 2 2 2 2 2 2 3 3 7 7 7 7 7 7 7 3 7 7 7 9 9 9 u u V V V V V B A Z D / _ ' ' ' ' &.&.&.&.&.&.&.&.&.&.&.&.&.' ' &.&.&.&.&.*.*.*.*.&.*.*.*.*.*.*.*.' U.T.U.-.' -.-.U.h.h.h.h.U.' -.I.U.R.E.[.{.,X*X,X{.I 1 # # # 2 6 K !.V.V.V.S.V.M.c.c.n.c.n.c.c.c.c.b.c.b.c.c.c.n.l.l.d.s.s.t.r.T T Y U n n n n v v v n n n n P Y Y Y Y E Y Y Y P P P U I l f x P P P P P P r.n.V.V.V.Z.N.N.V.V.V.V.V.V.V.V.V.V.m.n.d.s.t.q.T Y U U U U U U U z 1 ; = 3 O.a y u S D Z B A A A A B B B B V V V V V V V V V V V V B B V V B B B Z Z D D D D D D D D D D D D D D D D Z Z A A A V V V V V V V V V A Z Z Z Z Z Z D D H H D D Z Z u 7 < 4 9 u N B Z B D G H D H H H H D H H D D / ' ' &.&.' ' _ / / _ ' ' *.*.U.U.U.U.",
"U.U.U.-.-.-.U.U.*.U.U.-.-._ 7 ; - : O.#.$.^ ^ ^ r.r.Y Y r.r.p.u.s.s.t.r.q.T T T T U U U m m U U U U T T T T T T T U U U U U U P P P P P Y E ^ ^ r.r.t.t.t.u.u.s.i.i.i.i.j.j.x.i.j.j.d.d.d.j.j.j.j.c.j.j.s.t.T T R Y I I L C C C v r.r.r.r.r.r.r.r.r.T T T P l j h j j h 9 u u u 4 : : 0 u H W W W W H H Z B B V V V N N V V A A V 7 1 1 < < 2 2 2 $ $ $ 2 $ $ $ ; ; @ @ $ ; ; 2 4 3 7 9 7 9 9 9 9 9 9 9 9 9 9 u u V N V V V V B A H _ _ ' &.&.&._ ' ' &.&.' &.&.&.&.&.&.' ' ' ' &.&.&.&.&.&.&.&.&.&.&.*.&.*.&.' &.-.' / D H ` &.' ' ' ' ' ' ' ' U.U.R.E.).{.].*X,X{.C $ # o # @ 7 j P r.t.t.p.s.p.t.p.s.s.s.f.k.j.l.j.j.l.d.s.u.p.q.T U U U U P P P L L L L L L L L L L L L L P U Y Y U Y Y Y Y U P P U I C f x L P P P P L m s.N.N.b.b.b.m.N.N.V.V.V.V.V.V.V.V.m.N.N.N.M.n.n.l.l.f.s.t.q.m P z 1 $ = y a s y u Z Z A A V V V V V V V V V V V V V V V V V V V V V V N N u u u u u V V B B Z Z Z Z Z B Z Z Z Z Z V V V V u u u u 9 9 u u u u u u V V V J Z D D D H H Z Z A 9 2 . . . # ; 3 u u N V S D H D D D D G D D D D G / _ _ _ _ _ _ W W W ` _ ' ' -.U.U.U.",
"U.U.U.*.-.-.U.U.-.U.' ' D 9 < - - ; O.#.O.j k h k z L P U E ^ ^ ^ ^ ^ R R Y Y U Y n n n L L v v L L L L L L L L L L L L L L L L P L L L L P Y Y Y Y Y T R r.r.p.s.s.s.j.j.j.s.s.s.s.s.s.p.p.p.p.p.p.p.T P P I I E E I I L l x x L T T R R R R T T Y Y Y Y L j h 9 h 6 5 9 u u u 4 : ; 9 u Z H D D B B V N 9 9 9 9 9 u u V V u 5 2 , @ @ $ $ @ @ @ $ $ @ @ $ ; ; = = @ @ ; @ $ $ ; 2 3 3 7 u u u N N u 9 9 9 9 u u N N N V V V B D / _ _ _ _ _ _ _ _ _ ' &.' &.&.&.&.&.&.&.&.' ' &.&.&.&.&.&.&.&.*.&.&.*.&.' ' ' _ H Z h h C _ ' ' ' ' ' ' ' -.-.' I.h.g.g.W.!.!._.W.h $ o o o . 3 V l z v K L P P P P P P P P Y Y R E R R Y U U U P P P P L L L n n n z z z v z z z z z C K K I E Y U P U U Y Y U U P P P C f x L P P P I K K U t.t.t.l.m.N._._._.`.`.`.S.S.~.V.N.S.V.V.N.N.!.!.N.N.N.N.!.W.a.x , @ # y a i w 2 9 V V V V V V V J J V V V V V V V V V V u u V V V N u u 9 3 3 9 u u u V V B B Z Z V B Z B B Z B V V V u 9 9 9 9 9 9 9 u 9 9 u V V B A Z D D D D I H D V 1 @ . o o # # o # # $ $ 4 9 Z D G G G D G D H H D H G W W W / _ _ _ _ _ _ _ ' ' ' ' *.-.",
"U.U.U.-.;.-.*.' %./ D 6 $ @ $ % - - O.#.~ 9 5 5 8 8 8 5 6 6 6 6 f f f f f 6 6 6 8 8 8 8 8 8 8 8 8 8 8 8 5 5 5 5 8 8 5 6 6 6 6 h f f f h h h h f h h h h j j j j x x x x j k f f h f f f f f f 6 6 8 8 8 8 6 h h k j j h k l l z P Y P U U U U U P P P P n z j 9 9 9 7 7 9 9 u u ; : : 3 u J J V V V N V V V V V V Z V V u 3 ; $ ; ; ; ; ; ; $ $ @ $ $ $ $ $ $ $ $ $ $ $ @ @ @ @ ; ; $ $ 2 3 3 9 u u u u u u V V V V V V V B Z Z Z D D D D H G G G G W / / / / _ _ _ _ _ _ _ _ _ _ _ _ _ _ ' ' ' &.&.=._ Q _ _ W B j h h D / &.=.' ' ' ' _ _ ` ` ` W W ` I I Q ` ] I 5 = o o o # # 9 B x z z C C z z z z z z z z z z z z z z C C z z z z z z z z z z z z z z z z z z z z l z z L Y P P P P P Y Y Y P P P I K f j K K K K C C C C v K K P P P E E T R q.r.r.r.r.t.r.r.t.t.p.p.p.p.s.f.f.s.p.^ C 1 $ @ # y a i w ; 3 7 7 7 7 7 7 7 9 u V V V Z Z D D D D D D Z Z D Z Z Z 7 . @ # @ 3 9 B B C D D D D D D D D C B B B B 9 7 9 9 9 9 9 9 9 9 N V V B B B Z D D D D G W D 9 @ . o o o # o o o o o o o . . 2 9 V Z Z H G G S D D D D D H D D H G &.&.' ' ' ' *.*.' *.&.",
"D Z V V V N 9 9 3 4 ; % # # # # o > { #.$.u 3 3 2 < < @ @ $ $ $ < , , @ @ @ @ $ $ < @ @ @ @ @ @ @ @ < < $ $ $ $ , @ @ @ , , @ @ # # % % @ @ @ @ @ @ @ @ @ @ @ @ @ $ @ @ @ @ . @ % $ % . . # . . . # # # @ @ @ @ @ @ , < 5 h j j l l C C C C C C C C C l j j h 9 9 9 9 7 9 0 u 2 % o - ; 2 2 2 2 2 2 4 4 2 3 3 3 3 1 2 , @ # @ * # # # # # # # # # # # # # # # # # # # # # # # # # o # # . . # # @ $ $ 2 2 4 4 3 3 3 3 3 2 2 2 2 2 2 2 2 1 3 3 3 3 7 7 7 9 9 u u u u u V V V V V V V B B B A Z Z Z V V V V V V 9 9 5 9 V V V V N N N 9 9 9 9 7 5 5 5 7 5 6 9 9 9 h 5 2 # o o o # # @ 5 h j j j j j j j j j j j j j j j j j j j j j j j j x x x l l l l l l l l l l l l l l z C L I I I I P P P P P L L L L C f j C z z l C j j j j j k k h h f f f f f f 6 6 6 6 6 6 6 6 6 6 6 6 6 6 8 8 8 8 , $ $ # ; s a i w - 2 2 2 3 3 3 3 3 2 3 3 7 7 9 u J H H G ~ / / / / ` / G B 3 @ @ $ 9 H ~ / _ _ %.%.' =.=.' / / G H Z 9 3 3 3 7 9 9 9 9 V V B B B B V V V V V V u 9 5 @ .   . . . . o o o o o o o # . . . . . $ 4 9 V Z F S D D D Z D D D D G &.-.&.' *.*.&.=._ / W ",
"< < < 2 2 2 2 4 2 2 2 ; $ % # - o o a +.O.s u 0 2 ; ; # - - # # * # # # # # % % * * # # # # # # # # # # % % % # @ # # # * # # # # # # # # # # # # # # # # # # # # # @ @ # # # # # # # # # # # @ # # # # # # # # # # # # @ $ < < < < 1 1 1 1 1 1 1 1 1 1 1 1 2 2 2 2 2 ; $ # # # - s +.y * - # # # # o . . # # # # o .   . # o o o o o o o o o o o o       . . . X o o o o o o o o o o o o o o X   .     .       . . . .   . o # # # # # # # # # # # # # # # # # # @ $ $ $ $ $ $ $ $ $ < 2 2 2 2 ; $ # # @ @ # # @ # @ @ @ @ @ @ # # # @ @ @ $ $ ; $ ; ; ; ; ; ; ; * o . o o o o # $ @ 2 1 1 1 1 1 1 1 1 1 1 1 1 < < 1 1 1 1 1 1 1 1 5 5 5 5 5 5 5 5 5 5 5 5 5 5 5 5 5 5 6 6 6 f f f f f 6 6 6 6 6 6 6 6 6 5 5 7 6 5 5 5 5 1 5 5 1 1 1 1 5 5 5 8 8 5 6 6 7 7 7 7 7 5 5 5 7 7 1 1 1 1 1 2 2 2 $ # * - i +.O.a q - * - # # # % ; ; ; ; 2 2 ; ; $ 2 < 3 3 3 3 5 5 5 5 5 5 9 u ; # # < 3 3 5 5 7 9 7 0 0 3 3 3 3 2 < $ $ ; 2 2 2 2 2 2 3 3 3 3 3 2 2 2 ; $ @ @ # . . .   o o . . . . o o o o . # # # o # o . o . . . @ $ 3 u u u J J Z Z J J H ~ / / / / G D A V N u ",
"2 4 4 4 2 2 ; ; $ % # # # # # o o o y a s i y y 2 ; ; ; - # # # # # # # # # # # # # # # # # # # # # # # # # # # # # # # # # # # # # # # # # # # # # # # . . . . # # # # o # o o # # # # # # # # # # # # # # # # o o o o o # # # # # # # # # # # . # # . . . . . . . o o # # * o r 6.5.: & : & o   o o o o o o o o o o o o o o o o o o o . . o o o o o o o o o o o o o o o o o o o o o o o o # # X o X o o o o # o o o o # # # # # # # # # o o o # # o . o o o o o o o o . o o o # o o o o o o # o X o # # X o o X o X o     . O                 . .   . . .     . . o o o o . - F y # ; # # # # o o o o # # # #   # # . . . . . o o o o # # # # # # # # # # # # # # # # # # # # # # # # # # # # # # # # # # = = # # # # # # $ $ @ @ $ @ $ $ $ @ @ @ < , , , , , , , , , , , $ $ @ @ @ @ @ @ @ # : i +.<.#.O.i : > & o o o o o o o o # o o # # # # # o o o o o o o . . . . # . . # o . . o o o o o o o o o o & & # % - * * * * * * - * * * - - ; ; ; = * * # # # # X o o o o o o o o o o o o o # o o . o o o # o o # o # # @ ; ; 2 3 0 y y u 9 9 9 3 3 3 3 3 2 0 ",
"% # # # # # . . . . . . . o . o o - - : : q w 2 : ; - # # o # # # # # # # o # # % # # # # % # # # # # # # # # # # # # # # # # # o # # # o # o o o # # o o o o o o o o o o o o o o # o o o o # # # # # # o # o # . . . o . o # . # # # # # # # # # # # # o o # o o o o o # o O q  .@.@. .{  .{ p r : : : : : : : : : q : : : : q : : : q q q q w q r q q r q y y y y y y q q : : : : : : : - - - - * - & o & & o o o o o o o o o o o X X o o .   o o o o   o o o o o o o o o o o o o o o o o o o o . .   X o o o o o o X . . . . . . . . . . . . . . . . o o o o o o o o # o - i a a w - o o o X O o o o o . o o o o o o o o o o o o o o o o o o o o & & & o o o # # # # o o o # # # # # # & & o o o # * # # # # # # # # * * * * * - - - - - - - ; = = ; ; ; @ @ @ $ $ $ @ @ @ @ @ @ @ @ # # # ; i +.6.6.6.<.O.p q - - * # o o o o o o o o o o o o # # o o o o o o o o o # o o o o # # * * # * * * o * * o o - - & o & o * * - * * * - - - * * * * * # # & & o o # o X o o o o o o o o o & O X o o o # o o o o o # o o o # o X X X X o # # # # # # # # # # # # # ",
".   .   X O O O o o o o & > & > - : : : q : : : : : - - - - - - * o o o o o o o o & - - - - - - - - - - - - - - - - & - & o o o o o o o o O o O o o o o o . . o o o o o o o o o o o # - - % # # - - * - # # o o & & & & * o # * # # # # o o o o # # # # o o o o o o o o : r  .rXsXaXsX3.3.aXzXzXzX2.} p p i p p p a a p p p p p s i i i p p p i i i p i i i i i i i i i i i i i i i i i i i i i i i i i i i y y y y y y r r r q q q q q : : : : : : : - - - - - - > > > * & o o o o o o o o O o o o o o o o o o o o % % - o o * o & > > o > o o # - - - > > + o # # o o & : y s i s { s i y : : - - > > * & & o o o o o # o o o o o o o # # # o o o o o o o o o o o & & o o o & * * * * o & & - - - - - - - - : : : : : q q y y y y y y y y i i i i i i i i i i i i i i i i i i i i y y y r y a +.6.tXtXrX6.2.+. .i q : : & & & & & & & & & & & & & o o o o o o o o o o # o o o o o o o o o o o > > & & & o & & & > : : : : q q q q q q q q q q q q q q q q q w w q w y r r y y i i p p a a y * O o # . o o o o # o o o X X X # X X                     X X X X ",
"- : : r y i i y y : - - - : : q y i s a { O.O.O.O.O.+.#.#.<.<.<.#.#.O.y q s  .#.<.2.5.5.2.<.O. .a { { a { a a  .+.<.2.@.+. .{ { a a a i y r y y q q : : : : : - - > - : : : q r i p i i t i i i i i p p p p p p } } p p i i p p i i i i y r r y y i i y i i p } {  .+.@.2.3.rXrXyXrX..} X.rXyXaXuXo.X.} } } } }  . . .{ } } } } } p p p p } } i i i i i i i i t i i t t t t r r i i i i i i i i i p p p p p p p p p a a p p p p } p p } p p p i i i i i i i i i y y y y y y r r r r q q q q i s y : > > > > - o - - - - - - - : : : : : : - - > > & o o O O O o o o - : a @.@.#.<.<.#.#.#.@.+.+.+.+.+.+.O. . . . . . . .O. . . . .O.O.O.+.+.+.O.O.O.O.O.O.O.O.O.O.O.+.+.O.O.O.O.O.O.O.O.O.O.O.O.O.O.O.O.+.+.+.+.+.+.+.@.@.@.#.<.<.<.<.<.<.<.<.<.2.2.2.2.2.2.2.2.2.2.2.2.2.2.2.2.2.2.2.2.2.2.2.7.rXpXaXgXaXtXrX6.2.<.@.+.+.+.+.+.+.+.+.+.+.+.+.+.+.+.+.+.O. . .O.O.O.O.O.+.+.+.+. .O.+.+.+.+.+.+.+. . .{ { { {  . .+.+.,.,.<.<.<.2.<.<.2.2.2.2.2.2.<.<.<.<.,.@.+. .{  . . .+.+.+.+.@.,.2.<.<.+.a y - . o o o o o o - : : q q q q q q q : : : : : : : q : : - - - ",
"7.rXrX6.2.<.@.O.{ a a a { { { O.@.#.<.2.5.pXmXNXFXJXJXJXJXFXFXNXMXMXMXjX<.@.6.gXfXpXfXpXpXpX7.+.+.+.+.+.+.+. .+.6.pXtX6.aXgXpXrX3.@.@. .{ { { +.+.+.+.+.+.+.+. . . . .X.X...,.1.sXnXcXdXdXdXdXaXdXdXdXdXzXzXzXdXdXdXdXdXdXaXaXsXsXsXyXyXyXyXuXyXyXuXuX4.uXuXuXyXyXsXsXyXyXyXyXpX2. .{ {  .4.2.rXyXsXyXyXyXyXsXzXnXnXnXxXzXzXzXdXsXsXsXsXsXsXsXsXsXyXyXyXyXyXpXpXtXyXrX3.1... . .} p p p p p p p p p i p p i i i i i i i i p p } {  . . .{ { { } } } } } } } p } { { { { }  . .....+.+.@.@.2.2.,.<.<.+. .O.O.O.+.#.<.5.5.2.2.2.2.5.2.2.2.<.#.#.#.#.#.#.#.#.@.+.+.@.#.<.2.7.tXpXpXtXpXpXpXaXpXpXtXtXtXtXtXyXyXrXrXrXrXrXrXrXrXrXrXrXrXrXrXrXrXrXrX7.7.7.7.7.7.6.7.6.6.7.6.6.6.6.6.6.6.6.6.6.6.6.6.6.6.6.6.6.7.7.7.7.7.6.6.6.6.7.6.6.7.7.7.6.6.6.6.6.3.3.3.3.3.3.3.3.3.3.3.6.6.6.6.3.6.6.6.rXrXpXsXsXaXaXaXaXaXaXyXrXyXyXrXyXyXtXtXtXtXtXtXtXsXsXtXyXyXyXyXyXyXyXyXyXyXyXyXyXyXsXsXyXsXsXsXsXsXaXaXsXrX4.1.<.<.<.4.2.2.6.6.7.rXrXrXrXrX3.rXyXyXrXrXrX6.6.6.2.2.<.,.+. ... . .@.<.2.2.6.6.7.7.2.+.i i O.s : o o o o t <.2.2.4.2.2.<.1.<.1.@.+.+.+.......1.1.,.1.1.1.",
"tXrX6.2.,.+.+.+.+.+.O.O.+.+.O.+.<.6.7.tXhXjXvXxXxXvXvXvXvXxXjXhXhXhXgXpX2.<.O.O.O. . .+.@.@.<. . . . . .+.+.,.2.7.tXfXxXMXxXtX5.#.O.a F F ~ $.:.:.:.:.:.:.:.$. .{  ...+...,.4.rXGXHXJXDXDXDXDXGXGXGXGXGXGXGXGXGXGXGXGXGXGXGXbXbXvXsX7.3.2.<.<.2.2.7.tXpXpXaXsXsXsXpXsXyXyXrX6.+.{ { {  .<.rXyXsXaXaXzXxXnXDXDXJXHXHXHXHXHXJXJXJXJXJXJXJXJXJXJXJXJXDXFXDXDXDXDXDXFXDXDXDXDXNXbXxXaXaXpXpXpXpXpXpXtXrX7.7.6.3.3.3.4.2.2.2.<.<.<.<.<.+..... . . ...+.+.@.,.2.3.7.7.rXrXrXyXrXrX7.3.4.2.2.1.,.@.+.+.@.#.#.#.#.gXNXDXFXFXFXFXFXFXFXJXJXJXJXJXJXJXFXBXNXNXNXNXMXmXxXjXhXjXjXjXxXvXmXmXmXmXmXmXmXjXjXkXkXfXfXfXfXgXgXpXpXaXaXaXgXgXgXgXgXaXpXpXaXaXaXaXaXaXpXpXpXpXpXpXpXpXpXpXpXpXpXpXpXpXpXpXpXpXpXpXpXpXpXpXpXpXpXpXtX7.6.6.5.6.6.6.7.8.8.8.8.8.6.6.6.6.6.5.6.2.2.2.2.2.2.2.2.2.2.2.<.2.2.6.6.7.tXtXtXtXpXaXaXpXgXgXgXpXtXtXtXtXtXtX8.8.tXtX8.8.8.7.tX7.7.7.7.7.7.7.rXrXrXrXrX7.rXrXrXrXrXrXyXtXyXyXrX3.,.,.,.,.,.,.@.#.,.<.2.7.7.7.7.7.7.tXtXtX8.8.8.8.8.8.8.9.9.5.#.#.#.#.0.5.9.9.9.9.9.5.5.0.:.~ H :.:.%.u 3 2 @ #.tX8.tXtX7.rXrXrXrX6.<.,.,.,.,.1.2.6.6.6.6.6.6.",
"6.5.5.5.<.#.$.$.$.$.#.#.#.5.8.pX6.@.@.,.<.2.6.7.7.7.7.6.7.7.6.6.6.6.5.<.0.#.O.| O.O.O.O.O.#.0.0.:.#.#.$.$.:.>.>.>.>.>.:.>.>.(. X.X4X4X4X0XeXeXeXeXeXeXeXeX0X.X&.~ F {  .o.,.3.hXhXaXgXhXbXDXbXnXnXbXbXbXGXGXGXbXGXbXGXGXGXbXMXgXO.i y 2 < $ 2 2 1 3 9 (  XlXkX X(.>.:.~ | { {  .+.<.6.tXsXaXaXaXhXzXxXbXDXHXLXLXLXLXJXJXLXLXPXLXHXHXHXHXHXHXKXHXJXJXJXJXJXHXHXHXJXJXJXJXJXJXJXDXDXbXnXbXbXNXDXDXJXJXDXDXDXDXbXbXbXbXbXbXnXnXnXnXxXhXsXyXyXrX3.4.2.1.4.aXnXbXDXDXDXJXJXJXDXbXbXnXxXvXxXzXaX7.+.a s u u J s :.kXlXVXVXVXVXVXVXVXVXmXVXmXmXVXVXVXVXBXVXVXVXVXVXlXlXkXkXkXkXlXlX4X4X.X.X[.^.R.g.h.' ' ' ' ' _ _ _ _ %.%.%.%.;.;.;.;.;.;.;.;.:.:.:.:.:.:.;.;.;.:.:.:.:.0.:.0.0.0.0.0.0.:.:.:.:.:.:.:.:.:.:.:.:.:.:.$.$.H H H | | $.$.$.$.$.$.$.$.$.O.O.~ F F F J J J J J J J J s J s s J J J J F F F H H $.$.$.%.>. X(.(.>.;.;.;.;.;.:.:.:.:.:.:.%.%.%.$.$.$.$.$.$.$.$.$.$.$.%.$.$.$.$.$.$.#.#.#.#.@.+.+... .+.{ s s s i a { O.$.$.$.$.%.;.;.;.;.Y.(.T.T.T.^./././.E.W.W.W.).!.!.!.!.W.!.!.!.W.W.k.p.f.g.p.h.h.] ` I ' &.>.>.>. X X9. X8. X(.(.(.(.(.(..X(..X.X(.(.(.",
"kXlXkXkXkX5X X X X X X X.X4XkXlX9.$.O.O.O.0.9. XiXfXfXfXfX5X5XkXkX5X5X5X X X X(.>.$.~ ;..X4X4X4X.X/.R.I.p.r.r.r.p.^ Y m ).0X0XeXeXeXeXeXeXeXeXeXeXeXeXeXeXeX0X.X;.~ s } o.,.2. .: : : y a 6.vXNXNXNXNXNXNXNXNXMXmXmXxXjXjXjX XF u V V h 9 7 1 2 1 1 6 Z R..X4X4X0X4X4X.X;.:.5.8.pXpXpXpXfXpXfXtX8.9.8.kXVXBXVXlXkX9.>.>.5.9. XjXNXFXFXFXBXjX6.xXPXHXKXKXHXHXHXHXHXHXHXHXHXHXJXJXJXDXFXDXFXJXJXHXHXHXJXHXJXHXHXHXHXHXHXHXHXJXJXJXJXFXDXNXbXnXzXhXaXaXgXvXFXJXJXHXHXHXHXHXHXHXHXJXJXDXDXbXbXvX5.u Z Z Z C C I I ` ' ' ' ' ] ] ^ ^ ^ ^ ^ p.h.h.h.h.R.R.R.R.R.R.f.f.f.f.f.f.s.d.d.d.j.s.u.i.u.u.s.p.p.p.p.p.t.t.r.q.q.R R R q.q.q.r.r.r.q.r.q.r.r.r.r.t.u.s.s.p.r.T R R R E E E E E Y Y E E E E E E E E E E E E E E Y Y Y Y I I L I I E E ! E I I I Y Y L L n L Y P Y P L P Y Y Y E ^ ^ p.f.g.g.g.g.p.p.p.p.k.W._._.G._._.].%X%X%X%X%X*XoXoX]._.).G.).k.f.p.p.^ ^ ^ ^ ^ ^ ^ p.p.g.g.h.h.' I C B F 0.8.2.p i a a s u V j l C C L ` I Q ^ ^ r.t.t.s.s.d.j.A.c.b.b.b.N.N.N.V.V.V.V.S.S.S.S.S.S.S.b.B.c.i.i.i.t.u.u.u.t.r.r.r.^ ` Y..X.X.X4X.X|.|.}.}.,X<X,X,X<X<X<X,X,X",
"^.E.R.R.g.g.E.).[.{.{.[.{.[.[.^.Y.-.&.-.U.T./.[.{.|.}.}..X0X0X0X0X3X,X}.|.[.^.E.h.` ] |.3X3X7X{.l.f.s.s.f.l.l.l.s.t.t.j.,XwXwXwXqXqXqXeXeXeXeXeXeXeXeXeXeXeX0X0XY.~ s a ..,.a % ; ; $ ; ; ; O.9. XfXfXiX X X X(.(.(.(.(.(.(.(.%./ %.Y.^./.T.-./ W ` U..X4X0X0X7X0X0X0X3X.X/.G F $.0.>.>.>.:.:.%.~ ~ ~ / _ ' ' ' ' ' &.&./ G D H %.:.>.>.>.%.%.:.5XkXlXVXVXmXmXNXBXFXFXFXFXFXNXMXMXxXxXvXNXJXLXPXPXPXLXLXLXLXLXJXJXFXFXBXBXBXNXMXMXMXBXLXLXLXLXLXLXLXLXLXLXLXLXLXLXIXIXPXPXPXPXPXPXPXPXHXDXtXa N ` ` ^ E E p.f.s.s.s.s.s.p.p.p.p.p.p.p.p.p.p.s.p.s.s.f.f.j.j.j.j.j.j.c.B.G._.'.oX+X@XOXoXoXoXoXoXoXoXoXXXK.'.'.`.D.'.'.'.'.`.`.`.`.`.D.D.D.D.D.D.D.*X6X8X6X:X<X*X%XOX+X+X*X*X+XoXoXoXoXoX+X+X+X+XoXoXoXoXoXoX'.oX'.'.'.'.'.'.'.'.'.*X*X*X*X*XoXoXoX'.'.`._.`.`.`.`._.`.'.+X*X*X,X<X<X6X6X8X8X8X8X8X:X:X:X>X:X2X2X6X2X2X2X2X8X8X8X8X8X8X8X8X8X8X8X:XK.XX`.`.D.D.D.S.S.S.S.V.V.V.N.N.!.!.M.l.^ I  X X6. .{ { O.F 1 L ,X*X,X<X6Xl.E r.r.r.r.t.t.t.p.s.d.d.c.c.b.c.c.b.b.b.b.b.b.b.b.b.b.b.b.v.b.b.c.c.i.i.u.u.u.s.u.t.t.r.r.p.r.E..X0X0X.X|.}.}.,X<X:X:X:X:X2X2X2X2X",
"M v v M M M m W.{.].{._.l.s.p.r.U U U R y.d.N.`.'.oXoXoX+X+XXX`.`.S.V.b.c.u.t.T U U T r.u.u.j.s.t.s.s.s.s.s.s.s.s.j.n.M.N.S.S._.S._.'.*X,X0XeXeXeXeXeXeXeXeX0X0X^.G u s O. .: ; 4 u 3 4 2 3 1 7 %.(.(.(.(.(.(.(.(.(.(././././.;.*.U./..X.X.X3X.X|.[.}..X}.7X0X4X}.,X3X0X.X` Z H H G W _ %.%.%._ &.&.' ' ' h.h.h.h.U.R.R.U.R.R.U.U.R.R.R.T.T.T.R.' -.;.;.>.;.:.:.$.$.:.:.$.$.F u y 2 y s $.0. X XfXiX X8.9.>.>.0.0.0.:.:.%.$.$.$.H >.VXCXCXVXZXSXSXSXSXSXSXSXSXSXSXSXLXLXLXIXLXLXPXPXPXPXHX7.3 5 Q p.r.! E k.j.f.s.s.d.d.f.f.d.j.l.M.N.N.V.V.S.S.S._._._.D.`.oXoX%X*X>X<X:X:X:X2X2X2X2X2X8X8X8X8X2X2X2X2X6X6X6X6X6X8X8X8X8X8X8X8X8X8X8X8X8X8X8X8X8X8X8X8X8X8X8X8X8X8X8X8X8X8X8X8X8X8X8X8X8X:X:X:X:X:X:X:X:X:X:X:X:X:X;X;X:X:X:X:X:X:X:X:X:X:X:X;X;X;X;X;X:X:X:X:X:X:X:X2X2X2X2X:X:X:X:X:X;X:X:X;X;X;X;X;X:X;X;X;X;X;X;X2X2X2X8X8X8X8X8X8X8X8X6X6X=XP.C.C.C.V.V.V.V.Z.Z.Z.Z.Z.V.N.V.V.V.V.V.N.P (.9.tX7.<.{ $.J 1 z -X8X8X8XqXj.r.p.p.p.p.p.t.t.t.s.s.d.j.c.n.n.n.b.c.c.c.c.n.m.m.b.b.m.b.b.b.b.b.m.m.c.d.i.i.s.u.p.p.r.r.r.^ R ^ R.R.g.E.^.[._.<X:X:X:X:X:X:X:X:X",
"!.N.N.!.N.!._.~.V.N.m.i.t.q.q.q.t.j.!._._.`.`.'.oXoXOXOX@X*X*X*X*X*X*X*X*X&X,X*X'.S.N.A.u.u.y.y.y.u.u.u.s.d.j.c.n.n.c.c.c.b.b.b.b.V.N.b.b.V.'.,XwXeXeXeXeXeX0X0X^.W u i  .a - ; 0 F J u 9 5 V >.(.(.(.;.;.;.&.&.&.&.;.;.Y.(.(.;.;.&.Y./.[.|..X.X}.7X0X0X3X.X.X|.}.|.[.[.U.D ~ %.%.;.;.;.;.;.;.%.%.&.-.U.Y.U.U.Y.R.R.T.U.U.U.U.Y.Y.Q.Y.Y.;.&._ _ _ _ / H J 9 9 0 3 3 9 h h j B B C H ' &.I Z D Z S C H W W W Q Q Q Q Q Q Q W W Q ' /..X/.T.I.U.(./..X.X.X|.[.[.W.E.U.U.(. XlXBXLXFXJXLXPXJX2.2 1 C p.r.E R l.j.f.j.d.j.j.c.b.V.oX%X:X2X2X6X:X:X:X:X2X6X6X8X8X8X8X8X8X6X2X2X:X:X:X:X:X:X:X:X:X:X:X:X:X:X:X:X:X:X:X:X:X:X:X:X:X:X:X:X:X:X:X:X:X:X:X:X:X:X:X:X:X>X>X:X:X:X:X:X:X:X:X;X;X;X:X:X;X;X;X:X;X;X;X;X;X;X;X;X-X=X=X=X=X=X=X-X=X=X=X=X=X=X=X#X#X#X#X=X=X=X=X-X-X-X-X=X=X=X=X-X-X-X;X;X;X;X;X;X;X;X;X;X;X;X=X;X;X;X:X2X2X6X8X8X8X8X8X8X8X9X6X=XF.C.C.C.V.V.V.V.V.V.V.Z.b.c.c.c.B.M.c.m.n.n / 0.fXrX{ a #.s 4 x <X8X8X8X6Xj.s.s.d.d.d.s.s.s.u.u.i.j.c.N.N.N.N.N.c.u.u.u.u.s.s.d.j.c.c.c.c.c.m.m.m.m.N.N.n.n.c.d.u.t.t.r.r.r.q.Y ^ ^ ^ r.r.G.<X-X:X:X:X*XZ.A.V.",
"oXoXoXXXXXXXXXXX`.`.`.S.S.b.B.G._.`.D.D.D.D.D.D.XXXXOX*X-X-X-X-X-X-X-X-X-X-X>X>X>X>X-X+X'._._._.N.N.M.N.N.N.V.V.N.V.V.S.V.V.V.V.V.V.V.N.V.V.V._.].7XeXeXeXeX0X0X^.W u y { s - ; u F Z Z V D ;.(././.-.D G G G D D H D G G G ~ G ~ G G / / / %.&.-.Y.Y.U.h.' [ ` ` ` ` I L I / ` Q &.*.*.&._ G H G / _ &.&.-.*.' ' ` ` ` ` ` W D ~ / G Z B B h h V V V h u 9 9 9 9 N G &.E.|..X}.}..X3X0X0XCXCXCXCXCX4X/.E.R.R.U.h.' ' ' ' h.h.h.U.' I I W Q ` ` ` g.).[.{.{.[.).W.^ C x f h j (.VXBXHXPXJXO.@ , C h.r.R R l.j.l.j.j.c.c.Z.XX-X:X6X9X9X9X9X9X9X9X9X9X9X9X9X9X9X2X2X2X2X2X:X:X:X:X:X:X:X:X:X:X;X:X;X;X;X;X;X;X;X;X;X;X;X;X;X;X;X;X;X;X=X;X;X;X;X=X;X;X;X;X;X;X;X;X;X;X;X;X;X;X;X;X=X=X;X;X;X;X;X;X=X=X=X=X=X=X;X;X=X=X=X=X=X=X=X=X=X=X=X=X=X=X=X=X=X=X=X=X=X=X#X#X=X=X=X=X=X=X-X-X;X:X:X:X:X:X:X:X;X;X;X;X-X;X=X=X;X;X;X:X2X2X6X8X8X8X8X8X8X8X6X6X#XC.C.D.C.V.V.V.V.V.V.V.V.b.i.t.u.u.u.d.j.s.n h $.gXrX{ { +.s 3 k <XqX8XqX6XA.M.N.N.M.m.M.c.c.c.c.c.c.N.V.V.V.V.!.!.l.d.s.s.u.t.y.y.y.y.q.q.q.t.t.y.t.u.n._.V.V.~.V.N.N.N.N.N.N.].,X,X,X*X*X>X:X<X<X>X<X<X*X*X,X",
"D.D.D.`.D.`.`.D.D.S.S.V.V._.S._.V.V.V.D.D.S._._.S.D.oXOX-X-X-X>X-X-X-X-X-X-X=XOXoX`.D.V.V.V.V.V.V.V.V.V.V.V.S.V.V.V.V.V.V.V.V.V.V.V.V.N.N.V.V.V.S.].,XwXeXeX0X0X^.W u y { s # ; u F D D G ;.Y.T./.(.;.%.) / ~ G H H H D Z Z Z Z D H G W / / W ` ` ` ` ` ] ' ' ' ' U.U.U.R.R.T.E.E.T.R.U.U.U.&.Q G C V V Z ' Y.U.U.` D Z C B Z / &.;.*.` _ _ &.&.&.&.&.' &.%.' ' *.E.[.}.7X0X0X3X}.}.,X}.}.4XCXCXZXCX/.E.^.W.W.E.E.E.E.E.R.R.R.U.&._ %.%._ _ ` _ _ ' h.W.|.}..X.X}.}.[.[./.E.R.` :.mXJXLXFXs @ @ B h.r.T R l.j.j.j.c.c.N.oX-X6X6X8X8X6X9X6X2X9X9X9X6X6X8X9X9X9X2X2X:X:X:X2X:X:X:X:X:X:X:X:X:X;X;X;X;X;X;X;X;X;X;X;X;X;X;X;X;X;X;X;X;X;X;X;X;X;X;X;X;X;X;X;X;X;X;X;X;X;X;X;X;X;X;X;X;X;X=X;X;X;X;X=X=X=X=X=X=X=X;X=X=X=X=X=X=X=X=X=X=X=X=X=X=X=X#X=X=X=X=X#X#X=X=X=X-X-X-X-X;X:X:X:X:X:X:X:X;X;X:X:X;X;X;X-X;X-X-X;X;X;X:X2X6X8X8X9X8X8X8X8X8X6X2X#XC.C.D.D.D.`.D.V.V.V.V.V.V.c.j.d.d.d.c.c.s.n 9 O.aXrX{ { O.y 3 h 7XqXqXqX6Xb._._._._._._._._._._._.S.S.S.S.S.S.S.~._._.!.N.N.N.N.B.j.i.p.t.q.q.T r.r.r.u.N.S.C.C.D.D.D.D.D.`.`.'.+X+X+X*X*X*X*X-X>X>X<X:X:X:X:X",
"b.b.N.V.V.V.V.V.V.V.V.V.V.V.V.V.V.V.V.V.V.V.V.V.V.D.D.D.XXoXoXoXoXXX`.`.`.D.D.V.V.V.V.V.V.V.V.V.V.V.V.V.V.V.V.V.V.V.V.V.V.V.V.V.V.V.V.V.V.V.V.V.N.S.+X,XqXwX0X0XE.G u y a s # 2 3 F D G &.;.;.;.;.&.&.;.&.&.&.&.&.&.&._ %._ _ _ ' Y./.E.W.^.^.^.).).).).).).).).[.[.).^./.[.[.^.^.^.^.^././././.(.;./ Z B &.T.R.Y.U.-.' ' -.U.Y.T.T.T.T.Y.Y.-.-.-.*.*.*.&.' -.T.(.[.[.{.}.}.}.{.W.g.f.p.h.p.g.^./.E.W.^.W.W.^.^.W.W.E.E.E.E.R.U.*.&.&.=.' _ _ _ _ ' ' *.W..X7X6X0X0XeX0X.X/./.;.~ kXFXHXNXs @ @ h f.r.E R l.j.j.c.n.n.V.%X:X8X8X8X6X9X9X2X2X2X9X9X9X9X9X9X9X9X2X2X:X2X:X2X2X:X:X2X2X2X:X>X>X>X>X;X;X;X;X:X:X:X;X:X;X;X;X;X;X;X;X;X;X;X;X;X;X:X:X:X:X:X:X:X:X;X:X:X:X:X:X:X;X;X;X:X;X;X;X;X;X=X=X=X=X=X=X=X=X=X=X-X-X=X=X=X=X=X=X=X=X=X=X=X=X=X=X=X=X=X=X=X=X-X-X=X-X-X-X;X;X:X:X:X:X:X:X:X:X:X:X:X:X;X=X-X-X-X;X;X=X;X:X2X2X6X9X8X8X8X8X9X9X9X2X-XK.K.K.D.D.C.C.C.D.C.C.C.C.b.c.c.c.c.c.c.j.n 6 $.aXyX{ O.O.: ; 6 3XqXqXqX6Xb.S._.`._.`._._.`.`.`.`._._._._.S.S.V.V.V.S._.S.S.S._._._.V.N.c.s.t.r.r.r.r.u.c.S.D.C.`.`.`.`.`.`.D.D.D.D.D.D.D.`.`.`.`.oXoXoXoXoX@X",
"V.V.V.N.b.b.b.N.N.V.V.V.V.V.V.V.V.V.V.V.V.V.V.V.S.S.V.V.V.D.S.V.V.V.V.S.V.V.V.V.V.V.V.V.V.V.V.V.V.V.V.V.V.V.V.V.V.V.V.V.V.V.V.V.V.N.b.b.V.V.V.V.V.N.V.*X<XwX0X7XR.D u y a s # 2 2 J G %.;.&.&.&.&.&.&.&.&.&.&.&.&.&.&.&.&.-.-.-.R.^.^.^.^.^.^.^.^.^.^.^.^.^.^.^.^.W.W.^.W.^.^.W.W.W.W.E.W.W.W.W.W./.(.` G &.Y.U.U.T.R.T.T.R.Y.U.Y.U.U.U.-.*.&.&.*.*.*.*.&.*.U.R.E.E.!.).).).W.g.h.h.f.g.W.W.W.W.W.^.^.W.W.W.W.W.E.E.E.T.R.R.U.U.-.*.&.&.&.' ' ' _ _ ' ' h.[.0XwXwXeX4XD D Z Z Z Z  XmXHXNXi . @ h r.r.E R l.c.j.c.n.n.S.%X:X8X9X6X6X:X:X2X9X9X9X9X9X9X9X9X9X9X9X2X:X2X2X:X2X2X2X:X:X:X:X:X:X:X:X:X:X:X:X:X2X:X:X:X:X:X:X:X:X:X;X:X:X:X:X:X:X:X:X:X:X:X:X:X:X:X:X>X>X>X;X:X;X;X;X;X;X;X;X-X=X=X=X=X=X=X=X=X=X=X=X=X=X-X-X=X=X=X=X=X=X=X=X=X=X=X=X=X=X=X=X=X=X=X=X-X-X-X;X;X:X:X:X2X:X:X:X:X:X:X:X:X:X;X=X-X-X-X-X=X=X;X:X:X2X6X6X8X8X8X8X8X9X9X2X;X=X=XOXOXOXXXK.XXXXXXK.K.XXb.c.c.c.c.c.c.j.n 6 J tXrX{ O.a ; $ 6 <XqXqXqX7Xb.S.`.`.`.`.`.`.`.`.`.`.`.`.`._._._.`.`.`.`.`._.S.V._._._.`.S.V.n.u.t.p.t.t.u.c.V.S.C.`.D.D.`.`.`.`.D.D.D.D.D.D.`.D.D.D.D.D.C.D.C.C.",
"V.V.V.N.b.N.N.V.N.V.V.V.V.V.V.N.V.V.V.V.V.V.V.V.V.V.V.V.V.V.V.V.S.S.V.V.S.V.V.V.V.V.V.V.V.V.V.V.V.V.V.V.V.V.V.V.V.V.V.V.V.V.N.b.b.b.b.N.N.N.V.V.V.S.b.`.,X7X0X7Xf.H u w a a # 2 2 F / &.&.&.&.&.&.&.&.&.&.&.&.&.&.&.&.&.&.-.-.*.R.^.W.W.W.W.W.W.^.^.^.W.W.^.^.^.W.W.W.W.W.^.W.W.W.W.W.E.W.W.W.W.E.E.T.U.;.;.U.U.U.U.U.U.U.U.U.U.U.-.-.-.*.&.&.&.' ' &.&.*.U.Y.R.W.E.W.W.W.^.^.^./././.^.W.W.^.W.W.W.E.E.E.E.R.R.U.U.U.-.-.-.-.*.*.*.&.&.&.&.&.&.&.' ' ' ' E.7XwXwX0X[ Z F S F Z Z  XjXHXNXi . @ h r.^ Y R l.c.c.c.n.n.D.=X:X6X9X6X2X2X2X6X8X9X9X9X9X9X9X9X9X9X8X8X2X2X2X:X2X2X2X:X:X:X:X:X:X:X:X:X:X2X2X2X2X2X:X:X:X:X:X;X:X:X:X:X:X:X:X:X:X:X:X:X:X:X:X:X:X:X:X>X;X;X;X;X;X;X=X;X;X;X=X=X=X=X=X=X=X=X=X=X=X=X=X=X=X=X=X=X=X=X=X=X=X=X=X=X=X=X=X=X=X=X=X=X=X=X-X-X-X-X;X;X:X:X:X2X2X:X:X:X:X:X:X:X;X=X=X=X=X=X=X=X=X=X;X;X2X8X8X8X8X8X8X9X6X2X:X;X=X=X=X-X=X-X-X=X%XOXOXOXoXV.c.c.c.c.c.d.f.v 6 3 s a i a w @ $ 8 ,XqXqXqX<Xb.S.`.`.`.`.`.`.`.`.`.`.`._.`.`._.`._._._._.`.`._._.S.S.V.V.D.D.V.c.d.s.s.s.s.n.N.V.C.`.D.D.`.`.`.`.D.`.D.D.D.D.D.D.D.D.D.D.D.D.D.D.",
"N.N.N.V.N.N.N.V.N.N.N.N.N.N.N.N.V.V.V.V.V.V.V.V.V.V.S.V.S.V.V.V.S.V.V.V.V.V.V.S.V.V.V.V.V.V.V.V.V.V.V.V.V.V.V.V.V.V.V.V.V.V.b.b.b.b.b.b.b.N.N.N.V.V.V.V.+X<X,X{.p.C e w p a # 2 4 F / &.&.-.&.&.&.&.&.&.&.&.&.&.&.*.*.*.&.-.*.-.T.E.E.W.W.W.^.^.^.W.W.W.W.W.W.W.W.W.W.W.W.W.W.W.W.W.W.W.E.E.E.R.U.U.-.-.-.-.-.-.-.-.-.-.-.-.-.-.*.*.&.&.&.&.&.&.&.&.&.*.*.U.R.R.W.W.W./.[.).).^.[.^.^.^.^.E.E.E.T.T.T.U.U.-.*.*.' ' &.&.' &.&.&.*.*.' *.&.&.&.&.&.&.&.*.' h.}.0XeX|.I H H D D Z Z  XkXDXvXi . @ h p.^ P q.l.c.c.c.n.n.`.=X8X8X9X8X6X6X2X6X9X9X9X9X9X9X9X9X9X9X9X8X6X2X:X:X:X2X2X:X>X>X>X:X:X:X:X:X:X2X2X:X2X:X:X:X:X:X:X:X:X:X:X:X:X:X:X:X:X:X;X:X:X:X:X;X;X;X;X;X;X;X;X=X=X=X=X-X-X-X=X=X=X=X=X=X-X=X=X=X=X=X=X=X=X=X=X=X=X=X=X=X=X=X=X=X=X=X=X=X=X#X#X=X=X=X=X=X=X=X-X;X;X:X:X;X:X:X:X;X;X;X;X;X-X=X-X=X=X=X=X=X=X=X=X=X;X2X2X2X2X2X2X2X2X:X;X=X=X=X=X=X=X#XOX=X=XOXOXOX*XV.c.c.j.j.c.j.f.z 5 2 ; - : * * ; $ 8 ,XqXqXqX<Xc._.`.`.`.`.`.`.`.`.`.`.`.`.`._._._._.`._._.`.`._._.S.D.D.S.C.C.S.V.n.d.s.d.l.n.N.V.C.D.D.D.`.`.`.`.`.`.D.D.`.`.D.D.D.D.D.D.S.V.S.S.",
"N.b.b.b.N.N.N.N.V.V.V.V.N.N.N.N.V.V.V.V.V.V.V.V.V.V.V.V.V.V.V.V.V.V.V.V.V.V.V.V.V.V.V.V.V.V.V.V.V.V.V.V.V.V.V.V.V.V.V.V.V.V.b.b.c.c.c.c.b.N.N.N.N.N.V.V.Z.oX`.l.p.Z 9 y s a * ; 2 F W &.&.&.-.&.&.&.&.&.&.&.&.&.&.&.&.&.&.*.*.-.E.E.E.^.E.E.E.E.E.W.W.W.E.E.^.^.W.W.W.W.W.W.W.W.W.E.E.E.E.R.U.-.-.-.-.-.-.-.-.-.-.-.-.*.-.-.*.*.*.&.&.&.*.&.&.&.&.&.*.-.U.U.U.R.R.E.E.E.W.^.W.E.E.E.T.T.Y.Y.U.-.-.&.&.&.&.&.&.&.-.-.-.-.&.&.&.&.&.&.&.&.&.&.&.&.&.&.&.&.*.' ^.7X0X^.D H Z Z Z Z F 9.fXNXxXy . @ h r.^ P r.n.c.c.n.M.m.D.:X8X9X9X9X9X9X9X9X9X9X9X9X9X9X9X9X9X9X9X8X6X2X;X:X:X:X:X:X:X:X:X:X:X:X:X:X:X:X:X:X:X:X:X:X:X:X:X:X:X:X:X:X:X:X:X:X:X:X:X:X:X>X;X;X;X;X;X;X;X;X;X;X;X=X=X=X=X=X=X=X=X=X=X=X=X#X=X=X=X=X=X=X=X=X=X=X=X=X=X#X#X#X#X=X=X=X=X=X=X=X=X=X=X=X=X=X=X=X=X=X;X;X;X;X;X;X;X;X;X-X-X-X=X=X-X=X=X=X=X=X=X=X=X=X=X=X;X=X;X;X:X;X;X-X-X=X=X=X=X=X=X=X=X=X%XOXOXOX%XV.A.c.c.j.c.c.f.z 5 2 ; - * * = = @ 8 ,XqXqXqX<Xc.`.`.`.`.D.`.`.`.`.`.`.`.`.`.`.`._._._._._._.`._._.V.S._._.S.V.V.V.V.c.d.d.n.n.m.N.V.D.D.D.D.D.D.D.D.D.D.D.D.C.D.D.D.D.D.D.D.D.D.C.",
"N.N.N.b.V.N.N.N.V.V.N.N.N.V.V.N.N.N.N.N.N.V.V.V.V.V.V.V.V.V.V.V.V.V.V.V.V.V.V.V.V.V.V.V.V.V.V.V.V.V.V.V.V.V.V.V.V.V.V.V.V.V.V.b.b.b.b.c.c.b.N.N.N.N.V.V.V.b.!.l.] l 7 w s a * $ 2 J G ' -.&.&.&.&.&.&.&.&.&.&.&.&.&.&.&.&.&.*.Y.T.T.T.U.U.*.*.U.R.E.E.E.E.W.W.E.E.E.E.E.E.E.E.E.E.R.R.R.R.U.U.-.-.-.-.-.-.-.-.-.-.-.-.-.-.-.-.*.*.*.*.*.*.*.*.*.-.-.U.U.U.U.U.U.R.U.R.U.U.U.U.-.-.-.' ' &.&.&.&.&.&.&.&.&.&.&.&.&.&.&.&.&.&.&.&.&.&.&.&.&.&.&.&.&.&.&.&.-.' g.|.0XR.D H Z Z Z Z H >.8.MXxXy . @ h r.^ P r.M.b.c.n.M.m.D.2X8X9X9X9X9X9X9X9X9X9X9X9X9X9X9X9X9X8X8X2X2X;X;X:X:X:X:X:X:X:X:X:X:X:X:X:X:X:X:X:X:X:X:X:X:X:X:X:X:X:X:X:X:X:X:X:X:X:X:X:X:X;X;X;X;X;X;X=X=X;X=X=X=X=X=X=X=X=X=X=X=X=X=X=X#X=X=X=X=X=X=X=X=X=X=X=X=X=X#X#X#X#X=X=X=X=X#X=X=X=X=X=X=X=X=X=X=X=X=X=X=X=X=X=X=X=X=X-X-X-X-X-X=X=X-X=X=X=X=X=X=X=X=X=X=X=X=X=X=X=X=X=X=X=X=X=X=X=X=X=X=X=X=X=X%XOXOXOX%XV.A.c.c.j.c.j.f.z 5 2 $ - * # = = @ 1 ,XwXqXqX<Xb.S.`.`.`.D.`.`.`.`.`.`.`.`.`.`.`.`.`.`.`.`._._._._.V.V.S.S._._.S.V.S.N.c.c.j.c.c.n.m.~.`.`.D.D.D.D.D.D.D.D.D.D.D.D.D.D.D.D.D.D.C.D.",
"N.N.b.b.b.b.N.N.N.N.N.N.N.N.N.N.N.N.N.N.V.V.V.N.V.V.V.V.V.V.V.V.V.V.V.V.V.V.V.V.V.V.V.V.V.V.V.V.V.V.V.V.V.V.V.V.V.V.V.V.V.V.V.V.m.m.b.b.b.c.N.V.N.V.V.V.V.N.n.k.] l 9 w s a * $ 3 F G _ -.&.-.&.&.&.&.&.&.&.&.&.&.&.&.&.&.*.-.Y.Y.-.*.' &.&.&.&.-.-.U.T.E.E.E.E.E.E.E.E.T.T.T.T.R.R.U.Y.U.U.Y.Y.-.-.-.-.-.-.U.U.U.U.-.-.-.-.-.-.-.-.-.-.-.-.-.-.-.Y.Y.U.U.U.U.U.U.-.-.-.-.&.&.&.&.&.&.&.&.&.&.&.&.&.&.&.&.&.&.&.&.&.&.&.&.&.&.&.&.&.&.&.-.&.&.&.&.&.&.&.*.' ' ^.|.U.D H D D Z Z H >.8.mXhXy . . h r.^ P q.n.b.c.N.N.N.K.8X8X9X9X9X9X9X9X9X9X9X9X9X9X9X9X8X9X2X2X2X>X>X:X:X:X:X:X:X:X:X:X:X:X:X:X;X;X;X;X;X;X;X;X:X:X:X:X:X:X:X:X:X:X:X:X:X:X:X:X>X;X;X;X;X;X=X=X=X=X=X=X=X=X=X=X=X=X=X=X=X=X=X=X=X#X=X=X=X=X#X#X#X#X=X=X=X=X=X=X=X=X=X=X=X=X#X#X=X=X=X=X=X=X=X=X=X=X=X=X=X=X=X=X=X=X=X=X=X=X=X-X=X=X=X=X=X#X#X#X=X=X=X=X=X=X=X=X=X=X=X=X=X=X=X=X=X=X=X=X=X=X=X=X%X%XOXOXOX%XV.A.c.c.c.c.c.j.z 5 2 $ - * * * = @ 1 ,XwXqXqX<Xb.D.`.`.`.D.`.`.`.`.`.`._._.`.`.`.`.`.`.`.`.`._._._.V.V.S.S._.S.S.V.V.V.N.c.d.s.s.p.s.d.n.N.N.S._._._._._._._._._._._._._._.`.`.`.`.",
"b.b.b.b.b.b.N.N.N.N.N.m.c.c.c.c.c.c.n.N.b.N.N.N.N.V.V.V.V.V.V.V.V.V.V.V.V.V.V.V.V.V.V.V.V.V.V.V.V.V.V.V.V.V.V.V.V.V.V.V.V.V.V.V.V.V.V.V.N.b.N.V.N.V.V.V._.N.l.k.] l 9 w s a * $ 2 J G &.-.&.-.&.&.&.&.&.&.&.&.&.&.&.&.&.&.&.-.-.&.&.&.&.&.&.&.-.&.&.*.-.U.U.Y.T.T.T.T.T.T.T.T.Y.Y.Y.Y.Y.U.U.Y.Y.U.U.U.U.U.U.U.U.U.U.U.U.-.-.-.-.-.-.;.Y.U.U.U.U.Y.U.U.U.U.U.U.U.-.-.&.&.&.&.&.&.&.&.&.&.-.&.&.&.&.&.&.&.&.&.&.&.&.&.&.&.&.&.&.&.&.&.&.&.-.&.&.&.&.&.&.&.&.&.' ' R.' ~ G H H H H / :.5.xXfX2 . . h r.^ P r.M.N.N.N.N.N.oX8X8X9X9X9X9X9X9X9X9X9X9X9X9X8X9X2X2X2X:X>X>X;X;X;X:X:X:X:X:X:X:X:X:X:X:X;X;X;X;X;X;X;X;X:X;X:X:X;X;X;X;X;X;X:X:X:X:X:X;X;X;X;X;X=X=X=X=X=X=X=X=X-X=X=X=X#X#X#X#X#X#X#X#X#X=X#X#X=X#X#X#X#X#X#X#X=X=X=X=X=X=X=X=X=X=X#X#X=X=X=X=X=X=X=X=X=X=X#X=X-X-X-X=X=X=X=X=X=X=X=X=X=X#X=X=X#X#X#X#X=X#X=X=X=X=X#X#X#X#X#X#X=X=X=X=X=X=X=X=X=X=X=X=X=X%X%XOXOX%XV.A.c.A.A.c.j.j.v 5 2 $ - = * * = @ 1 }.wXqXwX<Xb.`.`.`.`.D.`.`.`.`.`.`._._._._.`.`.S.S.S.S.`.S._._.V.V.S.S.S.V.V.V.V.V.V.N.c.u.t.r.^ T T r.q.q.t.t.t.t.t.t.u.u.u.u.u.u.u.u.u.u.u.u.",
"N.N.N.N.N.N.c.d.u.u.y.y.y.y.y.y.y.t.u.u.c.c.m.N.N.N.N.V.V.V.V.V.V.V.V.V.V.V.V.V.V.V.V.V.V.V.V.V.V.V.V.V.V.V.V.V.V.V.V.V.V.V.V.V.V.S.V._.N.b.V.V.V.V.V.V.V.n.l.W.] j 3 w i a % ; 3 Z W &.&.&.&.&.&.&.&.&.&.&.&.&.&.&.&.&.&.&.&.&.&.-.&.&.&.&.&.-.-.*.&.&.-.-.-.-.-.;.Y.Y.Y.U.U.Y.Y.Y.Y.;.;.Y.Y.Y.U.U.U.U.-.-.-.-.-.-.-.-.;.;.Y.;.U.U.U.U.U.U.U.U.Y.U.U.U.U.U.-.*.-.&.&.*.&.&.&.&.&.&.&.&.&.&.&.&.&.&.&.&.&.&.&.&.&.&.&.&.&.&.&.&.&.&.&.&.&.&.&.&.&.&.&.&.&.&.&.&.' _ / W G G / _ &.:.#.gX8.: . @ j r.^ Y r.N.b.B.b.N.N.K.8X8X9X9X9X9X9X9X9X9X9X9X9X9X9X2X2X:X:X:X>X:X:X:X:X;X:X:X:X;X;X:X:X:X;X;X:X;X;X;X;X;X;X;X;X;X;X;X;X;X;X;X;X:X:X:X:X:X;X;X=X;X=X=X=X=X=X=X=X=X=X=X=X=X=X=X#X#X#X=X#X#X#X#X=X=X=X=X#X#X#X#X#X#X#X#X=X=X=X=X=X=X=X=X=X=X=X=X=X=X=X=X#X#X#X#X=X=X=X=X=X=X=X=X#X#X#X#X=X=X#X#X=X=X=X=X#X#X#X#X=X#X#X=X=X=XOXOXOXOXOXOXOXOXOX#XOXOXOXOXOXOXOX#X#XOXOXOXOXOXV.A.j.j.d.c.c.l.L 5 2 ; = * * # # # 1 *XwXqXwX*Xb.`._._.`.`._.D.D.S.`.`._._.`._._._._.S.S._._.S.S._._._.S.V.V.~._.~._.V.V.V.B.u.t.r.R R R T T T Y T T T T T m m T T m m U T T T T T ",
"N.N.N.N.N.j.u.y.t.t.q.q.q.q.q.q.t.t.u.d.d.A.c.b.N.N.N.V.V.V.V.V.V.V.V.V.V.V.V.V.V.V.V.V.V.V.V.V.V.V.V.V.V.V.V.V.V.V.V.V.S.V.V.V.S._.V._.N.c.V.V.V.V.V.V.V.n.l.k.] j 0 2 s a % ; 3 J / *.&.&.&.&.&.&.&.&.&.&.&.&.&.&.&.&.&.&.&.&.&.&.&.&.&.&.-.-.&.&.&.&.*.*.*.*.*.*.*.*.-.*.*.-.*.-.*.*.-.-.-.-.-.-.-.-.-.-.-.-.-.-.-.-.-.-.-.-.U.U.U.U.U.U.U.U.U.U.U.U.U.-.*.' &.&.&.&.&.&.&.&.&.&.&.&.&.&.&.&.&.&.&.&.&.&.&.&.&.&.&.&.&.&.&.&.&.&.&.&.&.&.&.&.&.&.&.&.&.&.&.&.&.' _ _ _ &.&.&.&.Z O.8.5.: . @ j r.^ P r.N.b.b.N.N.N.OX8X8X9X9X9X9X9X9X9X9X9X9X9X9X2X2X:X:X:X;X:X:X:X:X:X:X;X;X:X;X:X:X:X:X;X;X:X;X;X:X;X;X;X;X;X;X;X;X;X;X;X;X;X;X;X;X;X;X;X;X=X=X=X=X=X=X=X=X=X=X=X=X#X#X#X#X#X#X#X=X#X#X#X#X=X=X=X#X#X#X#X#X#X#X#X#X#X#X#X=X=X=X=X=X=X=X#X=X#X#X=X#X#X#X#X#X=X=X=X=X#X#X#X#X=X=X#X=X=X=X=X=X=X=X=X=X#X#X#X#X=X#X#X=X=X=XOXOXOXOXL.L.L.K.K.K.K.K.K.K.K.K.K.K.L.L.L.OXOXOXZ.A.j.j.d.c.c.l.L 5 2 2 = * * # # % 8 *XwXqXwX*Xb.`._._._._.`.D.D.D.`.V.m.b.b.c.c.c.m.m.m.m.m.N.N.N.N.N.N.S.~._._.~.!.N.c.c.u.y.q.T T T T T T T T T T T r.t.u.u.d.d.s.u.t.q.q.T T q.",
"N.N.N.N.N.N.n.n.n.M.M.n.n.n.n.n.n.N.N.N.N.N.V.V.V.V.V.V.V.V.V.V.V.V.V.V.V.V.V.V.V.V.V.V.V.V.V.V.V.V.V.V.V.V.S.S.D.D.D.V.V.V.~.`._._._.V.n.c.N.N.V.V.V.V.V.n.l.k.^ j 3 2 i a % ; 3 J _ *.&.&.&.&.&.&.&.&.&.&.&.&.&.&.&.&.&.&.&.&.&.&.&.&.&.&.&.&.&.&.&.&.&.&.&.&.&.&.&.*.&.&.&.&.&.*.*.&.&.&.&.&.&.&.*.&.&.&.&.&.&.&.&.&.&.&.-.-.*.*.-.U.-.-.-.-.-.-.-.-.*.*.*.&.&.&.&.&.&.&.&.&.&.&.&.&.&.&.&.&.&.&.&.&.&.&.&.&.&.&.&.&.&.&.&.&.&.&.&.&.&.-.&.&.&.&.&.&.&.&.&.&.&.&.&.&.&.&.&.&.~ u F 5.#.: . . j r.^ P r.!.Z.N.V.N.V.OX8X8X9X9X9X9X9X9X9X8X9X9X9X2X2X2X:X:X:X;X:X:X:X:X:X:X:X;X;X:X:X:X:X:X;X;X:X;X;X:X;X;X;X;X;X;X;X;X;X;X;X;X;X;X;X;X;X:X;X;X-X=X=X=X#X#X#X#X=X=X=X=X#X#X#X#X#X#X#X=X#X#X#X#X#X#X#X#X#X#X#X#X#X#X#X#X#X#X#X#X#X#X=X=X=X=X=X=X=X=X#X#X#X#X#X#X=X=X=X=X#X#X#X#X=X=X=X=X=X=X=X=X=X=X=X=X#X#X#X#X=X#X#X=X=X=X=X=X=X=X=X=X=X=X#XOXOXOXOXOXOXOXOXOX#X#X#X#X#X%XV.c.j.j.j.c.c.l.L 5 2 2 ; ; * # # % 8 *XwXqXwX*Xb.`._._._._.D.D.D.D.V.V.m.m.b.c.i.i.i.u.u.u.u.u.u.u.i.i.i.i.i.i.u.t.t.t.t.i.i.d.j.c.j.j.j.j.j.d.d.s.d.n.N._._._.`._._._.V.N.!.n.l.l.",
"N.N.N.N.V.V.V.N.V.V.V.V.V.V.V.V.V.V.V.V.V.V.V.V.V.V.V.V.S.S.S.S.V.V.V.V.S.S.V.V.S.S.S.S.S.S.S.S.V.V.V.V.S.S.S.S.D.D.D.D.~.`.~.~.S.S._.V.j.j.N.N.V.V.V.V.V.n.l.k.^ j 3 2 y a . ; 3 J %.*.&.&.&.&.&.&.&.&.&.&.&.&.&.&.&.&.&.&.&.&.&.&.&.&.&.&.&.&.&.&.&.&.&.&.&.&.&.&.&.&.&.&.&.&.&.&.&.&.&.&.&.&.&.&.&.&.&.&.&.&.&.&.&.&.&.&.&.&.*.*.*.*.*.*.*.*.*.*.*.*.*.&.&.&.&.&.&.&.&.&.&.&.&.&.&.&.&.&.&.&.&.&.&.&.&.&.&.&.&.&.&.&.&.&.&.&.&.&.&.&.&.&.&.&.&.&.&.&.&.&.&.&.&.&.&.&.&.&.&._ Z 9 s $.+.: . @ C r.E P r.!.b.N.V.V.V.OX8X8X9X9X9X9X9X9X9X8X9X2X2X2X2X2X:X:X:X:X:X:X:X:X:X:X:X;X;X:X:X;X:X:X;X;X:X;X;X:X;X;X;X;X;X;X;X;X;X;X;X;X;X;X;X;X;X;X=X=X=X=X#X#X#X#X#X=X=X=X=X=X#X#X#X#X#X#X#X=X#X#X#X#X#X#X#X#X#X#X#X#X#X#X#X#X#X#X#X#X#X#X=X=X=X=X=X=X#X#X#X#X#X#X#X#X#X#X#X#X#X#X#X#X=X=X#X#X#X=X=X=X#X#X#X#X#X#X#X#X=X#X#X=X=X=X=X=X=X=X=X=X=X=X=X=X-X-X-X-X=X=X=X=X=X=X#X#X#X%XZ.c.j.j.d.c.c.l.L 5 2 2 = ; * # # # 8 *XwXqXwX*Xb.`.V._._._.`.D.D.D.S._.`.`.`._._.S.N.N.N.N.c.c.c.c.j.j.s.u.t.u.i.c.N.V.S.`.`.`.`.XXXXXXXXoXoXXXXXXX`.`.D.D.D.D.D.D.D.D.`.`.`.`.`.`.",
"V.V.V.V.V.V.V.V.V.V.V.V.V.V.V.V.V.V.V.V.V.V.V.V.V.V.V.V.V.S.V.V.V.V.S.V.S.S.S.S.S.S.S.S.S.S.S.V.S.S.S.S.D.D.S.D.D.D.D.D.S.D.D.D.D.D.V.b.d.u.M.N.V.V.V.V.N.n.l.k.] l 0 2 i s # $ 2 Z &.&.&.&.&.&.&.&.&.&.&.&.&.&.&.&.&.&.&.&.&.&.&.&.&.&.&.&.&.&.&.&.&.&.&.&.&.&.&.&.&.&.&.&.&.&.&.&.&.&.&.&.&.&.&.&.&.&.&.&.&.&.&.&.&.&.&.&.&.&.&.&.&.&.&.&.&.&.&.*.*.*.&.&.&.&.&.&.&.&.&.&.&.&.&.&.&.&.&.&.&.&.&.&.&.&.&.&.&.&.&.&.&.&.&.&.&.&.&.&.&.&.&.&.&.&.&.&.&.&.&.&.&.&.&.' &.&.&.&.&./ A 9 s O.O.: . . l r.E P r.N.V.N.V.V.Z.K.2X8X8X9X9X9X9X9X8X9X2X2X:X>X:X:X;X;X;X;X:X:X:X:X:X:X:X:X:X:X:X:X;X;X;X;X:X;X;X;X;X;X;X;X;X;X:X:X;X;X;X;X;X=X=X=X=X=X=X=X=X=X=X=X=X=X=X=X=X=X=X=X=X#X#X#X=X=X=X=X#X#X#X#X=X=X=X=XOX#X=X=X=X#X#X#X=X=X=X=X#X#X=X=X=X=X=X=X#X#X#X#X=X=X=X#X#X#X#X#X=X=X=X=X=X=X=X=X#X#X#X#X#X#X#X#X#X#X#X#X#X#X#X#X=X=X=X=X=X=X=X=X=X=X=X=X#X=X=X#X#X#X=X=X=X=X#X#X#X@XN.c.j.j.d.j.j.j.n 5 2 < = # # * * $ 8 +XqXqXwX,Xb.S.D.S.S.D.`.`.`.`._._._._.S.S.V.S.V.V.S._.`.`.`._._._._._._.`.`.`.`.`.`.`.D.D.D.D.D.D.D.D.`.`.`.`.`.`.`.`.`.D.D.D.D.D.D.D.`.`.D.D.",
"V.V.V.V.V.V.V.~._._._._._._.V.V.V.S.S.V.V.V.V.V.V.V.V.V.V.S._.V._._.S.V.S.S.S.S.S.D.D.D.S.S.S.S.S.S.D.D.D.D.S.D.`.D.D.D.S.S.D.D.D.D.S.b.d.u.c.N.V.V.V.V.N.n.l.k.] j 3 2 i s # $ 4 Z &.&.&.&.&.&.&.&.&.-.&.&.&.&.&.&.&.&.&.&.&.&.&.&.&.&.&.&.&.&.&.&.&.&.&.&.&.&.&.&.&.&.&.&.&.&.&.&.&.&.&.&.&.&.&.&.&.&.&.&.&.&.&.&.&.&.&.&.&.&.&.&.&.&.&.&.&.&.&.&.&.&.&.&.&.&.&.&.&.&.&.&.&.&.&.&.&.&.&.&.&.&.&.&.&.&.&.&.&.&.&.&.&.&.&.&.&.&.&.&.-.&.&.&.&.&.&.&.&.&.&.&.&.&.&.&.&.&.&.&.&./ V 9 u s a : . . C w.E P r.V.V.N.N.V.V.D.OX2X8X8X8X8X9X8X9X2X2X:X>X>X>X:X:X;X;X;X:X:X:X:X:X:X:X:X:X:X:X:X;X;X:X:X:X;X;X;X:X;X;X;X:X:X:X>X-X=X=X=X=X=X=X=X=XOX#X#X=X=X=X=X=X=X=X=X=X=X=X=X#X#X#X#X=X=X=X=X#X#X#X#X=X=X=X=X#X#X=X=X=X#X#X#X=X=X=X=X=X=X=X=X=X=X#X#X#X#X#X#X=X=X=X=X#X#X#X#X=X=X=X=X#X#X#X#X#X#X#X#X#X#X#X#X=X=X=X=X#X#X#X#X#X=X=X=X#X#X=X=X=X=X=X=X=X=X=X=X=X#X=X=X=X=X#X#X#X*XV.c.j.d.d.d.j.j.P 5 2 $ ; # # * # $ 8 +XqXqXqX*Xb.S.D.S.S.V._._._._._._._._.`.S.V.V.V.V.V.V.V.V.V.S.S.S.S.S._._._.S._._._._.S.S.S.S.D.D.D.D.D.D.D.D.D.D.`.`.`.D.D.S.D.D.D.S.D.D.`.`.",
"V.V.V.V.S.V.V.~.N.N.N.N.N.N.N.N.V.V._.~.~.V.~.~.V.V.V.V.V.V._.S._.S.V.V.D.C.C.D.D.D.D.D.S.S.S.S.D.`.`.`.D.D.S.S.D.D.D.D.S.S.D.D.D.D.S.N.c.u.c.V.V.V.V.V.N.c.l.k.p.l 3 2 i s # $ 4 V ;.&.&.&.&.&.&.&.&.-.&.&.&.&.&.&.&.&.&.&.&.&.&.&.&.&.&.&.&.&.&.&.&.&.&.&.&.&.&.&.&.&.&.&.&.&.&.&.&.&.&.&.&.&.&.&.&.&.&.&.&.&.&.&.&.&.&.&.&.&.&.&.&.&.&.&.&.&.&.&.&.&.&.&.&.&.&.&.&.&.&.&.&.&.&.&.&.&.&.&.&.&.&.&.&.&.&.&.&.&.&.&.&.&.&.&.&.&.&.&.&.-.&.&.&.&.&.&.&.&.&.&.&.&.&.&.&.&.&.&.&./ V 9 u u s 4 . . Z w.E P t.V.Z.b.N.V.V.V.D.-X:X2X9X9X6X6X2X2X>X;X>X>X>X:X:X:X:X:X;X;X;X;X:X:X:X:X:X:X:X:X:X:X:X:X:X;X;X;X;X:X;X;X-X=XOXOXOXOXK.K.K.OXOXOXOX#XOXOX#X#X#X#XOX#X#X#X#X#X#X#X#X#X#X#X#X#X#X#X#X#X#X#X#X#X#X=X=X=X#X#X=X=X=X#X=X=X=X=X=X=X=X=X=X=X#X#X#X#X#X#X=X=X=X=X#X#X#X#X#X#X=X=X#X#X#X#X#X#X#X#X#X#X#X#X=X=X=X=X#X#X#X#X=X=X=X=X#X#X=X=X#X#X#X#X=X=X=X=X=X=X=X=X=X=X#X#XOX@XV.c.j.d.d.d.j.j.Y 5 2 @ # * # # # $ 8 *XqXqXqX*Xc.V.V.S.S.V.S._._._._._._._.`.S.V.V._._.S.S.S.S.S.S.S.S.S.S.S.S.S.S.S.S.S.S.V.V.S.S.S.S.V.V.S.S.S.S.S.S.S.S.S.S.S.S.D.D.D.D.D.D.`.`.",
"S.S.S.S.V._.~.V.c.d.i.i.d.d.d.d.A.A.n.n.c.c.c.m.N.V.V.V.V.V.V.S.V.V.V._.D.D.D.D.S.S.D.D.D.D.D.D.S.S.D.D.D.D.S.S.D.D.D.D.S.S.D.D.D.D.S.N.c.i.M.V.V.V.V.V.N.c.l.k.p.Z 7 2 y s # $ 4 V ;.&.&.&.&.&.&.&.&.-.&.&.&.&.&.&.&.&.&.&.&.&.&.&.&.&.&.&.&.&.&.&.&.&.&.&.&.&.&.&.&.&.&.&.&.&.&.&.&.&.&.&.&.&.&.&.&.&.&.&.&.&.&.&.&.&.&.&.&.&.&.&.&.&.&.&.&.&.&.&.&.&.&.&.&.&.&.&.&.&.&.&.&.&.&.&.&.&.&.&.&.&.&.&.&.&.&.&.&.&.&.&.&.&.&.&.&.&.&.&.&.&.&.&.&.&.&.&.&.&.&.&.&.&.&.&.&.&.&.*.&./ V 9 9 u u ; . . C R Y P p.`.K.S.b.N.b.N.V.XX:X>X2X2X2X2X:X:X;X;X>X>X>X:X:X:X:X:X;X;X;X;X:X:X:X:X:X:X:X:X:X:X:X:X:X;X;X;X-X>X=XL.K.K.K.K.D.D.D.D.D.D.K.K.K.K.K.OX=X#X#X#XOXOXOXOXOX#X#X#X#X#X#X#X#X#X#X#X#X#X#X#X#X#X#X=X=X=X#XOX=X=X#X#X=X=X=X=X#X#X=X=X=X#X=X#X#X#X#X#X=X=X=X=X#X#X#X#X#X=X=X=X#X#X#X#X#X#X#X#X#X#X#X#X#X#X#X#X#X#X#X#X#X=X=X=X#X#X=X=X=X=X=X=X=X=X=X=X#X#X#X=X=X=X#X#XOXOXb.c.j.d.d.d.d.c.E 5 2 @ # - # # # $ 8 ,XqXqXqX*Xi.m.V.~.`.~.V.S._._._._._._.`.S.S.S.S._.S.S.S.S.S.S.S.S.S.S.S.S.S.S.S.S.S.S.V.V.S.S.S.S.S.S.S.S.S.S.S.S.S.D.S.S.S.S.D.D.D.D.D.D.D.D.",
"_.`.`.`._.V.`.V.j.d.d.s.s.s.s.s.s.s.s.s.s.u.u.s.d.c.M.N.N.N.N.V.V._.S.S.S.S.`.D.D.D.D.D.D.D.D.D.D.D.D.D.`.`.`.`.D.D.D.D.D.D.D.D.D.D.S.V.c.c.N.V.V.V.V.V.N.c.l.l.p.C 7 2 y s o $ 4 A &.&.&.&.&.&.&.&.&.&.&.&.&.&.&.&.&.&.&.&.&.&.&.&.&.&.&.&.&.&.&.&.&.&.&.&.&.&.&.&.&.&.&.&.&.&.&.&.&.&.&.&.&.&.&.&.&.&.&.&.&.&.&.&.&.&.&.&.&.&.&.&.&.&.&.&.&.&.&.&.&.&.&.&.&.&.&.&.&.&.&.&.&.&.&.&.&.&.&.&.&.&.&.&.&.&.&.&.&.&.&.&.&.&.&.&.&.&.&.&.&.&.&.&.&.&.&.&.&.&.&.&.&.&.&.&.&.&.&.&.&./ A 9 3 3 3 ; # @ C E Y U u.'.oXoXN.N.b.c.b.V.-X:X:X:X:X:X:X:X>X;X;X>X:X:X:X:X:X:X;X;X;X;X;X;X;X;X:X:X:X:X:X:X:X:X:X>X>X;X-XOXK.D.D.D.D.D.D.S.S.D.D.D.K.XXoXD.Z.V.OX%X#XOX#X#X#X#XOX#X#X#X#X#X#X#X#X#X#X#X#X#X#X#X#X#X#X#X=X=X=X=X#X#X#X#X#X=X=X#X#X#X#X#X=X=X=X=X=X=X=X#X=X=X=X=X=X=X=X=X=X=X=X=X=X=X=X=X=X=X=X=X=X=X=X=X=X=X=X=X=X=X=X=X#X=X=X#X#X#X#X#X=X=X#X#X=X=X=X#X#X#X#X#X#X#X#XOXOX@Xb.A.d.d.d.d.j.j.^ 5 2 2 ; - # # # @ 8 *XqXqXqX*Xu.j.m.V.~.V.V.V.`.`.S.S.S.D._.S.S._.S.S._._.~.~.~.~.~.~.~.~._._._._._._._._._._._.S.S.S.S.S.S.S.S.S.S.S.S.S.S.S.S.S.S.S.S.S.D.D.D.D.",
"_._._._._.V._.V.N.i.u.s.u.s.s.s.s.s.u.u.u.u.u.s.u.u.d.c.c.n.b.b.N.V.S.S.S.S.`.D.D.D.D.D.D.D.D.D.D.D.D.S.S.S.`.`.D.D.D.D.D.D.D.D.D.D.V.V.N.b.V.V.V.V.V.S.N.j.l.l.g.C 3 2 i s o $ 4 A &.&.&.&.&.&.&.&.&.&.&.&.&.&.&.&.&.&.&.&.&.&.&.&.&.&.&.&.&.&.&.&.&.&.&.&.&.&.&.&.&.&.&.&.&.&.&.&.&.&.&.&.&.&.&.&.&.&.&.&.&.&.&.&.&.&.&.&.&.&.&.&.&.&.&.&.&.&.&.&.&.&.&.&.&.&.&.&.&.&.&.&.&.&.&.&.&.&.&.&.&.&.&.&.&.&.&.&.&.&.&.&.&.&.&.&.&.&.&.&.&.&.&.&.&.&.&.&.&.&.&.&.&.&.&.&.&.&.&.&.&./ Z 9 3 4 3 ; # @ C E Y U s.].oXoXV.b.n.n.c.b.=X:X:X:X:X:X:X:X:X:X:X:X:X:X;X;X;X;X;X;X;X;X;X;X;X;X:X:X:X:X:X:X;X:X;X:X:X=XoXD.D.D.D.D.D.D.S.S.S.S.D.D.K.XXK.oXV.b.K.%XOXOXOXOX#XOXOXOXOXOXOXOXOXOXOXOX#X#XOXOXOXOXOXOX#X#XOX#X#X#XOXOXOXOX#X=X=X=X#X#X=X=X=X=X=X=X=X=X=X#X=X=X=X=X=X=X=X=X=X=X=X=X=X=X#X=X=X=X=X=X=X=X=X=X=X=X=X=X=X=X=X=X=X=X=X=X=X=X=X=X#XOXOXOX#X#X#X#X#X#X#X#XOXOXOXOXOX@Xb.c.j.d.d.d.d.j.^ 5 1 2 = * # # @ @ 8 *XqXqXqX,Xu.s.n.n.N.~.S.S.S.S._._.S._.S.S.S.S._._.S.S.S.S.S.S.V.V.V.V._._.S._.S.S.S.S.S.S.S.S.S.S.S.S.S.S.S.S.S.S.S.S.S.S.S.S.S.V.V.S.D.D.D.D.",
"V.S.S.S.S.S.V.V.V.b.c.i.d.i.u.s.s.s.u.u.u.u.u.s.u.u.u.u.d.c.c.m.N.V.S.S.S.D.S.D.D.D.D.D.D.D.D.D.D.D.S.S.D.S.S.S.S.D.S.S.D.S.D.D.D.D.V.V.V.V.V.V.V.V.V.S.N.j.l.l.k.C 7 2 i s # % 4 A &.&.&.&.&.&.&.&.&.&.&.&.&.&.&.&.&.&.&.&.&.&.&.&.&.&.&.&.&.&.&.&.&.&.&.&.&.&.&.&.&.&.&.&.&.&.&.&.&.&.&.&.&.&.&.&.&.&.&.&.&.&.&.&.&.&.&.&.&.&.&.&.&.&.&.&.&.&.&.&.&.&.&.&.&.&.&.&.&.&.&.&.&.&.&.&.&.&.&.&.&.&.&.&.&.&.&.&.&.&.&.&.&.&.&.&.&.&.&.&.&.&.&.&.&.&.&.&.&.&.&.&.&.&.&.&.&.&.&.&.&./ Z 9 3 4 4 ; # @ C E Y U u.].oX`.N.n.n.n.c.b.%X:X:X:X:X:X:X:X:X:X:X:X:X>X;X;X;X;X;X>X;X;X;X;X;X;X:X:X:X:X;X;X;X;X;X:X%XD.C.V.S.S.V.V.V.V.V.V.V.V.S.D.`.XXXXXXD.V.XXOXOXOXOXOXOXOX#XOXOXOX#X#X#X#XOXOXOXOXOXOXOXOXOXOXOXOX#X#X#X#XOXOXOXOXOX#X#XOX#X#X#X#X#XOX#X#XOX#X#X=X#X#XOXOX#X#X#X#XOX#X#X#X=X#XOX#X#X#X#X#X#X#X#X#X=X=X#X#X#X#X#X#X#X#X#X#XOXOXOXOX=X#XOXOXOXOXOXOXOXOXOXOXOXOXOXOXOXoXc.j.j.d.d.j.d.d.^ 6 1 2 @ # # # # @ 8 {.qXqXqX,Xt.p.s.d.j.n.M.M.M.N.V._._._.S.S.S._._.S.S.S.S.S.S.S.D.D.D.D.S.S.S.S.S.S.S.S.S.S.S.S.S.S.S.S.S.S.S.S.S.D.S.S.S.S.S.S.S.S.S.D.D.D.D.D.",
"V.S.S.S.S.S.V.V.S.V.V.N.N.M.n.d.s.s.u.u.s.u.u.u.t.u.d.d.n.N.N.N.N.V.V.V.S.`.S.`.D.D.D.D.D.D.D.D.D.D.D.S.S.S.S.S.S.S.S.S.S.S.D.D.D.V.V.S.S.V.V.V.V.V.V.V.B.j.n.l.k.C 3 2 i s # % 4 A &.&.&.&.&.&.&.&.&.&.&.&.&.&.&.&.&.&.&.&.&.&.&.&.&.&.&.&.&.&.&.&.&.&.&.&.&.&.&.&.&.%./ ~ ~ / / %.&.&.&.&.&.&.&.&.&.&.&.&.&.&.&.&.&.&.&.&.&.&.&.&.&.&.&.&.&.&.&.&.&.&.&.&.&.&.&.&.&.&.&.&.&.&.&.&.&.&.&.&.&.&.&.&.&.&.&.&.&.&.&.&.&.&.&.&.&.&.&.&.&.&.&.&.&.&.&.&.&.&.&.&.&.&.&.&.&.&.&.&.&./ Z 9 3 2 2 ; # @ C E Y U t.N.b.b.c.n.n.n.c.Z.*X:X;X:X:X:X:X:X>X>X:X;X;X;X;X;X;X;X;X;X;X;X;X;X;X;X:X:X:X;X;X;X;X;X>X=XD.V.V.V.V.V.S.V.V.V.V.V.V.V.S.D.`.XXXXXXD.D.XXXXoXOXOXOXOXOXOXOXOXOXOXOXOXOXOXOXOXOXOXOXOXOXOXOXOXOXOXOXOXOXOXOXOXOXOXOXOXOXOXOXOXOXOXOXOXOXOXOX#X=X#X#X#X#X#X#X#X#X#X#X#X=X=X#XOX#XOXOXOX#XOXOX#X#X#X#XOXOXOXOXOXOXOXOXOXOXOXOXOXOX%X%XOXOXOX#X#XOXOXOXOXOXOXOXOXOXOXoXc.d.d.d.s.d.d.d.^ 6 1 < @ # # # # # 8 ].qXqXqX,Xt.p.p.p.s.s.s.s.s.d.c.V.~.N.N.N.V.S.S.S._._.S.S.S.S.D.D.D.D.D.D.D.D.D.D.D.D.D.D.D.D.D.D.D.D.D.D.D.D.D.D.S.S.S.D.D.S.S.`.`.D.D.D.`.`.",
"V.V.V.V.S.V.S.S.S.S.S.S.S._.S.S.N.N.N.M.m.c.c.b.N.N.N._.V.V.V.V.~.~.~._.`.`.`.`.D.D.D.D.D.D.D.C.D.D.D.D.S.S.S.S.D.D.C.C.C.D.D.C.D.D.V.V.V.V.V.V.V.V.V.V.B.j.n.l.l.C 3 4 i s o % 4 J &.&.&.&.&.&.&.&.&.&.&.&.&.&.&.&.&.&.&.&.&.&.&.&.&.&.&.&.&.&.&.&.&.&.&.%.%.%.%._ / D Z Z Z Z Z D G %.%.&.' ' &.&.&.&.&.&.&.&.&.&.&.&.&.&.&.&.&.&.&.&.&.&.&.&.&.&.&.&.&.&.&.&.&.&.&.&.&.&.&.&.&.&.&.&.&.&.&.&.&.&.&.&.&.&.&.&.&.&.&.&.&.&.&.&.&.&.&.&.&.&.&.&.&.&.&.&.&.&.&.&.&.&.&.&.&.&.&._ D 9 4 2 ; * # @ C E U U r.n.c.j.c.n.n.n.b.V.-X:X;X;X;X:X:X;X;X:X>X-X;X;X;X;X=X=X;X;X;X;X:X;X;X;X:X;X;X:X;X;X-X-X=XK.V.V.V.V.V.V.V.V.V.V.V.V.V.V.V.V.D.`.XXXXXX`.XXK.K.K.K.K.K.K.D.D.D.XXD.K.XXXX`.XXK.K.D.XXXXXXXXXXXXXXD.XXXXXXXXXXXXXXXXXXK.K.XXXXXXXXXXoXoXXXoXoXoXoXOXOXOXOXOXOXOXOXOXOXOXOXOXOXOXOXOXOXOXOXoXOXOXOXOXOXoXOXOXOXOXOXOXOXOXOXOXoX`.S.S.V.V.V.N.N.V.D.oXOXoX@XOXoXoXXXK.D.c.d.d.d.s.s.s.u.^ 6 1 $ # # * # # = 8 }.qX8X8X*Xt.p.s.s.s.s.s.s.s.s.d.n.N.N.N.N.N.N.N.V.V.V.V.S.D.D.S.S.S.S.S.S.S.S.D.S.S.S.D.D.D.D.`.`.D.S.S.S.S.S.D.D.D.D.D.D.S.S.D.S.`.`.`.D.S.D.",
"V.V.V.V.V.V.V.S.V.V.V.V.V.V.V.S.~._.`._._._._._.`.`.~.`.S.V.V.V._._.`.`.`.`._._.D.D.D.D.D.D.D.C.D.D.D.D.S.S.S.S.D.D.C.D.C.V.V.C.D.C.V.V.V.V.V.V.V.V.V.V.c.d.n.n.l.C 3 4 i s o % 4 J &.&.&.&.&.&.&.&.&.&.&.&.&.&.&.&.&.&.;.&.&.%._ / / / / / / / _ _ _ _ %._ / / G D B B Z Z Z Z Z Z B D / _ ' ' &.&.&.&.&.&.&.&.&.&.&.&.&.&.&.&.&.&.&.&.&.&.&.&.&.&.&.&.&.&.&.&.&.&.&.&.&.&.&.&.&.&.&.&.&.&.&.&.&.&.&.&.&.&.&.&.&.&.&.&.&.&.&.&.&.&.&.&.&.&.&.&.&.&.&.&.&.&.&.&.&.&.&.&.&.&.&._ D 9 4 2 ; * # @ C E U U t.n.c.n.c.c.n.n.c.D.-X=X;X;X;X;X;X;X:X:X;X;X;X;X;X;X;X;X;X;X;X;X;X;X;X;X;X;X;X;X=X=X=X=XoXZ.V.N.V.V.V.V.V.V.V.V.V.V.V.V.V.V.V.C.D.`.XXXXXXD.D.D.D.K.K.D.D.D.D.XXD.XX`.XX`.XXXXXXD.XXXX`.XXXX`.D.K.K.K.K.D.D.D.D.`.D.D.K.D.D.D.D.`.`.`.`.D.D.D.D.D.`.`.`.K.D.D.K.`.XX`.`.K.K.K.K.K.K.K.K.K.K.K.K.K.K.K.K.K.K.D.D.D.D.D.D.D.V.t.H.q.q.q.q.q.q.q.y.d.n.n.N.N.V.V.V.b.c.d.d.u.u.u.s.p.u.^ 6 1 $ @ # * # # @ 8 ,XqX8X8X*Xp.p.u.s.s.s.p.s.s.s.d.j.n.N.N.N.N.N.b.N.N.N.V.V.S.D.S.S.S.S.S.`.`.S.S.S.S.S.D.D.D.S.`.`.S.S.S.S.D.S.D.D.D.D.D.D.S.S.D.S.`.`.D.S.S.S.",
"V.V.V.V.S.S.S.S.S.S.S.S.V.V.V.S._.`.D.V.S.S.S.S.V.V.V.`.S.S.S.S.S.D.`.`.`._._._.D.D.D.D.D.D.D.C.D.D.D.D.S.S.S.S.D.D.D.D.D.V.V.C.D.C.V.~.V.V.V.V.V.V.V.V.c.d.n.n.l.C 3 4 s s o % 4 V &.&.&.&.&.&.&.&.&.&.&.&.&.&.&.&.&.%._ W W H Z B h V B B B B B B B B B B B V B V V A Z B A Z Z Z Z Z D / _ _ ' &.&.&.&.&.&.&.&.&.&.&.&.&.&.&.&.&.&.&.&.&.&.&.&.&.&.&.&.&.&.&.&.&.&.&.&.&.&.&.&.&.&.&.&.&.&.&.&.&.&.&.&.&.&.&.&.&.&.&.&.&.&.&.&.&.&.&.&.&.&.&.&.&.&.&.&.&.&.&.&.&.&.&.&.&.&./ D 9 4 2 $ # # @ C E Y U r.c.c.n.c.c.c.n.c.`.-X=X-X-X-X-X-X=X=X-X;X=X-X-X*X%X%X%X*X*X*X*X=X=X=X=X=X=X=X=X%X%XoXoXS.b.b.N.N.N.N.N.V.V.V.V.V.V.V.V.V.V.V.V.D.D.`.`.D.D.D.D.`.D.`.`.D.D.D.D.XXD.D.D.D.D.D.D.D.`.D.D.D.D.D.D.K.XX`.`.`.`.`.`.`.`.D.D.`.`.`.`.`.`.`.D.D.D.D.D.`.`.`.`.`.`.`.`.`.`.`.`.`.`.`.`.`.`.`.`.`.`.`.D.`.XX`.`.D.D.D.D.D.D.C.V.V.N.d.u.s.s.s.s.t.t.q.q.r.t.r.t.t.t.u.s.j.j.d.s.u.u.p.t.p.r.^ 6 1 ; # # * # # * 6 ,XqXqX8X*Xt.p.u.u.u.u.s.s.s.d.j.n.N.b.N.N.N.N.N.N.N.N.V.V.S.D.D.D.D.D.D.`.`.D.`.`.`.`.D.D.D.D.`.`.S.S.D.D.D.D.S.D.D.D.`._._.`.`.S.`.`.S.S.S.S.",
"V.V.V.V.V.V.V.V.V.V.V.V.S.S.S.S.S.S.S.S.S.V.S.S._.S.S.S.S.S.S.S.S.S.D.D._._._._.D.D.D.D.D.D.D.D.D.D.`.D.D.D.D.S.D.D.D.D.C.C.C.C.D.D.V.~.V.V.V.V.V.V.V.V.M.l.n.n.l.C 3 2 s s o % 2 V &.&.&.&.&.&.&.&.&.&.&.&.&.&.&.%._ _ _ _ _ _ / / / / / / / / / / G G Z h V V N N V 9 N N N N V V A A B D / %.&.&.&.&.&.&.&.&.&.&.&.&.&.&.&.&.&.&.&.&.&.&.&.&.&.&.&.&.&.&.&.&.&.&.&.&.&.&.&.&.&.&.&.&.&._ _ / / / / / %.&.&.&.&.&.&.&.&.&.&.&.&.&.&.&.&.&.&.&.&.&.&.&.&.&.&.&.&.&.&.&.&.&.&./ D u 4 2 $ # # @ C E Y U r.c.c.n.n.c.c.n.c.`.-X=X-X-X=X=X-X=X=X%X=X%XoX`.N.b.c.b.N.N.N.V.V.V.V.V.V.V.V.Z.b.c.c.j.j.j.j.c.N.N.N.N.V.V.V.V.V.V.V.V.V.V.V.V.C.D.D.D.D.D.D.D.`.`.`.`.D.D.D.D.`.D.D.D.D.D.D.D.D.D.D.D.D.D.D.`.`._.N.n.j.j.j.j.V.`.`.`.`.D.D.D.D.`.`.D.`.`.`.`.`.`.`.`.`.`.`.`.D.D.D.D.`.`.`.`.`.`.`.`.`.`.D.`.N.c.N.N.V.V.S.D.D.D.V.V.V.V.V._.V.V.V.N.b.b.c.i.t.r.t.r.r.r.t.r.t.p.s.d.d.d.u.r.q.q.Y 6 1 $ # # * # # * 6 ,XqX8X8X*Xu.s.i.j.j.c.c.n.m.N.N.N.V.V.V.V.S.S.S.S.V.V.~.S.D.D.D.D.D.D.`.D.D.`.`.`.`.`.D.D.D.D.`.`.S.S.`.`.`.`.S.S.S.S.`.`.`.`.`.D.`.`.S.S.S.S.",
"V.V.V.V.V.V.N.N.!.N.N.N.b.N.N.N.V.S.S.V.~.~.V.V.~._.~._._._._.`.`.`.`.`.`.`.`.`.D.D.D.D.D.D.C.C.S.D.C.C.C.C.D.D.D.D.D.D.S.S.V.V.D.S.V.V.S.V.V.V.V.V.V.V.M.j.l.l.k.C 3 2 s i o # 4 u %.&.&.&.&.&.&.&.&.&.&.&.&.&.&.&.&.&.&.&.&.&.&.&.&.%.%.%.%.%.%.%.%.) ~ D D H H G / / / / / / S D Z Z Z B D / _ &.&.&.&.&.&.&.&.&.&.&.&.&.&.&.&.&.&.&.&.&.&.&.&.&.&.&.&.&.&.&.&.&.&.' ' ' &.&.' &.&._ / D D G H G G G G / _ %.&.&.&.&.&.&.&.&.&.&.&.&.&.&.&.&.&.&.&.&.&.&.&.&.&.&.&.&.&.&.&./ D 9 3 2 $ # # @ H E U P r.j.c.c.n.c.n.n.n.'.%X=X=X=X=X=X-X=X%X%XoXD.c.u.t.y.t.t.t.u.u.u.u.u.u.u.u.u.u.i.s.d.d.d.j.c.c.N.N.N.N.N.V.V.V.V.V.V.V.V.V.V.V.V.V.V.S.V.V.C.C.C.C.V.C.D.`.`.D.`.`.`.`.`.D.D.D.D.`.D.D.D.D.D.`.~.s.t.r.r.r.r.r.r.u.N.D.D.D.D.D.D.D.D.D.D.D.D.D.D.D.D.D.D.D.D.D.D.D.D.D.D.`.`.`.`.`.`.`.`.`.C.V.u.m q.y.q.t.c.c.V.S.V.V.V.V.V.Z.Z.V.V.V.V.V.V.Z.b.B.x.y.q.t.p.t.r.r.r.t.u.s.f.f.t.R q.^ h 1 ; - # # # # # 6 ,X8X8X8X*Xc.N.N.N.N.N.V.V.V.V.V.V.V.V.S.S.V.V.V.V.V.V.S.S.S.S.D.D.D.D.D.D.D.D.D.D.D.D.D.D.D.D.`.`._._._._.S.D.D.D.`.`.`.`.`.`.D.D.D.D.D.D.D.D.",
"V.V.V.V.V.V.N.N.N.N.N.b.b.N.N.V.V.V.S.S.D.D.S.D._._.`._._.!.!.N.N.N.N.!.~.~.~.~.V._._._.S.S._._.`.`.`.`.`.C.C.D.S.S.S.S.S.S.S.S.S.S.V.V.S.V.V.V.V.V.V.V.n.j.l.l.k.C 3 2 s i o # 2 9 / &.&.&.&.&.&.&.&.&.&.&.&.&.%.&.&.&.%._ / G G D D Z Z B B B A A V Z H / / / / / / / %.%./ ~ H Z A A B B B B W &.&.&.&.&.&.&.&.&.&.&.&.&.&.&.&.&.&.&.&.&.&.&.&.&.&.&.&.&.&.&.&.&.&.&.' ' &.&.%._ G D B B Z Z D D D H H D H G G / %.&.&.&.&.&.&.&.&.&.&.&.&.&.&.&.&.&.&.&.&.&.&.&.&.&.&.&.&./ D u 4 ; $ # # @ L E U U r.j.c.n.c.c.n.n.M.'.%X=X=X=X=X=X#X%XoXD.b.i.u.t.t.t.t.t.t.t.t.t.r.r.r.q.r.p.p.s.s.j.j.j.c.N.N.N.N.N.N.N.N.N.N.N.N.V.V.V.V.V.V.V.V.V.V.V.V.V.Z.V.V.N.N.V.V.C.`.`.D.D.D.D.D.D.D.D.D.`.`.D.K.D.N.t.q.r.t.r.t.t.t.s.n._.`.C.D.D.D.D.D.D.D.D.D.D.D.D.D.D.D.D.D.D.D.D.D.D.D.D.D.D.D.D.`.`.D.D.C.C.u.n r.s.u.u.u.c.c.V.S.V.V.V.V.V.V.V.V.V.V.V.V.V.V.b.N.N.c.n.M.M.s.t.r.r.r.r.r.t.s.s.p.r.^ h 1 ; % # # # # # 8 ,X6X6X6X].c.!.m.N.N.V.N.V.V.V.V.V.V.S.S.S.S.V.S.S.S.S.S.S.S.S.S.S.S.S.D.D.D.D.S.S.S.S.S.S.S.S.D.D.D.D.D.D.D.D.V.V.V.N.N.b.V.S.S.S.S.S.V.V.S.V.",
"V.V.V.V.V.V.N.N.b.N.M.M.M.n.n.n.M.M.l.l.f.f.j.l.l.l.j.u.t.t.q.q.q.q.q.r.t.t.t.t.t.t.t.u.u.i.d.j.c.c.c.b.b.V.V.V.S.S.S.S.S.S.S.S.S.S._.~.V.V.V.V.V.V.V.V.n.j.l.l.f.l 3 2 s i o # 2 9 S &.&.&.&.&.&.&.&.&.&.&.&.&.&.&.%.G A B B B V V V B B Z D D D D A V A Z S D S D Z A V V V V Z H D D Z D D G _ &.' &.&.&.&.&.&.' &.&.&.&.&.&.&.&.&.&.&.&.&.&.' ' &.&.&.&.&.&.&.&.&.&.&.&.&.%.G Z V V V V A Z Z D D S Z H D D D D G / / %.&.&.&.&.&.&.&.&.&.&.&.&.&.&.&.&.&.&.&.&.&.&.&.&.&./ D u 4 ; # # # $ L E U U r.n.c.n.c.c.n.n.c.D.%X=X=X=X=X=XOX%XK.b.i.u.t.r.r.r.r.R R Y Y Y E Y Y U T T T r.u.j.c.N.N.V.V.N.N.V.V.V.N.N.N.N.N.N.V.V.V.V.V.V.V.V.V.V.V.N.V.V.m.N.N.b.m.m.m.V.S.D.`.`.D.`.`.D.D.`.`.D.XXD.N.c.j.j.j.j.n.m.N.V.S.D.C.C.D.D.D.D.D.D.D.D.D.D.D.D.D.D.D.D.D.D.D.D.D.D.D.D.C.C.C.C.D.D.D.D.C.n.m Y p.s.u.u.u.x.c.V.V.V.V.V.V.V.V.V.V.V.V.V.V.V.V.V.N.N.V.N.N.N.N.j.t.r.r.r.q.q.q.t.p.t.^ h 3 ; # # # # # # 8 ,X6X<X<XG.t.j.N.!.V.V.N.N.V.V.V.V.V.V.V.S.S.S.S.S.S.V.V.S.S.S._._._._.S.S.S.S.S.S.S._._._._._.S._.`._.D._._.n.j.u.t.t.t.p.i.b.N.V.V.V.V.V.V.V.",
"V.V.V.V.V.N.N.N.M.l.k.r.^ P n v z z z c x c z P Y R R T T R R ^ ^ ^ ^ r.r.r.r.r.r.r.r.r.t.t.t.t.y.y.t.u.i.m._._.S.D.D.D.S.S.S.S.V.V.N.N.V.V.S.V.V.V.V.V.M.j.j.j.p.j 3 2 s i o # 2 9 N _ &.&.%.&.&.&.&.&.&.&.&.&.&._ G D D D D S D G / / _ _ %.%._ _ _ / %./ ~ H H Z V u u u u 9 h ~ %._ / / _ %.&.&.' &.&.&.&.&.&.&.' &.&.' &.&.&.&.&.&.&.&.&.' &.&.&.&.&.&.&.&.&.&.&.&.&._ W D V V u u u V V Z Z Z Z Z Z Z D S S D H H H G W _ _ &.&.&.&.&.&.&.&.&.&.&.&.&.&.&.&.&.&.&.&.&.&./ D u 4 % # # # < L I U P r.n.c.n.c.c.n.n.c.S.L.OXOXOXOXOXOXK.'.c.u.t.q.^ R Y P P P P P n n U U R q.t.s.j.c.N.V.V.V.V.V.Z.V.N.N.N.N.N.N.N.b.N.N.N.V.V.V.V.V.b.V.V.N.N.N.N.N.N.N.b.m.m.b.m.c.i.A.N.V.S.D.D.S.D.S.V.V.V.V.V.V.V.V.S.~.V.~.C.C.V.C.`.C.C.C.C.C.C.C.C.D.D.D.D.D.D.D.D.D.D.D.D.D.D.D.D.V.V.C.C.D.D.C.C.!.r.n T u.j.d.i.i.j.c.N.V.V.V.V.V.V.V.V.V.V.V.V.V.V.V.V.V.V.Z.Z.Z.Z.N.N.c.u.t.r.r.r.q.q.r.t.^ f 1 $ # # # # # # 8 {.&X*X*Xj.q.t.p.j.N.V.V.V.V.V.V.V.V.V.S.S._._._._._._._._._._._._._._.S.S.S.S.V.V.V._._.!.n.c.j.j.n.n.c.n.s.U P n v v K U q.d.b.N.N.N.N.V.V.N.",
"V.V.V.V.V.N.N.j.p.T n v z z l l l l l l l l z L Y E R R ^ ^ ^ r.^ ^ ^ ^ r.r.r.r.r.r.t.p.p.p.s.d.d.n.B.N.S._._._.S.S.S._.S.N.M.l.s.t.s.s.d.n.N.N.N.N.N.N.n.c.j.k.` 5 3 4 s i X # 4 7 9 B / %._ %.&.&.&.' &.&.%.&._ H D D D D C D D D S G G G G H D D Z V u 9 5 3 3 2 2 2 2 3 3 9 G %.%._ %.&.&.&.' &.&.&.&.&.' ' &.&.&.' ' ' ' &.&.&.&.&.&.' ' ` G G G G _ ' ' ' ' _ _ W G D D V u u u 9 u N V A A Z Z Z Z Z Z Z Z D D Z Z Z Z Z D D G G / _ %.%._ %.%.&.&.&.&.&.&.&.&.&.&.&.&./ J 0 $ $ % # # < L U U P r.n.c.c.c.c.c.c.c.V.OXL.OXOXOXOXOXoXS.u.r.q.R R n z v v z v n T u.n.M.N._._.`.`.S.S.V.V.V.V.V.N.V.N.N.N.N.N.N.N.N.N.N.N.V.V.V.V.V.V.V.V.N.N.m.N.N.m.b.b.m.m.M.j.q.m U U q.u.d.l.c.N.N.N.N.V.N.V.V.V.V.V.V.V.V.V.C.C.C.C.S.D.D.C.D.S.S.D.D.D.D.D.D.S.D.`.`._.D.D.D.D.D.`.S.S.D.D.D.V.S._.l.L I t.s.d.d.d.d.c.b.V.V.V.V.V.V.V.V.V.V.Z.Z.Z.V.V.V.V.V.V.V.V.V.V.V.V.N.c.s.p.t.r.r.r.q.q.! f 4 ; # # # # # # 1 ^.+X'.'.c.p.r.q.r.t.u.d.j.c.M.N.N.N.N.!.M.M.j.d.s.s.p.p.t.t.t.p.p.u.i.d.d.n.N.V.N._.M.s.q.Y U U U T T U T P x h h h k j x P t.d.n.M.n.b.b.b.b.",
"N.N.N.j.p.t.^ U n v L L L L z z z l l l l l z v P E R R R R r.r.r.r.r.r.r.r.r.t.t.p.s.l.c.m.m.m.m.N.N.N.S._._.V.N.N.N.N.M.d.u.t.q.q.q.r.t.t.s.d.j.j.n.M.j.s.p.^ j < 2 w s i o o 4 9 u 9 h Z / %.%.%.&.&.&.&.%./ D B A A B B B V V V u u V u u 9 9 5 3 < $ $ $ $ 2 2 2 4 3 9 V / %.%.%.&.&.&.&.&.&.&.&.&.&.&.&.&.&.&.&.&.&.&.&.&.&.%.&.&.&.&.&.W D D D D H _ &._ / D D D Z Z u 3 2 2 3 9 u u V B A Z Z Z Z Z Z Z Z Z Z Z Z Z Z Z Z Z A Z Z Z Z Z D D G G G / / / / / / / / G H V 3 2 $ % % # # < L I U P Y f.M.M.N.N.N.M.c.N.oXOX*X*X*XoXoXD.i.q.R E L l j l x x n p.N.`.`.`.S.D.S.S.V.V.~.~.V.V.V.N.N.N.N.N.N.N.N.N.N.N.N.N.N.N.N.N.N.N.N.N.N.N.Z.Z.Z.b.m.b.b.b.b.M.s.R n n P Y U P P P U T R r.r.r.r.r.t.s.s.l.n.N.N._._._.S.S.D.D.D.C.Z.S.D.D.V.S.D.D.D.D.S.V.C.C.C.D._.N._.!.!.!.!.~.N._._._.^ v ^ p.s.j.j.j.A.c.N.V.V.V.V.V.V.V.V.V.V.V.V.b.Z.Z.Z.Z.V.V.V.Z.Z.Z.Z.V.N.N.c.j.d.u.t.y.q.R L 6 2 ; # # # # # * @ ^ ].'.'._.!.s.t.r.T T T T T T T T T T T T U U U n n n n n n n q.j.c.b.N.N._._.G.M.s.T n v v v v v v v v v l h 9 9 9 9 h l L U Y T R q.T T T T ",
"i.q.m M n v z l z z L L L K C z l l l l l z z K U T T q.t.t.s.s.d.d.d.d.d.d.j.n.n.c.c.n.c.m.n.n.c.j.l.s.s.u.u.u.p.t.t.t.r.q.q.R q.R R R R q.r.t.u.u.s.j.p.r.E C 5 < 2 w a s o o ; u u N V V B H H ~ / / / / H B V V V V u u u 9 7 3 3 3 4 4 2 $ < $ $ ; ; ; ; ; 2 2 2 2 3 9 S %.%.%.&.&.&.&.&.&.&.&.&.&._ _ / / / / _ / / _ _ _ / G G W W / _ / D Z D D D G W D D Z Z Z V 7 < $ 2 2 $ 4 7 9 V V A Z Z Z Z Z Z Z Z Z Z Z Z Z Z Z Z J J Z Z Z Z Z Z D D D D D H H H H D D Z B V 9 4 2 ; % % # # @ H I P P n U R r.t.t.t.t.y.y.i.j.j.j.j.d.u.r.T Y L l k h k z Y k._.'.D.C.D.C.V.C.V.V.V.Z.V.V.S.S.S.S.S.V.N.N.N.N.m.N.N.N.N.N.N.N.N.N.N.N.N.N.N.N.b.N.b.b.b.m.n.n.j.t.Y L L P P P I I I L L L L L z z z z z K K P P Y q.p.p.s.l.l.c.N.N.~.V.~.~.~.~.~.N.m.~.m.~.~._._.l.p.R P z x k k x x z n v E I P R t.s.d.j.j.c.b.N.V.N.N.V.N.N.N.N.N.N.V.N.N.Z.V.Z.b.N.N.N.N.b.b.b.m.b.c.c.j.j.j.s.s.p.E j 8 2 # % # # # # * # 6 ^ l.!.W.r.T T U m U U P P P P P P P P P P P P P L L L L L L R !.]._._._.!.c.p.m n v K v v v v n L L K L l 6 9 9 6 9 h j z z z z v v z z z z ",
"c.p.^ E I L l x x l l z C l l j j j j l l z z P U R t.u.d.j.c.c.n.n.n.n.c.b.b.b.b.b.c.M.n.l.k.p.r.T U P n U U Y T R q.q.r.r.^ ^ R R R R Y U Y r.r.p.p.r.T U L h 1 2 3 w a s X # # 3 u N V V V V A A Z D Z A V V u u 9 u 9 7 3 1 4 4 2 2 2 2 2 ; ; ; ; ; ; ; ; ; ; ; ; 2 2 9 S %.%.%.%.&.%.&.&._ / / G G G G H H D D D D D D D D D D D H H G G G Z Z Z Z Z Z Z B V V V V 3 $ ; ; $ $ $ 4 1 7 u V V Z Z Z Z Z Z Z Z Z Z Z Z Z Z Z Z A Z Z Z Z Z Z Z Z Z Z Z Z J Z Z Z V V V u u 9 2 ; ; # # # # @ l I P P P P n v n P P P n n n n n n n P U P L x h f g z q.n.`.D.D.D.D.D.C.D.`.`.~.`.`.V.!.l.p.r.^ Y E ^ j.N.m.m.b.b.b.b.N.N.N.N.N.N.N.N.N.N.V.N.M.n.n.n.n.n.l.p.R n v n P P P L P P P P L L L L C l x x B B j j j x L ! K c v P P P U E E ^ E I L L L L L L I I P C j 6 8 5 5 3 1 1 1 1 < < 1 1 l ^ r.p.s.s.d.j.c.b.N.V.N.N.N.N.N.N.N.N.N.N.N.N.M.M.B.c.n.n.n.n.l.l.l.l.j.l.f.f.u.s.p.R I j 5 1 = # % # # # # # o @ 1 f x x x z v n P P P P P P P P P P U P P P P P P Y P P Y I K P R r.t.r.T m n v P P P U U U U U U U U U P f 6 6 9 h k l z z z z z z z z z z ",
"p.r.R P z x f f f f f f 6 6 6 f h j j l l z L P R r.u.d.A.d.j.c.c.c.n.n.n.n.n.n.n.n.f.p.^ E P v v n n P P E E E R ^ R Y U U U P P P P P P P P P m m m m n n l 7 < @ 3 w a i o o o $ 3 u V V V V Z Z A A V u 7 7 3 2 4 2 2 ; ; ; ; ; ; ; ; ; ; ; $ ; ; ; ; ; $ $ ; ; ; ; 2 3 V G / %.%.%.%._ / D Z Z Z S G W W G S A V B Z Z Z D Z Z S H D D D D Z Z Z Z Z Z Z Z A V u 1 $ $ $ $ $ $ $ ; 1 3 9 9 9 u u u u N V V A A Z Z Z Z V V V V V V V V V V V V V V V u u u u u u 9 u 9 0 2 ; $ % # - # # # 1 Z P U n P P P n n n n P P P P n n P U P L j h h K p.)._.`.`.`.`.`.`.`.`._.!.l.u.r.T U K x f f f f f x p.n.n.N.N.N.N.N.N.N.n.n.n.l.f.s.p.r.Y n n L L L P Y P L L L L L L L L L L L L C C C j h f 6 6 6 5 5 5 5 5 5 6 j L I E E L x j h f f h 6 h h h h h h h f 6 6 6 6 6 6 5 5 7 7 5 5 5 5 5 5 6 l L P ^ r.p.p.f.f.l.j.f.f.s.s.f.f.s.p.p.p.p.r.r.r.r.r.^ ^ ^ ^ ^ ^ ^ ^ ^ ^ R T U Y C f 6 5 1 ; * # * * # # # # # # @ 5 h j j l n P P U P P P P P P P Y P P P P P P P Y Y Y Y Y K x x c M n U U T T T R q.q.q.q.q.q.q.q.T Y Y z k k x l z v n n v K v v v v v v ",
"l x k f 6 8 1 1 1 1 1 1 1 1 5 6 h j l z z L P E ^ p.p.s.f.f.f.p.p.r.R Y I P L L L n z l z z C C L I I E E E E P P v z z v v v v v v v n n P P P P n n P P P l 5 < $ 2 y { i X # o # @ 2 3 9 u u 0 3 4 2 $ @ # # # # # # # # # # # # # # # # # # $ $ $ $ $ $ # % ; ; $ $ @ @ < 1 9 V Z A V V 9 7 9 3 9 9 u V V u u 9 3 0 u V J J V V V u V V V V u u u u u u u u u u u 3 ; $ $ @ # ; ; ; 2 2 4 4 3 2 2 < < < 4 4 3 0 9 9 9 9 9 9 7 3 3 3 3 3 3 3 7 3 3 3 3 3 3 3 3 3 3 3 3 4 2 ; $ % ; : y - * % @ < f x l z K z C C C C C C C C z C K z h 9 5 7 9 B L I Y ^ r.p.^ ^ ^ I C k f 6 8 1 1 1 8 5 5 9 6 6 h h k j l K L L n z l x k f 6 6 6 6 8 8 1 5 9 5 1 , , 1 1 1 5 5 9 9 5 5 5 5 3 3 3 1 1 1 1 < < < < 2 2 2 2 2 2 1 1 8 6 j l C C l j j h h h h h h 9 9 9 9 9 6 7 9 9 9 6 7 7 7 5 5 9 5 7 7 7 7 7 5 1 1 1 8 6 h j j j h f f f f 6 6 h h h h h f 9 9 6 6 6 6 6 6 6 6 6 f h h h h h 9 5 < < 2 $ % # # * & * # # # # # $ 3 7 9 h j z L L L n n n n P P P P P P P P P P P P P P P P P P Y R R ^ ^ ^ R R R R R R R R E E Y Y U U I I L L P Y U Y Y Y U U Y Y Y Y Y Y ",
"5 1 < @ @ @ @ @ @ @ @ @ @ @ < 3 9 h j j C C C C C C l l j k f 6 1 1 , , 1 1 1 1 1 8 5 5 9 h h h j h j j k k j k j j j j j C x j j x l l l l l C C C C C C j 6 1 2 ; 2 y O.s o o o # # # # # # # # # # . # o o o o o # # # # # # # # # # o # # # # # # # # # o o o # # # # # # # . . . # # # # @ % # # # # # # # @ $ $ ; 2 3 0 0 3 3 3 3 3 9 3 3 3 3 3 3 3 3 9 9 9 u 0 ; # # # $ % ; ; ; 4 4 4 4 ; $ $ % % % - - # - - % $ $ $ $ @ @ @ @ @ @ @ @ @ # # # $ $ $ $ $ $ $ $ @ @ # % ; ; y  .O.y - - - * # @ , < < < < < < < ; $ $ $ $ @ $ @ # @ - ; - # # # # # @ @ @ @ . . . # # # @ @ # # # $ # # @ @ @ @ @ @ @ . @ . . @ . . # # . # # # @ @ @ = * # # * # # # # # # # # # % # # # # # # # # # % # # # # # = # # @ @ $ 2 2 1 2 1 1 1 1 1 3 1 1 3 3 3 2 < $ $ @ @ @ $ $ $ @ @ @ @ @ @ $ $ @ @ @ @ @ = = = # # # # # # # # # @ @ @ # # # # # * # # * * * # * * * # # # # # @ @ # # # # # % # # # # # # & & * * * & # # # ; 2 2 5 9 h h j j j j j j j j h h h h h h h h h h h h h h h k k k k j j j j j j j j j k h h h f 6 f f h h h j j j l l l l l l l l l l l l ",
"@ . . . . . # # # # # # # # @ $ < < 1 1 1 1 1 < , 1 , , , , < < , < 1 1 1 1 1 1 1 1 1 1 < 1 1 1 1 1 1 5 5 5 5 5 5 5 5 5 5 5 5 5 5 5 5 5 5 5 5 5 5 5 5 5 5 8 1 2 2 ; w s O.a * o # o # o o o o o o # # o # # o o o o o o o o o o o o o o . . . . o o o o o o o o o o o .   X o o o o o X o o X o X o o o o o o o X X o o . . . # # # @ ; 2 2 2 2 2 2 2 2 0 3 2 2 2 ; $ # . o # # o o o # # # # # # # # # # o   O     X # # % - - # # # # # # # # # # # # % # # # o # # # # # # - - : +.6.7.+.: : - > - - - - - - - - - - - - - - - - % - - - % % # ; - - ; # # # # # * * - % # # # # # # o o & * * o # # # # * # # * * * # # # # # # # # # # # # # # # # # # # # # # # # # # # # # # # # # # o o # # # # # * # # # # * * * * # % - * * * # # # # # # # # # # # # # # # o o o o o o # # # o o # # # # # o o # # # # # # # # # # # # # o o o o o o X o o o o o o o o o o o # o # # o o # # * * * # # o & o & o o o # o # # # # @ @ @ @ @ @ @ @ @ @ @ . . # # # # # # # # # . # # # # # # # # @ @ @ @ @ @ # % $ $ $ $ $ $ @ # # @ @ $ $ @ @ = @ @ @ @ @ @ @ @ @ @ @ ",
"@ # @ @ @ @ @ @ @ $ $ ; ; ; 2 2 2 1 1 1 1 2 2 2 1 1 1 1 1 3 3 3 3 3 3 3 3 3 3 3 5 5 5 3 5 5 5 5 7 7 7 7 5 5 5 5 5 5 7 3 3 7 9 7 3 3 3 3 3 3 3 3 3 3 3 3 3 3 3 2 $ ; w { +.O.y & & # o o o o o o o o o o # # # # # # # # # # o # # # # # * * # o * * * * * # # # o o o o o o o o o o # # o o o # # o o o o o o # o o o o o o o o o o o o o X o # # # # # . . # . # # o X O O o o O X o o # # # # # # o # : i O.#.2.2.O.y : - - - * * * * # # # o o o o o o o o o o # # # # o # : s 2.pXgXxXzX2. .i q q : : : : : - - - - - - - - - - - - - - - - - ; * * * * * * * * * # # # # # # # # o o o # # # # # * * * # # * * * * # # # # # # # # # # # # # * * o # # # # # # # # # # # # # # # # # # o o # # # # # # # # # # * * % % % % # # * * * * * * * * * * * * * * * * o o o o o o o o o o o o o o # # # # # # # # o o o o # o o o # # o o o o o o o o o o o o o o o o o o o o o o * * * * # # o o o & - : : q q > o o # # o o o o o o o o . o # o # # # # # # # # # # # o # # o # o o o # o o o o # * # * o o o o o o o o & & & * o * # * * * * # # # # # o # # # ",
"2 2 2 2 2 2 2 2 2 2 2 2 y w 0 y 3 3 3 3 3 3 3 3 3 3 3 3 3 3 3 3 3 3 3 3 3 3 3 3 3 3 3 3 3 3 3 3 3 3 3 3 3 3 3 3 3 3 4 2 2 2 2 4 2 2 2 2 2 2 2 2 2 2 4 4 2 2 2 y 2 w a +.+.+.+.i - o + o o * * # # - - % & - - - * * - - : - - - - - : - - - - - - - - # # % % % # # # # # # o o # o o # o o o o o o X o o X X X o o o o o o o o o o o o o o . o X X X o   X o o o O > r { +.<.<.@.a : - > o o - - y O.8.zXNXJXJXHXHXJXDXbXhX7.<.+.O.{ { a a s s s s s i i i i y y y q q y i O.2.pXhXvXDXJXJXNXzXpX6.2.<.{ i r q q : : : : : : & * * * & & & & & & & & & > & & & & & & & o o & & & & o o & & & & & & & & & & & & & & & & & & & & o & & & # * * * # o o o o o o o X X o o o o o o o X     . .     . .   . # . # # * # # # # # # # # # # # # o o o o o o o & & & & * * * * * * * * & o o > * * # * & o o o & & & & & o o o o o o o o o o o o o & & o o o o # # # # # # # # - - - - * * * - - - : r y i p a { { { s r : o o # # # # # * * # # # # # # # # # # # # # # o o o o o # # # # # # o o o # # # # # # # # # # # # # # # * # # % % # # # # # # # # # # # # # ",
"y y y y y y y y y y i i i i i i u u u u y u y y 0 0 2 2 2 w w y 2 2 w w w y w y y w 2 2 2 3 y y y y y y y w w w 2 2 2 2 w 2 w y y w w y w w w 2 2 2 2 2 y y y i { O.@.,.,.+.#.#.{ y r r y y y y y y y y i i r r r r r r q q q q q q q q q q : : : : - - - > o o * * * * - : q r y y y y q q q : : q q : q q q q > > > > & & & O O O O O O O O O O & & & & & & & r  .7.aXaXgXhXhXzXaXrX3.<.@.<.6.aXbXJXHXHXHXHXHXHXHXHXLXPXPXPXPXLXLXHXHXHXJXJXJXJXJXJXJXFXFXNXNXMXvXxXxXhXxXvXMXNXDXHXHXHXHXJXJXJXDXNXbXzX6.3.4.2.<.,.+.+. . . .+. . . . .{ {  . . . .+.+.,.,.@.@.+... ...{ } } } } } { {  . . . .{ { } } p p p i i i i i i i i r t r r q q q q q q r r r t t t t t r r r q r r r r r r r r r r q q q q q : : : : > > : : : q q q q r y i i i i p p p i i i i i i p p p p p a a p p s s p p p a p p p p i y y r q q q q q q q r y y y y y i i i i s s a a a a a a a a a a a a a a a a { { {  . . . . . . .{ { { p i y q : - - - * * * - - * * - - - - - - - - - : : : : : : : : - - * * & o o o o o o o & & & o o o o o o o o o o o o o o o o o o o o o X o o o ",
"i i i i i i i i i i i i i i i s s s y y i i y y i i i i i s s s s s i i i i s s s s s s i i y y y y y i i i i i i i i i i y y y y y y y y y y y y y i a {  . .+.,.<.,.<.1.1.<.<.2.2.<.<.,.<.<.2.2.6.6.4.<.,.,.,.,.,.,.,.,.,.@.+.+.+. . .{ } } } a a a { a a { +.+.@.<.<.6.rXpXsXaXaXpXsXpXsXsXaXsXsXsXsXsXpXpXsXsXpXyXyXrXrX7.3.2.<.,.@.+. .{ { { a p p p { +.rXvXDXDXDXDXDXDXDXDXDXDXDXDXJXJXHXHXHXJXHXHXHXHXHXHXHXHXHXHXHXLXLXHXHXHXHXLXPXPXPXLXLXLXLXHXLXLXLXHXHXHXHXHXHXHXLXLXLXKXKXHXPXKXKXKXKXHXJXGXcXzXdXdXsXyXuXuX3.4.3.rX3.3.4.4.3.3.uXuXrXrXyXyXzXbXDXDXbXzXyXyX1.o.o.o.o.o.,.,.,.,.,.,.,.,.,.o.....X.X.X.X. .{ { } } } } } } } } } } } X...,.1.4.uXuXuXuXuXyXyXyXyXyXyXyXyXyXyXyXyXyXuXuXuXuXuX4.1.o.......@.,.1.1.<.4.4.4.3.uXuXuXuXuX3.4.4.4.3.4.3.3.3.3.3.3.2.4.2.2.2.2.2.2.2.2.<.<.<.,.,.@.@.+.+.+.+.+.+.+.+.+.+.+.+.+.@.+.@.@.@.@.@.@.@.@.@.@.@.,.,.....+.+.o...+.......+................. . . .{ { { a p i i y y r y y y r r y r r r r r q q q q q y a { { { { { { { {  .{ a a p i i y y r y i s p p a {  . . .{ p p i i p p p p p p p p } { { ",
"s s s s a a { { O.+.<.<.O.a s s s s a a a s s s i i i i y y y y y y i y y i s s a a a a a a | O.O.+.#.+.<.tXtXtX6.5.<.#.+.+.O.O.O.+.O.a O.#.#.+.+.+.+.+.@.@.2.6.tXaXaXaXaXaXsXtXrXrXrXsXzXxXbXGXDXDXDXMXbXxXzXzXzXzXzXzXhXzXxXvXxXzXzXzXtXrXrX2.2.3.<.<.2.7.yXtXrX6.6.6.<.2.3.3.4.2.6.6.6.rX6.2.tXgXvXvXnXnXbXbXbXbXbXbXnXnXnXnXnXnXxXxXxXxXzXzXzXzXzXzXxXvXNXDXDXDXDXDXDXDXbXnXvXvXxXxXxXxXxXzXzXxXnXbXNXDXFXJXJXHXHXHXLXLXHXHXLXLXLXLXPXPXPXPXPXLXLXPXLXLXLXLXLXLXLXLXPXPXPXPXPXPXPXPXPXPXPXPXKXHXHXDXxXsXyXrXrXrX7.3.2.2.2.3.rX6.rX6.2.2.2.2.3.6.rXrXaXNXLXLXLXHXbXdXsX1.X.......,.1.1.,.,.,.......X.X.X. .{ { } } p p s i i i i i i p p p p p } { ..,.1.4.uXuXuXuXuXuXyXuXuXuXyXyXyXyXyXyXyXyXyXyXyXyXrXuX3.4.4.4.4.2.2.2.<.1.1.,.,.,.,.+.........X. .} p p p p p p p p p p p { { ..+.,.3.3.3.4.2.<.#.@.,.,.,.,.,.,.,.,.,.,.,.,.,.,.,.,.,.1.2.2.2.2.4.3.2.3.3.3.3.3.3.3.3.3.3.3.3.3.3.3.3.3.4.4.4.4.3.4.2.2.<.,.,.@.@..... .{ { { { { a a a a { { { {  . . . .+.,.2.pXaXaXaXaXhXhXhXhXhXhXhXaXpXrX7.6.6.7.rX7.7.rXaXdXxXbXvXxXzXaXrX3.3.3.7.rXyXpXsXaXaXhXhX",
"aXzXaX7.6.6.7.tXhXNXHXLXFXxXpXtXpXgXhXgXtXfXfXfXtX<.+.<.<.@.<.2.7.#.+.+.#.5.6.6.2.2.tXjXjXxXvXvXxXhXgXgXjXMXBXFXFXMXgXgXgXgXaXtXhXMXNXvXgXgXgXhXgXgXaXaXaXaXxXbXGXFXDXnXxXxXzXgXxXbXDXJXHXHXHXHXJXJXJXHXHXHXHXJXHXHXHXHXHXHXKXHXPXKXHXHXHXJXJXFXNXbXvXvXbXnXbXMXMXvXxXxXxXfX6.2.@.{  .+.+.O.s r +.5.tXgXhXhXgXhXjXjXjXjXjXjXjXxXxXxXxXxXjXhXhXhXhXhXhXhXhXhXhXhXjXkXgXgXkXkXkXkXfXfX X8.tX8.8.7.7.tXtXfXgXhXhXjXxXxXxXjXjXkXkXkXkXjXlXVXVXmXmXmXBXBXBXBXBXBXBXBXBXBXBXBXUXUXUXUXUXUXUXFXFXFXBXBXmXmXlXkX(.:.%.%.%.%.%.%.:.:.>.>. X X X X X X X X X XkXVXBXBXmXmXBXFXMXaXyX1.........,.1.3.a V Z J F F $./ / _ _ _ %.&.&.-.-.-.&.&.' ' _ / ~ ~ G G ~ ~ ~ #.0.0.5.5.5.5.5.5.9.5.5.5.5.5.5.5.5.5.5.5.2.2.<.<.@.O.O.O.O.O.O.O. .a | F F O.$.#.0.5.8.5.~ ~ $.$.#.9.5XfXjXVXVXmXmXmXmXjXkXpXpXaXhXzXzXgXrX3.2.<.2.,.,.4.rXyXsXaXaXaXdXdXhXzXzXzXxXxXxXnXbXbXbXnXNXGXGXNXNXNXNXNXNXNXNXNXNXNXNXNXNXNXNXbXnXnXnXnXnXnXnXnXnXnXnXnXzXzXzXzXzXzXdXdXdXdXdXaXdXdXdXdXdXdXzXxXnXxXxXnXGXGXGXGXGXGXGXDXDXDXDXNXbXzXaXaXsXpXaXxXDXJXJXJXHXHXHXHXHXHXJXDXbXbXDXDXDXJXJXJXJXDXDX",
"BXLXLXLXFXJXLXLXLXPXLXLXPXLXLXLXLXLXJXNXNXJXJXFXJXFXFXJXLXLXLXLXLXxX8.8.8.8.8.#.a F #.5.8.kXmXMXBXBXMXMXNXBXFXFXFXNXhXpXtXtXiXiXfXjXxXxXjXjXjXjXvXNXFXLXLXLXLXLXLXBX8.#.#.5.pXJXLXPXLXLXLXLXLXLXLXLXLXLXHXHXLXLXLXLXPXLXPXPXPXLXPXPXPXPXPXPXPXPXPXPXLXLXLXLXPXPXPXPXPXLXJXLXmX6.<.5.<.<.#.s 0 5 5 6 j H I W Z Z D D Z D H H D G H H G H G H D D Z Z Z Z D S Z Z H S S Z F F F F Z F F Z D F F J J F Z B A A A N N h j l n R p.s.f.f.k.k.k.W.f.r.E E ! ^ ^ ] ^ ^ ] ] ] ] ^ ^ ^ ^ ] ` ` Q Q Q L C Q U.f.f.s.f.f.j.l.M.}.6X0X0X0XAXAXAXSXAXAXAXAXAXCXCX0X0XCX.X(. XlXlXVXjX7.+.p } }  .@.3.<.1 r.}.'.]._.].}.}.,X,X*X*X*X*X*X,X,X+X1X1X1X].+X+X+X+X].].{.,X,X,X,X7X7X7X7X0X0X0XCXAXCXCXCXCXCXCXCXZXZXZXZXZXZXCXlXlX4X4X4X4X4X4XlXlXlXlXCXCXCXCXAXSXCX.X4XCXCXAXSXSXSXSXSXSXSXSXCXCXZXCXCXCXCXVXkXfXhXhXrX6.3.2.<.7.xXNXFXJXJXJXJXJXJXJXJXJXJXJXJXJXJXJXJXJXHXJXHXHXHXHXHXHXHXHXHXHXHXKXHXKXHXHXHXHXHXHXJXJXJXJXJXJXJXJXJXJXJXJXDXJXJXJXJXJXJXJXJXJXJXJXJXDXJXJXJXJXDXJXJXJXHXHXHXHXHXJXJXJXHXJXhXmXFXNXNXhXfXfXfXNXLXPXLXLXLXLXLXLXPXLXLXLXPXLXJXFXBXBXmXjXkX X8.8.",
"iXkXmXBXmXBXmXmXBXBXBXBXVXlXlXlXlXlXkXiX X X X X X5XkXkXfXiX X8.5.$.O.F F J F F F F F F F $.>. XiX X9.>.>.9.9.>.>.>.0.:.$.$.$.%.:.:.:.:.>.>.>.:.:.:. X X5XkXlXlX X:.%._ %.H $.BXLXUXUXUXUXUXBXBXFXLXBXvXxXxXxXxXxXMXBXBXBXBXBXFXJXJXLXLXLXLXLXLXPXPXPXPXLXLXLXLXLXZXZXCXlX4X4X%.i +.<.6.<.y h I T k.s.{.}.{.M.j.d.d.d.j.j.j.j.j.j.j.j.s.s.s.u.u.p.t.q.q.q.T T T T U U T T T q.q.q.r.r.r.^ P f j x z U U U n n n m t.c.V.`.oXoXoXoXoXoXoXoXoX].`.M.s.q.q.q.q.q.q.q.q.T U U U U U U P n v v c c g T [.N.N.V.V._._.S.oX<X8X8X:X6X<X<X6X0X6X<X+X1X+X`.`.`.`.,X{.l.s.W.lXVXlXfXO.y y i y { 2.s 8 }.qXqXqX*X*XoXoXoXK.`.`.`.`.D.D.D.K.XXXXXXXXXXXXoXXXOXXXoXoXOXOXOXOXOXOXOXOX=X-X<X6X6X6X0X0X0X0X0X0X0X0X0X0X0X0X7X,X,X,X,X,X,X,X,X,X,X,X,X+X].].+XXX+X*X*X+XoXoX'.oXoXoXoXoXoXoXoXoXoXoX].'._.^.j y 7.hXpX7.6.2.#.kXBXBXBXBXBXBXBXBXBXBXBXBXBXmXmXmXmXmXmXmXVXVXVXVXVXlXjXlXlXlXlXlXkXkXkXkXkXkXkXkXkXkXkXkX5X X X X(.(.(.>.>.>.>.>.>.>.>.>.>.>.>.>.>.9.>.:.9.BXBXNXNXNXBXNXmXmXNXBXBXBXBXBXBXfX$. XVXlXkX X X X XkXkXkXlXkXlXlXlXlXVXBXLXLXBXlXlXkX5X X(.(.(.(.>.>.",
"~ ~ %.:.:.;.;.:.;.;.&.%.%._ %.%._ _ _ _ _ _ _ _ _ _ _ _ ) ~ ~ H ~ ~ / %.;.>.(. X X5X5X5X.X.X X(.;.%.G G W W W G D D W _ _ _ *.;.Y.Y.Y.Y.Y.U.U.U.U.*.' ` ` ` _ _ ' U.T.Y.R.Y.T.T.(.(.(.(.(.(.(.(.(.(.:.S H ~ F J F :.(.(.(.(.>.>.>.9. XkXlXxXmXVXVXVXCXCXCXCXlX4X0X0X3X3X,X,X.XH 2 i #.rX2.2 D M.`.6X>X7X6XqX<X*X*X*X*X*X-X-X-X-X-X-X-X-X-X-X-X-X-X-X=X=X-X-X-X-X%X=X=X=X-X*X*X%X*X*X%XOXoXd.U P U p.l.c.j.y.q.d.V.oXoXoXoXXXXXoXoXK.L.L.L.K.K.oX+X+X`.c.u.t.q.q.T T T U U U U U m m U U m m r.s.N._.S.V.S.S.S.V.D.*X8X2X6X8X8X8X8XqXqXqX8X-X@X@XOX*X@X@XoX+X+X~.c.{.CXlX5XO.y i i i p O.3 8 7XqXqX8X:X:X;X-X=XOXXXXX`.`.D.`.XXXX`.oXoXoXoXoXoXoXoXoXoXoXoXK.oXoXoXoXoXoXOXoXOX*X-X:X6X6X6X6X8X6X6X6X6X6X<X*XOXOXOXOXOXOXoXoXoXoXoXOXOXOXOXOXOX%XOXOXOXOXOX%XOXOX*X%X*X%X%XOXOXOX%X%X%X%X%X{.Z 4  .pXaXpX7.2.O.:.4X4X.X.X.X.X X(.(.(.(.(.(.(.Y.Y.;.;.;.;.Y.Y.Y.Y.;.;.Y.;.U.U.U.U.U.U.-.' -.' ' ' ' ' ' ' ' ' U.U.U.U.U.U.U.U.U.U.U.U.U.U.h.h.' ' ' ' ' ' ' :. XlXlXlXkX X>.>.>.>.>.:.:.;.&.&.&.%.&.&._ _ &.&.;.;.;.;.(.(.Y.Y.Y.(.;.>. X(.(.(.Y.;.-.-.-.-.' -.-.-.",
"/ / / &.&.&.&.-.*.*.-.&.&.&.&.%.' ' ' ' &.&.&.&.&.&.&.&.%.%./ %.%.%.;.(.(.(.(.(.(.(././..X.X X(.(.&.Q _ ' ' ' &.' W W _ / / / ` ` ' U.U.T.T.U.U.U.U.Y.Y.Y.U.-.U.Y.Y.Y.Y.U.U.U.U.U.U.U.U.Y.R.R.R.R.Y.*.L I _ D D G W _ W W H D H S S S S ~ >././.[.[.[.}.3X3X,X,X,X,X,X,X,X}.U.Z u : O.tX2.3 D j.`.<X<X7X6X6X*XoXOXOXOXoXOXOXOXOXOXOXOXOXOXOXOXOXOXOXOXOXOXOXOXOXL.OXOXL.oXoXOXOXOXOXOXXXoXc.q.r.r.s.d.j.t.e.A.`.oXoXXXK.XXXXXXXXoXoXOXOXOXK.oXoXL.K.oXoX`.`.V.N.m.c.c.c.c.c.n.N.N.N.N.N.N.~.~.~.N.S.V.S.V.S.S.D.-X8XqX8X8X8X6X6X8X:X6X<X:X-X*X@X-X-X@X@X@X+X+X'.V.!.|.lX Xs y i i y y F 9 8 ,XqXqX8X:X;X;X:X-X-X@X@XoXK.K.D.D.D.`.`.`.`.XXXXXXXXoXoXoXoXK.oXoXoXoXoXoXoXoXoXXXXXK.K.oXoXoXoXoXoXOXOXoXK.oXOXOXOXOXOXOXOXOXOXOXOXOXOXOXOXOXOXOXOXOXOXOXOXOX%XOXOXOXOXOXOXOXOXOXOXOXOXOXoXoX[.l 4 s tXaXpXtX2.s >.0X0X|.).)./././.E.R.R.R.R.R.R.R.R.T.T.T.T.T.T.R.T.T.T.T.T.T.T.T.T.T.R.R.R.R.R.R.R.R.U.U.R.R.R.R.U.U.U.U.U.U.U.U.R.R.R.R.R.R.U.U.U.U.Y.U.U.&._ %.%.%.;.;.&._ _ _ &.&.&.-.-.*.&.*.*.*.*.*.*.*.*.*.*.*.*.*.&.&.&.&.*.*.&.&.' ' ' ' *.*.-.-.-.-.-.' ",
"` ` ` &.-.*.*.-.*.*.*.' / / _ _ _ _ _ _ _ _ _ _ _ _ _ _ _ _ _ / _ / _ ' &.&.&.-.*.*.*.-.-.;.Y.Y.Y.Y.U.*.I.I.U.U.U.-.I W D D I ` ' *.U.U.R.R.R.U.R.U.U.U.U.U.U.U.U.U.U.U.U.U.R.R.R.R.R.T.R.R.R.T.R.Y.Y.I I ` C I / H V u 9 9 9 9 9 9 9 u u Z ` E.[.{.{.3X6X6X3X3X<X<X,X,X[.p.I Z u ; { pX<.3 C c.S.6X:X6X8X8X*X%X@XOXOXOXOXOXOXOXOXOXOXOXOXOXOXOXOXOXOXOXOXOXOXOXOXOXOXOXOXOXOXOXOXOXOXOXOXD.i.y.s.j.c.i.q.c.oXK.XXXXK.K.XXoXXXXXoXOXOXOXoXoXOXOXL.L.L.K.K.OXoXoXOXOXoXoXoX`.D.D.K.C.Z.V.V.V.b.V.N.N.b.Z.V.Z.oX6XqXwXqXeXeXeX:XOXOXOXOX@X*X-X-X-X-X-X@X@XOXOX+XXXV.V.!.[.-.u y i i y y F 9 8 &XqXqX8X;X:X-X-X-X-X-X-X-X*XOXOXoXK.K.K.K.XXXXoXXXXXoXoXoXoXXXXXoXoXoXoXoXoXXXoXoXXXK.K.K.oXoXoXoXoXOXOXOXOXOXOXOXOXOXOXOXOXOXOXOXOXOXOXOXOXoXOXOXOXOXOXOXOXOXOXOXOXOXOXOXOXOXOXOXOXOXOXK.K.oX_.j 4 i rXaXpXpX+.u (.0X0X,X).[.^.W.W.Y.Y.Y.Y.R.R.R.R.E.E.E.E.R.R.R.E.R.R.E.E.R.R.R.R.W.R.R.R.R.R.R.R.R.R.R.R.R.R.R.R.R.R.R.R.R.R.R.R.T.T.T.T.R.R.R.R.R.U.U.U.U.U.*.' ` ` I I I ` ` ` ' ' ' *.*.*.*.*.*.*.*.*.*.*.' *.' *.*.*.&.&.&.&.' *.*.' ' ' ' ' *.*.' *.*.' ' h.",
"/ / / &.-.-.-.-.-.-.&.' _ _ _ _ _ _ _ _ _ _ _ _ _ _ _ _ / / / / / _ _ _ / I W _ _ ' ' ' ' *.-.-.-.-.U.U.Y.U.U.U.U.*.I / ` ' -.Y.Y.Y.Y.R.R.R.R.R.R.U.U.U.Y.Y.Y.U.U.U.U.R.R.R.R.Y.R.R.R.R.T.T.T.T.R.R.R.' ' &.W W D B 9 9 9 9 9 3 7 3 3 3 5 D [.,X,X,X<X,X,X<X6X3X<X3X,X,X[.Y I Z y # i 3.#.3 C M.N.6X8X6X8X8X>X*X*XOXOXOXOXOXOXOXOXOXOXOXOXOXOXOXOXOXOXOXOXOXOXOXOXL.L.OXOXOXOXOXoXoXK.K.L.oX`.A.i.i.i.i.Z.oXoXoXXXXXOXK.XXXXXXXXoXoXOXOXOXoXoXoXK.K.oXoXOXoXoXoXOXXXXXoXK.K.D.K.XXD.V.b.c.c.c.c.n.m.m.m.b.*XqXqXqXqX8X6X:X-XOXK.K.-X<X*XOXOXOX*X#X-XOXOXOXOXOXoXV.V.V.n.I 9 y i y y y s h g *XqXqX8X;X:X:X;X-X-X;X-X-X-X-X-X*X%XOXOXoXXXXXXXXXXXoXoXoXoXXXXXXXXXXXoXoXXXoXXXXXK.K.K.OXOXOXOXXXOXOXOXOXOXOXOXOXOXoXoXoXOXOXOXOXOXOXOXOXOXoXOXOXoXOXOXOXOXOXOXOXOXOXOXOXOXOXOXOXOXOXoXK.K.oX).j 2 i 8.aXpXtXO.u /.0X0X[.` ' ' Y.Y.R.R.R.R.R.R.R.T.T.T.T.T.R.R.R.R.T.T.T.T.R.R.R.R.R.R.R.R.R.R.R.R.R.R.R.R.R.R.R.R.R.T.T.T.R.R.R.R.T.T.T.T.T.T.T.T.T.T.R.R.R.R.U.U.U.*.' ' _ ` / _ *.*.*.*.*.*.*.*.*.*.*.*.' &.' ' ' &.&.' *.*.*.*.' ' ' ' &.&.*.*.*.-.*.-.*.' U.E.",
"W / / &.*.-.*.-.-.-.-.*.-.-.*.*.*.-.*.&.&.*.-.*.-.-.*.*.&._ _ ` ` ' &.&.&._ _ &.-.;.;.-.-.-.-.U.U.U.U.U.U.U.U.I.U.*.` U.Y.Y.Y.R.R.U.R.Y.R.U.U.U.U.U.U.U.U.U.U.U.U.U.U.U.Y.Y.Y.Y.R.U.R.U.U.U.U.U.R.Y.R.R.Y.U.U.*.*.' ' T.W.E.E.R.R.R.U.U.r.[.,X<X<X,X<X<X<X<X,X,X,X,X7X,X,Xf.L Z w # i ,.O.0 K M.N.6X8X8X6X8X>X*XOXOXOXOXOXOXOXOXOXOXOXOXOXOXOXOXOXOXOXOXOXOXOXOXOXOXOXOXOXOXOXOXOXOXOXOXOXOXOXOXD.Z.Z.D.oXK.K.K.oXK.oXK.K.K.K.K.OXOXOXOXOXOXOXOXOXOXOXOXoXoXoXoXOXXXXXXXXXK.K.K.XXXXD.V.N.c.c.A.A.A.A.A.b.`.+XoXoXD.D.C.C.OX-X>X:XwXeXqX8X:X-X-XOXOX*X@XOXoXoXoXV.V.N.M.^ 0 i i y w d A j 8 ,XwXqX8X-X;X;X;X;X;X;X-X-X-X-X-X-X=X-X-X-X*XOXK.XXXXK.K.XXXXK.K.D.'.oXoXoXoXOXoXoXOXOXOXOXOXOXOXOXOXOXOXOXOXOXOXOXXXoXOXK.L.oXoXoXoXOXOXOXOXoXoXoXoXoXoXoXL.OXOXOXOXoXoXK.K.OXoXoXOXOXoXK.K.'.l.h 3 i 7.aXpX8.O.u T.0X0X[.H G W ` ;.U.U.U.R.R.R.R.R.R.R.R.R.T.T.T.T.E.E.E.E.R.R.R.R.R.R.R.R.R.R.R.R.R.R.R.R.R.R.R.R.R.R.R.R.R.R.T.T.T.T.T.T.E.E.E.T.E.E.E.E.T.T.T.T.T.T.T.Y.U.' ` ` &.*.*.*.*.*.*.*.*.*.*.*.&.&.*.*.*.*.*.&.&.*.*.*.*.*.*.*.*.*.*.*.*.' ' ' U.U.E.^.",
"D W / _ &.-.-.-.-.-.*.*.*.*.*.-.*.*.*.*.*.*.-.*.*.*.*.*.*.&.' _ _ &.&.&.&.&._ _ *.*.-.-.-.-.-.U.U.U.U.U.U.U.U.U.U.' U.Y.U.U.U.R.R.R.U.U.U.U.U.U.R.U.U.R.R.R.R.U.U.U.U.U.R.R.Y.R.R.R.R.R.R.U.U.U.Y.Y.U.U.U.R.R.R.U.R.R.[.7X<X7X6X6X6X0X0X6X<X,X<X,X,X<X<X<X<X,X,X,X,X,X7X,X{.E B 2 # y +.O.0 C N.N.6X8X8X8X8X>X*XOXOXOXOXOXOXOXOXOXOXOXOXOXOXOXOXOXOXOXOXOXOXOXOXOXOXOXOXOXOXOXOXOXOXOXOXOXOXOXOXOX@XOXoXK.K.K.K.oXoXoXoXK.K.K.oXOXOXOXOXOXOXOXOXOXOXOXOXoXoXoXoXoXoXXXXXoXXXXXK.XXXXXX`.`.V.m.b.b.b.b.Z.D.oX*X>X>X6X8XqX:X8XwXeXeXeXwXeXeXwXwX9X8X-X*X@XoXoXoXoXV.V.N.M.` 9 y i y w d Z l f ,XqXqX8X-X;X;X;X;X;X;X;X;X-X-X-X-X-X-X-X-X-X-X@XOXXXK.K.XXXXXX`.C.A.u.j.M.M.M.N.M.M.c.c.c.c.c.c.c.c.c.B.M.N.N.N.N.V.S.`.D.D.`.'.oXoXoXoXoXoXoXoXoXoXoXoXK.K.OXOXOXOXoXoXOXOXL.L.OXL.L.L.J.K.].W.h 2 s 6.pXpX8.O.u T.0X0X|.H G W H W U.U.R.R.R.R.R.R.R.R.R.E.E.E.E.E.E.E.E.E.R.R.R.R.R.R.R.R.R.R.R.R.R.R.R.R.R.R.R.R.R.R.R.R.T.T.T.E.T.T.T.T.E.E.E.T.E.E.E.E.T.T.T.T.T.T.T.T.T.U.-.' *.*.*.*.*.*.*.*.*.*.*.*.&.&.*.*.*.*.*.*.*.*.*.*.*.*.*.*.' ' ' *.*.' -.Y.T.T.R.R.",
"D G / _ &.-.-.-.-.-.*.*.*.*.*.*.*.&.' ' &.*.*.*.&.&.&.&.*.*.' ` ' *.*.*.&.&._ _ *.*.-.-.-.-.U.U.U.U.U.U.U.U.U.U.I.I.Y.Y.U.U.Y.U.R.R.R.U.U.U.R.U.R.R.R.R.R.R.R.R.U.U.U.U.U.U.Y.Y.U.U.R.R.U.U.U.U.U.U.U.U.R.R.R.R.R.U.g.k.{.}.,X,X,X,X,X,X<X<X,X,X,X<X<X<X<X,X,X,X,X}.!.{.,X,Xp.B 2 # : O.O.2 L _.N.qX8X8X8X8X>X*X-X*XOXOXOXOXOXOXOXOXOXOXOXOXOXOXOXOXOXOXOXOXOXOXOXOXOXOXOXOXOXOXOXOXOXOXOXOXOXOXOXoXoXoXoXoXK.K.K.K.oXoXoXK.K.oXOXOXOXOXOXOXOXOXOXOXOXOXoXoXoXoXoXXXXXoXoXoXoXXXXXXXD.`.`.XXXX`.D.D.XX@X:XqXwXwXqXeXeXeX8X9XwXwXwXwXwXwXwXwXwXwXwX:X%XOXoXoXoXoXV.V.V.M.^ 9 y y w q : B l f <XqXqX8X-X;X;X;X;X;X;X;X;X;X;X;X-X-X-X-X-X-X-X-X-XOXoXK.XXXXXX`.`.N.u.m m m P P P v v v v v v v v v z v v v v v v P P U Y r.u.c.N.N.N.N.N.N.V.V.V.S._._.`.`.`.`.`.`.XX`._._.N.N.N._.'.K.D.].W.I 5 4 i 5.pXpX6.a y Y.0X0X|.L G D G H ` Y.R.R.W.E.E.E.E.E.E.E.E.E.E.E.E.E.E.E.R.R.R.R.T.R.R.T.T.R.R.R.E.R.R.R.R.R.R.R.R.R.R.R.T.T.T.E.T.T.E.E.E.E.T.T.T.T.E.E.T.T.R.R.T.T.T.T.R.U.U.-.*.*.*.*.&.&.*.*.*.*.*.*.&.*.*.*.&.*.*.*.*.*.*.*.*.*.*.*.*.' *.' ' -.R.T.T.T.R.R.",
"D D G / &.&.&.-.-.*.*.*.-.*.*.&.' ' ' ' ' &.&.&.&.&.&.&.*.*.' ' *.-.*.*.*.&._ _ *.-.-.-.U.-.U.U.U.U.U.U.U.U.U.U.I.U.Y.U.U.Y.R.R.R.R.R.U.R.U.R.R.U.U.U.U.U.U.U.U.U.U.U.U.U.U.U.U.U.U.U.U.U.U.U.U.U.U.U.U.R.R.R.R.Y.U.R.g.W.[.{.{.}.}.}.,X7X,X,X}.,X<X<X<X<X<X<X3X}.l.p.f.{.1XW.l 2 @ ; O.O.2 I _.G.qX8X8X8X8X<X*X-X-XOXOXOXOXOXOXOXOXOXOXOXOXOXOXOXOXOXOXOXOXOXL.OXOXOXOXOXOXOXOXOXOXOXOXOXOXOXOXoXoXOXoXoXoXoXOXOXOXoXOXK.oXoXK.OXOXOXOXOXOXOXOXOXOXOXOXOXOXOXOXOXoXXXoXoXoXoXXXXXoX`.`.K.XXXXXXXXK.OX:X8XqXeXwXqXwXwXwX8XwXwXwXeXeXeXeXwXwXwXwXqX-X%XOXoXoXoXoXV.V.V.n.r.9 2 y d : - j z g 7XqXqX8X:X-X;X;X;X;X:X:X;X;X;X;X;X;X;X;X;X-X-X-X-X-XOXoXXXoXD.D.D.`.oX`.S.N.M.B.c.j.j.d.j.j.s.s.s.p.t.t.t.r.r.T T T T T r.p.d.d.d.j.c.d.i.i.s.s.u.t.r.t.s.n.M.B.M.M.l.p.n v v v v P j.S.~.R f 5 1 ; : O.#.@. .y y ' 0X0X}.I G G G D I Y.R.W.E.E.E.E.E.E.E.E.E.E.E.E.E.E.E.E.R.R.R.R.R.R.R.E.E.R.R.R.R.R.R.E.T.E.E.T.T.T.E.E.E.E.E.E.E.E.E.E.E.E.T.T.T.T.T.T.R.R.R.R.R.R.T.R.T.R.U.*.*.*.*.*.&.*.*.*.*.*.*.*.&.*.*.*.*.*.*.*.&.*.*.*.*.*.*.*.*.' *.*.U.T.R.Y.Y.U.U.U.",
"D D G / _ &.&.*.-.*.*.-.-.&.' ' ' ' ' ' ' ' &.&.&.&.&.&.*.*.-.-.-.-.-.-.-.*.' *.-.-.-.-.-.-.-.U.U.U.U.U.U.-.-.-.*.*.-.Y.Y.Y.Y.R.U.U.U.U.R.R.R.R.U.U.U.U.U.U.Y.U.U.U.U.U.U.U.U.U.R.R.R.U.U.U.R.R.U.U.U.U.U.U.U.U.U.U.R.R.g.g.R.R.g.g.k.f.,X}.k.p.].6X,X,X,X<X<X,XW.^ ^ R W.{.W.j ; # ; O.O.3 I _.G.qX8X8X8X8X<X-X:X>XOXOXOXOXOXOXOXOXOXOXOXOXOXOXOXOXOXOXOXOXOXOXOXOXOXOXOXOXOXOXOXOXOXOXOXOXOXOXOXOXoXoXoXoXOXOXOXOXOXOXOXOXOXOXOXOXoXOXOXOXOXOXOXOXOXoXOXOXOXOXOXOXoXXXoXoXXXXXXXXXXXXXXXXXXXXXXXoX=X:X8XqXqXqX8XqXqXqXqXqXqXqXqXqXqXqXqXwXqXqX8X>X%XOXoXXXXXXXV.V.N.M.p.9 : : : - - l z g 6XqXqX8X:X-X:X:X;X;X;X:X:X:X:X;X;X:X;X;X;X;X;X-X-X-X-X@XoXXXXXK.XXD.D.D.D.D.D.D.`.XX`.`.`.`.`.`.`.D.D.`.`.S._._.S.S.V.V.V.V.V.V.N.b.c.c.c.i.u.u.y.q.Y T y.d.c.c.j.f.t.m z z z C C z U N.N.v f 9 4 ; - : : : : : 0 _ 0X0X3XQ D H H D W U.E.E.E.E.E.E.E.E.E.E.E.E.E.E.E.E.E.E.E.R.R.R.E.E.R.R.E.R.T.T.R.R.R.R.U.U.-.*.' ' ' ' ' ' -.U.T.T.E.T.T.E.E.E.E.E.E.E.E.E.E.E.T.E.T.T.T.Y.U.*.*.*.*.*.&.*.*.*.&.&.&.&.*.*.*.*.' ' ' ' *.*.*.*.*.&.&.&.&.&.*.-.U.-.-.-.*.*.*.*.",
"G / / / _ &.*.*.*.*.' ' &.' ' ' ' ' ' &.&.&.*.*.-.-.-.-.-.-.-.-.-.-.-.-.-.-.-.*.*.-.-.-.-.-.-.-.U.U.U.U.-.*.' ' ' ' &.-.Y.Y.U.U.Y.Y.U.U.U.U.U.U.U.U.U.U.U.U.U.U.U.U.U.U.U.U.U.U.R.R.U.U.U.U.U.U.U.U.U.U.U.U.U.U.U.U.U.R.R.R.R.R.R.g.R.h.W.W.p.] f.[.,X,X3X,X<X,Xp.E ! E p.[.W.j ; # ; O.O.3 I _.S.qX8X8X8X8X<X>X6X>XOXOXOXOXOXOXOXOXOXOXOXOXOXOXOXOXOXOXOXOXOXOXOXOXOXOXOXOXOXOXOXOXOXOXoXOXOXOXOXOXoXoXoXoXOXOXOXOXoXOXOXOXOXOXoXOXOXOXOXOXOXoXoXoXoXoXOXoXOXOXOXOXoXXXoXoXXXXXXXXXXXXXXXXXXXXXXXK.:X:X8X8X8X8X:X>X:X:X:X>X=X>X>X>X:X:X>X:X:X>X:X-X-X%XoXXXXXXXD.V.N.M.p.h : : ; - - l v g 6XqX8X8X-X-X:X:X:X:X;X:X:X:X:X:X:X;X:X:X;X;X;X;X-X-X-X-X-XXXXXXXoXXX`.`.D.D.`.`.`.`.`.`.`.D.`.`.`.`.D.D.D.D.D.D.D.D.D.D.S.S.S.S.S.S.~.~.~.V.N.N.n.n.l.s.i.c.c.c.d.u.r.r.^ n v C L v q.S.Z.).^ j < $ - i y : : : 3 W 0X0X0X` D D H H Q Y.T.E.E.E.E.E.E.E.E.E.E.E.E.R.E.E.E.E.E.E.E.R.T.T.R.U.U.*.*.&.' _ _ / W G D D A Z D D Z D D G W / %.&.*.-.U.Y.Y.Y.Y.Y.Y.Y.Y.Y.U.U.-.*.*.' ' ' &.&.&.&.&.*.*.&.&.&.&.&.*.*.*.*.' ' ' ' &.&.*.&.' &.&.&.*.&.&.*.*.*.*.&.*.*.*.*.",
"_ &._ _ _ &.*.*.*.*.' ' ' &.*.*.&.&.*.-.-.*.-.-.-.-.-.-.-.-.-.-.-.-.-.*.*.*.*.-.-.-.-.-.-.-.-.-.-.-.U.U.*.&.' _ _ _ _ ' *.U.U.U.U.U.U.U.U.U.U.U.U.U.U.U.U.U.U.U.U.U.U.U.U.U.U.U.U.U.U.U.U.U.U.U.U.U.U.U.U.U.U.U.U.U.U.R.R.R.R.R.R.U.U.-.' T.U.' ' ' k.).}.3X,X}.^ ! ! E p._.W.j ; # : O.O.4 ^ _._.qX8X8X8X8X6X<X8X:X%X%X%XOXOXOXOXOXOXOXOXOXOXOXOXOXOXOXOXOXOXOXOXOXOXOXOXOXOXOXOXOXOXOXoXOXOXOXOXOXoXoXoXoXoXOXoXoXoXoXOXOXoXoXOXoXOXOXOXOXoXoXOXOXOXOXOXOXOXOXOXOXoXXXoXoXK.K.XXXXXXXXXXXXXXXXXXXX6X8X8XqXqX8X>X=X-X-X-X-X%X-X=X=X-X=X*X%XK.D.K.%X*X*XOXoXXXXX`.C.V.j.p.V : : - - ; l K g 6XqXqX8XL.OX-X:X;X;X;X:X:X:X:X:X:X:X:X:X:X:X;X;X;X;X;X-X-X$XXXXXXX`.XX`.`.`.XXXXXXXXXX`.`.D.`.`.`.`.XXK.D.XXD.D.D.D.`.`.`.D.`.D.D.D.C.D.C.D.D.S._._._.S.S.V.N.N.M.M.n.j.p.m v v n t.N.V.b._.r.x 1 @ - i i w 2 2 0 H 0X0X7X` D H H G ` T.T.R.R.R.R.U.U.-.-.-.' h.U.U.U.U.U.U.R.T.R.h.' _ W W H D D D Z A A A A A V V V V A Z J V A Z Z Z Z D D H H H H H H H H H H H H H H D W W W W Q _ _ ' ' &.*.&.&.&.' &.*.*.*.*.' ' ' ' &.&.*.&.' &.&.*.*.&.&.&.&.&.&.&.&.&.*.*.",
"&.&.&._ _ ' &.*.*.*.&.' ' &.*.*.*.-.-.-.-.*.*.-.-.-.-.-.-.-.-.-.-.-.-.*.*.*.-.-.-.-.-.-.-.-.-.-.-.-.-.-.*.&.&._ _ %.&.&.*.-.Y.Y.Y.Y.Y.Y.Y.Y.Y.Y.Y.U.U.U.U.U.U.U.U.U.U.U.U.U.U.U.U.U.U.U.U.U.U.U.U.U.U.U.U.U.U.U.U.U.U.U.R.R.R.U.U.U.' ` ' ' [ ' [ ` ' *.g.{.,X].q.E ! R k.].W.j ; # : O.O.4 ^ _.G.qX8X8X8X8X6X:X8X6X=X=X-X-X=X=X#X#X#X#XOXOXOXOXOXOXOXOXOXOXOXOXOXOXOXOXOXOXOXOXOXOXOXOXOXOXOXoXOXoXoXoXoXoXoXOXoXoXoXoXoXoXoXoXoXOXOXOXoXoXoXoXOXOXOXOXOXOXOXoXOXOXoXoXoXoXXXXXXXXXK.XXXXXXXXXXXXXXL.K.K.-X6X:XOXOXOX%X=X-X-X-X-X-X-X=X*X`.Z.D.K.*X*X*XOXoXXXXXD.D._.i.p.B : : - % ; l v x 0XqXqX8XK.K.OX-X-X=X;X:X:X:X:X:X:X:X:X:X:X:X:X;X;X;X;X;X-X-X@XXXXXXX`.XX`.D.XXXXXXXXXXXXXXXXXXXXXXXX`.`.`.`.D.D.D.D.XXXXXXXX`.`.`.`.D.`.C.D.D.D.C.C.D.D.D.D.N.t.t.u.u.d.c.n.f.s.M.V.V.N.m.N.T l < * * y i 2 2 2 u D }.0X0X' H G W _ ' -.*.I.' ' ' ' ' ' ' ' ' ' ' ' _ _ _ _ ' ' _ / W H D D Z A Z A A A A A A Z J J A V V V V V A A J A B Z Z Z Z Z Z Z Z Z Z Z Z D D G / %._ _ _ / W W W / ' &.&.&.&.&.' ' ' ' &.&.' ' ' ' &.&.&.*.*.&.&.&.&.&.&.&.&.&.&.&.&.*.*.*.",
"&.&.&.' _ _ &.*.*.*.' ' ' ' &.&.&.*.-.-.-.-.-.-.*.*.*.*.*.*.*.*.*.-.-.-.-.-.-.-.-.-.-.-.-.-.-.-.-.-.-.*.-.&._ / G G G G G / / / / / / _ _ _ _ _ ' ' ' ' ' ' ` ` ` ` ` _ ' ' ' *.' ' ' ' ' ' [ ` ` ` -.U.U.U.U.U.U.U.U.U.R.U.U.U.U.' D Z Z Z Z ` U.' ) ' h.).,X{.f.p.h.E._.].W.h ; * : { O.3 ^ _.S.wX8X8X8X8X:X6X8X8X>X-X-X>X-X-X=X=X#X#XOXOXOXOXOXOXOXOXOXOXOXOXOXOXOXOXOXOXOXOXOXoXoXOXOXoXoXoXoXoXoXoXOXOXOXOXoXoXOXOXoXOXOXOXoXoXoXOXOXOXOXOXOXOXOXOXOXOXOXoXoXoXoXoXoXXXXXXXXXXXXXXXXXXXXXXXXXXXXXoXXXXXXXoXK.K.K.K.oXoXoXoXK.OXK.K.`.b.A.Z.OX*X*X*X+XoXXXK.D.C.n.t.r.B ; - - - ; l z c qXqXqX8XK.D.K.OX>X>X>X>X:X:X:X:X:X:X:X:X:X:X;X;X;X;X;X-X-X-X-XOXK.XXXXXXXXXXXXXXXXXXXXXXXXXX`.`.XXXX`.`.`.`.`.`.`.`.`.`.`.`.`.`.`.D.`.`.`.`.`.D.D.D.D.D.D.D.`.`.`.`.'.XX`.~.V.!.N.Z.V.V.V.!.T l < * * y i w 2 2 9 B [.0X3XR.I ` _ _ ' ' ' ' &.' ' _ ' ' ' ' ' ' _ _ _ _ _ _ _ ` / / H D Z Z A Z Z Z Z Z A A A A A A V V J J V V V V V V V V V V Z Z Z Z Z Z Z Z D D H / &.&.&.' ` Q W W / _ ' &.&.&.*.&.' ' &.&.&.&.*.*.*.*.&.&.&.&.&.&.&.&.&.&.&.&.&.&.&.&.&.&.&.*.",
"&.&.&.' _ _ &.*.*.*.*.&.*.*.&.' &.*.-.*.-.-.-.-.-.-.-.-.*.*.*.*.*.-.-.-.-.-.-.-.-.-.-.-.-.-.-.-.-.-.-.-.-.-._ Z B V V V V V V V V B Z Z Z D D D H H H H H H D D D D / / ` ' ' -.' ' ' ' ' ' ' ' ' ' U.R.U.U.U.U.U.U.U.U.R.R.U.U.-._ B h h h j W ' / I ' g.[.,X,X{.[.).[.[.{.R.6 ; # : { O.4 ` G.S.wX8X8X8X8X6X6XqX8X:X:X>X:X:X-X-X-X=X%XOXOXOXOXOXOXOXOXOXOXOXOXOXOXOXOXOXOXoXoXoXoXoXOXoXoXOXOXOXOXOXOXOXOXOXOXoXOXOXOXOXOXOXOXOXOXOXOXOXOXOXOXOXOXOXOXOXOXOXOXOXL.K.K.XXXXXXXXXXXXXXXXXXXXXXXXXXXXXXXXXXXXXXXXK.K.K.K.XXXXXXK.K.K.K.K.`.Z.A.b.oX@X*X%XoXoXoX`.S.c.q.T R j ; - - % ; K z z qX9XqX8XK.D.D.K.OX>X>X-X:X:X:X:X:X:X:X:X:X:X;X;X;X;X;X;X;X;X;X-XOXK.XX`.`.XXXXXXXX`.XXXXXXXX`.`.`.`.`.`.`.`.`.`.`.`.`.`.`.`.D.D.`.`.`.`.D.D.D.D.D.`.D.D.D.D.D.D.`.`.D.C.~.N.i.l.!.b.b.V.N.j.n l < @ # y i w 2 2 9 B [.0X,XE.' ' ' _ ' &.&.&.&.&.' _ ' ' _ ' ' ' ' ' ' ' ' ' _ ` / G H D Z Z Z Z A A Z Z A A Z Z D S S A A V V V V V V V V V V B A A B Z A Z D D G / _ &.&.' ' ' ' ' _ W W _ _ ' &.&.' ' *.*.&.&.&.&.*.*.&.*.&.&.' &.&.&.&.&.&.&.&.&.&.&.&.&.&.&.&.&.",
"*.*.*.&._ _ &.-.*.&.*.*.&.' ' ' *.*.*.*.-.-.-.-.-.-.-.-.*.*.*.*.*.-.-.-.-.-.-.-.-.-.-.-.-.-.-.-.-.-.-.-.-.-.-.' _ / G G G G G G G W / / _ _ _ _ ' ' ' ' ' ' ' ' &.&.-.-.-.U.U.U.U.U.U.R.U.U.Y.Y.U.U.R.U.U.U.U.U.U.U.U.U.R.R.U.U.*.' W D G / ' U.h.L I ' E.{.,X,X].{.{.].[.[.` 1 ; # : | O.4 ` M.N.qX8X8X8X8X:X6X8X8X:X:X:X:X<X<X-X-X-X-X-X-X*X*X*X*X*X*XOXOXOXOXOXOXOXOXOXOXOXoXoXOXOXOXOXOXOXOXOXOXOXOXOXOXOXOXOXOXOXOXOXOXOXOXOXOXOXOXOXOXOXOXoXoXoXoXoXoXoXoXoXXXK.K.oXoXXXXXXXXXXXXXXXXXXXXXXXXXXXXXXXXXXXXXXXXXXXXXoXoXoXoXXXXXK.K.`.C.V.D.oX@X*XOXOXoXoX_.n.r.T T R Z 2 ; ; $ ; K x v qX9X8X8XK.D.`.D.K.OX-X:X:X;X:X:X:X:X:X:X:X:X;X;X;X;X;X;X;X;X;X;X=XXXXXXXXXXXXXXX`.`.XXXXXX`.`.`.`.`.`.`.D.D.D.D.D.`.`.`.`.`.D.D.`.`.D.D.D.D.D.D.D.D.D.D.D.D.D.D.D.`.`.~.~.B.r.U q.j.N.V.N.t.v C < @ * y i w 2 2 9 B [.0X,X^.*.' ' ' ' ' ' ' &.&.&.&._ W W / _ _ _ &._ _ _ _ _ W G D H G G G / G H D A A Z D D D D H G G G S Z B V V V V V V V B D G G W / / / _ %.&.&.&.' ' ' ' ' ' &.' _ Q _ ` _ ' ' &.&.' ' &.' ' ' &.&.&.&.&.&.&.&.&.&.&.&.&.&.&.*.*.&.&.&.&.&.&.",
"-.*.*.&._ _ &.*.-.*.&.*.' ' ' -.-.*.*.-.-.-.-.-.*.*.*.*.*.*.*.*.*.-.-.-.-.-.-.-.-.-.-.-.-.-.-.-.*.*.-.-.U.-.-.;.Y.-.-.-.U.U.-.U.U.U.U.U.U.U.U.U.U.U.U.U.U.U.U.U.U.U.U.U.Y.Y.U.U.U.U.U.U.R.R.U.U.R.R.U.U.U.U.U.U.U.U.U.U.R.R.U.U.h.' U.U.R.R.R.E.E.h.' U.W.{.,X,X{.{.[.[.[.k.l 1 2 # w O.O.2 ` M.b.qX8X8XqX8X<X<X8X6X:X>X-X-X-X*X@X@XOXOXOXoXoXoXoXoXoXoXoXoXOXOXOXOXOXOXOXOXOXOXoXoXOXOXOXOXOXOXOXOXOXOXOXOXOXOXOXOXOXOXOXOXOXOXOXOXOXOXOXOXOXOXoXoXoXoXXX`.D.D.`._.V.N.c.A.V.oXXXXXXXXXXXXXXXXXXXXXXXXXXXXXXXXXXXXXXXXXoXK.K.oXXX`.`.XX`.D.`.D.XX@XOXOXOXXX`.N.t.T Y q.r.I 3 2 ; $ 2 n x P wX9X8X8XK.D.`.D.D.K.OX-X;X;X:X:X:X:X:X:X:X:X;X;X;X;X;X;X;X;X;X;X-X=XXX`.`.XXXX`.`.`.`.`.`.D.D.D.D.D.D.D.D.D.D.D.D.D.D.D.D.D.D.D.D.D.D.D.D.D.D.D.D.D.D.D.D.D.D.D.D.D.C.~._.M.^ L C n ^ n.~.t.v l < @ * i i w 2 2 9 B [.0X,X^.U.' ' ' ' ' ' ' ' ' &.W D C B B Z D D G G / / / W D H D G _ &.&.&.&.' _ / W G / / / / _ _ _ _ _ / H Z A V V Z Z G / %.&.&.&.&.&.&.&.&.&.&.&.' ' ' ' ' ' ' &.' ' _ _ _ _ ' ' *.&.' ' ' ' ' &.&.&.&.&.&.&.&.&.&.&.&.&.&.&.&.*.&.&.&.&.&.&.",
"-.-.*.&.` / ' &.*.*.&.' ' ' *.-.*.' &.-.*.*.*.*.*.*.*.*.*.*.*.*.*.-.-.-.*.*.*.*.*.-.*.*.-.-.-.-.-.-.-.-.-.U.U.U.U.U.U.U.U.U.U.U.U.U.U.U.U.U.U.U.U.U.U.U.U.U.U.U.U.U.U.U.U.U.U.U.U.U.U.U.U.U.U.U.U.U.U.U.U.U.U.U.R.R.R.R.R.R.R.R.Y.Y.Y.R.R.W.E.E.E.E.R.R.W._.}.].W.k.W.W.h.^ h 2 ; # w O.O.4 ^ M.B.qX8X8X8X8X&X*X>XoXZ.b.b.c.A.x.d.i.i.u.u.u.t.t.t.t.t.y.y.u.d.m.b.D.oXoXoXoXoX+XOXOXOXoXOXOXOXOXOXOXL.OXOXOXOXOXOXOXOXOXoXOXOXoXoXOXOXOXL.K.oX`.`.V.b.c.c.i.i.i.t.t.q.q.e.q.V.oXXXXXXXoXoXoXK.K.XXXXXXXXXXXXXXXXXXXXXXK.XXXXXXXXXXXXXXXX`.D.D.D.`.OXOXOXoX`.`.M.t.q.r.p.t.I 4 2 ; - 2 L k P qXqX8XqXoXD.D.D.`.D.K.oX-X;X-X;X:X;X:X:X:X:X:X;X;X:X;X;X;X;X:X;X;X;XOXXXK.XX`.`.`.`.`.`.`.D.D.D.D.D.D.D.D.D.D.D.D.D.D.D.D.D.`.D.D.`.D.D.D.D.D.D.D.S.D.D.D.D.`.D.D.D.D.D.V.M.^ n C C z T !.u.U L 1 ; * y i y 2 2 u B [.0X,X^.R.' %.' _ _ _ _ _ _ / C A Z Z Z Z Z Z A Z Z Z Z D D D D ` ' &.&.' &.&.&.&.&.&.&.&.&.&.&.&.&.&.&.&.&._ W H H ~ ) ' ' &.&.&.&.&.&.&.&.&.&.&.' ' ' &.&.&.&.' ' ' ' ' ' ' ' ' ' &.&.&.&.&.&.' ' ' ' &.&.&.&.' ' ' ' &.&.&.&.&.&.&.&.&.&.&.&.",
"*.-.-.*.` ` &.-.*.*.' ' ' *.-.-.*.' &.-.*.*.*.*.*.*.*.*.-.-.-.-.*.-.-.-.-.-.-.*.*.-.*.' ' ' -.-.-.*.-.-.-.U.U.U.U.U.U.U.U.U.U.U.U.U.U.U.U.U.U.U.U.U.U.U.Y.Y.Y.U.U.U.U.U.U.U.U.U.U.U.U.U.U.U.U.U.U.U.U.U.U.U.U.U.R.R.T.E.E.E.E.E.T.T.T.R.R.R.R.R.R.R.R.R.W.[.}.l.I L ` ` I I h 2 2 # w O.O.4 E M.c.qX8X8X8X8X&X*X,XV.i.c.c.d.i.u.u.u.u.u.i.t.y.t.y.y.y.y.y.t.t.i.i.A.b.V.V.Z.V.D.K.oXOXOXOXOXOX%X*XOXoXoXOXOXOXOXOXOXOXOX@X@X@X@XoXoX`.C.b.i.u.u.t.i.i.i.t.y.t.u.u.u.s.d.d.N.`.oXXXXXoXoXoXoXoXK.XXoXXXXXXXXXXXXXXXXXXXXXXXXXXXXXXXXXXXXX`.D.D.D.`.XXXXoXoXD.`.S.j.t.l.s.t.I 4 : ; - 2 L f Y qX8X8XqXoXD.D.D.D.D.D.K.oX=X-X:X;X;X:X:X:X:X:X;X;X:X;X;X;X;X;X;X;X;X-X@XXXD.`.`.`.`.`.`.`.D.D.D.D.D.D.D.C.D.D.`.D.D.C.C.C.C.D.D.D.D.D.C.C.C.K.D.D.'.XX`._._.!.!.N.N.N.`.~.N.r.n n P Y t.n.n.l.^ 1 ; * y i y 2 2 u B [.0X,X^.R.' &.' _ _ / G G D D B Z Z Z Z Z Z Z Z Z Z Z Z Z D D G _ &.&.&.' &.&.' &.&.&.&.' ' ' ' &.&.&.&.&.&.&.&.&.&.&.&.' ' &.&.&.&.&.&.&.' &.&.&.' ' &.&.&.&.&.&.' ' ' ' ' ' ' ' &.&.' &.&.&.&.' ' ' ' &.&.&.&.&.&.&.&.&.&.&.&.&.&.&.&.&.&.&.&.",
"*.-.-.*.` ` &.-.*.*.' ' &.*.-.*.&.*.-.-.*.*.*.*.*.*.*.*.-.-.-.-.*.-.-.-.-.-.-.-.*.-.&.' ' ' ' ' ' ' ' *.-.U.U.U.U.U.U.U.-.-.-.-.U.U.U.U.U.U.U.U.U.U.U.U.*.' *.Y.U.U.U.U.U.U.U.U.U.U.U.U.U.U.U.U.U.U.U.U.U.U.U.U.R.T.T.R.R.R.R.R.R.R.R.R.R.R.R.R.h.R.R.g.R.).{.W.C B B Z W / 9 2 ; # w O.O.4 ^ M.c.qX8X8XqXqX,X*X,XS.b.n.m.N.N.N.N.N.N.V.S._.`._.`.`.'.'.`.'.`.`._._.S.S.D.D.D.D.D.oXoXoXoX`.N.m.n.j.d.j.c.N.oXoXoX'.D.V.B.j.x.u.y.y.q.e.q.q.t.i.b.V.V.N.b.c.c.c.b.c.A.A.b.S.oXoXoXoXoXoXoXoXoXXXoXoXoXXXXXXXXXXXXXXXXXXXXXXXXXXXXXXXXXK.`.D.D.D.D.XX`.S.V.`.`.D.N.N.N.d.p.I 4 : ; - 2 L 6 E qX8X8XqXoXD.D.D.D.D.`.D.K.K.OX-X:X:X:X:X:X:X;X:X:X:X;X;X;X;X;X;X;X-X-X-XOXXXXX`.`.`.`.`.`.D.D.D.D.D.C.C.C.C.`.`.`.`.C.`.`.`.P.XXXXXXXXXXXXXX{._.M.f.r.Y n K z z z c z n N.V.N.M.l.M.M.N.N.c.n.] 1 - * y i y 2 2 u B [.0X,X^.R.' _ ' _ _ H D D Z D D D D H G G G D D S D D D D D D G _ &.&.&.' &.&.' ' ' ' ' &.&.&.&.&.&.&.&.*.&.&.&.&.*.*.*.&.' &.*.&.&.&.&.&.' &.&.&.' ' &.&.&.&.&.&.&.&.&.&.&.&.&.&.&.&.' ' ' &.&.&.&.&.&.&.&.&.&.&.&.&.&.&.&.&.&.&.&.&.&.&.&.&.&.",
"-.-.*.&._ ` &.*.-.&.&.&.*.*.*.*.*.-.-.-.*.*.*.*.*.*.*.*.*.*.*.*.*.-.-.-.-.-.-.-.-.-.&.' ' ' ' ' ' ' ' *.-.U.U.U.-.-.-.-.-.-.-.-.-.-.-.-.-.-.-.-.-.-.U.' H D H _ U.U.U.U.U.U.U.U.U.U.U.U.U.U.U.U.U.U.U.U.U.U.U.U.R.R.R.U.U.U.U.U.Y.U.U.Y.U.R.R.R.R.U.U.U.U.g.).R.j h h h G / h 2 ; # q O.O.4 ^ _.c.qX8X8XqXqX,X*X*XoXoX+XoXoXoXoXoXoXoXoXOXOXOXOXXXoXOXOXXXXXoXoXoXoXoXK.oXoXoX`.`.~.M.s.r.T U P U P U P n m u.i.u.t.e.e.e.q.y.u.u.i.d.c.M.N.V.D.D.D.D.K.K.D.D.D.D.D.D.D.K.oXOXoXoXoXoXoXOXoXoXoXoXoXoXoXoXoXXXXXXXXXXXXXXXXXXXXXXXXXD.D.`.D.D.D.D.`.V.q.q.n._._.V.V.N.i.p.I 4 : ; - 3 L 8 ^ qXqX8XqXoXC.D.D.D.D.`.D.D.K.D.K.OX-X:X:X:X:X;X:X:X;X;X;X;X;X;X:X;X-X-X-X-XOXXX`.D.`.`.`.`.D.C.C.`.`.`.`._._.~.~.V.V.~._.~.!.!.M.k.p.p.] ^ E P L z x k k x x l l l l K n s._.V.N.N.Z.N.m.m.c.M.^ 1 ; * y i y 2 2 9 B [.0X,X^.R.' _ _ _ _ G H G G W / _ _ &.&.&.&.&.=._ _ / / W G G W _ &.&.&.' &.&.' *.*.*.&.' &.*.*.&.&.&.&.*.*.&.&.' ' ' &.' ' ' &.&.&.&.&.&.' &.&.*.&.&.&.&.&.&.&.' ' ' ' &.&.&.&.&.&.&.' ' &.&.&.&.&.&.&.&.&.&.&.' ' ' ' &.&.&.&.&.&.&.&.&.&.&.&.",
"*.*.*.&._ _ &.*.*.*.' *.*.*.*.*.-.-.-.*.-.-.-.-.*.*.*.*.*.*.*.-.*.*.-.-.-.-.-.-.-.-.*.' ' ' ' -.-.-.-.-.-.-.-.-.*.*.*.*.*.-.-.-.-.-.-.-.-.-.-.-.-.-.&.I Z D Z D ' U.U.U.U.U.U.U.U.U.U.U.U.U.U.U.U.U.U.U.U.U.U.U.U.U.U.U.U.U.U.U.U.U.U.U.U.U.U.U.U.U.U.U.h.' R.h.B V 9 h H / h 2 ; # : O.O.4 ^ _.b.qX8X8XqXqX*X*X*XoXoXoXoXoXoXoXoXoXoXoXoXoXXXXXXXoXoXoXXXoXoXXXXX'.F.`.b.u.r.r.T U n n n L P P L P P T u.N.V.V.S.S.S.S.`.`.`.'.XXXXXXXXK.K.K.oXOXOXOXOXOXOXOXOXOXOXOXoXOXOXoXoXOXOXOXOXoXoXOXOXoXoXoXXXoXoXXXXXXXXXXXXXXXXXXXXXXXD.D.D.XXD.K.XXD.j.T U U q.n._.S.V.N.j.u.I 2 ; $ - 1 L g R qX8X8X8XK.V.`.D.D.D.D.D.D.D.D.D.D.XXOX=X=X-X:X:X:X:X:X;X;X;X;X;X;X;X-X-X=X#X@XXXK.K.D.D.D.`.D.V.d.u.t.t.t.r.r.r.r.R R Y P v z l k k k h k j x C Y ^ ^ ^ ^ ^ ^ ^ p.p.p.s.c.~.V.V.b.b.b.N.N.c.n.E 1 $ - i s y 2 2 u V [.0X,X^.R.' _ _ _ _ _ _ &.' &.&.&.&.&.&.&.&.&.&.&.&.&.&.' ' ' ' &.&.&.&.&.&.&.&.' ' ' ' ' ' *.*.&.&.&.&.&.&.&.&.' &.&.' ' ' ' ' &.&.&.&.&.&.&.&.' ' ' ' ' ' ' ' ' ' &.' ' &.&.&.&.&.&.&.' *.*.' ' &.&.' &.&.&.&.' ' ' ' &.&.&.&.&.&.&.&.' ' ' ' ",
"*.*.*.*._ _ &.*.-.-.*.*.*.*.*.-.-.*.*.-.-.-.-.-.*.*.*.*.*.*.-.-.*.*.-.-.-.-.-.-.-.*.' ' ' ' -.-.-.-.-.-.-.*.&.' &.' ' ' &.&.&.&.&.' ' ' ' _ _ _ _ ` I H D H G G _ -.U.U.U.U.U.U.U.U.U.U.U.U.U.U.U.U.U.U.U.U.U.U.U.U.U.U.U.U.U.U.U.U.U.U.U.U.U.U.U.U.U.U.U.' ' ` D h 9 V D / h 2 ; # : O.O.4 ^ }.&XqX8X8XqXqX*XOX*XoXoXoXoXoXoXoXoXoXXXoXXXXXXXXXXXXXoXXXXXoXoXXXXXD.'.u.n n n n n n n n v n U U U q.t.N.'.oXoXOX@X@X@XOXOXOXOXOXoXoXOXOXOXOXOXOXOXOXOXOXOXOXOXOXOXOXOXOXOXOXOXOXOXOXOXOXoXOXOXOXoXoXXXXXoXoXoXoXoXXXXXXXXX`.XXXX`.D.K.K.XXXX`.!.u.m P E q.t.n._.S.V.N.j.u.L 2 ; $ - 1 L 8 q.qX8X8X8XK.V.D.D.D.D.D.D.D.D.D.D.D.XX`.D.D.K.oXOXOX@X-X-X-X-X-X-X-X-X-X-XOXOXOXoXXXK.XXXXXXD.K.`.V.d.t.q.T T T Y E E Y n z x x x j B j j j j l z C L L P E ^ r.p.f.l.n.!.~.V.V.V.N.N.b.N.N.c.n.E 1 ; - i s y 2 2 u h [.0X,X^.R.' _ _ _ _ _ ' ' &.&.' &.&.&.&.&.&.&.&.&.&.&.&.' &.&.&.&.&.&.&.' ' ' ' ' ' ' ' *.*.' ' &.' ' ' &.&.&.&.' &.&.' ' ' ' ' &.&.&.&.&.&.&.&.&.&.&.&.&.&.&.&.&.&.&.' ' &.&.&.&.&.&.&.' *.&.' ' &.&.' &.&.&.&.' ' ' ' &.&.&.&.&.&.&.&.' ' ' ' ",
"*.*.*.&._ ` &.-.-.-.-.*.*.' ' ' &.&.*.-.-.-.-.-.*.*.*.*.*.*.-.-.*.-.-.-.-.-.-.-.-.' ' ' *.-.-.-.-.-.-.*.&.&.&.' _ / / / _ _ ' ' ' ' _ _ _ _ _ _ _ _ / / / / / / / &.-.U.U.U.U.U.U.U.U.U.U.U.U.U.U.U.U.U.U.U.U.U.U.U.U.U.U.U.U.U.U.U.U.U.U.U.U.U.U.U.U.U.U.U.' ' ~ H H W [ ' h 2 ; # : O.O.2 ^ ,X*XqX8X8X8X8X*XoX*XoXoXoXoXoXoXXXoXoXoX`.`.XXoXoXXXXXXXXXXXXXXXXX`.'.u.v z l l z z v U r.p.s.l.M.!.~.oXoXOXOXOXOXOXOXOXOXOXOXOXOXOXOXL.OXOXOXOXOXOXOXOXOXOXOXOXOXOXOXOXOXOXOXOXOXoXOXoXoXoXoXoXOXOXoXoXXXoXoXoXXXXXXXXXXX`.`.K.K.XX`.`.`.N.d.t.q.q.t.s.l.N._.S.V.S.V.N.j.u.C < ; $ - 1 P 8 r.qX8XqX8XD.V.D.D.D.D.D.D.D.D.D.D.D.XX`.`.`.D.D.XXXXXXXXXXXXXXXXXXoXXXXXXXXXXXXXXXXXXXXXXX`.D.D.D.D.`._.!.M.f.s.s.p.p.p.r.^ E Y L z z x x x z n L L L L L v v n n Y ^ t.s.s.u.u.s.c.N.b.N.N.d.l.E 1 ; - i a y 2 : y h /.0X,X^.R.' _ _ _ _ _ _ ' &.&.' &.&.&.&.&.&.&.&.&.&.&.&.&.&.&.&.&.&.&.&.' ' ' ' &.*.*.*.*.*.' ' &.&.' ' &.&.&.&.' &.&.' ' ' ' ' &.&.&.&.&.&.&.&.&.&.&.&.&.&.&.&.&._ ' &.' ' ' ' &.&.&.&.' &.&.' &.' ' &.&.&.&.&.' ' ' ' &.&.&.&.&.&.&.&.' ' ' ' ",
"&.&.&.&._ ` &.-.*.*.-.&.&.' ' ' &.*.-.-.-.-.-.-.*.*.*.*.*.*.-.-.*.-.*.-.-.-.-.-.-.-.-.*.-.-.-.-.-.*.*.' &.&._ / / W / _ %.%.&._ &.&.&.&._ D D Z Z Z Z Z Z Z Z Z Z D ' U.U.U.U.U.U.U.U.U.U.U.U.U.U.U.U.U.U.U.U.U.U.U.U.U.U.U.U.U.U.U.U.U.U.U.U.U.U.U.U.U.U.U.-.' ' _ ' *.' ' h 2 ; # : O.O.4 r.].S.qX8X8XqXqX*X@X*X`.`.`.`.`.`.`.`.`.`.`.`.`.`.'.XXXXXXXXXXXXXXoX`.t.z x l l l z n r.n.N.N.N.S.D.D.oXoXOX@X@XOX%X*X*XOXOX@X@X%X%X*X%X%XOXOXOXOXoXOXOXOXOXOXOXOXoXOXoXoXoXOXOXoXoXoXoXoXoXXXXXoXoXOXoXoXXXXXXXK.K.K.K.D.D.`.`.K.D.K.`.M.y.n M q.d.N.S.S.D.V.S.V.S.V.V.N.i.u.C < ; $ ; 3 P 8 r.qX8XqX8XC.V.D.D.D.D.D.D.D.D.D.D.D.K.K.D.D.D.D.D.D.D.XXXX`.`.XXXXXXXXXXXXXXXXK.K.XXXXXXXXK.K.D.D.D.C.D.D.S.S.V.N.N.N.m.n.n.l.j.s.u.p.p.p.p.p.p.r.E P I L L L L L P P P U P Y Y T q.d.b.N.N.d.l.I , ; ; s a y : w y 9 /.0X,X^.R.' _ ' ' _ _ _ ' ' ' ' ' ' ' ' &.&.&.&.&.&.&.&.' ' ' ' &.&.&.&.&.&.&.&.*.*.*.&.' ' ' *.&.&.' ' ' &.&.&.&.&.&.' ' ' ' ' &.&.&.&.&.&.&.&.&._ _ W W W W W G G H / ' ' ' ' ' &.&.&.' &.' ' &.' ' &.&.&.&.&.' ' ' ' &.&.&.&.&.&.&.&.&.' ' ' ",
"&.*.&.*.` ` &.*.*.*.*.*.*.*.*.*.-.*.*.-.-.-.-.-.-.-.-.*.*.*.*.-.*.*.*.-.-.-.-.-.-.-.-.-.-.-.-.-.*.*.' ' &.%./ / / / _ %._ %._ _ _ _ _ %.%.D h 9 u u u u u V V V V h / -.U.U.U.U.U.U.U.U.U.U.U.U.U.U.U.U.U.U.U.U.U.U.U.U.U.U.U.U.U.U.U.U.U.U.U.U.U.U.U.U.U.U.U.-.' -.-.-.-.-.9 4 ; # : { | 4 ^ '.b.qX8X8XqXqX*X*X*Xb.c.j.c.c.c.c.c.c.c.c.c.c.m.N.N.V.~._._._.S.j.U z l l j l v R i.M.N.N.V.D.D.D.oXoXOXOXOXOX%X%X+X*X@X*X'.`.S.N.b.B.M.S.oXoXOXOXOXOXOXOXOXOXOXOXoXoXK.oXoXoXXXXXoXoXK.oXoXOXOXoXoXXXXXXXXXXXK.K.K.XXD.`.`.D.D.`.`.N.y.n T c.V.`.`.C.V.V.V.S.S.V.V.V.c.d.s.C < ; ; ; 5 L 8 r.qX8XqX8XZ.V.D.D.D.`.D.D.D.`.`.`.`.`.D.D.XXXX`.`.`.`.`.`.`.`.K.K.K.K.`.XXK.K.K.K.D.D.XXXXXXXXD.D.D.D.D.D.S.S.~.!.n.x.l.M.N.N.N.N.V.~._._._.~.N.N.l.r.T U P L L P P P P P P Y Y Y r.j.N.b.N.u.d.I , ; - i a y 2 : 3 N /.0X,X^.R.' ` _ =._ H W ' ' ' ' ' ' ' ' ' ' &.&.' ' ' ' ' &.&.&.&.&.&.&.&.&.&.&.*.' ' ' &.&.&.&.' ' ' ' &.&.&.&.&.&.&.&.' ' ' ' &.&.&.&.' ' ' ' _ G H H G H H H G G G _ &.&.&.&.' ' ' ' ' &.&.&.&.&.&.&.&.&.&.&.&.&.&.&.' ' ' ' &.' ' ' &.&.&.&.",
"' *.&.&.` ` &.*.*.*.*.*.-.-.-.-.-.*.*.-.-.-.-.-.-.-.-.-.-.*.*.*.*.*.*.-.-.-.-.-.-.-.-.-.-.-.-.*.*.*.' ' &._ / W / _ %._ _ / / / _ _ _ _ &.G h V V V V V V V V A Z D _ -.U.U.U.U.U.U.U.U.U.U.U.U.U.U.U.U.U.U.U.U.U.U.U.U.U.U.U.U.U.U.U.U.U.U.U.U.U.U.U.U.U.U.U.-.-.-.-.' -.-.9 4 ; # : | | : ^ '.b.qX8X8X8XqX>X%X*XZ.A.c.j.j.j.x.d.d.d.d.d.d.d.d.i.d.d.d.d.i.u.m z x l v n U t.j.c.c.N.S.D.`.D.D.oXoXOXOXOXOXOXOXOXXXi.m m n v v z z v q.oXoXoXOXoXoXoXoXK.oXoXoXOXOXXXoXK.K.K.XXoXoXoXoXoXoXoXoXXXXXXXXXXX`.D.D.D.D.D.`.`.`.D.V.N.t.q.l._.D.D._._.n.N._.V.V.V.V.V.N.c.d.s.l $ ; ; ; 5 I 8 r.qX8XqX6XZ.V.D.D.D.`.D.D.D.D.D.D.D.`.D.D.XX`.`.`.`.`.`.`.XX`.K.K.XXXXK.K.K.K.D.D.D.D.`.`.`.`.`.`.`.XXK.K.`.`.N.p.P Y T r.s.s.M._._.S.S.S.S.C.V.S._._.!.l.s.p.t.r.r.r.r.r.r.r.p.s.N.N.N.V.n.q.t.C < ; - i a i 2 : 3 N /.7X,X^.R.' / _ _ Q H D _ _ _ _ _ _ &.&.&.&.&.&.' ' ' ' &.&.&.&.&.&.&.&.&.&.&.&.*.&.' ' &.&.&.&.' ' ' ' &.&.&.&.&.&.&.&.&.' ' ' &.&.&.&.' ' ' ' _ W H H H H G G G H W &.&.&.&.&.' ' ' &.&.*.&.&.' ' ' ' &.&.&.&.' ' ' ' ' ' ' ' &.&.' ' &.&.&.&.",
"W &.*.&.` ` &.-.*.*.*.*.-.-.-.-.-.*.*.-.-.-.-.-.-.-.-.-.-.*.*.*.*.*.*.-.-.-.-.-.-.-.-.-.-.-.*.*.-.-.*.' ' ' _ _ _ _ _ _ / / _ _ ' ' ' ' ' _ G H D D D D D H G / _ ' -.-.U.U.U.U.U.U.U.U.U.U.U.U.U.U.U.U.U.U.U.U.U.U.U.U.U.U.U.U.U.U.U.U.U.U.U.U.U.U.U.U.U.U.-.-.U.' ' -.-.-.h 2 ; # : { | : ^ _.A.qX8XqX8XqX<X*X*XD.V.V.S.S.S.S._.~.~.~._._.V.N.V.N.N.N.N.N.M.p.z K P Y T t.c.c.b.N.S.`.`.D.D.D.D.oXoXOXOXOXOXOXOXoX~.p.r.T U U Y ^ s.S.oXoXoXoXoXoXoXoXK.oXoXoXoXoXXXoXoXoXoXXXXXXXXXXXoXXXXXXXXXXXK.D.`.`.D.D.C.D.S.V.N.c.i.t.q.i.V.`.C.C.S._.r.M q.`.V.V.V.V.V.N.c.i.p.l $ ; ; $ 5 I 8 p.qX8XqX:Xb.V.D.D.D.D.D.D.D.D.D.D.D.D.C.D.D.`.D.D.`.`.`.`.`.`.`.`.`.D.D.`.`.`.XXXXXXXXK.K.XXXXXXXXXXXX`._._.f.m n L L P U T q.y.i.M._._.`.D.C.S.V.V.V.S._._._._._._._._._._._._.S.V.V.N.V.c.T r.C 2 ; - y a i 2 : 3 V /.0X,X^.R.' / _ %./ H D D G G G G G W W W W ` ' ' ' ' ' &.&.&.&.&.&.&.&.&.&.&.&.*.&.' ' &.&.&.&.' ' ' ' &.&.&.&.&.&.&.&.&.' ' ' &.&.&.&.' ' ' ' ' _ _ _ W / _ _ _ _ ' &.&.&.&.&.' ' ' &.&.&.&.&.&.&.&.&.&.&.&.&.' &.&.&.&.&.&.&.&.&.&.&.&.&.&.&.",
"L ' *.&._ ` &.-.*.*.*.*.*.*.*.*.-.*.*.-.-.-.-.-.-.*.-.*.*.*.-.-.*.*.*.-.-.-.-.-.-.-.-.-.-.-.*.*.' ' ' ' ' _ _ _ _ _ _ _ _ ' ' &.' ' ' ' *.&._ / _ / W W W W _ ' *.*.-.-.U.U.U.U.U.U.U.U.U.U.U.U.U.U.U.U.U.U.U.U.U.U.U.U.U.U.U.U.U.U.U.U.U.U.U.U.U.U.U.U.U.U.-.-.-.-.-.-.-.' h 2 ; # : { { 2 ^ _.A.qX8X8XqX8X<X*X-XXX`.`.XXXXXXXXXXXXXXXX`.`.`.`.D.D.D.D.D.D.M.r.U Y U m t.n.N.b.V.`.D.D.D.D.D.oXoXD.oXOXOXOXOXOXoXOXOX*XoX'.'.'.oX+X+XXXXXoXoXoXoXoXoXoXoXoXoXoX+X'.`.V.N.N._.`.XX`.`.XXXXD.D.K.XXD.D.C.D.D.D.D._.V.b.i.t.t.u.c.V.`.D.D.D.`.!.Y v c p.~.V.V.V.V.V.n.d.u.t.Z $ ; ; @ 5 L 8 p.qX8X8X<Xc.V.D.D.D.D.D.D.D.D.D.D.D.D.C.D.D.D.D.D.D.D.D.`.`.D.C.C.V.V.V.c.u.t.t.t.r.r.r.r.r.r.^ ^ ^ R Y P v z z C L P ^ p.p.s.s.t.u.d.c.N._.~.~._.V.V.S.V.~.~.V.S.S.S.V.~.V.V.V.N.N.N.N.N.j.Y r.C 2 ; - y a i 2 : 2 V /.,X3X^.R.' W _ &._ D D D D Z Z Z Z Z D H H ` ' ' ' ' ' &.&.&.&.&.&.&.&.&.&.&.&.*.*.' &.&.&.&.&.' ' ' ' &.&.&.&.&.&.&.&.&.' ' ' &.&.&.&.' ' ' ' ' ' &.&.&.&.&.&.&.&.&.&.&.' &.&.' ' ' ' &.&.&.H A Z Z Z D D D G W / / W / / / / W / / / / _ _ _ ",
"G W &.&._ ` &.*.-.*.*.-.*.*.*.*.-.*.*.-.-.-.-.-.*.*.*.*.*.*.-.-.-.-.-.-.-.-.-.-.*.*.*.*.*.' ' ' ' *.*.' ' ' ' ' &.&.&.*.*.*.*.*.-.U.U.U.U.U.U.U.-.-.-.*.*.-.U.U.U.U.U.U.U.U.U.U.U.U.U.U.U.U.U.U.U.U.U.U.U.U.U.U.U.U.U.U.U.U.U.U.U.U.U.U.U.U.U.U.U.U.U.U.-.-.-.-.-.*.*.-.h.h.B : : # - { { 4 [ '.B.qX8XqX8XqX:X-X<XoX`.`.`.`.`.`.`.`.`.`.`.`.`.D.D.D.D.C.C.N.r.Y Y P m s.N.N.V.V.`.`.D.D.D.D.S.b.f.u.u.j.M.`.oXL.oXoXoXXXoXoXoXoXXXXXXXoXoXoXoXoXoXoXoXoXoX+X{.M.s.T n M v n m t.N.].`.`.`.`.D.D.D.D.S.V.D.`.S.V.S.D.S.V.V.V.`.`.D.D.D.C.`.!.m c v p._.V.C.V.V.V.N.j.s.p.r.C $ ; $ # 5 L 8 f.qX8XqX,XA.~.~.V.V.V.V.S.S.S.D.D.D.D.D.D.D.C.V.V.V.V.V.V.m.m.c.c.A.A.i.t.P z x x j j k k j j k h h k h j j j j l L ^ s.l.l.n.l.M.l.d.i.j.c.c.n.c.c.n.n.n.n.n.n.n.n.c.n.n.c.c.c.c.c.c.b.m.d.m r.C 2 ; - i a i 2 ; 2 V [.}.3X^.f.' W _ =.&.W Z D Z Z A A B Z G / _ ' ' &.&.&.&.&.&.&.&.&.&.&.&.&.&.&.&.&.&.&.&.&.&.&.&.&.&.&.&.' ' ' &.&.&.&.&.&.&.&.&.&.&.' ' &.&.&.&.' ' ' ' &.&.&.&.' ' ' ' ' ' ' ' ' ' ' ' &.&.&.9 @ , , , , < 1 3 6 N V Z Z D D D Z D D D D D D D ",
"_ G _ ;._ ` &.*.*.-.-.*.*.-.*.*.-.*.*.-.-.-.-.-.*.*.*.*.*.*.-.-.-.-.-.-.-.-.*.' ' ' ' ' ' *.-.-.-.-.-.-.-.-.*.-.-.-.-.-.-.-.-.-.U.U.U.U.*.U.U.U.U.U.U.U.U.U.U.U.U.U.U.U.U.U.U.U.U.U.U.U.U.U.U.U.U.U.U.U.U.U.U.U.U.U.U.U.U.U.U.U.U.U.U.U.U.U.U.U.U.U.U.R.U.U.U.U.R.R.R.R.R.E.H 2 : # - { { 4 [ ].B.qX8X8X8XqX6X-X<XoX`.`.`.`.`.`.`.`.`.`.D.D.D.D.D.D.D.D.V.r.n m m T j.!.V.S.D.C.D.D.D.D.`.n.q.m n U T r.t.i.Z.D.K.K.K.K.K.K.K.K.K.XXK.K.K.K.K.K.K.XXoX'.N.u.m v c x x x x z v M m y.j.N._._.`.D.D.C.C.C.D.C.D.C.S.D.S.D.D.D.D.D.D.K.C.D.!.U c n d._.V.C.V.V.V.b.j.u.t.q.T C 2 ; $ $ 6 L 1 f.qX8X8X*Xy.y.t.u.u.u.i.d.j.j.d.d.d.j.c.c.d.d.d.d.d.d.i.i.u.u.u.u.u.u.u.r.Y C C l j j j j h h h h h h h h h h j z n n m t.f.s.i.d.d.d.d.j.j.j.c.c.j.c.c.c.c.c.j.j.j.j.c.c.c.c.c.c.c.c.c.n.u.T ^ C 2 ; - i a i 2 ; 4 u /..X.XE.h.' W _ &.&.&.W D D D B V B G ' ' &.&.' &.&.&.&.&.&.&.&.&.&.&.&.&.&.&.&.&.&.&.&.&.&.&.&.&.&.&.&.' ' ' ' &.&.&.&.&.&.&.&.&.&.' ' &.&.&.&.' ' ' ' &.&.&.&.' ' ' ' ' ' ' ' ' ' ' ' ' &._ 5 @ @ @ < 1 5 7 7 1 1 5 7 9 u V A Z Z Z D D D D D ",
"&./ W &._ _ *.*.*.*.*.&.*.*.*.*.-.*.*.-.-.-.-.-.*.*.*.*.*.*.-.-.*.*.*.*.-.*.' ' ' ' *.*.-.-.-.-.-.-.-.-.*.*.*.*.*.*.*.-.-.-.-.-.*.-.-.-.*.I.U.U.U.-.-.U.U.U.U.U.U.U.U.U.U.U.U.U.U.U.I.' -.*.' *.' ' h.I.U.U.-.U.U.U.' U.U.U.U.U.U.U.U.U.U.U.U.U.R.R.R.R.E.E.E.E.E.E.E.E.E.E.I 3 = # - { { 2 ` ].B.qX8X8X8XqX6X>X<XoX`.`.`.`.D.D.`.`.`.`.D.D.D.D.D.D.D.`.V.u.r.p.d.N.~.V.V.V.C.V.F.S.S._.l.m n Y Y E ^ r.t.s.u.c.V.`.oXD.K.K.oXoXK.K.K.D.D.D.D.D.D.`.M.q.n v z l j 9 5 5 6 h l v n m T y.t.u.n.N.V.`.`.`.`.`.`.`.`.`.V.V.V.C.`.`.D.P.`.!.U z v l._.V.V.V.N.c.i.y.r.T Y Y U C 4 $ ; $ 9 L 8 ).qX6X6X].q.T R q.q.q.q.q.q.q.q.q.q.q.t.t.t.t.t.t.t.t.y.t.t.t.t.t.t.t.t.q.n v z z z z z z z z n n n n P P P E ^ r.p.f.j.j.j.c.n.n.c.c.c.B.N.N.N.N.N.m.m.N.m.N.N.N.M.M.N.N.N.N.N.N.N.N.c.n.t.Y ^ C < ; % y a s 2 ; ; 9 ` U./.U.U.' W ' ' &.' &._ / D B B D _ ' _ ' ' ' &.&.&.&.&.&.' ' ' ' &.' &.&.&.&.&.&.&.&.&.&.&.&.&.&.&.&.&.' ' &.&.&.&.&.&.&.&.&.&.&.&.&.&.&.&.&.' ' ' ' &.&.&.&.' ' ' ' ' ' ' ' ' ' ' ' ' &.W 5 2 3 7 9 u u u u u 3 1 3 1 1 1 3 9 V V A A Z Z Z ",
"%.%.W W / W &.&.*.*.*.*.&.*.*.*.-.*.*.-.-.-.-.-.-.*.*.*.*.*.-.-.*.*.*.*.-.-.*.-.*.*.-.-.-.-.-.-.-.-.-.-.-.*.-.*.' ' ' *.-.-.-.-.' ' ' ' *.*.U.U.U.U.U.U.h.I.I.U.U.U.I.I.h.h.' ' ' ' ' ' *.' ' ' ' ' ' ' ' ' ' ' ' ' ' ' *.*.*.*.' -.' ' ' ' -.U.R.R.R.E.E.E.E.E.E.E.W.E.W.W.W 3 = # - { { 2 I ].A.qX8X8X8XqX6X>X<XoXD.`.D.D.D.D.D.D.D.D.D.`.D.D.D.D.C.C.C.~.~.V.V.V.V.V.V.V.C.C.V.S._.s.n n U R E E R r.p.t.t.p.s.d.B.N.S.S._._._._.~.~.~.~.!.!.n.y.m v z z j 6 1 @ @ @ @ , 6 l L Y U m m m r.s.n.n.n.n.d.d.d.c.m.V.~._.S.C.C.D.S.`.N.m v v r.M.c.c.j.u.t.r.T Y Y Y n n n C 4 $ ; $ 9 L g {.<X,X_.u.q.w.q.q.q.t.u.u.u.u.s.t.t.t.t.t.t.y.y.t.t.t.y.u.t.t.t.u.u.u.i.d.s.s.s.j.n.n.N.N.!.!.!.N.N.!._.!._._._.G._.S.!.N.V.V.N.N.~.~._.S.N.S.V.N.N.V.V.N.V.V.V.V.N.N.N.N.N.N.N.N.b.b.n.l.T Y ^ C < ; % y a s 2 : ; 9 D I I ` ' _ W _ _ ' &.' ' ' _ W W _ _ _ &.' ' ' &.&.&.&.&.&.&.' ' ' &.&.&.&.&.&.&.&.&.&.&.&.&.&.&.&.&.&.&.' ' &.&.&.&.&.&.&.&.&.&.&.&.&.&.&.&.&.' ' ' ' &.&.&.&.' ' ' ' ' ' ' ' ' ' ' ' ' ' G 9 N N N N N u u u u 9 3 3 3 3 3 3 1 1 1 5 7 7 9 9 ",
"_ _ / G W W _ _ _ _ ' ' _ _ _ _ ` _ _ _ _ &._ &.&.&.&.&.&.&.&.-.&.&.&.-.-.*.*.*.-.-.*.*.*.*.' ' *.*.*.*.*.' *.*.' ' *.*.*.*.' ' ' *.*.*.' *.U.U.I.I.I.I.I.I.I.I.I.I.*.*.*.*.' ' ' ' _ _ _ _ / W G G W G G G G G W I D D H G W _ ` _ _ _ _ _ ' ' U.U.R.R.E.E.W.W.R.R.R.W.W.R./ 3 ; # - {  .2 L ].b.wXqX8XqXwX8X<X<XoXD.D.D.`.`.`.D.`.`.`.S.S.S.Z.V.V.V.C.C.V.V.V.V.V.V.V.V.V.V.N.V.G.s.m P P U U U U U U Y R R R T T R r.r.r.r.p.p.p.p.u.s.p.p.t.U v L z j h 1 , # # # # % @ , 5 h k c v U Y Y U T T T U T T T R t.u.d.n.N.N.N.N.B.j.T n v Y r.q.T T T T Y Y Y Y Y Y Y P P l 1 4 $ @ h C g ].].l.r.r.r.r.q.t.u.i.d.d.d.d.j.j.d.c.j.j.d.i.d.d.d.d.d.u.t.t.t.u.d.n.N.V.V.V.V.V.V.V.V.V.V.V.N.N.N.V.V.V.V.V.N.N.N.N.N.N.N.V.N.N.N.V.V.N.N.N.N.V.V.V.V.N.N.N.V.V.V.V.V.V.V.V.V.!.N.M.l.q.n R ^ C < ; - i a s w ; ; 3 D W W D G G D _ ' ' &.' &.&.&.&.' ' ' _ ' ' &.&.&.' &.&.&.&.&.&.&.&.&.&.&.&.&.&.&.&.&.&.' ' ' &.' ' ' ' &.' ' ' ' &.&.' &.&.&.&.&.&.&.&.' ' ' &.' ' ' ' ' ' ' ' ' ' ' &.&.' ' ' &.&.&.&._ / Z 9 N u u 9 9 9 9 9 u 7 3 3 7 u u u 9 7 3 3 2 2 < $ ",
"/ _ / G G W / / / / / / ` _ _ _ / / / / H H H G H H H G ~ _ %.&.&.&.*.*.-.-.&.&.&.&.&.&.' &.&.' &.&.&.&.' ' &.&.' ' ' ' &.&.&.' *.*.*.*.*.*.-.*.-.-.*.*.-.*.*.*.*.*.' ' ' ' ' ' _ ` / / W W W D G G D D D D D D Z Z Z Z Z D D W ` _ _ _ ' ' ' ' ' -.U.U.R.R.h.h.R.g.R.R.R.U.D 3 = # * {  .2 j ^.!.{.*X*X,X,X,X,X*X'._.S._.!.!._.N.N.M.n.n.M.N.N.V.S.D.V.C.C.C.C.V.V.V.Z.V.V.V.N.c.y.m n P P L L v z z z v v v v v v v v v v n n P n n m m n n n v C l h 1 , @ # # # # # % @ @ < 6 j z L P P P P n n n P U U U U U U U T T T T U U m n L P E Y Y Y Y Y Y Y Y Y U Y Y Y P L j < 2 ; @ 6 x k W.y.q.q.q.t.t.s.s.d.i.d.d.d.c.A.c.c.A.c.j.j.j.c.c.c.c.s.t.r.r.t.i.b.Z.b.Z.Z.b.Z.Z.b.b.Z.Z.N.N.V.V.V.V.N.N.N.N.N.N.N.N.V.V.V.V.~.~.~.~.N.N.N.M.!.!.!.n.n.n.n.n.l.l.l.l.f.f.p.p.r.^ R Y L z P R R C 2 ; - i a s w ; ; 3 Z H H D D H H _ ' ' ' ' &.&.&.&.' &.' ' ' ' &.&.' ' &.&.&.&.&.&.&.&.&.&.' ' &.' ' ' ' ' &.&.&.' *.*.' ' *.' ' ' ' &.&.&.&.&.&.&.&.&.&.' ' &.&.&.&.&.' ' &.&.&.&.&._ _ _ _ / W W G G G D G Z h u 9 u u 9 9 9 9 9 9 7 3 3 9 9 9 u 9 9 9 9 9 7 9 9 ",
"/ _ / G G G G / / / / _ _ / G Z Z V u u u 9 9 3 3 3 3 3 5 6 9 V D G / _ _ _ %._ &.&.' ' _ _ _ &._ _ _ &.' _ &.' &.&.' ' %.%._ _ &.&.&.&.&.&.&.&.&.&.&.&.&.' ' ' ' _ _ _ _ _ ` ` / / / / W W W W W / G W G G G G D D D D G W / _ _ _ _ ' ' &.&.*.&.*.-.U.-.-.-.' ' ' ' ' _ W V 2 ; * : { { y 5 I Y U T T q.r.r.t.p.r.r.r.r.r.^ R T T Y U U m U r.t.l.n.n.n.n.N.n.M.N.N.M.M.l.s.r.m v v L L l 6 5 5 6 6 6 6 9 9 h f h h j j j j j x x l l l l C x j h 5 @ # # # # # # # # # @ $ ; 5 B C K z z z v v v L L L P P P I P P P P P P P P P P L Y E Y Y Y Y Y E Y Y Y Y Y Y P L C 9 < ; ; ; 5 j k R T T R R r.p.p.r.r.^ R T T T r.t.s.d.d.s.s.u.u.s.s.u.r.T T r.u.n.n.m.N.N.N.N.N.N.N.N.N.N.N.M.M.n.n.n.l.l.l.l.l.l.l.j.j.s.p.r.r.q.R T m n n v v v c c x x x x x x k k k k x k k k k k x z Y R R C 2 ; - i a s y ; ; 4 V D D Z D D H _ _ ' &.&.&.&.&.&.&.&.' &.&.' &.&.' ' &.&.&.' &.&.&.&.&.&.&.' &.&.&.&.&.&.&.&.&.&.' &.&.&.&.&.&.&.*.&.&.&.&.' &.&.&.&.&.&.&.&.&.&.&._ _ / W W G D D D D D D D D D D D D D V 9 9 9 u 9 9 3 3 3 1 1 2 2 4 4 3 0 9 u 9 9 u u 7 7 9 3 ",
"W _ / G G H G G H D H D V 7 4 $ < $ $ $ ; $ @ $ $ $ 3 u u u V V V Z H G / / / / _ _ / / / / / / / / W W W G G D D H H H D D D Z D D D D D D H D I W W / W W W W W W / / / / / / / / / / W W / / / W / / W W G G D D G G G W / / / _ _ _ / / / / W W W / W G G D H H Z B u 9 4 ; @ * w O.{ i 2 f C I I I I I I I L L C L n n n z v z z z z z z z v n P P n U Y Y U U P n v z z z z z C C B 5 @ # # # @ @ @ @ @ @ @ @ $ < < < < < < 1 1 1 1 1 1 1 1 , # # * # # @ # # # # # # * * 3 h j x l l l z z z C L K K K v K v v n n n L L L L n n P P P P n P n P P P P P P L v v l 1 $ ; ; ; < 6 f L E Y Y n n n v v z z z z z z z v v Y r.R R T U U Y U U U U U R R R q.q.q.q.t.t.t.t.t.t.t.t.r.r.^ R R R R R R E E Y P v l k h f f f f f f f f h k k k j j j j j j j j j j j j C C C C v P Y Y R C < ; - i a a i ; ; ; 9 D Z B Z Z D _ _ _ %.%.' ' ' ' &.%.%.%.&.&.&.&.&.' ' ' ' ' ' ' ' &.&.&.&.&._ W H D D H G / ) _ _ %.%._ / G D D H G / %.&.&._ _ _ _ _ / W G H H D D C C B B B B A A A A A A A A A Z A V 7 5 9 3 3 2 < @ @ @ @ @ @ $ $ $ $ ; 2 2 4 4 4 4 4 2 4 ; ",
"H G B 9 u 9 9 u 9 9 9 9 3 2 < 2 2 ; ; ; @ @ @ $ @ # ; y u u u J J J J J V Z V V V V V V V V V V V N V V V V V V V V V V V V V V V V V V B B B Z Z D D D H H H G G G G G G G G G G G G G G G G D G G G G D D D D Z Z Z Z Z Z Z Z Z Z Z Z B B B B B B B B V V V 9 u u 9 7 3 2 ; - # # y { { s ; , 8 5 9 h j j j j j j x x l l l l C C l l l l l l z C C L L L K z z z l x x x x l C C C C 9 @ # * # # # # # # # # # # # # # # # # # # # # # # # # # # # # # # # # # # # # # # # # < 9 h k j j j l l l l l l l z z z z z z z z z v v L n v n v v v v v v v z z z z z z l j 6 1 2 - ; ; 2 2 1 h K M v z x x x x x x x l l l l l x x z n L P P P P P P P K K v v K K v K K P P n n n n n P P L z x x j k k k h h f f 6 6 6 6 6 6 f h h j j j x x x x x x x x z x x z x z x x z z z K v P Y E ^ B 2 - q s a p i : ; $ 3 J A A Z B H / _ _ _ _ ' ' &.%.H 9 u J H H H / _ &.&.&.&.&.&.&._ _ _ / G V 3 @ @ @ @ @ $ < 2 4 3 3 4 4 < @ @ @ @ $ 4 9 u V V u u V V V V V V V B A A A B B B B A A A B V V V V B B B B V u 3 ; ; ; @ # # # # # # # # % % % $ $ # # # # $ $ $ $ ",
"9 u V V u u u u u 9 9 0 2 ; $ @ # # # # # # # # # # # # # # # # @ @ @ 2 < 2 1 1 3 3 3 3 3 3 3 3 3 3 3 3 0 0 9 9 0 0 0 0 0 0 0 0 3 3 3 3 3 3 3 2 4 4 4 4 3 3 3 3 3 3 3 3 5 9 9 9 9 9 9 9 9 u u u V V V V V V V V u u u u u u u u V V u u u u u u V V V V u u u u u 0 3 3 3 2 ; - = # i { { s ; @ @ @ @ @ @ @ @ @ @ , , , , , < < 1 1 1 1 1 1 5 5 6 6 6 6 9 h h h h h h h h h h h h B V h , . # # # # # # # # # # # # # # # # # # # # # # # # # # # # # # # # # # # # # # # # # # @ 2 3 5 5 1 1 3 1 5 5 5 5 5 5 5 5 5 5 5 5 6 6 6 f j l l j j l l l l l l j j j j h 9 5 1 2 4 2 y w 2 ; ; 2 1 f x k f 6 6 6 6 6 6 6 6 6 6 6 6 6 6 6 6 6 6 6 6 6 6 6 6 6 6 f h h h h j j l C C C C C C j f 6 5 8 1 1 1 1 1 1 1 1 1 1 5 5 5 5 5 5 6 f h j j j x x x x x x x x x x l x x l l z z z L L I I I C 5 2 ; y a a p i q ; ; $ 2 9 9 9 9 9 7 h Z H ~ ~ ~ H 9 @ . . . o o % % 2 3 u u u u 9 9 0 3 2 @ @ # # # # # # # # # # # # # # # # # # # # # # o # o o # # ; 2 4 3 3 9 9 9 u u u u u u V V V V V V V A A A A A A u 3 @ @ # # # # # # # # # # # # # $ $ $ # # % $ % % $ % ",
"@ # # # # # # # # # # # # # # o # # # # # # # # * * * * # # # * # # # # @ @ @ ; # @ @ $ ; ; ; ; $ $ % $ % % % % # # # # o o . . o o o X o X X X X X     O X o o X X X X   . # . # # # # # @ @ @ @ @ @ @ $ $ $ $ ; ; $ $ $ $ $ $ $ $ $ $ < < $ $ $ 2 2 2 ; ; 2 ; ; $ @ # # # # # # - a { { a ; # % % # # % % % % # # # # # # # # # # # # # # # # @ @ # @ @ @ @ @ @ @ @ @ @ @ @ $ $ < @ @ # # # # # # # # # # # # # # # # # # # # * * * * # # # # * * * * # # # # # # # # # # # # % # # # @ @ @ @ # # # # # # @ @ @ @ @ @ @ @ @ @ @ , < < < < < < < < < < < < < < 2 ; @ ; ; : i a a a i : ; 2 2 1 1 1 1 < < < < < < < < < 2 2 2 2 2 < < < 2 2 2 2 2 2 2 2 1 1 < < < < 1 1 1 1 1 1 < < < < < < 2 2 2 2 2 2 2 2 2 2 1 1 1 1 1 1 3 5 5 6 9 h h h h h h h h h h h h h h h h h h h j j B B h 6 1 2 2 y s a p p { r - - ; ; $ 2 2 2 2 $ @ @ $ $ $ $ # . # # o & # # # # o o o o o o o o o o o & & * * * o o # * & & * & o o o o o & & o & o o & & & & & o o # # # # # % % $ $ ; 2 2 2 2 4 4 4 3 3 3 3 3 3 3 3 1 $ @ @ @ # # # # # # # # # # # # % % % % # # # % # # # # ",
"o X o o   . o . . o o .   . . . o o o o o . . . o o o X o X o o o o o o X X o # o o o o o o o o o o   o         X X o o X o o o o o o o o o o o o o o o o o o o o o o o o o o o o o o o o o o o o o o # # # # # # # # # # # # # . . . . . . . .   . . . . . o o . . . . o # # # # s { { { a i ; # # # # # # # # # % # # # % % ; ; - # # - * # # % % # % # % # # # # # # # # # # % # # # # # # # # * * * * * # # # # # # * * * * o # # # # # # # * * * * # # # # # # # # # # # # % # # * # # # # * * * * * # # # % # # % - * # # * * % % * - - * * * - - - - ; ; $ ; ; ; ; y a { { { { i 2 $ 2 $ $ 2 2 2 2 2 2 2 2 2 2 2 < 2 2 < < < < 2 2 2 2 2 2 2 2 2 2 2 2 2 2 2 2 2 2 2 2 2 < $ ; ; < $ $ ; 2 2 2 2 2 < < < < < < < < < < < 2 2 < < < < , , < < , , @ @ @ @ @ @ @ @ @ @ , , , < < < 2 y y s a a { +.,.+.r - - - - % - - - # # # # o # # # # # # * & o # # # o # o o # # o o o o o & * * * # * * * - % % # % % # # # % # # # # # # # # # # # # # # # # # # # # # # # # # # # # # # # % % # # # # # # # $ # # % % % % % % % # # # # # $ % % # # # # # # # # % ",
"y y w q w w w q : : : : : : : : : : : q w y y y i i s s p i i i y y q q : : : - - & & o o o o o o o O o o o o o o o o o o o o o o o o # o o o o o o o o o o o o o o o o o o o o o o o o o o o o o o o o o o o o # # # # # # # # # # # # # # # o o o o o # # o o . . o # # # o y a O.O.{ { { a i 2 2 2 4 2 2 2 2 2 2 2 2 4 4 4 4 2 2 ; ; ; ; ; ; ; - $ $ ; ; ; ; ; $ $ $ ; ; ; ; # # - % - * * * # # # # # # # * - # - # - - - - - - ; - - - - - - - - - * - - - * * # - - * * - % # % # * * * * - - - - * # * * # % % % - # * - - # * - % % % - - - - - - - ; ; ; ; ; ; : s { {  . . . .s ; ; $ ; 2 ; 2 2 ; 2 2 2 2 2 2 2 2 2 2 4 2 $ ; 2 2 2 2 2 2 2 2 2 2 2 2 2 2 ; ; 2 2 2 2 ; ; ; ; ; ; ; 2 2 2 2 2 2 2 2 2 ; ; ; $ ; 2 $ @ ; ; ; ; $ ; $ @ @ @ @ $ @ @ @ @ @ @ @ @ @ @ @ @ ; ; ; ; 2 y i a { { @.<.<.<. .: # * - * # # # - * * * * % # # - - - * * - - - - - - : : : : : : : : : : : : : : - - * * * * * # % - # # - # # # # % % % # # # # * * * * # # % # # # % # # # # # # # # % % # # # * * # * - * % % # # * * # # # # # % % # # = * # % % % # # # $ $ ",
"p p p p p a a a a a a a a a a { { a { {  . . . .+.+.,.<.1.1.<.1.,.,.@.@.O.{ p i y r r r q q q q q q : : : : : - - - - o & & o o o o # * # # - - - > > & > > > & o o o o & & & & & & o o o o o o o # # o & & o & # # # # # # # # # # # # # # # # # # # # o o o o o o o o o o - s s a a { a a a s i y y y y y y y y y y y y y y y y y y y y y y y w y 2 2 2 2 0 0 y u s s s s u s s s i i s i i i i i i i i i i s i i s s s s i i i i i y y w w w q q q q q : : q : : : : : : : : : ; : : : ; ; : ; ; ; ; : : : : : : : : ; ; ; ; ; - - - - - * * - - % - - - ; : : : 2 y a { { O. . . . .| s w : ; ; : ; ; ; ; ; ; ; ; ; ; ; ; ; ; 2 2 ; ; ; 2 2 2 2 2 2 2 ; ; ; ; ; ; ; ; @ @ @ @ @ $ ; ; ; $ ; $ ; ; ; ; 2 2 2 w y y y y y y u y i s s u s s s s s s s s s s s s s s s s s s i s s s s a {  .+.@.,.<.2.2.3.7.2.{ y i i i y y y y y y y w w w y y y y y y y y y y y y y y i i i i i i i i i i y r q q q q : : : : : : : - - : : : - - - - - - : : : : - : - - - - - ; - - - - - - - - - - ; - - ; * @ = = = # % ; # # = @ # # # * * * * # # - # $ # # # @ # # # ",
"+.+. . . .+.,.,.<.<.,.<.<.2.2.6.6.7.7.6.3.rXtXsXsXaXhXzXzXzXzXdXdXaXaXaXaXpXpXrX7.2.2.2.2.2.6.6.6.7.6.6.6.6.2.2.5.5.2.2.2.2.2.2.<.#.O.a a O.@.@.@.@.@.@.+.+.+.+.+.+.O. . .{ { { { { a a a a p p a a s s p i y y y y q q q : : : : : : : : : : : : : : : : : : : : : : : : : : y y i i i p s s s s s s a a { O.#.5.8.8.pXfXfXfXfXfXkXkXkXfXfXkXfX5.0.0.0.0.#.$.$.$.0.5.0.0.0.0.#.O.O.O.#.O.O.O.O.O.O.O.O. . . .{  .{ { a a { { { { a a a a i i y y y y y y r q r r r r y y y y y y y y y y y w w y y y y y y r r y y r r r r r r q q r y y y y y y y y y y y i a a a { {  .{ O.O.O. .O.O. .{ { a s s a s a a a a a a a a a a a a a s i i y y y y w w w w w w y y y y y y i i y y y y 2 : ; ; 2 y i i s s a a a a a { { a a { | | O.O.O.O.| | | | | | | | O.O.O.O.O.O.O.O.+.+.+.+.+.+.+.,.,.3.6.rXrXyXyXyXtXyXtXtX6.2.2.<.2.2.<.<.<.,.@.@.+.+.+.+.@.@.@.@.@.@.@.@.,.,.<.<.2.2.2.3.2.,.+...+...+.+.@.<.2.2.<. .{ { { a { a a a a a a p p p a p p a p p p p p i i i i i i i y i i i y y y y y y y w w w w w w w w w w w q q w w w w w w w w q q q : : - - - - - - - ",
"DXDXDXDXDXDXDXDXDXDXDXDXDXDXDXDXDXDXDXpX@.rXDXHXHXHXHXHXHXHXHXHXHXHXHXJXJXDXGXNXbXvXzXhXaXhXhXhXxXbXNXNXbXbXnXnXbXnXnXnXbXvXvXvXvXzXpX<.,.2.3.3.6.6.6.6.3.6.3.3.3.3.3.3.6.6.6.6.6.6.7.rXtXpXaXgXgXgXgXgXgXaXaXaXaXpXpXpXaXaXgXgXgXgXgXgXgXfXpXpXpXpXfXfXgXfXfXfXpXpXfXpXtX8.8.6.6.8.pXfXgXfXtX8.8.8.6.8.7.8.tXfXMXBXJXJXJXJXJXJXFXJXJXJXLXLXLXBXjXjXjXjXkX9.#.:. X5X8.9.9.8. X9.0.#.#.#.#.@.+.+.+.+.+.+.@.2.6.7.7.7.7.7.6.6.6.6.6.5.5.2.<.<.,.@.@.+.+.+.+.+.@.#.<.<.<.2.2.2.2.2.2.2.2.2.2.2.2.2.2.2.2.2.2.2.2.2.3.2.2.2.2.2.2.2.4.4.2.2.2.2.2.3.3.2.2.2.<.<.<.<.<.<.#.#.#.@.+.+.+.@.@.+.+.+.{ { { O.O.+.+.+.+.+.+.+.@.+.+.+.+.+.@.@.@.@.<.<.<.<.<.<.<.<.<.<.2.2.2.2.2.2.2.2.6.6.6.6.2.,.+.+.+.O.+.+.@.,.,.<.<.,.{ a i a s s a a { { { { { { { O.O.| O.O. . .O.O.O.+.+.+.+.+.+.@.,.,.1.4.rXsXsXaXsXyXyXrXrXrXrX6.rXrXtXsXsXaXaXaXaXaXtXtXyXsXsXyXyXpXaXaXaXaXgXzXzXzXxXxXxXnXnXbXbXbXnXnXxXxXxXxXxXcXnXcXxXaX,. ...+..... . .+.+.+.+.+.+.+.+.+.@.@.@.@.@.+.+. .+.+.....+.+.+. . .O.+.+.+.+. . . . . . . . . . . . .+.+. . .+.+.+.+.+.+.+.+.+.+.+.+.+. . . . . . .",
"fXaXtX8.8.8.tXfXgXgXhXhXhXhXhXzXhXhXzX6.i @.hXxXvXbXNXNXDXDXJXDXDXDXNXMXbXbXvXzXzXhXaX7.<.<.2.6.rXaXdXaXhXhXhXhXgXaXaXaXpXtX7.6.6.6.6.6.6.3.3.3.3.3.3.2.3.3.2.2.2.2.6.2.3.3.3.3.3.3.6.6.6.6.7.tXtXtXpXpXgXgXhXzXzXxXxXxXxXxXxXxXxXvXvXvXvXvXvXvXvXvXvXbXMXMXMXNXNXMXMXMXbXMXvXvXxXvXMXmXxXgX8.6.5.5.2.2.<.<.<.<.2.2.5.5.5.5.<.5.5.6.8.fXhXxXjXkXfXfXfX8.5.$.$.#.#.#.#.#.#.#.#.#.#.#.#.#.#.<.2.2.5.2.<.<.2.tXxXbXvXvXvXvXvXvXvXvXvXvXMXMXbXbXbXbXbXbXvXbXbXbXbXMXNXNXDXDXNXNXNXNXNXDXNXNXNXbXbXbXMXbXbXnXnXxXxXzXxXzXzXxXzXzXzXzXdXdXaXaXaXaXdXzXzXzXaXaXaXhXzXxXxXzXhXgXhXxXvXvXbXMXbXvXvXxXgXpXtXaXgXzXxXvXxXxXgXtXrX6.6.6.6.7.rXrX7.7.7.7.rXrXtXtXtXtXtXpXpXpXpXtXrX7.6.7.7.rXrX7.7.rXtXrX6.aXbXvXbXMXDXDXFXzX{ { { p i a +.6.pXpXtXtXtXtX2.@.+.O.O.O.O.O.+.+.+.+.+.+.+.@.@.,.2.2.2.6.rX6.rX3.rXrXrXtXyXaXgXzXnXbXDXFXJXJXJXJXDXDXDXbXbXnXnXxXxXxXxXxXnXnXnXnXbXMXDXDXDXDXDXDXDXDXDXDXGXnXnXnXcXnXnXvXxX3.{ { {  . . .6.gXhXzXzXgXaXaXaXaXaXaXaXaXaXtXrX2.<.1.1.1.,.<.2.6.7.7.8.8.8.8.tXtXtXtXtXtXtXtXtXtXtXpXpXpXsXsXaXaXgXgXgXgXhXzXhXhXaXaXsXsXyXyXyXyXyXrX",
"N h f f f N h N u 9 u u u u u u u J F F V V F H $.%.:.:.0.>.>.:.:.:.%.%./ / / / ~ ~ / / G G ~ ~ ~ ~ / %.%.:.:.%.:.:.%.%.%.%.%.:.:.:.>.>.9.6.6.5.6.6.2.2.6.3.6.2.6.2.2.2.2.2.2.2.2.2.6.6.7.7.7.7.7.6.6.6.5.5.2.<.#.#.#.#.<.<.<.<.#.#.2.2.5.5.5.5.5.6.6.6.6.6.6.6.8.8.8.8.pXpXtX8.8.kXmXmXjX8.5.0.6.tXfXgXgXgXgXgXgXgXfXgXfXpXpXpXpXfXgXgXjXxXjXVXVXjXkX X#.5.kXjXfX8.5.8.5.#.#.5.6.6.2.2.2.<.<.,.,.,.#.O.O.O.O.$.O.+.+.O.+.+.+.$.@.#.<.<.2.6.6.7.tXpXgXjXxXvXbXNXDXJXJXJXJXJXJXJXJXFXFXFXDXDXDXDXNXNXNXDXJXJXJXJXDXDXDXDXFXFXDXDXDXDXDXFXJXJXJXJXJXFXFXFXLXLXLXLXLXJXBXvXMXJXLXLXLXLXJXLXLXLXLXLXHXLXLXLXLXLXLXPXJXzXhXzXzXxXxXxXxXxXvXbXbXbXbXbXbXMXNXNXMXMXMXMXMXbXxXxXxXxXxXpXpXsXaXtXrX7.7.aXDXDXDXDXDXDXNXbXtX<.2.7.hXbXFXHXLXLXLXPXLXLXzX@.+.+. . .O.+.+.@.<.6.6.6.7.7.6.6.3.2.2.,.<.rXsXxXbXDXDXDXDXDXDXDXDXHXKXPXKXHXHXHXHXFXDXDXDXDXDXDXDXDXDXDXDXDXJXJXJXJXJXJXJXJXJXHXHXHXJXJXDXDXnXnXnXcXnXnXaX{ p p { { { <.JXLXLXJXDXMXgXrXrXtXaXzXzXhXgXaXtX2.<.6.tXtXgXxXMXBXBXBXBXBXBXBXmXVXmXVXVXVXjXjXjXjXjXjXVXVXjXjXjXjXjXxXBXFXFXDXDXDXNXvXkXkX X X8.8. XiX",
"L L L K C C C C C l l x l x l z v P Y Y T T Y U U P n n n n P Y Y Y R R q.q.q.q.r.q.T r.r.r.^ ^ r.r.r.r.r.r.r.r.r.r.p.p.p.p.r.p.f.W.[..X4XlX X9.5.6.6.6.3.6.2.2.2.6.2.2.2.2.2.5.3.7.fXjXvXMXMXMXMXMXMXMXmXvXxXjXgXgXfXfXfXfXfXfXgXgXhXhXhXhXgXgXgXgXgXgXhXhXhXhXjXxXvXvXvXxXvXmXmXmXVXfX%./ / _ %.>.kXlXkXkX5X X9.9.9.9.9.9. XlXmXBXmXmXBXVXlXlXlXlXkX X9. XkXlXlX X>.0.:.$.#.8.gXxXvXnXzXzXaXaXaXgXfX9.>.:.:.%.$.~ ~ $.$.$.$.$.$.$.:.:.:.0.9. X XfXkXlXjXVXVXmXMXBXFXFXFXFXFXBXBXmXjXkXkXkXkX0.O.$.O.@.<.5.jXVXjXjXjXjXjXlXxXxXmXmXxXVXlXlXkXkXkX X X X(.9.9.>.(.(.(.(. X5X5X X X(.>.(.(. XkXVXmXBXBXBXBXBXmXmXjX XjXBXBXZXUXBXBXBXBXBXBXBXBXBXBXBXBXBXBXBXBXBXBXBXBXBXVXVXVXkX8.5.2.6.7.7.7.rXhXxXxXzXhXzXxXxXMXNXFXFXFXJXJXLXLXFXFXMXjXgX6.5.6.8.6.5.#.#.+.+.,.6.6.6.6.6.6.<.,.,.<.2.6.rXzXHXLXLXLXLXHXDXDXDXHXHXPXPXPXPXLXHXJXNXbXbXbXbXbXMXMXNXNXNXFXJXHXLXLXHXHXLXLXPXLXBXJXLXJXJXJXJXJXJXDXbXxXxX2.p y y p a { 2.mXBXCXCXlXlX X:.>.>. X X9.:.:.:.%.~ ~ $.%.%.%.%.;.:.;.;.;.>.>.;.;.;.;.;.;.;.;.;.;.Y.Y.Y.;.;.;.;.;.;.;.;.(. XVXVXlXlXlXlX4XCXAXAXAXAXAXAX",
"r.r.^ Y U I I I Y Y Y E Y R p.k.l.!.G.S.S.S.G.N.N.N.N.N.N.N.N.N.M.M.c.d.u.u.t.u.u.t.t.y.t.t.t.t.t.r.t.t.t.t.p.p.t.p.s.s.u.s.j.s.u.!.,X3X6X6X0X5X9.5.6.3.2.2.#.@.@.2.6.2.<.2.5.8.8.kXlXkXkX5X5X X X5X5X5X5X5X X X5XkXkXkXkXkXlXlXlXlXlXlXlXkXkXkXkXlXlXlXlXlXlXlXlXCXlXlXlXlXlX4X4X4X.X/.W.W.W.!.W.!.[.[.).).[.).).^.W.E.E.E.^.4XCXCXZXZXZXCXVX4X.X/.(.Y.>.>.;.;.;.&.&.&.D H  X| i { ,.sXzXzXxXzXfX8.(.(.(.;.;.&.%.%./ / / %./ / _ &.&.;.;.-.-.;.;.(.(.(.(.(.(.(.(. X X X XkXVXVXVX(.>.(.(.(.;./ H Z Z V u V :.(.(.(.(.(.(.(.(.(.(.(.>.;.;.;.;.;.-.-.-.-.*.-.-.-.;.-.&.-.&.' ' ' ' &.' ' _ _ _ ' ;.>.(.(.(.(.(.(.(.(.(..XlXlXlXlXlX4X4X4X5X5X5X5X5X X X X X X(.(. X X X X.X/.(./.;.9 0 y a #.6.7.8.gXxXMXjXlXVXVXVXVXVXmXBXBXMXmXxXfX8.iXkXjXVXmXmXmXVXBXmXVXjXfXfXfXiXfXiX8.8.8.9.8. XfXkXjXmXLXLXLXLXLXLXNXFXLXLXLXLXLXLXJXBXmXlXkX9.5.0.:.$.$.#.$.#.$.#.0.5.5.fXxXmXxXkXfX0.$.$.%.:.:.$.$.0. XxXNXbXaX#.i y y i a a #.lXCXCX0X0X.X[.^.W.W.W.g.p.g.g.g.R.E.^.^.).).).).W.E.k.E.W.).).[.[.[.[.[.[.[.[.[._._._.!.!.!.l.l.j.f.k.g.W.g.' I P Y T q.q.t.j.,X0XeXeXeX",
"l.l.p.r.r.q.R R r.t.t.u.j.N._.'.'.'.'.'.oXoXoXoXoXoX+XoXoXoXoXoXoX'.S.N.b.c.u.u.u.u.u.u.y.y.t.t.t.u.u.s.c.N.N.N.N.b.m.c.c.u.p.p.r.u.+X<X:X7X6X0X.X X9.5.9.#.a a { 2.6.<.O.#.>. X X5X4X/.W.k.p.p.p.p.r.r.p.p.p.p.p.r.r.h.h.R.W.W.W.!.).).[.[.[.[.[.[.[.[.[.{.{.{.{.{.{.{.].].].].].`.+X+X+X].+X+X+X+XoX+X+X].].].'.].].].'.'.}.0XAXAXAXAXZXAXAXCX0XW.p.h.^ ^ ^ ^ ^ p.h.^ z Z CX(.F +.@.3.sXdXzXpX9.>.Y.Y.;.-.&.&._ / W G G W / / ` _ *.*.-.-.' ' ' ' *.-.*.' -.U.-.-.-.U.U.U.(.(.Y.Y.Y.Y.U.U.-.' _ W G D D D H / ' ' ' ' *.-.;.Y.Y.Y.Y.Y.Y.Y.Y.-.-.-.-.-.-.-.-.-.-.-.-.-.-.-.-.-.*.*.*.*.*.*.' ' ' ' ' ' *.*.-.-.-.-.-.-.&.&.&.&.*.*.*.-.-.-.-.-.-.-.-.-.-.-.-.-.-.-.-.U.U.R.^.^.U.9 2 4 2 s <.6.hXLXLXLXlX X5X X X X(.(. X(.>.:.:.$.$.:.:.:.:.%.%.%.%.%.:.>.VXZXZXSXSXSXSXSXSXZXZXCXCXVX4XlXZXSXSXLXLXSXZXZXVX>.0.9.9.>.0.:.%.%.H G D B h 5 1 1 1 1 1 3 7 9 9 7 9 V u 5 5 5 6 h h h V Z B V V Z $.9.kXgX2.i w w i i i $.(..X6X,X].].'.`.'.'.].].*X,X,X,X,X7X6X0XqXqXqXwXqXqXeXeXeXeXeXeXeXeXwX0X6X6X6X6X6X6X6X7X7X<X<X*X]._.N.j.j.!.f.x r.M.n.M.b.N.N.N.S.*X,X,X",
"n.n.l.s.p.p.t.p.u.j.M.!.].`.`.`.`.'.'.'.'.oXoXoXoXXXXXXXoXoXoXoX`.D.V.V.V.V.N.b.c.c.c.A.d.j.c.c.c.c.N.G._._.V.V.V.V.V.N.c.u.r.r.r.r.N.<X:X6X6X6X0X.X X(.9.#.s a | <.6.<.a $.9.5X4XlX.X).M.M.l.l.l.j.d.d.s.s.p.p.p.r.r.r.t.s.d.A.b.m.V.V.V.V.C.C.`.`.`.`.XXXXXXXXoXoXoXoX`.`.`.`.`.`.`.`.`.`.`.`.oXoXoXoXoX'.'.'.`.`.`.`.`.`.].}.0X0X0X0X0X0X}.[.l.p.p.r.^ ^ ^ ^ ^ r.p.r.v Z lX5X9.gXhXjXhXpX#.0. X/.(.&._ _ _ ` W G G G G G / / _ &.-.-.-.-.-.*.*.&.' -.U.U.U.U.U.Y.Y.Y.T.Y.Y.Y.U.Y.U.U.U.U.U.-.-.&._ / G G / _ _ _ _ ' &.-.;.Y.Y.Y.Y.Y.-.-.-.*.*.*.*.*.*.*.*.&.&.&.&.&.*.*.&.&.' ' &.&.*.*.*.&.&.&.&.' ' ' ' ' ' ' ' &.&.&.-.-.;.;.-.-.-.-.-.-.;.;.-.-.-.-.-.-.-.-.U.Y.U.T.T././.C 1 3 1 y ,.6.jXLXZXCX;./ ;..X4X|.|.[.[.[.|.|.T.` ' T.T.' W H H D S D C C .XSXSXSXSXSXSXSXSXAX4X/./.T.T.T./..X(.(.;.(.>.>.>.~ J Z F H S S G / _ _ W W D B B V B D G / / _ %.&.&.&.%.&.-.;.;.Y.Y.&._ / G H Z H :.9.>. X9.i w : y i i J ~ E.0X0XqX0X&XoX'.'.*X+Xc.c.N._.S.'.*X,X<X7X7X6X8X8XqXqXqXwXwXeXeXeXwX<X<X<X<X<X<X6X6X6X6XqX8X8X8X8X6X<XoXB.p.g s.oX`.`._.`._.S.S.D.D.D.",
"N.N.n.j.j.d.u.j.b.S.`.`.`.`.`.XX`.`.`.'.'.'.oXoXoXXXoXXXoXoXoXoXXXD.V.V.V.V.V.V.V.V.V.V.V.V._._.S.S.S.S.S.S.S.V.V.N.b.c.c.i.q.r.r.r.c.<X:X6X<X<X<X,X}.[.(.$.s s a <.5.#.s $. XlXlXlX|._.M.n.j.j.k.f.s.s.s.u.t.t.t.r.q.q.t.u.d.c.c.b.V.V.S.S.S.S.S.D.D.D.'.'.'.'.XXXXXXXXXXXXXXXX`.`.`.`.`.`.`.XXXXXXXXXX`.`.D.D.XXXXK.D.`.`.`.`.'.].].]._.j.u.t.t.t.t.r.^ ^ R R R r.p.p.Y z lX5X$.fXkX X#.y # 9 (.-.[ / _ ` / / / G G G G G / / ' -.-.U.-.-.-.*.*.' ' ' ' ' U.U.U.Y.Y.Y.T.Y.T.T.Y.Y.U.U.Y.U.U.Y.U.-.-.&.&.&.&.&.&.&.&.-.;.Y.Y.-.&._ _ _ ` _ ` _ ' &.-.&.*.*.*.&.*.*.*.*.*.*.&.&.' ' ' ' &.&.&.&.&.&.&.&.' &.&.&.&.&.&.&.&.&.-.-.-.-.-.-.-.-.-.-.-.-.-.-.-.-.-.-.-.-.-.-.Y.Y.R.^.^.C 8 8 1 w @.6.jXBXZX XC Q L ^.0X0X0X7X0X}.|.|.[.R./..X4X4XT.L W I W W ` ' T.4XCXAXSXAXAXCX4X[.R.R.R.E.E.E.T.T.T.U.' ` / / W G H H G G G G W &.;.-.-.-.-.&.-.;.Y.Y.(.T.T.T.T./././././.(.(.(.(.(.Y.Y.' / ~ H G %.:.>. X#.y 2 : w y y u B E.0XwXqX6XF.S.D.S.S.S.t.T U U m m m m e.q.q.t.i.S.S.S.D.'.*X<X7X,X`.V.V.V.V.V._._._._.`.`.`.`.F.oXoX*X*X,Xp.8 u.F.C.D.S.S.S.D.D.D.D.D.",
"G.M.M.M.c.N.N.S.`.`.`.D.D.D.`.`.`.`.`.`.'.'.oXoXoXoXoXoXoXoXoXoXXXD.V.V.b.N.V.V.V.V.V.V.V.V.V.V.S.V._.S.V.V.S.V.S.N.c.c.c.i.r.r.r.r.c.,X<X6X6X7X,X*X{.[.' ~ i s s $.2.#.s $. XlXCX0X|.!.M.l.l.l.l.j.s.s.p.p.t.t.r.r.q.r.r.p.d.c.n.N.V.V.C.C.C.`.D.D.D.D.XXXXXXXXoXoXoXXXXXXXXXXXXXXX`.`.`.`.`.`.`.`.D.`.`.XX`.`.`.D.D.D.D.D.`.`._._._._.M.d.p.t.r.r.r.r.r.R R R T r.p.s.r.z 4XkXs 5.8.s e 2 $ 9 &._ G W W W ` &.%.W G G G G W / ' -.' -.-.-.*.*.' ' ' *.' ' ' U.Y.T.Y.T.T.T.R.U.T.T.R.U.U.U.U.U.U.U.U.-.-.-.-.-.;.;.;.;.-.&.' ` / G G / / / / _ ' &.&.&.*.*.&.&.&.*.*.*.&.&.*.*.*.' &.&.&.&.&.&.&.&.&.&.&.&.&.&.&.&.&.-.-.-.-.-.-.-.-.-.-.-.-.-.-.-.-.-.-.-.-.-.-.-.-.-.-.-.-.Y.Y.C B V 1 w +.6.xXZXZX:.G G H [ /./.E.h.' ' ' ' ` _ _ _ ' ' ' ` ' ' ` ' ' ' ` ` ' /.4X4X.X/.R.R.T.T.T.T.T.T.T.T.Y.-._ _ _ _ _ / / _ _ %.%.%.&.&.&.&.-.&.-.-.*.*.*.*.-.U.U.Y.Y.Y.Y.Y.T.Y.Y.Y.U.U.;.-.-.&./ G G H H %.:.>.$.y 2 : w y y u B ^.0XqXqXqXoX`.D.S.S._._._._._._._.N.N.M.n.d.s.i.N.n.u.s.d.d.d.A.c.c.c.c.c.c.c.n.n.M.M.n.c.n.j.j.j.j.j.s.p.c x M.D.V.S.S.S.D.C.S.S.S.S.",
"N.N.N.N.S.S._.`.`.`.`.`.`.`.`.`.`.`.`.`.oXoXoXoXoXoXoXoXXXoXoXoXoX`.D.V.N.N.N.N.b.N.N.N.V.N.N.N.N.V.N.N.V.V.V.V.S.N.N.N.N.d.t.r.r.r.n.*X6X6X<X<X,X+X{.^.W F s i i +.<.@.s $. XlXCX0X[.!.M.M.l.l.d.s.s.t.p.p.p.p.r.r.R r.r.s.l.n.m.N.V.V.V.C.`.C.D.D.D.XXXXXXXXXXXXXXXXXXXXXXXX`.`.`.XX`.`.`.`.`.`.`.`.D.`.`.`.`.`.`.`.`.`.`.D.S.S.S.V.N.N.n.l.s.s.t.t.p.r.^ R R r.p.j.d.f.v .XlXy $.:.J V 3 @ 9 &._ G G G W _ -.&./ G G ~ H / / ' -.-.*.' ' ' ' *.*.-.-.U.U.U.U.U.R.R.R.Y.T.T.T.Y.Y.Y.Y.Y.Y.U.U.U.U.U.U.U.-.-.-.-.-.*.' ' ' ' ' %.&.&.&.&.' ' &.&.&.&.&.*.*.*.*.*.*.*.*.*.*.*.*.&.&.&.&.&.' ' ' &.&.&.&.&.*.-.-.-.-.-.-.-.-.-.-.-.-.-.-.-.-.-.-.-.-.-.-.-.-.-.-.-.-.-.-.U.T.T.^./.l W (.1 2 { 7.xXZXZX&.D G H ' &.&.&.' &.&.&.&.&.&.&.&.&.&.&.&.*.*.*.*.*.' ' ' ' ` ` U.T.T.T.R.R.R.h.R.R.U.R.^./.4X/.' -.*.-.-.-.-.-.-.-.-.-.-.-.-.-.-.-.-.*.*.-.-.*.*.*.*.-.-.-.-.-.-.-.-.-.-.*.' ' ' / H H H H :.:.:.F 3 2 ; y y y u B ).wXwXqXqXoXD.S.S.D.S.S.S.S.S.S._.`.`._._._._.S.S.n.q.q.u.M.!.N.N.N.N.N.N.N.N.c.c.c.c.c.j.j.j.j.d.u.u.t.m r.l.V.V.S.S.S.S.S.V.V.S.S.S.",
"N.S._._.`.`._.S.`.`.`.`.`.`.`.`.`.`.`.`.'.'.oXoX`.`.`.`.`.XXoXoXoX+X+XoX'.`.S.V.V.N.N.N.N.N.M.c.c.m.N.N.N.V.V.N.N.N.N.N.N.j.t.r.r.t.m.*X7X6X6X<X,X`._.W.H s u i i O.<.+.i $. XlX0X3X!.M.M.M.n.j.s.s.s.t.t.p.t.t.t.r.r.t.p.j.l.n.n.N.N.V.V.V.C.D.D.D.`.`.`.`.XXXXXXXXXX`.XXXXXXXXXXXXXXXX`.`.`.`.`.`.`.`.`.`.`.`.`.`.`.`.`.`.`.D.D.C.V.V.b.M.M.M.l.s.s.s.t.^ ^ q.r.s.l.l.l.v .XlX0 $.:.~ V 2 @ u &./ H G G W ' -.;.&./ G G / / _ ' -.-.*.' ' -.-.-.U.Y.Y.R.T.T.T.Y.Y.R.R.Y.Y.Y.Y.Y.Y.Y.Y.U.U.U.U.U.U.U.U.-.-.-.-.-.-.-.-.U.Y.Y.Y.;.;.;.Y.Y.-.-.&.&.&.&.&.*.*.&.*.&.*.*.*.*.*.&.&.&.&.&.&.&.&.&.&.&.&.&.&.&.*.-.-.-.-.-.-.-.-.-.-.-.-.-.-.-.-.-.-.-.-.-.-.-.-.-.-.-.-.U.R.E.^.[.{..XI 8 /.5 ; { 6.xXZXZX%.D H H &.-.-.-.&.&.&.&.&.&.&.&.&.&.&.&.&.*.*.*.*.*.' ' ' ' ' ' ' ' ' E..X.X[./.E.^./..XCXCXCX/.*.-.*.-.-.-.-.-.-.*.-.-.-.-.-.-.*.*.*.*.*.&.-.-.-.-.-.-.-.-.*.*.-.-.-.-.-.-.-.&.&._ G D H H H $.F J y 2 ; w y y u B ).qXwXqXqXoXD.D.S.S.S.S.S.S.S._._._._.V.V.V.V.S.S._.i.i.c.V._._._._._.`.`.`._.S.S.N.N.M.M.N.N.M.M.N.N.N.S._._.S.S.S.V.V.V.V.V.S.S.V.V.",
"D.`.`.`.`.`.`.`.`.`.`.`.`.`.`.`.`.`.`.`.`.`.`.`.`.`.`.`.`.XXoXoXoXoXOX@X@X*X@XoXoX'.`.S._.S.G.N.c.c.i.i.i.i.i.d.c.c.N.N.M.c.p.r.r.t.V.*X7X6X<X<X].N.!.W.H s u y i O.#.+.i $.(.4X0X}.!.M.M.M.n.n.n.l.l.j.l.l.l.l.l.j.j.j.j.j.c.c.c.b.b.b.m.b.Z.V.C.C.D.`.`.`.`.`.XX`.`.`.`.`.XXXXXXXXXXXXXXXXXX`.`.`.`.`.`.`.`.`.`.`.`.`.`.`.`.`.`.~.~.~.N.M.n.f.k.k.f.j.t.r.^ r.t.f.l.n.M.n .XlX3 H :.~ Z 3 @ u _ W G G G / &.;.-.-._ W G W / _ ' -.' *.-.-.U.U.U.Y.Y.Y.R.T.T.T.Y.Y.Y.Y.Y.Y.R.Y.Y.Y.Y.Y.U.U.T.T.U.U.U.U.U.U.U.U.U.U.Y.Y.Y.Y.U.U.Y.Y.U.U.U.-.-.' &.&.&.&.*.*.&.*.*.*.*.*.*.*.*.*.-.-.-.*.*.&.&.&.&.&.&.&.*.-.-.-.-.-.-.-.-.-.-.-.-.-.-.-.-.-.-.-.-.-.-.-.-.-.-.-.-.U.E.^.).[.[.{.,X-., ;.9 ; p 6.mXLXZX_ D H G &.-.&.&.&.&.&.&.&.&.&.-.-.&.&.&.&.&.&.&.*.*.*.' ' ' ' ' ' ' ' U./.[..X/..X.X4X4X4X.XU.' -.-.-.-.-.-.-.-.-.-.-.-.-.-.-.-.-.*.*.*.*.&.-.-.-.*.-.*.*.-.*.*.-.-.-.-.-.-.-.&.&.&.%.G H H S H $.$.3 ; ; 2 y y u B [.qXqXqXqXoXD.D.S.S.S.S.S.S.S.S.S.S.S.S.S.S.V.S.V.S._._._.S.S.D.D.D.D.D.D.S.S.D.`.`.`.`.`.`.`.`.`.`.`.D.D.D.D.`.`.`.`.D.D.D.D.D.D.D.D.",
"D.D.`.`.D.D.D.`.`.`.`.`.`.`.`.`.`.`.`.`.`.`.`.`.`.`.`.`.XXoXoXoXOXOXOXOXOXOXOXOXOXOX@X@XoXoXoX`._.N.M.n.c.j.j.c.b.N.N.N.c.u.r.r.r.s._.-X6X6X<X*XV.c._.W.C s y y i O.#.+.y $.(.4X0X}.!.M.M.M.M.M.n.n.n.n.M.M.N.N.!.N.N.N.!.N.N.N.N.N.N.V.N.N.b.b.b.b.b.b.b.b.V.S.`.`.`.`.`.`.V.V.N.c.c.c.c.b.N.V.V.`.`.`.`.`.`.`.`.`.`.`.S.S.V.V.N.n.j.s.s.p.r.R r.f.l.d.t.r.r.r.p.j.n.n.M.n /.lX3 S >.~ Z 3 $ 9 _ W G G G _ *.-.U.-.-.&./ / W _ ' ' ' -.U.U.Y.Y.Y.Y.Y.U.R.T.T.T.Y.U.U.Y.Y.Y.Y.R.Y.Y.Y.Y.T.T.U.U.Y.Y.Y.U.Y.T.T.T.U.Y.Y.T.U.U.U.U.U.U.U.U.U.U.-.' &.&.&.&.*.*.*.*.-.-.-.-.*.-.-.-.-.-.-.-.-.-.-.-.*.-.-.-.-.-.-.-.-.-.-.-.-.-.-.-.-.-.-.-.-.-.-.-.-.-.-.-.-.-.-.-.Y.E.^.).).[.{.{.,X/., ) 9 ; i 6.mXLXZX) D H H &.;.&.;.;.&.&.&.&.-.-.-.-.&.&.&.&.&.&.*.*.*.*.&.' ' ' ' ' ' ' ' ' ' ' ' *.-.-.-.' ' *.*.*.-.-.*.*.-.-.-.-.*.*.*.-.-.-.-.-.*.*.*.*.-.-.*.*.*.*.*.*.-.*.*.-.-.*.*.*.*.' ' ' &.&.%.G H H $.:.:.2 @ ; w y y y B [.qXqXqX0X'.D.D.D.S.S.S.S.S.S.S.S._.S.S.S.S.V.V.S.S.S.V.V.D.D.D.D.D.D.D.D.D.D.D.D.`.`.`.`.D.D.D.D.D.D.`.`.D.`.D.`.`.`.`.`.`.`.D.D.D.D.",
"`.`.`.`.D.D.D.D.D.D.D.D.`.D.`.`.`.`.`.`.`.`.`.`.`.`.`.`.K.XXoX@X@X@XOXOXOXoX@X@XOXOXOXOXoXoXoX`.D._.!.V.V.V.V._.G.S.V.b.c.d.t.p.t.j.'.-X:X<X,X`.c.A._.k.B u y y s O.#.O.y $.(.0X0X}.!.M.M.M.M.!.M.M.M.M.N.N.N.N.N.N.V.V.V.V.V.V.S.V.C.~.`._.S.V.V.N.b.b.b.b.V.V._.`.`._.V.V.N.b.b.c.c.c.A.A.c.c.A.c.c.c.c.c.c.c.c.c.c.c.b.V.V.V.n.s.^ ^ Y P L n n p.l.j.t.r.^ ^ p.j.c.M.!.P /.lX2 J >.~ Z 7 ; 9 _ W H H W ' *.U.U.U.-.-.*.' _ ' *.-.Y.Y.Y.Y.Y.Y.Y.Y.R.Y.Y.Y.Y.R.T.Y.Y.T.Y.Y.Y.Y.T.T.T.T.T.R.Y.Y.Y.Y.Y.Y.T.T.T.T.U.U.U.U.U.U.U.U.U.U.U.U.U.U.-.-.*.*.*.*.-.-.-.-.-.-.-.-.-.-.-.-.-.-.-.-.-.-.-.-.-.-.-.-.-.-.-.-.-.-.-.-.-.-.-.-.-.-.-.-.-.-.-.-.-.-.-.-.-.*.I.R.R.E.^.).[.[.{.{.}.|.8 u 3 ; i 6.mXZXBX) D H H &.*.*.&.&.&.&.&.&.&.&.&.&.&.&.&.&.&.&.&.-.*.*.*.*.&.&.&.' &.&.*.*.-.-.-.*.*.*.*.-.-.-.-.-.*.*.*.*.*.*.*.*.*.*.*.*.*.*.*.*.-.-.-.-.*.*.*.*.*.*.-.-.*.-.*.*.-.-.-.-.*.*.&.' &.&.%./ H D H :.$.2 ; ; w y 2 w B [.qXqXqXqX'.`.S.S.S.S.S.S.S.S.S.V.V._.S.S.S.S._.S.V.S.S.S.S.D.S.S.S.S.`.`.`.`.`.D.S.`.`.`.`.`.`.`.`.`.`.`.`.`.D.D.D.D.`.`.`.`.D.D.D.D.",
"`.`.`.`.`.`.`.`.`.D.D.`.`.`.`.`.`.`.`.`.`.`.`.`.`.`.`.`.`.S.V.`.@X@XOXOXOXOXOXOXoXOXOXoXOXoXoXXXD._._.S.V.S.S.S.S.N.b.c.M.n.d.p.t.N.+X<X<X<X*XV.j.d.!.k.B u y y s O.O.O.y F (.0X0X}._.M.!.M.M.!.M.M.M.M.N.N.N.N.N.N.V.V.V.V.V.~.S.S.C.~.V._.`.`._.`._.`.`.`.`.`.`.`.`.`.`.`.`.`.`.`.`.`.`.`.`.`.`._.V.V.N.m.c.c.i.i.i.i.b.V.S.V.N.d.q.m P P n P T s.n.j.s.q.r.^ r.j.c.M.M.P /.4X2 J >.~ Z 7 ; 9 _ W H D W ' *.U.U.U.U.U.-.Y.-.-.Y.Y.Y.Y.Y.Y.Y.Y.Y.Y.Y.R.Y.Y.Y.Y.Y.Y.Y.Y.Y.Y.Y.Y.T.T.T.T.Y.Y.Y.R.Y.Y.Y.Y.Y.T.T.R.U.U.U.U.U.U.U.U.U.U.U.U.U.U.-.-.-.-.-.-.-.-.-.-.-.-.-.-.-.-.-.-.-.-.-.-.-.-.-.-.-.-.-.-.-.-.-.-.-.-.-.-.-.-.-.-.-.-.-.-.-.-.-.-.-.-.-.-.U.U.R.E.E.^.).[.[.[.{.}.}.[.6 $ 2 ; i 6.mXZXVX%.D H H &.*.*.&.&.&.&.-.&.&.&.&.&.-.-.&.&.&.&.-.-.*.*.*.*.*.*.*.*.*.*.*.*.-.-.-.-.*.*.*.*.-.-.-.-.*.*.*.*.*.*.*.*.*.*.*.*.*.*.*.*.-.-.-.-.*.*.*.*.*.-.-.-.*.*.*.*.*.*.*.*.*.&.&.' ' &.%.W H D H $.F = @ ; w y 2 w B [.qXqXwXqX`.`.S.S.S.S.S.S.S.V._.N.u.t.t.u.u.d.N.S.V.S.S.S.S.D.S.S.S.S.D.`.`.`.`.D.S.`.`.`.`.`.`.`.`.`.`.`.`.`.D.D.D.D.`.`.`.`.D.D.D.D.",
"_.`.`.`.`.`.`.`.`._.`.`.`.S.S.S.D.D.D.D.S.S.S.S.S.S.S.S._._.b.c.b._.].*X*X+XoXoXoXoXoXoXoXoXoXoX'.].]._.S.S.S.S.V.c.i.d.j.d.u.y.j.'.*X<X<X,X`.m.j.d.!.l.j u y y s O.O.O.2 J (.4X0X}.!.M.N.M.M.M.N.N.N.N.N.N.N.N.N.V.V.V.V.V.V.V.S.S.~.~.V.V._.`.`.`.`.`.`.`.`.`.`.`.`.`.`.`.`.`.`.`.`.`.`.`.`.`.`.`.`.`.`.`.`.`._.S._.`.D.D.S.V.V.N.n.s.p.p.p.k.l.n.c.j.j.r.T ^ q.d.m.M.!.K T.4X2 V ;.) Z 9 ; 9 _ W H D / ' -.U.U.U.U.U.U.Y.U.-.U.Y.T.T.Y.Y.Y.R.R.Y.Y.Y.Y.Y.Y.Y.Y.T.T.Y.Y.Y.Y.Y.U.U.Y.U.U.Y.U.U.U.U.U.U.Y.Y.R.T.U.U.U.U.U.U.U.U.U.U.U.U.U.U.-.-.-.-.-.-.-.-.-.-.-.-.-.-.*.-.*.-.-.-.-.-.-.-.-.-.-.-.-.-.-.-.-.-.-.-.-.-.-.-.-.-.-.-.-.-.-.-.-.-.-.-.-.-.U.U.T.E.E.^.).[.{.{.{.}.,X[.h @ 2 ; y 6.mXZXBX&.H H H &.*.*.&.&.&.-.-.-.&.&.-.-.-.-.-.&.&.&.-.-.*.*.-.-.*.*.*.*.-.*.*.*.*.*.*.*.*.*.*.*.-.-.-.-.*.*.*.*.*.*.*.*.*.*.*.*.*.*.*.*.*.*.*.*.*.*.*.*.-.-.-.-.*.-.*.*.-.*.*.' &.&.' ' ' &.%.G S D S F u @ ; - w y 2 3 B [.qXqXwX6X`.D.S.S.S.V.S.V.V.V.~._.!.N.M.n.n.n.l.M.N.N.G.S.S.S.S.S.S.S.D.D.`.`.S.D.D.S.`.`.`.`.`.`.`.`.`.`.`.`.D.D.D.D.`.`.`.`.D.D.D.D.",
"N.N.m.b.B.B.B.B.B.c.c.b.b.V._._.`.`.`.`.`._._._.S.S.S.S.~.~.~.m.d.s.t.s.l.N._.'.oXoXoXoXK.K.oXoX_.j.p.j.S.S.S.S.~.d.u.t.t.y.y.j._.+X,X<X<X,XN.c.l.d.!.l.j 0 y y y O.+.O.2 u ;..X3X}.!.N.N.M.M.M.N.N.N.N.N.N.N.N.N.V.V.V.V.V.V.V.V.V.V.C.V.V._._.~.~.`.`.`.`.`.`.`.`.`.`.`.`.`.`.`.`.`.`.`.`.`.`.`.`.`.`.`.`.`.`.`.`.`.`.D.D.D.D.C.V.V.N.N.M.M.c.j.c.c.j.M.s.r.r.s.d.N.N.!.v T.4X1 V (.%.Z u 2 7 _ H H H / ' ' U.U.-.-.U.U.U.-.U.Y.T.T.R.Y.Y.Y.R.Y.Y.Y.Y.T.Y.Y.Y.Y.T.T.U.Y.Y.Y.Y.Y.Y.Y.Y.Y.U.U.U.U.U.U.U.Y.Y.R.R.U.U.U.U.U.U.U.U.U.U.U.U.U.U.-.-.*.*.*.*.-.-.-.-.-.-.-.-.-.-.*.-.-.-.-.-.-.-.-.-.-.-.-.-.-.-.-.-.-.-.-.-.-.-.-.-.-.-.-.-.-.-.-.-.-.-.-.-.U.T.E.E.W.^.).[.{.{.{.}.{.[.B $ 2 ; y 6.mXZXBX;.H H H &.*.*.&.&.&.-.-.-.&.&.&.-.-.-.-.&.&.-.-.-.*.*.*.-.*.*.*.*.-.*.*.*.*.*.*.*.-.&.&.-.*.*.-.-.*.*.*.*.*.*.*.*.&.&.*.*.&.&.&.&.*.*.*.*.*.*.*.*.-.-.-.-.-.-.*.-.-.-.*.' &.&.' ' _ &._ G H S H Z 3 @ # - w y 2 3 Z [.qXqXwX6X`.S.S.S.V.V.V.V.V.V.V.V.V.V.V.V._.N.r.R r.p.N.S.S.S.S.S.S.S.S.D.D.`.S.D.D.S.`.`.`.`.`.`.`.`.`.`.`.`.D.D.D.D.D.`.`.`.D.D.D.D.",
"c.c.i.A.c.j.j.c.c.c.c.c.b.V.`.`._._.`.D.D.D.V.`.D.S.S.`._.~.~.N.s.^ L C z v P ^ s.c._.+X@X+X`.N.t.R U Y N.D.D.S._.i.u.p.u.u.n.`.+X*X,X<X>X+XN.n.j.s.!.l.h 3 y y u O.O.O.: u &..X3X}._.N.N.M.M.M.M.N.N.N.N.N.N.N.N.N.!.!.~.~.~.~.V.V.S.S.V.V.C.C.~.~.~.~.`.`.`.`.~.`.`.~.`.`.`.`._._._._._.`.`._.`.`.`.`.`.`.`.`.`.`.`.`.`.`.`.`.D.C.V.N.m.n.c.c.c.c.B.M.m.n.j.j.j.c.N.N.N.z Q.4X2 u Y.%.D u 2 9 W H D H _ ' -.U.U.-.U.U.U.U.U.U.Y.Y.U.U.U.U.U.U.Y.Y.R.T.T.Y.U.U.Y.R.R.R.T.T.T.T.Y.U.Y.Y.Y.U.U.R.U.U.U.U.U.U.U.U.U.U.U.U.U.U.U.U.U.U.U.U.U.U.-.*.-.-.-.-.-.-.-.-.-.-.-.-.-.-.-.-.-.-.-.-.-.-.-.-.-.-.-.-.-.-.-.-.-.-.-.-.-.-.-.-.-.-.-.-.-.-.-.-.-.-.U.U.U.T.E.E.^.).[.[.[.{.{.).).^.h - ; ; y 5.mXZXBX;.D D H &.&.&.&.&.&.&.&.&.-.&.&.&.&.&.&.&.*.*.*.*.*.*.-.*.*.*.*.*.*.*.*.*.*.-.-.*.*.*.*.*.*.*.*.*.*.*.*.*.*.*.*.*.*.*.*.*.&.&.&.-.*.*.*.*.*.-.-.-.-.*.*.Y.U.U.U.U.U.-.*.*.&.&.' ' ' ' _ ~ G S S Z 3 % # * w y 2 e Z [.qXqXqX6X`._.D.V.S.~.S.V.V.V.V.V.V.V.V.V.!.p.g x c c t._.V.V.S.V.V.S.S.S.S.D.D.D.D.D.`.`.`.S.S.S.D.D.`.`.`.`.`.`.`.`.D.D.D.D.D.D.D.`.",
"V.V.V.~.~.~.~.~.V.N.V.S.V.`.`._.D.D.D.`.S._.`._._.M.l.d.s.p.f.p.P x g x z n L P P P r.s.k.p.R U Y L C P !.D.D.`._.i.y.t.t.s._.].+X*X&X>X,X'.n.n.l.s.!.l.h 3 2 w u O.O.| : u &.}.,X}._.N.N.N.M.M.M.M.N.N.N.N.N.N.N.N.!.!.~.~.~.~.V.V.S.S.V.V.S.S.V.V.C.C.V.V.`.`.V.~.~.V.`.`._._._._.`.`._.`.`.`.`.`.`.`.`.`.`.`.`.`.`.`.`.`.`.`.`.`.V.V.N.N.M.M.c.c.M.N.N.n.j.j.j.c.N.N.N.z Y.4X2 u (.%.S u 2 5 G D D H _ ' -.U.U.' U.U.Y.Y.U.U.Y.Y.Y.Y.Y.Y.R.R.Y.Y.Y.R.Y.Y.U.U.Y.Y.R.R.Y.Y.Y.R.Y.Y.R.Y.U.Y.T.U.U.U.U.U.U.U.U.U.U.U.U.U.U.U.U.U.U.U.U.U.U.U.-.*.-.-.-.-.-.-.-.-.-.-.-.-.-.-.-.-.-.-.-.-.-.-.-.-.-.-.-.-.-.-.-.-.-.-.-.-.*.*.-.-.*.-.-.-.-.*.-.*.-.*.*.-.*.' *.U.Y.(.[.[.{.{.R.h.E.^.h ; ; ; y 5.mXZXVX:.H D H &.&.&.&.&.&.&.&.&.&.&.&.&.&.&.&.&.&.*.*.*.*.*.*.*.*.*.*.*.*.*.*.*.*.-.-.*.*.*.*.*.*.*.*.*.*.*.*.*.*.*.*.*.*.*.*.*.&.&.&.&.*.*.*.*.*.*.*.*.&.&.*.-.U.U.R.R.U.U.U.U.-.-.-.-.' -.Y._ G S S Z 3 $ # * w y 2 w D [.qXqXqX6X`._.`.S.V.V.V.V.V.N.V.V.V.V.V.N.N.T n P P v r.N.V.S.D.S.S.D.S.S.S.D.D.D.D.D.`.`.`.`.`.D.`.`.`.`.`.`.`.`.`.`.D.D.D.D.D.D.D.`.",
"S._._._._.S.S.S.`._._.`.`.`._.V.D.D._.~.~.n.r.n x k h f f f f f x L Y T ^ ^ E I I Y P L L L K L z l z p._.D.D.`._.c.e.q.q.r.t.n.'.*X&X&X*XS.d.l.s.s.!.k.h 3 2 2 s O.O.O.: y _ |.}.}.!.M.M.M.M.M.M.M.M.M.N.N.N.N.N.N.N.N.~.~.~.~.V.V.V.S.V.V.S.S.V.V.V.V.V.V.S.S.V.S._.V.S._.S.S._._._._._.`.`.`.`.`.`.`.`.`.`.`.`.`.`.`.`.`.`.`.`.`.~.V.N.N.m.n.c.n.N.N.N.M.c.j.j.c.N.N.M.c -.5X4 u (.%.H u 4 9 D C D H _ _ -.U.U.' U.U.Y.Y.-.-.Y.Y.Y.Y.Y.R.R.R.Y.Y.R.R.U.U.U.Y.Y.Y.Y.Y.U.U.U.U.Y.Y.R.Y.U.Y.Y.U.Y.Y.U.U.U.U.U.U.U.U.U.U.U.U.U.U.U.U.U.U.U.U.-.*.*.*.*.*.-.-.-.-.-.-.-.-.-.-.-.-.-.-.-.-.-.-.-.-.-.-.-.-.-.-.-.-.-.-.-.-.-.-.-.-.*.*.*.-.-.-.*.*.*.*.*.*.&.&.' ' *.h.W.[.[.E.' -.R.U.V $ ; = w 6.mXBXVX:.H H H &.&.&.&.&.&.&.&.&.&.&.&.&.&.&.&.&.&.*.*.*.*.*.*.*.*.*.*.*.*.*.*.*.&.*.*.&.*.*.*.*.*.*.*.*.*.*.*.&.&.&.&.*.*.*.&.&.&.&.&.&.&.&.&.&.&.&.*.*.&.&.*.*.U.U.T.R.U.U.U.U.U.U.U.U.U.E./.' G D D Z 3 $ # * w w 2 w D [.qXqXwX6XD.`.c.j._.V.N.V.N.N.V.V.V.V.N.V.n.T ^ ^ Y U r.!.S.S.S.S.S.D.S.S.S.S.D.S.D.D.`.`.`.`.`.`.`.`.S.S.S.D.`.`.`.`.D.D.D.D.D.D.`.`.",
"D.S.S._.D.D.D.D.`.D.D.D.S.S.S.V.V.!.l.p.E z c P T r.p.p.p.r.r.T t.p.s.u.t.r.R P P P v v z x x z z P k.N._.D.D.`._.G.t.q.r.r.r.t.N.].*X*X*Xc.t.p.t.p.n.k.h 3 2 2 u F O.O.: 3 / {.}.}.!.M.M.M.n.n.M.M.M.M.M.N.N.N.N.N.N.N.V.V.V.V.V.V.V.V.V.V.S.S.V.V.V.V.V.S.S.S.V.S._.S.V.S.S.S.V.V._.V._.`.`.`._._.`.`.`.`.`.`.`.`.`.`.`.`.`.`.`.`._.~.~.V.N.N.N.N.N.N.N.n.c.j.j.n.N.V.M.x *.5X2 u (.&.H u 2 9 G C D G _ _ -.U.U.' U.U.U.U.*.*.Y.Y.Y.Y.U.U.U.U.Y.Y.R.Y.U.U.Y.T.Y.Y.Y.Y.U.U.U.U.Y.Y.R.R.Y.U.U.Y.Y.Y.U.U.U.U.U.U.U.U.U.U.U.U.U.U.U.U.U.U.U.U.-.*.*.*.*.*.-.-.-.-.*.*.-.-.-.-.-.-.-.-.-.*.*.-.*.-.-.-.-.-.-.-.-.-.-.-.&.&.&.&.&.&.*.*.*.*.-.Y.*.*.*.*.*.-.*.-.-.' g.W.W.[.E.h.I.I.Y.-.9 $ ; = w 6.mXBXBX%.H H H &.&.&.&.&.&.&.&.&.&.&.&.&.&.&.&.&.&.*.*.*.*.&.*.*.*.*.*.*.*.*.*.*.&.*.*.&.*.*.*.*.*.*.*.*.*.*.*.*.&.&.&.&.*.&.&.&.&.&.&.&.&.&.&.&.&.&.&.&.&.&.&.*.U.U.U.U.U.U.U.U.U.U.U.U.R.^./.U._ W H Z 3 $ % * w w 2 w D {.qXqXwX7XD.`.j.m _.S.V.V.N.N.b.b.b.N.N.N.M.T ^ R U U r.N.S.S.S.V.V.S.S.S.S.S.S.S.D.S.`.`.`.D.S.S.S.S.S.S.S.S.`.`.`.`.D.D.D.D.D.D.`.`.",
"D.`.`.S.S.S.D.D.~.`._.S.V.V.V.V.N.j.p.Y v n p._.`.`.`.`._._.N.s.s.s.u.u.p.r.T T m q.r.t.t.p.s.f.j.N._.N.`.`.D.`.S._.b.t.y.y.r.t.d.N._.+X_.p.T t.t.s.!.k.h 3 3 3 i F O.O.: 3 I [.}.{.!.M.M.n.M.n.M.M.M.N.N.M.M.N.N.N.N.N.N.N.V.V.~.~.~.~.V.V.V.N.V.V.V.~.V.~.~._.~.~.~.~._.D.S.S._._.S.D.C.`.~.C.`.`.~.V.`.D.S.S._._.`.`.`.`.`.`.`.`.C.V.~.V.N.V.V.V.N.G.B.c.l.l.j.M.N.V._.c ;.4X1 u Y.%.H u 4 9 D Z D G _ ' *.-.-.' U.U.Y.Y.U.' U.Y.Y.R.Y.U.U.U.Y.Y.Y.Y.Y.Y.Y.Y.U.U.U.U.U.U.U.U.U.Y.U.U.U.U.U.U.U.U.U.U.U.U.U.U.U.U.U.U.U.U.U.U.U.U.U.U.U.U.*.*.*.*.*.-.*.*.-.-.*.*.-.-.-.-.-.-.-.-.-.*.*.-.-.-.*.*.-.-.-.-.-.-.&._ W W W W / / / _ ' *.U.U.-.&.*.*.-.-.' h.W.W.).[.[.W.*.*.*.I.U.&.5 < ; ; y 5.MXBXlXG H D H &.&.&.&.&.*.&.&.&.&.&.&.&.&.&.&.&.*.*.*.*.*.*.*.*.*.*.*.&.&.&.*.*.*.*.*.*.*.*.*.&.&.&.&.&.*.*.&.&.&.&.&.&.&.&.&.&.&.&.&.&.&.&.&.&.&.&.&.&.&.&.&.&.*.U.U.U.U.U.U.U.U.U.U.U.T.^./.R.-.-._ Z 7 # # - w y 2 u Z |.qXqXwX7XD.`.].q.y.M.M.!.!._.N.N.!.!.M.M.l.Y ^ ^ E E ^ !.V.V.V.V.S.S.S.S.S.D.D.S.S.S.D.D.S.S.D.D.D.D.D.`.`.`.D.D.D.D.D.D.S.S.D.`.`.`.",
"D.`.`.S.S.D.S.S.~.~.S.S.V.V.N.N.j.t.Y P U p.N.~.S.S.S.S._.S.N.s.s.s.s.s.d.s.d.l.c.N.N._._._._._.S.S.S.D.`.D.`.D.`.S.S.V.N.n.n.n.c.c.N._.j.T T s.t.p.n.k.h 3 3 3 i F O.O.: 3 D [.}.{._.M.M.M.n.n.M.M.n.n.N.M.n.M.N.N.N.N.N.N.!.!.N.N.N.N.V.V.V.V.~.V.~._._.M.M.j.p.r.^ ^ r.p.l.N.~._._.`._.`._.~.`.`._._._._._._._._._.`.`.`.`.`.`.`.S.V.V.V.V.V.S.S.S.S.B.c.j.j.c.N.S.V._.v (.CX1 u Y.%.H u 4 9 D B Z H _ ' *.-.-.*.U.Y.Y.Y.-.' U.Y.U.Y.Y.Y.U.Y.Y.Y.Y.Y.Y.Y.Y.Y.U.U.U.U.U.U.Y.U.U.U.U.U.U.U.U.U.U.U.U.U.U.U.U.U.U.U.U.U.U.U.U.U.U.U.U.U.U.U.*.&.&.*.*.&.&.&.*.*.-.-.*.*.-.-.-.-.*.*.-.-.*.-.-.-.-.-.*.&.&.&._ W W G G W W W W W G W ` U.T.U.' &.*.*.-.' h.^.[.[.[.[.W.h.*.*.*.-.U._ 3 2 ; ; w 5.MXBX XG G D H &.&.&.&.&.*.&.&.&.&.&.&.&.&.&.&.&.*.*.*.*.*.*.*.*.*.*.&.*.&.&.*.*.*.*.*.*.*.*.*.&.&.&.&.&.*.&._ _ W W / &.&.&.&.&.&.&.&.&.&.&.&.&.&.&.&.&.&.&.&.&.*.-.U.U.U.U.U.U.U.U.U.Y.T././.R.U.Y.;.G 3 # # - w y 2 u C |.qXqXwX7XD.`.D.S.j.u.v v P I E E E E P P K z l l k l m c.C.V.V.V.S.S.S.S.S.S.S.S.S.S.D.S.S.S.D.D.D.D.`.`.`.`.D.D.D.D.S.D.D.D.D.D.`.`.",
"S.D.D.S.S.D.S.S.C.C.V.V.V.N.N.c.s.q.U Y U j.S.C.D.D.D.`.S.S.N.u.s.s.d.n.b.N.V.V.D.D.S.D.D.S.S.S.D.D.D.D.S.S.S.S.D.S.S.S.C.V.V.V.V.N.M.j.r.Y ^ s.t.p.n.k.h 3 2 3 i F O.O.2 3 D E.).).W.k.f.f.f.k.k.k.l.l.!.n.M.M.!.!.!.!.N.N.V.V.~.~.~.~._._._._.!.!.s.t.T m m M v v z K L P Y T q.p.s.l.M.M.M.M.l.j.s.u.t.t.r.q.T q.q.t.s.n.~.`.`.`._._.V.V.V.V._._.S.S.N.N.b.N.S.'.S.D.].v .XSX3 V (.&.H V 3 5 D B Z H _ ' *.' ' *.-.U.Y.U.U.*.U.U.U.U.U.U.U.U.Y.R.R.R.U.U.U.U.U.U.U.U.U.U.U.U.U.U.U.U.U.U.U.U.U.U.U.U.U.U.U.U.U.U.U.U.U.U.U.U.U.U.U.U.U.-.*.' &.&.&.&.&.&.&.&.&.*.*.*.-.-.-.-.&.*.*.-.&.&._ _ _ _ / / W G G G G G W / / / W / G W ' U.T.-.' &.&.*.*.U.[.[.[.[.[.[.h.' *.*.*.-.U.G 2 ; ; = w 5.mXBX5XG H D H &.&.&.&.&.&.&.&.&.&.&.&.&.&.&.&.&.*.*.&.&.*.*.*.*.*.*.*.*.*.*.*.*.*.*.*.*.*.*.*.&.&.&.&.&.&._ W G G D G / _ %.&.&.&.&.&.&.&.&.&.&.&.&.&.&.&.&.&.&.*.-.U.U.U.U.U.U.U.U.Y.R.E.^.^.T.U.U.Y./ 3 # # - w y 2 u H |.qXqXwX7XD.`.S.S._._.p.v g f f 6 6 6 f f 6 f f g z ^ M.V.V.C.V.V.S.S.V.S.S.S.S.S.S.S.D.`.S.S.D.D.D.D.`.`.`.`.D.D.D.D.D.D.D.D.D.D.D.`.",
"S.S.D.S.S.S.D.D.C.V.V.V.N.N.n.d.r.R R E ^ N.V.S.D.D.D.`.S.S.S.M.N.N.N.V.S.S.S.S.D.D.S.D.`.`.`.`._._.`.`.D.D.D.D.D.D.D.V.V.S.V.V.V.N.N.j.^ E ^ s.p.p.n.k.h 3 2 3 y a O.O.2 2 A I I P P P P P P P n n n n U U U U U Y Y R ^ ^ p.p.p.r.r.r.^ ^ Y P n z z z n R r.p.p.R U P P P Y P P P U U U U U U U U P n P P P P P P P P m r.j._.`.`._._.V.V.C.D.`.`.`._.N.N.V.D.oXoXD.F.*Xm lXIXJ u (.&.H V 3 5 D B Z H _ ' ' Q W ' -.Y.Y.U.U.U.-.U.U.U.Y.Y.U.U.Y.Y.Y.Y.U.U.U.U.U.U.U.U.U.U.Y.U.U.U.U.U.U.U.U.U.U.U.U.U.U.U.U.U.U.U.U.U.U.U.U.*.*.*.*.*.' ' ' _ _ W W W W / _ %.' &.*.*.-.-.*.*.*.*.&.&.&._ G H D D G G G G G G G W / W ~ ~ G ~ / / &.Y.T.-.&.&.&.*.I.(.[.[.[.[.{.W.' &.*.*.*.-.-.G 2 ; ; * w 5.mXBXkXG D D H &.&.&.&.&.&.&.&._ W W W W W _ &.&.&.&.&.&.&.*.*.*.*.*.*.*.*.*.*.*.&.&.&.&.&.*.*.&.&.&.' _ W G D D D D D D H G W _ _ &.&.&.&.&.&.&.&.&.&.&.&.&.&.&.&.&.-.U.U.U.U.U.U.U.Y.R.E./.^.E.R.R.U./ 7 # * - w y 2 u D |.qXqXwX7XD.`.D.S.C.D.`.N.j.r.R Y P P E Y Y T t.j.N._._.S.V.C.V.V.S.S.V.S.S.S.S.S.S.S.D.D.S.S.S.D.D.D.`.`.`.`.D.D.D.D.D.D.D.S.S.D.D.D.",
"S.S.S.S.S.S.S.S.S.S.V.V.N.N.c.s.r.r.r.^ p.!.S.S.D.D.D.D.D.D.D.S.D.D.S.S.D.D.`.`.S.S.S.D.D.`.`.S.D.D.D.D.D.D.D.D.S.S.S._.D.S.S.V.S.V.N.M.y.Y R f.p.t.l.k.h 3 3 3 y a O.O.: 2 A C L L L L L L I P n n P U P n v z c x k f h h h h g f h 9 f 6 f k k z I r.p.s.s.d.s.s.p.p.r.r.r.R R Y Y Y U U U U U Y Y Y Y Y T Y T Y U U Y T y.N._.`.S.S.S.S._.`.D.`.`.`.S.S.D.oXoX*XoXoX,XU lXIX$.u /.;.H J 3 5 Z B C G _ _ _ W W _ ' ' _ _ _ _ _ _ _ _ ' ' ' ' -.U.U.U.U.U.U.U.U.U.U.U.U.U.U.U.U.U.U.U.U.U.U.U.U.U.U.U.U.U.U.U.U.U.U.U.-.*.&.&.' ' ' ' _ &._ _ / G S S D D S H H W _ %.&.&.-.;.-.&.&.&.&.&._ _ W G G G G W W / _ %._ / W W / / / ' Y.R.U.-.&.&.*.*.R.[.[.[.[.[.[.E.] &.' *.*.*.-.H < 2 ; * w 5.MXBXlX~ D D H &.&.&.&.&.&.&.&._ W W G G D _ &.&.*.&.*.*.&.*.*.*.*.*.&.&.*.&.&.&.&.*.*.*.&.&.&.' _ W D D D D D H W / / W G G G G ` ' ' &.&.&.&.&.&.&.&.&.&.&.&.&.&.&.*.U.U.U.U.U.U.U.U.T.W././.E.T.R.U./ 9 # # * 2 w 3 u D {.qXqXwX7XS.`.D.C.D.D.D.S.`.`._.S.S.S.V.V.V.S.V.V.V.V.C.V.D.V.V.V.V.V.S.S.S.S.S.S.S.S.S.S.S.S.D.D.S.S.S.D.D.`.S.S.S.S.D.`.`.`.D.D.D.D.",
"S.S.S.S.S.S.S.S.S.S.V.V.N.N.c.t.^ r.r.^ p.!._.S.D.D.D.D.`.`.D.D.S.S.D.D.S.D.D.`.D.D.`.D.D.S.S.D.D.D.D.D.S.`.S.S.D.S.S.S.S.S.D.V.`.V.N.V.u.Y R f.p.t.l.k.h 3 3 2 y a O.O.: 2 B C L C L L C L I L L P ^ p.p.s.s.s.p.r.^ R E Y Y U P P P L L Y I ^ ^ ^ r.r.r.p.p.s.s.s.s.d.j.j.j.j.j.j.s.s.s.s.s.s.s.s.s.s.s.s.f.f.d.d.d.d.f.d.d.N.~.~.C.`.S.V._._.`.`.`.`.S.S.D.oXoX>XoXoX,Xq.VXIX:.J .X>.~ J 3 5 A B C G _ _ W G W W _ ` _ _ ` ` / / W W ` ` ' ' ' U.U.Y.U.U.Y.U.U.U.U.U.U.U.U.U.U.U.U.U.U.U.U.U.U.U.U.U.U.U.U.U.U.-.-.*.' ' &.&.' ' ' ' &.&._ _ / G H D D Z Z Z D D D H G / _ %.&.&.&.&.&.&.&.&.&.%._ _ _ _ _ _ %.&._ / W W W / ' Y.R.U.U.' ' ' ' h.E.[.[.[.[.[.[.E.] &.' ' *.-.-.D < 2 ; * w <.mXBXVX/ D D D &.&.&.&.&.&.&.&.&./ G G G / &.&.&.&.&.*.*.&.*.*.&.*.*.&.*.*.&.&.*.&.&.&.&.&.&._ _ W W G G W / / _ %.%.%.%.%.&.%._ _ &.' &.&.&.&.&.&.&.&.&.&.&.&.&.' ' ' -.U.U.U.U.U.U.R.E.^././.E.R.R.U./ u $ # * 2 y 3 u D |.8XqXwX7XS.D.D.C.V.C.S.S.S.S.D.C.C.V.V.V.V.V.V.V.V.S.V.V.V.V.V.V.V.V.S.S.S.S.D.D.D.D.S.S.S.S.S.S.S.S.S.D.D.D.S.S.S.S.S.S.D.`.D.D.D.D.",
"S.S.S.S.S.S.S.S.S.S.V.V.V.N.l.r.Y Y ^ ^ r.j.V.S.S.S.S.S.`.D.S.S.S.S.S.S.S.S.D.D.S.S.S.D.`.S.S.D.S.S.S.S.S._._._.V.S._._._.N.N.N._._.V.~.j.Y R j.s.s.!.k.h 3 4 2 y a O.| : 2 B C K L L L L Y Y L K P E p.t.s.s.s.s.d.s.f.f.f.s.s.s.p.p.p.p.p.p.^ ^ Y Y Y E R r.p.s.s.j.j.j.j.d.d.j.j.j.j.c.c.c.c.c.j.j.j.n.c.c.c.c.c.c.c.n.n.n.n.m.V.~.V.V.V.S._.`.`.`.S.S.S.S.`.oX*XoXoX7Xr.VXIX>.F .X(.%.J 4 3 V V B G W W G G W &.Y.U.U.-.-.-.-.*.*.*.*.U.U.-.U.U.U.U.U.U.U.U.U.U.U.U.U.U.U.U.U.U.U.U.U.U.U.U.U.-.U.U.U.Y.-.-.-.' ' _ ' _ &.&.&.&.&.&.%.%._ _ _ / W G H H D D D D D Z Z D D H G / _ %.&.&.&.&.&.&.&.&.&._ &.&.&.&.%._ / / _ &.U.Y.U.U.U.' U.R.E.W.[.[.[.[.[.[.[.E.' &.' ' *.-.&.Z 2 2 ; * q <.mXBXVX%.D D H &.&.&.&.&.&.&.&.&.%.G G G _ &.&.*.&.&.&.&.&.&.&.&.*.*.*.&.&.&.&.&.&.&.&.&.&.&.&.' ' ' %.%.&.%.%.%._ _ _ %.%.%.%.&.&.' ' &.' ' ' ' &.&.&.&.&.&.&.&.&.&.' -.U.U.U.U.U.R.T.E././.[.^.T.R.U./ u @ # * : y 3 u D |.qXqXwX7XS.D.S.V.V.S.S.S.S.S.C.C.C.C.V.V.V.V.V.V.V.V.V.S.S.S.V.V.V.V.V.V.V.V.S.D.D.D.S.S.S.S.S.S.S.S.S.S.`.`.D.D.S.S.S.S.D.D.D.D.D.D.",
"S.S.S.S.S.S.S.S.S.S.V.V.V.N.l.^ n n Y Y T t.N.S.S.S.S.S.S.S.S.S.S.S.S.S.S.S.S.D.S.S.S.S.S.`.`.D.S.S.S.S._._.N.N.N.n.j.p.t.r.r.u.c.G.V._.j.T R j.j.u.M.l.h 3 4 2 y a O.| 2 2 B L E R ^ ^ r.^ ^ n K L P E ^ ^ r.r.r.r.r.p.t.r.r.r.r.r.r.q.r.r.^ ^ ^ Y E I E E T R r.t.s.s.j.j.j.j.l.l.l.l.l.j.j.j.j.j.l.l.l.l.j.c.n.n.n.n.j.s.s.s.s.j.N.N.V.V.V._.`.`.`.S.S.S.S.`.OX*XoXoX0Xf.CXIX X~ .X(.%.J 4 3 V V B H W G H D W ;.Y.U.Y.Y.Y.Y.R.Y.Y.Y.Y.Y.U.U.U.U.U.U.Y.U.U.U.U.U.U.U.U.U.U.U.U.U.U.U.U.U.U.*.&.' ' ' ' ' ' ' _ _ _ _ _ _ %.%._ _ _ _ _ _ _ _ _ _ _ / / / / / / G G G H G G G H D D G G W / %.&.&.&.&.' _ &.&.&._ %._ / _ -.U.U.U.U.U.R./.[.[.[.).[.[.[.[.[.[.[.E.*.&.' ' *.W D 9 2 2 ; * q <.mXBXVX%.D D H &.&.&.&.&.&.&.&.&.%.G G G &.&.&.*.&.&.&.&.&.&.&.&.*.*.&.&.&.&.&.&.&.&.&.&.&.&.&.&.' ' _ %._ _ _ _ _ _ _ _ %._ %.&.' &.' ' ' _ _ ' &.' &.&.' &.&.' &.' ' -.U.U.U.R.U.R.E.E.[.[.[./.E.R.U./ 9 # % * : y 3 u D {.qXqXwX7XS.`.S.S.S.S.S.S.S.S.V.V.S.S.V.V.V.V.D.S.S.V._.V.N.N.V.S.S.V.V.V.V.V.S.S.S.S.D.S.S.S.S.S.S.S.S.S.D.D.D.D.D.S.D.`.`.`.D.D.D.D.",
"S.S.C.C.S.S.S.S.S.V.V.V.V.N.M.r.P P n P T s.M.V.V.V.S.S.V.V.V.V.V.S.S.S.C.D.C.D.D.D.S.S.S.D.D.D.C.V.S.S.V.c.u.u.u.t.T n n K n m f._.V.S.l.R R j.j.s.c.l.f 3 4 2 i a O.O.: 2 Z ] p.p.p.p.p.p.r.T E E E R R ^ R T R ^ ^ ^ r.r.r.r.r.r.r.^ r.r.r.r.r.r.r.r.r.r.p.t.t.p.p.f.s.d.j.j.l.d.j.j.j.j.j.j.j.d.s.s.s.s.d.d.d.d.f.f.s.p.p.p.t.p.d.c.M.G.S.S.`.`.`.S.V.V.V.D.OX*XoXoXAX^.CXIX X:.4X(.;.Z < 3 N N B H G H D D / Y.U.Y.Y.T.T.T.T.T.Y.Y.T.Y.U.U.Y.U.Y.U.U.Y.U.U.U.U.U.U.U.U.U.U.U.U.U.U.U.U.U.' _ _ / / / / / / / / / _ _ _ _ _ _ _ _ _ _ _ _ _ %._ / / / / / / / / / / / / / / / / / / G G G G / %.&.&.&.&.&.&.' %.%./ / %.-.I.U.U.Y.U.U.[.[.).[.[.).[.[.[.).W.^.^.U.*.&.' ' D N 5 2 2 ; # : #.mXBXmX%.D D D %.&.&.&.&.' ' &.&.%.D H G &.&.&.&.&.&.&.&.&.&.*.*.&.&.&.' &._ &.%._ _ _ _ ' &.&.&.' &.&.&.&.&.&.&.&.' _ _ %._ _ ' ' _ &.&.&.%.%.&.&.&.' ' &.&.&.&.&.&.' *.U.U.U.R.U.R.R.E.^.[.[./.E.R.U._ 9 # * # : y w u D {.qXqXwX7XD.D.D.S.S.S.S.S.S.S.S.S.S.S.S.V.V.S.D.S.S.~.c.t.t.t.d.G.V.V.S.S.S.S.V.S.V.S.S.S._._.S.S.S.S.S.S.D.D.D.D.S.S.D.D.D.D.S.D.D.D.",
"V.V.V.V.S.S.S.S.V.V.V.V.V.N.n.u.T T T r.f.n.N.N.V.V.V.V.V.V.V.V.S.V.V.S.V.V._._.S.S.S.S._._._.V.V.V.N.N.u.y.r.p.u.u.T n v z n r.B.N.V.S.j.T r.c.j.u.c.l.f 4 3 2 i a O.O.: 2 D p.p.s.s.s.s.s.s.t.r.p.p.s.f.f.f.s.s.s.s.s.d.d.f.j.j.s.p.p.p.p.p.r.t.t.t.p.u.u.s.s.t.t.q.T R r.r.p.p.f.f.l.j.j.j.j.j.s.p.p.p.p.s.s.s.s.s.p.p.t.t.t.r.r.p.s.i.c.S.S.S.`.`.S.V.V.V.D.OX*XoXoXAX^.CXIX X9.4X X:.F < 4 V h V S H D D D _ Y.Y.Y.T.T.T.T.T.T.T.T.T.T.Y.Y.Y.U.Y.U.U.U.U.U.U.U.U.U.U.U.U.U.U.U.U.U.U.U.-.' / / W W G / / / / / / / / / / / / / / / / / / / _ _ / / / / / / / / / / / / / / / / / / / / / / / / %.&.&.&.&.%._ &._ W / &.;.Y.Y.-.&.' U.[.[.[.[.[.[.).[.E.] ' ] h.U.*.&.' ' D h 5 2 2 ; # : #.mXBXBX%.D D D %.&.&.&.&.' ' _ / / D H H _ &.&.' &.&.&.&.&.&.&.&.&.&.' _ _ _ _ _ _ _ _ _ &.%.&.&.%._ / W W G G W / / / / / / _ _ %.%.%.' %.&.&._ ' ' ' ' ' ' &.&.&.&.&.&.-.U.U.U.U.U.R.E.E.^./././.R.-./ 9 # - # : y w u H {.qXqXwX7XD.D.D.S.S.S.S.S.S.S.S.S.S.S.S.V.V.S.D.D.S.n.U E ^ ^ q.c.V.V.V.S.S.S.D.C.V.S.S.S.D.D.S.S.S.S.S.S.S.S.S.D.S.S.D.D.D.D.S.S.D.S.",
"V.V.V.V.V.V.V.V.Z.V.V.V.N.b.c.c.j.l.l.M.M.N.N.N.N.N.N.V.V.V.V.V.V.N.N.V.V.V.~.~.S.S.S.S.S._._.V.N.M.d.t.r.t.s.s.f.s.r.Y n v ^ l.!.V.N.N.d.T t.c.j.u.M.l.f 4 3 2 i a | | : 2 H p.s.s.s.s.s.s.s.t.r.r.p.f.f.j.j.j.j.j.j.j.j.j.j.j.d.s.p.p.t.r.r.^ R R r.t.t.t.u.s.s.p.r.U P n n n P E ^ p.p.p.p.p.p.r.r.p.p.r.r.r.p.r.p.p.p.r.r.r.p.r.r.p.u.u.B.S.S.S.D.S.S.V.S.`.OX%XoXD.0Xf.VXIX0.:. X X>.F 4 2 u 9 V D H D B H &.Y.R.Y.T.T.T.T.T.T.T.T.T.Y.Y.U.U.U.U.U.U.U.U.U.U.U.U.U.U.U.U.U.U.U.U.U.U.U.-.` / / H H W / W G / / / / / / W W / / / / / W / / / _ _ / / / / / / / / / / / / / / / / / / / / / / / _ &.&.&.&.=._ _ W G W _ ;.;.&._ _ _ Y.[.[.[.[.[.^.W.I.] ' ' ' ` ' ' ' ' ' G h 3 < 2 = # : +.mXBXZX:.D G D %.&.&.&.&._ W H D D D H D H _ &.&.&.&.&.&.&.&.&.&.&.' _ _ _ _ _ _ _ _ _ _ &.&._ G D V 9 u u u u u V V V V V V B D H / %.%._ %.%._ _ _ ' &.' ' ' ' &.&.&.&.' -.U.U.U.U.R.R.R.E.E.E.(.R.U._ 7 # - # ; y w u H {.qXqXwX7XD.D.D.S.S.S.S.S.S.S.S.S.S.S.S.V.V.S.C.C.!.^ I L L E r.u._.V.V.V.V.V.V.`.`._._._.`.D.S.S.S.S.S.S.S.S.S.S.S.S.D.D.D.D.S.D.D.D.",
"N.V.V.~.S.V.V.V.V.Z.V.N.N.N.N.N.N.N.N.N.N.N.N.N.N.N.N.V.N.N.N.N.N.V.N.N.N.N.N.N.N.N.N.N.N.V.N.c.i.y.q.q.t.u.d.c.j.A.d.t.T T p.n.N.V.N.N.i.T p.N.n.d.M.l.f 4 3 2 y a | { : 2 C r.p.p.f.f.s.s.s.r.R R p.p.f.f.l.l.j.j.l.l.j.j.d.d.s.p.r.r.r.E K C C C P ^ r.t.p.p.p.p.p.p.p.^ Y m L v v v n n n n n P P I E E R R ^ ^ r.r.p.p.r.p.r.r.t.u.s.d.c.S.S.S.S.D.S.V.D.`.oXOXoXD._.r.lXIXO.$. X X>.F 3 2 u 9 V Z D Z B G ;.Y.R.Y.T.T.T.T.T.T.T.Y.Y.Y.U.U.U.U.U.U.U.U.U.U.U.U.U.U.U.U.U.U.U.U.U.U.U.-.-.` W G G G H H H H G W W W ~ ~ H H ~ ~ ~ ~ / / / / W / %._ / / / / / / / / / / / / / / / / / / / / / / _ &.&.&.&.&.&._ W W / W _ _ / _ _ %.' R.R.h.I.I.' ' ' ' &.&.&.&.' ' ' ' ' / V 3 $ 2 = # : O.mXBXZX:.D G D _ &.%.&.W D Z Z D D G W G H H W ' &.&.&.&.' ' &.&.&._ _ _ _ _ _ _ _ _ _ ' &.W V 9 7 7 3 3 3 3 3 3 9 9 u u u V Z B B B D / %._ _ _ _ _ _ &._ ' ' ' ' _ _ ' ' ' -.U.U.U.U.R.R.R.R.T.R.R.U./ 7 # - # ; y y u D [.qXqXqX7XS.S.D.S.S.S.S.S.S.S.S.S.S.S.S.V.V.S.C.C.j.n L L K K r.p._.~.V.V.V.N.M.j.u.t.t.t.u.N.D.S.S.S.S.S.S.S.S.S.S.S.S.D.D.D.S.D.D.D.",
"b.c.c.c.c.n.n.N.V.N.N.V.V.S.V.V.S.S.S.S.V.V.V.V.V.N.N.N.N.N.N.N.N.N.n.M.M.b.b.n.c.c.i.i.d.c.j.u.t.y.t.s.d.c.n.n.n.c.c.p.T r.s.l.M.M.N.b.u.t.s.N.n.d.N.W.f 4 2 2 y s { { : 2 Z E R r.p.g.s.s.f.r.Y Y R r.p.f.j.d.d.d.d.d.d.d.d.s.u.p.r.q.R I x h j x z L E r.p.p.p.s.u.u.s.p.p.p.r.r.^ ^ ^ ^ ^ E Y P P P P P Y E ^ r.p.p.p.p.p.p.p.s.u.u.d.d.c.S.V.V.S.S.S.V.D.D.oXOXD.D.m.q.4XIX{ #.9. X(.F 3 4 V N V B Z A V H -.Y.R.T.T.T.T.T.T.R.R.R.R.R.Y.*.*.*.*.*.*.*.*.-.-.-.-.-.U.U.U.U.U.U.Y.Y.-.-.&./ G G G G G H H G H W W W / / / / / / W W G G / / / _ &.%._ _ / / / / / / / / / / / / / / / / / / / / _ _ &.&.=.&.&._ W / / / / / _ _ _ _ ' ' ' ' *.] ' *.*.*.*.*.*.' ' ' ' ' &._ V 3 $ 2 ; # : O.xXBXZX>.D G D _ &._ G D Z Z D D W _ / / _ / L Q &.' &.&.' &.&.&.&._ _ _ _ _ _ ' _ _ _ G C N u 7 7 9 9 9 9 9 9 3 3 9 9 9 u V Z Z Z Z h A _ &.%.%._ _ %.%.&.&.&.&._ _ ' ' ' ' ' -.U.U.U.U.R.U.U.U.U.Y.-.G 3 $ % # : s 0 u H [.wXqXwX7XS.D.D.S.S.S.S.S.S.S.S.V.V.V.S.V.D.S.F.'.t.n P I I I P Y s.u.t.q.q.U n v v n U q.u.N.S.S.S.S.S.S.S.S.S.S.S.S.S.S.S.S.S.S.D.D.",
"n.u.e.m m m M u._.S.S.S.S.S.S.S.S._._._.S.S.S.S._.N.n.M.M.n.n.d.r.T T T q.y.i.d.d.c.c.c.c.c.c.c.c.d.c.n.M.N.N.N.m.b.n.r.P ^ r.r.t.s.c.c.j.l.j.N.N.d.!.W.6 4 2 2 y s s a : 2 Z E Y E ^ r.p.p.^ Y E Y Y ^ t.s.d.d.d.d.d.d.s.s.s.u.t.t.r.R E P z k j k x z v U R r.p.p.t.s.p.p.p.s.p.p.R Y P E E ^ p.p.r.r.r.r.r.p.p.p.p.p.s.j.d.d.d.j.j.j.n.M.N.S.V.V.V.V.V.V.D.D.oXK.C.Z.N.r.(.BX{ <.8.(.>.F 4 4 S Z B B A V V J _ Y.Y.R.Y.Y.Y.Y.T.T.T.U.Y.U.*.&.' ' ' ' _ _ _ _ _ ' _ ' ' -.U.U.Y.-.&._ ` W G D S H H S G G G G H H W / W / / / / / / W W W W W W _ &.&.&._ _ / / / / / / / / / / / / / / / / / / / _ _ %.%.%.%._ / W / W / _ / _ _ _ _ ' ' ' ' =.&.*.*.*.*.*.*.*.' ' ' ' ] &.W V 3 ; ; ; * : | jXBXZX XD G D W &.G D Z Z Z Z G / / / / / _ / _ &.' &.&.&.&.' _ _ _ / H S G G G H D A N u 9 u A S G H H G G S Z u u V u V A Z Z D D D G _ %.%.%.%.%.%.%.%.%.&.' _ _ _ ' ' ' ' ' *.U.U.U.U.U.Y.U.Y.*._ Z 2 $ % # : s u u D ).qXqXwX<XS.S.S.S.S.S.S.S.S.S.V.V.V.V.V.C.S._.l.^ E I I E E E E I v v P U U E t.s.j.M.!._.D.D.D.S.S.S.S.S.S.S.S.S.S.S.S.S.D.S.S.S.S.S.",
"N.n.d.u.t.u.j.N.`.S.S.D.S.S.S.S.S.S.S.S.S.S.S.V.M.u.s.j.s.s.t.T E n c z P t.M.M.n.N.N.n.c.d.d.c.c.c.c.n.M.n.M.N.m.n.l.n z z n U q.t.s.c.n.j.l.V.m.s.~.k.6 4 2 : 2 2 y a : 2 C E E E Y E Y E Y I E Y Y Y R p.s.s.s.s.s.u.s.u.s.t.t.r.r.R Y Y L z l l x x z v P R r.p.t.p.p.t.t.t.p.p.Y v z z z L r.p.p.p.f.p.p.p.p.p.p.s.s.l.n.n.n.n.n.M.N.N.S.V.V.V.S.S.S.D.D.D.oXD.V.V.N.r.%.fX+.2.6.9.0.F 4 4 ~ ~ D Z B V V V D &.Y.Y.T.Y.Y.Y.Y.T.R.U.U.U.*.&.*.-.*.*.' ' ' ' ' ' _ _ ' -.Y.-.&./ D D D B Z D Z Z A A A A A Z D S H G / _ _ _ _ _ _ _ / / W W W _ &.&.&.&.%._ / / / / / / / / / / / / / / / / / / / / _ _ _ _ _ W W / / / / / _ _ _ _ / / / / / _ ' ' *.*.*.*.*.' ' ' ' ' W B 7 ; ; * # # : a hXBXZXkXS G D D W D Z Z Z Z B H H / ~ ~ ~ G / _ _ ' ' &.&.&._ _ _ _ _ G N N N N N u u u u V G %.%.%.%.%._ %.%.%.~ H D D H G G / / / %.%._ _ %.%._ _ %.&.%.%.%._ %.%._ _ ' ' _ ' ' *.U.U.U.U.-.*._ H D u 2 % # # ; s u u C ^.qXqXqX<XS.S.S.S.S.V.S.S.S.S.V.V.V.V.Z.S._.r.C l C C L L I E E I L C k._.S._.`.`.`.D.C.D.D.D.S.S.D.S.S.S.S.S.S.S.S.S.S.S.S.S.S.S.S.S.",
"V.V.V.S.S.S.D.D.D.D.D.D.S.S.S.S.S.S.S.S.V.S.V.N.d.y.y.t.t.r.R R I z z C R s.A.c.c.n.n.c.d.d.c.c.c.c.M.N.!.!.N.N.M.j.m x j x l v ^ p.j.l.c.n.n.N.m.u.~.k.8 2 2 ; ; ; w a : $ j I I I E E E E E E I P P P Y Y ^ r.t.p.p.p.s.s.p.p.t.r.R Y Y P P L P K L n C z v P Y r.r.t.t.t.t.t.t.p.^ n L L L L R p.p.u.p.p.p.p.p.p.p.p.p.s.j.n.m.N.N.N.N.N.V.S.S._._.`._.`.`.`.`.D.V.V.N.r.H 2.2.2.6.5.0.s 4 2 %.%.H G Z A V V B D ;.Y.U.Y.Y.Y.Y.Y.U.' ' ' *.-.Y.Y.Y.Y.U.*.*.*.&.&.&.&.*.*.' W G Z A Z Z Z Z Z Z V u N A A A Z A A D ~ %._ _ _ _ _ _ _ / / / / / _ &.&.&.&.&.%./ / / / / / / / / / / / / / / / / / / / / _ _ / / W W / / / / / _ / / W G H H H G / _ ' ' ' ' &.*.' ' ' _ W V 9 2 @ # * # o : a fXBXZXVXH H G G D D S S D D Z B Z S D D H H D G _ ' ' &.%._ _ _ _ %./ / G D Z B B B A D G W / / / _ _ _ _ _ _ %.%./ / / / _ _ _ %._ _ _ _ _ %._ _ _ _ _ _ _ _ _ %.%.%._ _ ' _ _ ' ' *.U.-.-.' H D C A 9 2 % % # : s u u C p.0X0XqX<XS.S.S.S.V.V.S.S.S.S.V.V.V.S.S.l.Y l j j j j j l C L L L K z p._.C.C.V.V.D.D.D.D.D.D.S.S.S.S.S.S.S.S.S.S.S.S.S.S.S.S.S.S.S.D.",
"C.C.C.C.C.C.C.D.D.D.S.S.S.S.S.S.S.D.S.S.S._.N.j.s.p.r.^ Y P P z j j x z n U U R q.r.r.r.p.s.d.c.c.M.l.r.r.r.r.p.r.P x k j j x E s.l.l.n.c.c.n.N.c.t.N.f.7 2 $ % - - : s : = h I I E E E R R R R E E E P P P L P Y R r.r.t.p.r.r.^ Y Y Y P P P P I I P P P P P E E R ^ r.r.r.r.r.t.r.R Y I I I E ^ r.p.p.p.p.p.p.p.p.p.p.p.p.s.l.n.M.N.N.N.N.V._._.`.`.`.`.`.`.`.`.C.V.V.V.q.H 2.3.3.6.3.#.s 3 < $.;._ W S A A V V B G *.Y.Y.Y.U.Y.*.H B B G ;.Y.Y.Y.Y.Y.Y.Y.U.U.-.&.&.*.*._ D Z A A Z A A A Z A V u 9 u V V A A A A H / _ _ _ _ _ _ _ _ / _ _ _ _ %.&.&.&.&.&.&._ _ / W / / / / / / / / / W W / W / _ _ _ %.%.%.%._ _ _ / / / / / / / G D Z D H W _ _ &.&.&.&.&.&.&._ G Z u 9 2 ; # # # # o - p tXBXBXZX:.H G G G W / / W G G h 9 9 u u u V V B G %._ W H W _ _ _ _ _ _ _ _ / / / / / / / W W / _ _ _ / / / _ &.&.&.&.&.' ' _ _ _ _ _ _ _ _ _ _ _ _ _ _ _ _ _ _ _ _ _ _ %.%._ _ _ _ ' ' *.-./ Z C Z V 5 ; # # o : a s y D E ].qX0X,XD.D.S.V.V.V.S.V.V.V.C.`.N.j.^ z x j j j j j j j h j j x l k ^ [.`.D.`.`.`.`.D.D.D.D.D.D.D.D.D.D.D.D.S.S.S.S.D.D.D.D.D.C.C.C.",
"_._.`.`.`.`._._._._._._._._.!.!.N.N.N.N.n.j.t.r.r.R v x k f f f f h f k h j j l z z z L P ^ p.s.f.^ v z x x x x x x j h h x E s.j.j.A.A.j.j.j.c.u.r.j.` 1 ; % # - * : s : ; 7 H I ! R R R q.r.r.r.r.R E E P L L n n P P Y Y E E P L L L L L L L I I P I Y E E E E E E E E E E E E Y L L v L Y ^ r.r.p.p.p.r.t.p.p.p.p.t.r.r.t.p.d.n.m.N.N.N.N._.`.`.`.`.`.`.`.`.`.C.V.C.N.R F 2.7.6.7.6.#.s 2 $ H %./ G G S Z A V V B D _ &.-.Y.;.G 9 9 9 B _ ;.U.U.U.U.U.U.U.U.U.U.-.*.&./ G Z A A A A A V V V u 9 9 u V V A A A D G / _ _ _ _ _ _ _ _ _ _ _ ' _ &.&.&.&.&.&.&.%.%._ _ W W / W / / / / / / / / W _ %.%.%.%._ _ _ _ _ _ / / / / / / / D A A S G W _ _ _ _ ' ' ' _ G B V 9 3 2 @ # # # # # . - i 5.BXBXLX XD W / %._ _ _ _ / G h 1 1 1 3 3 3 9 u V D G G D D D W / _ / / W W W W W / / / W G / ~ H H Z Z Z Z / ;.Y.Y.Y.Y.Y.;.&._ _ _ _ _ _ _ _ %.%.%.&.&.%.%._ _ _ _ _ _ _ _ _ _ _ _ _ _ _ / D B A A u 3 ; @ % # : a s 2 h L t.,XqX7XoXoX`.D.S.S._._.M.M.k.r.n z k j j B j j j j j j j h h h 9 1 6 E f.l.M.!.!._._._._._.!.!.~.~._._._._._._._._.`.`.`.`.D.`.D.D.",
"r.r.t.t.t.r.r.r.q.q.T T Y Y U U U U U U n v z n K x f 6 6 6 6 9 h f h h j j j j j j j l x c c z z k j j h h h h j j j h k L R t.s.p.t.t.p.t.p.p.r.L n B ; % # # * * - i : * 2 N I ` ^ R R r.r.r.q.r.R R E E I Y L L L L L C C C C C C C C C C C C C C C L I E R E Y v L L L P n n L L P E ^ ^ ^ R R ^ ^ ^ r.p.p.p.t.t.r.r.r.r.^ p.f.l.n.M.N.N.~.`.`.`.`.D.D.`.`.`.V.V.V.B.^ F 2.7.7.rX7.#.y 2 $ u S D H H H D D Z Z B V A D G / G V 9 9 9 N G _ ' *.-.-.-.-.-.U.U.U.-.*._ G D A V V V V V V V u u 9 9 9 u V V A A Z S G G G G H G G G / _ _ _ &.&.&.&.&.&.&.&.&.&.&.&.&._ _ / W / / / W / / H G G G W W H W / / ~ G G / H H G G G ~ ~ S Z F S H H W / / / / / G Z V 9 3 ; # # # # # # X # o o y #.BXBXUXVXS A H H H H / W G S 6 1 1 < 3 1 3 9 V V 9 B Z D D D D D G / W W W G W / W W G G D V 9 3 4 2 4 2 7 G ;.T.T.T.T.Y.Y.;.' _ _ _ _ %./ H G G S D D D G / / _ _ _ _ _ _ _ _ _ _ _ / G D Z V V u 3 4 ; @ - # y a a y 1 B I ^ l.!.f.f.p.p.p.r.r.R P v x h h h j j j B B j j j j j j j 9 < @ . @ 9 C L n n U U U U U U Y Y Y Y m Y T T q.q.r.r.r.t.p.p.u.f.l.n.",
"z z z z z z z z z z z z C C C C C z C z z l l j x j h 9 6 6 6 6 6 6 6 h j j j j x x x x j j j j j j k j h h h h j j j j C L I Y E I Y Y Y Y P P C h h 4 # - # # # * * i y * ; 1 Z ` E E R R ^ r.r.R E U P P P L K K C C C j j h h h h h h j j j j j j j C E r.r.p.h.I x I ^ R R ^ ^ r.r.r.r.r.r.q.R Y n n Y r.r.t.r.r.r.r.r.^ ^ R r.t.p.j.n.n.m.V.V.`.`.D.D.`.`.'.`.S.V.M.^ F 6.pXyXpXaX<.w ; # 9 V B Z H H S D S S Z Z Z F A A B u 9 9 7 u Z D D G G G / / _ _ _ %.%.D Z B B V V V V V V u u 7 7 7 7 7 7 u V A A A B B V V N N 9 9 V Z D G H / _ _ %.&.&.' _ _ %.%.%.%.%.%._ / G G G G H H S D A A Z Z F V V V u u u u u u u u 9 7 u u 7 9 9 9 u u u u u u 9 3 2 2 @ # # # # # # # # # # # o p { mXLXZXLX Xu 9 u 9 9 9 9 9 9 3 3 3 3 3 9 u N V N h h N V V A A B B D D G W G G / W W G / h , $ $ $ ; ; ; 3 H ;.Y.Y.;.-.-.-.&._ _ / G D A V 9 3 1 3 9 Z G / / / _ _ _ _ / / W W W D Z 9 9 9 7 7 7 3 4 4 $ # % o y | F y ; 5 k l C l f f 6 6 6 6 6 6 f f f h h j j j l j B B B B C C C j 1 . . .   $ h L L L P P P L L P P L L L L L L L K v v v z v n L K K P P ",
"C C C C C C C C C z z z z z z z z z z z l l l l l j j j j f 6 6 5 3 5 9 h j j j j j j j j j h h h 6 6 6 6 6 h h j j C C C C C C C C C C l l j j h 5 2 $ # # # * - : : i y - # # 1 h j C C C L L L L C C C l l l j j 9 9 3 1 < < < < < < 3 3 3 7 5 5 5 5 6 C I ` r.h.` l P f.f.s.p.p.r.r.r.r.r.r.r.^ ^ ^ I I ^ ^ r.r.^ ^ ^ ^ E E I P P E p.f.f.l.l.M.N.N.N.N.G.G._.N.f.p.Y j F 7.aXaXaXdX7.d ; # 3 u u V A Z A A A A A Z Z A A Z J V 9 7 7 u V V V V u u V V Z H H D V 9 u u u u u u u u u 7 3 3 3 4 4 4 3 9 u V B B B B V V N N 9 9 9 6 6 9 u N N A A D Z Z D D D D D D S D D Z A Z D D D A V u 3 2 @ @ ; @ # # # # # # # # # # # # # # # # # # # # # # # # # # # # # # # # # # # # # # # o : +. .tXjXfXfX XJ 3 0 3 3 3 3 3 3 3 3 2 1 3 9 9 9 9 9 9 h N u u N V V V V V B H / / W W W W / G u 2 2 2 2 2 < < 9 Z G W / / / / G G D N 5 3 2 < < < 2 4 9 V Z Z Z D Z B V h h 9 9 6 5 5 5 3 3 3 3 3 3 4 2 ; % # # o i O.O.s $ < 1 6 6 6 6 5 5 5 5 5 5 5 3 3 3 1 < < 1 1 1 < < < 2 1 3 3 3 3 # . . .     @ 9 C C C C L C L L L L L L L L L L L L L L L L L L L L L L ",
"x l l l l l l l l l x x l l l x l j j j j j j j j j j j h h 9 5 < < 2 7 h h h j j j j f f 6 5 5 5 5 1 1 1 5 7 6 h N B N h h h h 9 9 6 6 5 5 5 1 < @ # # # # - : y i i { a q o # # $ < 1 3 5 5 7 6 7 7 7 3 3 2 < $ $ . # # # o o # # # # # # # # # # # % @ < 1 6 h B B N B G W L C C l l j j j h j h h 9 h h h V j j j j B B B h N N h B B j C C C C C C L L L L I C j 6 1 3 a rXaXaXdXdXpXy : # # ; 2 2 0 3 3 3 3 3 3 3 3 3 3 0 0 3 2 < 2 3 3 1 2 < $ $ $ < 3 5 3 < $ @ # @ $ $ $ $ $ $ ; $ # # # # # # @ $ 3 u V V V V V V N N h N u u u u u 7 3 3 3 2 1 2 2 2 2 2 2 2 2 2 2 2 2 3 3 3 3 2 $ . # @ # # # # # # @ @ @ @ # # # # # # # # # # # # # # # # # # # # # # # # # # # # #   o - - : a @. .> o o . # # $ $ $ $ $ @ @ @ @ # # # # # @ @ $ < 2 4 3 3 3 3 3 3 3 3 3 3 3 V H H H H H H Z u 2 $ ; @ @ % # @ @ < 4 0 0 9 9 7 3 4 $ $ . % % % % # @ $ 2 2 2 2 2 2 2 2 2 3 3 3 3 3 3 3 3 3 1 2 2 2 2 ; ; # # * & i O.O.O.: % $ < < < , , @ @ @ @ . . . . . .   . .               . . . o . . . . . . . @ 1 1 1 8 8 5 5 6 6 6 6 9 f h h h j j j j j j j j l j j j ",
"h j j h h h h h h h 9 9 9 9 9 9 6 9 9 6 6 6 6 6 6 6 6 7 5 5 3 < 2 $ @ 2 1 5 7 5 5 5 1 1 1 1 < 2 2 < < < 2 2 2 1 1 1 1 1 1 1 < < < < $ $ $ $ @ # # # o o * - y a { { @.3.<.a : o o # # # # % % $ # # # o . . o o o o o o o o + + o o o o o o o o o o o o o % - % @ @ ; ; ; ; ; = % % % - % - - - % % % % $ % % % % % # # @ @ # # # @ @ # # @ # # = # @ @ @ @ $ $ = @ @ # 2 y  .aXaXdXhXzXzXO.- # . . . # . # % # # # # # # # # # # # .   . . . . . . . . . . .   . . . . . . . . . . . . . . . . . . # # # # . @ 2 3 9 u u u u u 9 7 3 1 2 @ @ @ # # # # # # # # # # # # # # o # # # # # # # # # # # # # # # # # # # # # # # # # # # # # # # # # # # # # # # # # # # # # # # # o o : O.<.<.<.,.@. .O O o o   . . . . . .     . . . . . . o o                     . . .     .   . # . # . . .   . # o     o o o o o . o o X o o o . o o o o o o o o # # # # # # # # # # # % % % $ - # # # # # # # # # # o o & & : a O. .O.a - o o # # # # . . . . . . . . o   o o o o o o o . . o # # # # o o o o . . . . # # . . # # # # @ @ @ @ @ @ < < < < < 1 3 3 3 3 3 3 3 3 ",
"5 5 3 3 3 3 1 1 1 1 1 1 1 1 1 1 1 < < < < < < < < < 2 ; = = = # # # # @ # # @ @ # @ # # @ # # # # # # # @ @ @ @ @ @ @ # # # . . . o # # . # # # o o o - r a +.#.<.2.aXvXgX@.s - o o o . o # # # # # o o # # # o . o o # . . o # o o o o o o o # # o # - - - - - - - - - - - - > - - - - - - - > > > - - - - > > > > > & # % - + # # # o * * & o & o o # o o o o & - - : w y 2.aXzXzXzXzXxX7.r o o # # . # # # # o o # # # # . # o . . . . o . . # # # o o o     . . o o X # # # # # o o o o . o o o o o o o # .   . # # # @ $ $ @ # # @ # # # # # # * # # # # # # # # o o o o X X X X X   o # # # # # # # # # # # # # # # # # # # # # # # # # # # # # # # # # # # # # # # o # y  .<.<.<.2.<.+.+. .> o o o o o . o o o o # # # # # # # o . o # # # # # # . o . . o o o # o o # . . o o o o o o # o o o . . . O .       O O O O O o o o o o o o o o o o o . . . . . . . . o o o o o o o o o o o o o o o o X o : a  . . . .O.O.y * o o o o         X X X X                       o   . o . . . . o   o o o o o o o # # # # # . . . o . . . o . . # # . o # o o o # ",
"@ @ @ @ @ @ # # # # # # # # # # # # # # X # o X . . . . o o X X # # # X o o o o X o o o X o o o # # # # # # # # # # # # o o o o X o o o # # # # * : r a +.<.6.7.7.aXbXNXbX7.@.y & o   o o o o o o # # # # - - - % # # % - * # ; ; ; ; ; ; : y s a a a { { { { { { { { { { { { { a a a p s s s i i i i y i y y y y w q : : : : - : - - - - - - - - : : : : : : : : : q y y +.pXzXzXzXxXxXzXzX2.a y ; % # # # # # # # * * # # # # o . . . o o o o # # # # o o o o o o o o # # # # o o     o o X X X X X X X X                 . o # # # # * ; ; * ; ; * * # # # # o o o # o # - q y p a s i y y q q : : - - - # # # . o # o . o o .               X X o X   X     o o o # * y O.<.<.,.<.<.<.<.@.@.+.i & O X o o o o o o o o o X X . . . .     o               O O O O O O O O O O O O O O O O O O X X X o o o - ; : : : : 2 : ; - * # o # # * o # # # o # # o o o X X X X X o o o o o o o o o o o O o & & > r {  . . . . . .+.O.p y : : : : : : : : : : : ; ; ; : : - : : - - - - - : - - - - o o o o o o # o # # # # # # o o # # # o # o o o o o o o o o o o o o ",
"# * ; ; ; ; ; ; ; ; ; ; - : : : : : - - : : : : : : : : : : : : : : : : : : : : ; ; ; : : : : - - - - * - * * - - - - - - - - - - - - - - : : q y { +.2.7.aXhXxXvXMXNXNXNXhX2.+.y - o O o . o o o # o # - : q q y y y y y i i i i y y y i a +.2.6.6.6.6.7.rXrXrXrXrXrXrXrXrXrXrX7.7.7.3.6.3.3.3.6.6.6.6.6.6.2.2.2.<.<.,.@.+. . . . .{ { { a a a a a p p p p s s s i p { <.aXzXzXzXxXxXxXxXzXpX6.<.+.O.a s y r r y y y y y y y y y y y y y y y y y y y y y y y y y y y y i i i i i i i i i y y y y y y y y y y y y y y i i a { O.O.+.+.+.+.+.+.O.O.O.O.O.O.O.{ a a s i s a +.2.2.7.rXtXtX7.3.2.2.2.6.7.6.2.<.#.#.@.@.+.O. . .{ { { a a a a a a a s s s s a a a a a a { { O.<.<.<.2.2.2.2.<.<.,.,.,.+. .a a a s a a a a a i i i i i i i i y i i i i i i i i i i i i i i s p a a a p p p p { { { { {  .O.@.#.<.2.5.6.6.8.8.8.8.8.6.5.2.@. .s y y y r r y y y y i i y i i p a { a a { a a a { { { { { { {  . .+.+.+.+.+.+.+.+.+.+.+.+.+.+.+.+.O. . . . . .O.O.+.O. .O.O... . . .O. . .a  . .O.O.a a a s s s i y y y y y y y y r : : - - - o o o o o o o o o # o o o ",
"s s a a a a a a a a a a a a a a a a a a a a a a a a a a a a a a a p p p a p p p s a a a a a a a s i i i i i i i i i i s i i i i i i i i i p { +.2.7.pXhXvXbXNXDXDXFXFXNXNXNXhX6.@.{ s r : - - * & & & - q y i s a { O.O.O.O.O.+.@.<.2.<.,.#.,.2.6.rXrXrXrXyXyXyXtXsXsXsXsXsXaXaXrX3.7.7.rXrXyXrXyXyXyXrXrXrXtXtXyXyXtXyXyXyXrXrXrX7.7.7.7.6.6.6.6.3.3.3.3.3.3.3.3.7.pXgXxXxXxXxXxXxXxXxXzXzXaXrX7.7.6.5.2.#. .{ a {  . . . . .O.+.+.+.@.@.@.#.@.@.@.@.+.@.+.+.@.+.+.+.+.+.+.@.+.+.+.+.+.+.+.+.+.+.+.+.+.+.+.+.+.+.@.<.2.6.rXtXaXaXpXtXtXtXtX7.7.7.7.6.6.6.6.7.7.6.6.6.7.7.pXpXpXaXgXaXaXaXpXrXrXrXyXpXpXsXtXrXrXrXrXrX7.7.7.7.3.2.2.2.2.5.5.6.6.6.6.7.7.7.7.6.6.6.2.<.<.2.7.aXzXhXaXsXtXrX7.2.2.2.2.2.6.7.6.<.<.<.<.,.,.,.,.@.@.+.+.+.+.@.@.,.1.4.2.2.2.3.3.3.2.3.3.3.3.3.3.3.3.3.3.3.3.3.3.3.3.4.4.3.3.6.7.7.rXrXpXaXgXhXhXhXhXhXhXhXhXgXtX2.<.<.<.2.2.2.2.2.2.2.3.2.6.pXgXaXpXpXtXtXtXtXtXrXrX7.7.7.7.7.6.rXrX7.7.6.6.6.7.7.7.7.rXrXrXrX7.7.7.6.3.2.2.6.8.tX7.pXhXgX7.6.tXgXhXgXtXpXgXhXhXhXgXpXtX7.tXtX7.2.<.@.<.6.6.3.2.<.@.@.+.O. . . .{ { { { { { { { a a ",
"+.+.+.+.+.+.+.@.+.@.@.@.@.@.@.@.@.@.@.@.@.@.@.,.,.,.<.<.<.<.<.<.<.<.<.<.<.<.<.<.<.<.<.<.<.<.<.<.<.<.<.<.<.<.<.<.<.<.<.6.7.7.7.7.6.6.6.6.7.7.tXgXzXvXbXDXDXFXFXFXFXDXFXFXFXDXDXbXvXzXhXgXtXrX7.6.2.2.<.<.#.@.@.@.2.tXgXjXjXhXhXxXvXvXvXxXhXgXpXtXpXpXsXaXaXaXaXgXgXgXaXaXgXtX,.{ y q i #.rXaXaXaXaXaXaXsXsXaXaXaXsXpXpXpXpXaXaXaXaXaXaXaXsXaXaXsXpXpXpXpXaXaXaXaXaXzXbXNXNXNXbXbXbXbXbXbXvXvXzXaXaXgXfXfXpXtX8.6.6.2.2.2.2.2.2.2.4.2.1.4.2.<.<.<.<.<.<.,.,.<.,.,.,.,.@.@.@.,.,.@.@.@.@.@.@.@.@.@.@.@.@.@.@.@.@.,.,.<.3.rXaXzXvXvXvXxXzXhXgXaXpXaXgXaXaXpXaXgXgXgXpXrXrXrXtXpXaXhXhXzXzXhXhXhXpXtXpXaXaXgXgXpXrXrXrXrXrXtXrXrXrX7.6.2.2.2.3.7.7.rXtXpXpXaXaXpXpXpXrX6.6.7.gXbXDXDXDXbXbXnXxXgXyXrXrXrXyXaXaXrX3.2.2.2.<.,.,.@.+.+.+.+.+.+.@.@.,.4.4.4.4.3.3.3.3.3.3.3.3.3.3.uXuXuXuXuXuXuXuXuXuXuXrXrXrXrXyXpXaXaXaXzXhXhXhXhXhXgXhXgXgXgXaXpX6.@.@.,.,.<.<.<.<.<.<.<.,.,.2.rXaXaXpXtXtXtXrXrX7.7.7.7.7.6.7.7.7.7.tXtX6.6.7.7.tXtXpXtX7.7.7.8.8.8.tXtXtXtXpXgXhXgXgXxXxXzXpXtXxXMXMXvXxXxXzXhXhXvXvXhXtXaXaXpX6.,.,.<.6.rXrXrXrX7.7.6.7.6.6.3.2.2.2.2.2.3.7.rX7.6.",
"<.<.,.<.2.2.2.2.2.2.2.2.2.6.6.6.3.3.3.3.3.3.3.6.7.rXrXpXyXpXpXpXpXpXsXpXpXpXtXtXtXtXtXtXtXpXpXpXpXpXpXpXpXpXpXpXtXtXpXxXvXvXxXxXzXzXzXxXxXnXbXbXMXNXDXFXFXDXFXFXDXFXFXFXFXFXDXDXDXDXDXMXMXbXxXxXzXhXgXaXpXtXtXtXaXxXvXMXNXBXBXNXNXNXMXmXmXmXxXxXxXxXxXbXvXvXbXvXvXvXxXxX6.y # # - - y #.pXxXxXxXzXzXzXzXzXzXzXzXgXaXgXgXgXgXgXhXhXgXgXgXgXgXgXgXpXtXrXtXtXtXtXtXtXfXxXNXDXDXDXNXDXDXDXDXNXMXvXxXxXjXhXkXkXkXkXkXkXkXkXkXkXjXjXhXhXhXgXpXtX8.6.2.2.2.<.<.<.<.<.#.#.#.#.#.#.#.@.@.@.@.@.@.@.@.@.#.#.#.#.#.@.<.<.<.2.2.6.tXgXhXjXxXjXjXhXfX8.8.6.8.8.8.8.8.8.8.pXtX6.5.#.#.#.2.2.<.2.2.7.7.6.6.xXvXxXfXpXtXkXxXxXbXbXzXpXpXaXaXpXtX7.6.2.<.6.tXpXpXgXgXgXhXgXgXfXtXtXtXtXfXhXMXFXFXFXNXNXMXxXgX8.8.tXtXfXjXfX8.6.6.5.5.#.+.+.+.+.+.+.+.+.+.#.#.<.5.6.6.6.6.6.6.6.6.6.6.6.6.7.7.7.7.rXrXrX7.7.rXrXrXrXrXyXyXpXpXpXpXsXaXtX3.4.6.6.6.6.6.7.7.6.6.6.+.+.+.+.+.+.+.+.+.+.+.+.+.,.7.gXgXfXpXpXpXtXtX7.7.6.6.2.2.2.2.6.6.6.6.<.<.6.7.tXpXpX7.<.<.<.2.6.6.6.6.6.pXjXxXxXhXpXhXxXgXpXtXrXgXvXhXhXvXMXzXhXhXzXxXgXpXaXtX2.,.<.<.<.2.7.rXrXrX7.7.7.7.6.6.3.3.3.3.6.6.7.tXrX7.",
"2.6.6.7.rX7.rXrXrXrXpXpXtXpXpXpXpXpXpXpXpXpXpXpXgXhXhXxXxXxXxXxXxXxXxXxXxXzXzXhXzXzXzXxXhXhXhXhXhXzXzXzXhXhXhXzXhXzXzXNXNXNXNXNXNXNXNXNXDXDXDXDXNXNXBXFXDXDXNXFXJXFXJXUXUXUXUXLXLXLXLXLXFXBXNXMXvXxXzXhXzXhXgXgXjXmXmXmXBXFXFXFXFXBXmXjXmXMXBXFXBXBXNXNXDXDXDXDXNXMXNXpXq & - = $ % i 5.hXjXjXkXkXkXkXkXkXkXkX5X X X(. X X X X X X X X X X X5X5X X X>.:.0.0.0.0.5.9.8.kXvXNXNXNXNXNXNXNXNXNXMXMXMXmXmXfX X X X X5X5XlX5X(.(.4XlX4XlXlX4X4X4X X X/./././././././.(.(.(.T.Y.Y.Y.Y.Y.-.-.-.-.-.-.-.;.;.;.;.;.;.;.;.;.;.;.(.T.T.Y.T.T.Y.Y.U.U.U.U.U.;.;.;.-.&.;.(.(.:.:.%.O.O.@.@.#.#.<.6.6.6.8.MXmXkX#.F F J 0.kXkXkXfX8.9.9.9.9.5.0.:.$.%.%.:.:.:.;.;.;.;.;.;.;.;.;.;.;.Y.(././././././././.T.T.T.E.E.W.W.^.E.R.^ W D Z C C C C Z D D D S D G H W / %.$.$.$.$.$.$.$.$.$.$.$.$.$.$.$.#.#.#.#.#.#.#.#.$.$.#.:.0.9. X5X X9.O.p  ...O.+.5.6.6.6.6.6.<.+.+.+.+.$.#.#.#.#.#.0.0.0.8.fXkXfXkXkXkXfX8.9.>.0.0.0.0.:.$.$.$.$.$.$.$.$.:.>.9.9.>.0.0.0.>.9. X X X XlXBXLXUXBXmXmXmXmXxXxXgXjXMXxXmXBXBXmXxXxXxXxXxXhXaXpX3.,.<.<.<.2.6.rXtXrXrXrXrX3.6.rX6.7.7.rXtXaXfXgXgXaX",
"kXlXVXVXVXVXmXmXVXVXVXlXlXlXlXlXlXkXkXkXkXiX XkXVXmXVXVXVXVXlXlXkXkXjXjXjXjXVXVXVXVXmXmXVXlXlXlXlXlXjXkXjXjXkXkXjXhXbXDXDXFXFXDXDXDXDXFXDXFXBXBXBXZXBXBXZXZXCXVX5X.X.X.X.X.X.X.X.X.X.X4XlXCXZXZXZXBXBXBXmXmXVXVX5X5X5X5XkXBXZXZXZXlX9.:. XlXVXmXmXBXmXNXBXFXFXFXNXMXjXa % - ; - $ $ F 9.5X4X4X.X[.[.[.[.[.[.[.[.{.].[.[._.[.].]._.G.B.M.!.!.[.{.[.).W.g.h.h.' *.*.*.&.&.>.(. X5X5X4X4X5X.X X X.X X X.X(.I D D D / ) /.R.E ^ {.,X*X*X*X*X}.}.}.}.*X*X*X+X*X+X+X+X*X*X].].'.'.'.'.].'.'.].'._._._._.].].].].].].]._._.].].'.'.'.`.+X].'.oX].`.`.].`.`.`.`.`.`.`._._.).[ ~ $.#.#.#.#.#.2.6.6.8.xXjX XH D H W _ Y.Y.R.U.I.' a.^ a.a.] ^ p.p.p.p.p.p.r.r.r.p.r.p.r.r.p.p.u.l.c.c.n.n.c.c.c.c.c.c.b.b.b.b.Z.S.S.S.b.c.d.u.y.y.t.t.y.y.y.t.q.q.r.r.r.p.u.u.p.p.p.r.r.r.r.r.r.r.^ ^ ^ ^ r.r.r.r.r.r.r.p.f.f.k.W.M.].0XeXAXeX0X/.F s  .a $. X X X X X5X X:.>.(. X.X.X.X4X4X4X4X.X4X4X4X4X4X4X4X4X4X4X.X}.}.}.|.|.|.{.{.{.{.{.{.{.{.{.{.|.{.}.}.}.}.}.}.}.}.}.}.0XCXAXCXCXCXlXlXCXCXlXlXlXlXlXlXlXlXlX4X4XlXlXlXVXVXjXfX<.<.2.6.7.tXpXpXpXpXtXtXtXtXpXfXkXkXlXlXVXVXVXVXVX",
"R.^./..X.X.X.X.X/././.T.T.Y.h.' r.r.r.p.f.f.l.).).{.{.{.{.{._._.{._._.{.{.|.{.{.{.{.{.{.{.[.[.[.).!.W.W.l.l.k.k.k.R.4XlXlXCXCXCXlXlX0X0X0X0X0X0X0X0X,X,X,X,X,X_.~.!.N.V.N.N.N.N.M.c.d.i.s.l.W.[..X4X0X0XlXCX0X}.).E.E.R.' (.lXVX5X>.;.Y.*.-. X5X XkXkXjXjXmXmXmXMXMX8.i 2 s s s i y ( >./..X}.].`.`.`.`.`.`.D.D.D.XXD.XXK.K.K.K.XXD.D.C.C.D.D.'.oXD.D.`.`.`._._._.M.j.j.j.M.M.N.N.V.V.S.G.N.b.b.B.M.n.l.j.j.s.d.s.s.s.d.A.b.`.+XOX%X*XOXOX%X%X*X@X@X@X@XOXOXOXOXOXOXoXoXoXoXoXoXoXoXoXoXoXoXoXoXoXOXOXOXoXoXoXoXoX*XOX@X@X@X@X@X@X@XoXoXoXoXoXOXoXoXoXoXoXoXoXoXoX'.l.' %.$.@.@.@.@.2.6.6.6.fXkX(.' h.f.W.W.l.M.l.W.l.s.p.s.p.p.s.s.s.u.s.s.s.s.s.s.s.s.u.u.u.u.s.d.c.N.N.N.N.N.N.N.N.N.N.N.N.V.V.`.+X+X*X*X<X<X<X<X<X<X<X7X7X<X,X,X,X,X6X0XeXeXeX0X0X0X6X7X,X,X+X'.'.'.*X*X,X&X&X&X<X7X6X6X6X6X8X8X8X8XqXqXqX8XqX8X0X0X/.~ a F ;.T.^.[.}..X|.).r.f.[.,X<X<X6X6X:X<X<X<X<X<X>X<X<X<X>X>X:X-X-X-X%X%X%X%X*X@XOX@X*X*X*X%X%X%X%X%X%X%X%X%X%X%X%X%X*XOX%X*XoXoX'.S.N.N.N.N.N.M.M.n.c.c.j.j.i.j.j.j.j.l.k.E./.(.;.~ +.+.<.6.7.7.6.2.2.#.0.:.;.(./.[.[.[.[.|.|.|.|.|.",
"r.r.r.r.t.p.p.p.r.T m q.r.u.c._.'.*X,X7X6X6X6X6X6X6X6X6X6X8X8X8X8X8X8X6X6X:X:X>X>X>X>X%XoXoXoX'.D.D.D.S.C.Z.V.Z.C.Z.D.*X*X*X&X&X&X*X*X*X*X-X*X*X*X>X<X*XoXD.D.K.`.D.D.D.`.~.~.~.`.`.`.`.S.G.G.N.M.N.N.S._.`.'.].].].]._.l.p.k.k.p.k.W.E.p.Y I &.&._ %.%. XZXkX9.fXvX7.s s F F F O.0.>.^.)._._.+X@XOXOXOXOXOXOXOXOXOXOXOXOXOXOXOXOXOXOXOXOXOXOXOXOXOXOXOX@X@X@XOXoXoXoXoXOXOXOXOXOX=X=XOX%X%X%X=X%XOXOXOX@X@X@X@X@X@X*X*X*X*X*X*XOXOX=X#XOXOXOX-X*X*X*X*XOX%XOXOX@X@XOXOX@X@X@X@XoX*X@X@X*X*X*X*X*X*X*X@X*X*X@X@X@X@X@X@XOXOXOXOXOXOXOXoXoXoXoXoXoXoXOXoXoXoXoXoXK.oX*X'.[./.>.:.0.0.0.5.8. X X XW.k.l.l.n.M.N.n.n.M.l.p.p.s.p.s.s.s.s.s.s.s.s.s.s.s.s.s.s.s.s.s.s.d.c.b.V.V.N.N.N.N.N.N.b.m.N.V.`.+X,X<X<X<X<X<X7X6X6X6X6X6X6X6X6X6X0X0XAXAXSXAXSXAXAXeXeXeX0X,X'.`.`.`.oX7XqXqXqX6X6XqXqXqXqXqXqXqXqXqXqXqXqXqXqX8X8X6X7X[.^.W.)._._.'.'.oX_.d.n v U _.OX#X=X=X=X=X=X=X=X=X=X=X=X=X=X=X=X=X=X=X=X=X=X=X=X=X%XOXOXOXOXOX%X=X=X=X=X=X=X%X%X%X%X%X%X%XOXOXL.K.K.K.C.V.Z.Z.b.m.m.m.b.b.b.c.c.c.A.d.d.d.u.u.r.U Y Z O.O.O.@.2.2.+.i y H _ ` p.W.!.N.N.N.N.N.N.N.N.N.",
"7X<X,X,X*X].G.l.s.p.u.l.G.}.,X6X6X6X6X8X6X6X6X6X6X6X6X6X6X6X6X6X6X6X6X6X:X:X:X6X:X:X6X:X:X:X:X:X:X:X:X:X>X*X%XoX+XoX<X6X6X6X6X6X6X6X6X6X6X6X8X6X<X*XoXD.V.V.D.V.V.V.V.V.N.N.M.N.N.N.N.N.N.j.j.N.N._._.`.`.`.`.`.`.'.'.].].].].].{.{._.!.M.p.r.^ r.g./.4XCX.X(.>.5.fX6.O.F F F ~ #.>./.}.,X*X*X@X-X-X-X=X-X-X-X-X=X=X=X=X-X-X-X-X-X=X-X-X=X-X-X-X-X-X-X-X-X=X=X=X-X-X-X-X;X;X;X;X-X-X-X-X-X-X-X=X-X-X=X=X=X=X=X=X=X=X=X=XOXOXOX*X#X#X#X#X%XOX@X@XOXOX%X*XOXOXOXOX@X@XOXOXOX@X@X@X+XoX`.XX@X*X*X*X*X*X*X*X*X-X*X*X-X-X*X*X*X*X*X*X*X@X@XOXOXoXoXoXoXOXoXoXoXoXXXXXoXoXoX+X+X+X].}..X.X.X4XlXlX0X.X_.l.M.N.V.S.V.m.m.m.m.N.N.N.N.N.M.d.s.s.s.u.u.u.s.u.u.u.s.d.i.i.c.b.V.V.V.V.V.N.m.m.b.c.c.c.c.c.b.N.`.+X,X<X<X<X7X6X6X6X6X6X6X6X6XqXwXeXAXAXSXAXAXAXAXAXeXeX,X_._.V._._.D.+X,X<X*X%X<XqXqXqXqXqXqXqXqXqXqXqXqXqXqX8X8X8X:X7X7X<X*X*X*X*X*XoXS.q.v x v M.OXOXOXOX=X#X#X=X=X=X=X=X=X=X=X=X%X%X%X%X=X#XOXOX=X=X%X%XOXOXOXOX=X=X=X=X=X=X=X=X%X%X%X%XOXOXOXOXK.K.oXD.C.V.V.N.N.m.m.m.b.b.c.c.c.c.c.d.d.d.u.u.t.p.p.G $.O.O.O.@.2.5.$.%.Y.g.g.l._.N.V.G._._.G._._._._.",
">X=X-X@X_.n.u.y.t.u.d.N.`.*X>X:X:X6X6X8X6X6X6X6X:X:X:X6X6X8X6X6X6X6X6X6X:X:X:X6X:X:X:X:X:X:X:X:X>X>X:X>X-X*XOXOXoX-X6X6X8X8X8X8X8X8X8X8X:X-XOXD.V.V.V.V.V.V.V.V.N.N.N.N.M.d.y.M.N.N.N.N.M.y.u.j.c._._.S._._._.`.D.`.S.`.`.`.`.`.D.`._.V._.!.n.j.l.M.].]._.{./.;.:.5.5.#.O.a F s O.>./.|.*X+X%X=X-X-X=X=X=X-X-X=X=X=X=X=X=X=X=X=X-X-X;X-X-X-X-X-X=X=X=X=X=X=X=X=X;X;X;X;X;X;X;X;X;X-X=X;X;X;X=X#X=X=X=X=X=X=X=X=X=X=X=X=X#X$X-X$X@X@X#X@XOXOXOXOX%X%X%XOX*XOXOXOX@X@XOX@XOXOXOXOXD.Z.Z.C.XXXXoXoXoXoX@X*X-X-X-X-X-X-X-X-X-X-X-X-X-X-X*X*X*X*XOXoXoXOXoXoXoXoXXXXXoXoXD.N.N._.{.].,X0X0X0X0X0X,X_.c.j.c.N.V.C.C.V.b.V.V.V.C.C.C.C._.N.c.c.c.c.c.c.c.c.c.b.b.N.V.V.`.`.`.`.`.`.D.V.V.V.V.V.V.b.b.N.b.b.b.b.Z.Z.Z.Z.S.F.D.D.D.`.oXoX*X,X,X6X0X0X0X7X6X,X,X*X+X'.V.b.b.b.V.V.C.V.C.D.K.OX:XqXqXqXqXqXqXqXqXqXqXqXqXqXqX8X8X6X<X<X<X<X>X-X>X>X*X%Xb.m v c n N.XXOXOXOXOXOXOXOXOXOXOX%XOXOXOXOX%X%XOX%X=X=XOXOXOX%X%X%XOX#XOXOX%X%X%X%X%X%X%X%X%XOXOXOXOXOXOXOXK.K.K.D.C.V.Z.b.b.m.m.m.b.c.c.c.c.c.A.A.d.d.i.i.u.t.s.W O.$.O.O.O.#.5.(.E.k.l.M.N.N.N.N.N.S.G.N._._._._.",
"=X*X+XV.l.p.t.r.t.j.N.`.*X>X<X6X6X6X6X6X6X6X6X6X6X:X:X:X:X:X:X:X6X6X6X6X:X8X2X:X6X:X:X:X:X>X>X>X>X:X>X%XOXoX@XoXoX6X6X6X6X6X8X6X6X>X%XK.S.Z.Z.Z.V.V.V.V.V.V.m.m.N.N.m.m.n.d.y.n.M.M.M.M.l.j.!.n.j._._.S._._._._._._._._.`.~._._.`._._.~.!.!.M.n.l.M.V.*X7X0XAX(.F $.#.0.#.a a 2 3 ~ &.R.,X,X*X-X-X-X=X=X=X=X=X=X-X-X-X-X=X=X=X=X;X;X;X;X;X;X;X;X;X;X;X;X;X;X;X=X-X-X=X=X=X=X=X=X=X-X-X=X#X#X#X=X=X=X=X=X#X=X=X#X=X%X%X%X#X$X$X#XOX@X*X*XOXOXOXOX%X*X-X*X*XOXOXOX@X@X@X@XOXOXOXoXS.b.Z.V.V.D.XXV.Z.Z.V.`.K.oXOX-X-X-X-X-X-X-X-X-X-X-X-X-X*X*X*XOX@X@XOXoXoXXXXXXXoX`.c.i.A.j.j.!.}.0X0X0X0X3X[.f.f.j.d.n.m.m.V.V.b.V.V.V.V.C.~.`.D.`.`.`.`.`.`.`.`.`.`.'.`.XXoXoXoXXX`.`.XXXX`.D.D.D.V.V.V.S.`.+X*X*X*X+XoXoXoXoXD.D.D.`.`.'.'.'.+X*X@X@XoX*X*X*X*X%XOXOXXXXX`.`.`.XXXX+X@X,X,X<X:X8X8X8X6X6X6X6X6X6X6X6X6X6X6X6X6X6X6X>X*X*X-X-X%X*X*X*X*XOXN.r.m T t.S.XXXXoXOXOXOXOXOXOXOXOXOXOXOXOXOXOXOXOXOX%X%XOXOXOXOX%X%XOX=X=XOX%X%X%X%X%X%X%X%XOXOXOXL.OXOXoXoXK.K.K.D.V.Z.b.b.b.m.m.m.b.c.c.c.c.A.A.A.d.i.i.i.i.d.d.W $.$.s s s F ;./.W.l.n.N._.!.!.!.N.V.V.V.V.V.V.V.",
"%XoXb.x.r.q.r.t.j.N._.+X*X<X:X6X6X6X6X:X:X6X6X6X8X8X6X:X:X:X:X:X:X8X6X:X:X2X2X8X6X:X:X:X>X>X:X-X*XoXD.C.oX*X@XK.-X8X:X6X6X<X<X%XXXD.C.C.V.V.V.V.V.V.V.V.m.m.m.m.b.b.n.m.n.n.u.n.M.M.M.N.j.j.N.j.j._._.S.S.S.S._._._._._.`._.`.`.S._.`.V.N.M.N.m.M.!.`.*X<X6XAXCXu u O.#.#.a s w @ 8 9 x r.*X#X>X-X=X-X-X-X-X-X-X-X-X;X;X=X=X;X;X-X;X;X;X-X;X;X-X;X;X;X;X-X-X-X-X-X;X;X;X=X=X;X;X;X;X;X;X;X;X;X;X-X-X-X-X=X=X=X=X=X=X-X-X-X#X=X#X=X=X=X=X=X=X-X-X-X-X-X-X*X*X%XOX@X@X@X@XOXOXOXoX@X+X+X@XoXoXoXD.V.C.D.`.XXoXoX@X*X-X-X-X-X-X-X-X=X=X-X-X%X*X-X%X*X*XOXOXOXOXOXoXoXXXV.b.b.i.d.l.n._.[.{.[.!.f.s.s.p.t.u.u.u.j.N.V.V.V.V.C.D.`.`.D.D.D.`.`.XXXXXXD.D.XXXXXXXXD.D.D.D.XXoX`.D.V.V.V.b.V.V.~.`.oX+X@X@X*X*X%X%X*X*X*X@XOXoXoXoXoXoX@X*X*X*X-X-X-X-X-X-X,X*X*X@X@X@X*X*X*X*X-X-X<X>X<X<X<X<X<X<X<X<X<X<X<X<X<X<X<X<X<X<X>XoXXXXXoXoXoXoXoX+XoXoXS.A.c.b.V.D.XXXXoXOXOXOXOXOXOXOXOXOXOXOXOXOXOXOXOXOXOXOXOXOXOXOXOXOX%X=X=X=X%XOXOX%XOXOXOXOXOXOXK.K.L.K.oXK.D.D.D.C.V.Z.b.b.m.m.b.b.c.c.c.c.c.c.A.d.d.d.d.d.A.i.s.I O.$.s i s J -.W.k.f.M._.G._._._.N.N.N.N.N.N.N.N.",
"S.c.p.r.T q.t.f.M.S.'.*X<X<X:X6X6X6X6X:X:X:X:X6X:X:X>X<X<X<X<X<X-X>X:X:X:X:X:X:X>X>X-X>X%XOXK.D.C.V.b.Z.XX-XK.K.6X6X:X-X%XK.D.D.D.D.`.D.V.V.V.V.V.V.V.V.m.m.m.b.b.b.c.n.n.n.t.l.N.N.M.N.u.j._.j.d._._.S.S.S.S.S._._.S.S._.`._.`.S._._.~.n.j.N.N.M.!._.'.*X6XeXSX~ < u $.$.F s s @ B E.!.j.oX=X=X=X-X-X-X-X-X-X-X-X-X;X;X;X;X;X;X;X;X;X;X-X;X;X-X;X;X;X;X-X-X;X:X;X;X;X;X;X;X;X-X@XoXD.D.C.C.C.C.D.XXoXOX@X-X$X@X$X-X#X#X#X#X-X-X-X-X-X-X=X-X-X-X-X-X-X-X-X-X-X@XOXOXOXOX@X@X@X+X+X*X*X*X@X*X*X*X@XC.V.D.`.`.XXoX@X@X@X-X-X-X-X-X-X-X*X%X%X-X-X%X*X*X%X*X*XOXOXOXOX+X+X+X'.S.c.c.M.l.l.l.f.s.s.p.p.t.t.t.u.u.u.d.N.V.S.D.`.`.XX`.`.`.`.`.`.`.`.`.`.`.`.`.`.`.`.D.S.V.b.c.c.d.i.u.i.d.A.N.~.`.+X+X+X+XoXoXOXOXOX@XoXoXoXK.XXXXoXoXOXOX*X-X*X*X*X@X@X-X@X+XoXoXXXXXXXXXXX@X@X-X-X-X-X-X>X>X:X:X:X:X<X>X<X<X>X>X>X-X<X,XD.D.`.`.`.`.`.`.'.'.D.'.`.V.~.C.`.XXXXXXXXoXoXOXOXoXOXOXOXOXOXOXOXOXoXOXOXOXOXOXOXOXOXOXOXOXOXOXOXOXOXOXOXOXOXOXOXoXOXoXK.K.K.K.K.D.D.D.S.V.Z.Z.b.N.m.m.b.c.c.c.c.c.c.A.d.d.d.d.d.d.d.i.s.` ~ $.a s s Z R.k.k.j.M._.G._._.G.G.N.N.N.N.N.N.N.",
"p.r.R q.t.s.j.M.G._.*X-X<X:X:X:X6X6X6X6X6X:X<X-X%XOXOXOXOX%X*X*XOX%X%X%X*X*X-X-X%X%X%X%X%XK.D.C.D.`.V.b.@XoXZ.*X-XOXoXoXoXoXoXoXD.`.`.C.V.V.V.V.V.V.Z.V.m.m.m.b.m.b.c.n.n.n.s.s.!.N.M.N.u.M._.j.d._._.S.S.S.S.S.S.S.S.S._._.S.S.S._._._.N.u.N.~.N.n.~.+X<X6XeXCXV 3 ; F #.F y s 2 h {.%X-X=X=X=X-X-X-X-X-X;X;X-X=X;X;X;X;X;X;X;X;X;X;X;X;X;X;X;X;X;X;X;X;X;X;X;X;X;X;X-XOXC.b.i.t.q.H.H.e.q.q.q.H.q.e.t.i.A.m.b.`.@XOX#X#X-X-X-X-X-X-X-X-X-X-X-X-X-X-X-X-X-X@XXXC.C.D.D.`.`.`.S.S.S.`.oXoX@XoXoX`.Z.b.b.b.b.b.Z.V.D.XXOX*X*X-X-X-X-X-X*X%X-X=X=X*X*X-X-X%X%XOXOX%XOXOXOX+X*X`.c.l.l.W.W.s.p.s.p.p.s.s.p.p.s.u.u.d.!.V.V.S._.S.S.~.V.V.V.N.N.N.m.c.c.c.c.A.A.i.i.i.i.i.i.u.s.d.s.i.u.u.u.i.c.V.`.`.XXXXoXXXXXXX`.`.`.`.`.`.`.`.`.oX+X+X+X+X+X+X`.`.`._.V.V.N.N.N.N.N.V.~.`.XX+X*X,X,X,X>X>X>X>X>X>X>X:X>X<X<X<X<X,X`.V.`.`.`.`.`.`.`.`.`.S.S.S.S.C.C.D.D.XXXXXXXXoXoXoXoXoXoXoXoXoXoXoXoXoXoXoXoXoXoXoXoXoXoXoXoXOXOXOXOXOXOXOXOXOXOXK.K.oXoXK.K.K.K.D.D.S.S.V.V.Z.b.m.m.b.c.c.c.c.c.A.A.d.d.d.d.i.i.u.u.u.u.d.` ~ $.O.#.$.=.W.k.f.j.M._._._._._.G.N.N.N.N.N.N.N.",
"q.q.r.p.s.n.M.N.S.'.*X<X<X6X:X6X6X6X6X6X-XoXoXoXoXoXoXoXOXOX%X*X%X%X%XOXOXOX*X*X*X*X*X-X-X*XoXXXoX*XoXD.`.Z.C.@XD.oXoXOXoXoXoXoXXX`.`.V.V.V.V.V.V.V.b.V.m.m.m.m.N.b.c.n.n.n.n.t.N.N.N.M.u.M._.j.j._._.S.S.S.S.S.S.S.S.S.S.V._.V.S._._._.N.u.M.~.N.N.V.+X<XqXAX4X8 3 < 0 #.F w y 0 1 M.*X#X$X-X=X=X-X-X-X-X;X;X;X;X;X;X;X:X;X;X;X;X;X;X;X;X;X;X;X;X;X;X;X;X;X=X=X-X@XD.c.i.q.q.q.q.q.q.T q.q.q.q.q.q.q.q.q.e.q.t.i.V.OX=X#X-X-X-X-X-X-X-X=X=X=X=X-X-X-X-X-X*XC.b.m.m.m.m.m.b.b.m.b.b.V.~.D.oX@XoX+X`.V.V.V.V.V.D.D.`.`.XXOXOXOXOX%X%X*X*X=X-X=X=X-X-X-X*X-X=X%X%XOX%X%XOXOX+X+XN.l.l.W.W.k.p.p.p.t.s.s.p.p.p.s.u.u.n.!.N.N.N.N.b.n.c.d.d.d.i.i.i.i.i.u.u.u.i.i.i.d.u.u.s.i.i.i.i.i.i.i.i.u.u.i.A.b.b.b.b.b.N.N.N.N.N.N.m.n.n.n.n.n.n.n.n.n.n.l.l.d.d.u.t.t.t.t.t.t.u.i.d.c.n.N.N.b.m.m.N.N.m.m.n.c.c.c.n.m.N.N.N.~.V.V.V.V.V.V.V.S.V.V.V.V.V.V.S.V.V.V.S.D.D.D.`.D.D.D.XXXXXXXXXXoXK.oXoXoXoXoXoXoXoXoXoXoXoXoXoXoXoXoXoXOXOXOXOXoXK.K.K.oXoXK.F.D.D.D.D.S.V.V.N.Z.b.m.b.c.c.c.c.A.d.d.d.d.d.d.i.u.u.u.u.t.y.d.` F $.F 5.>.Q.W.f.f.f.c.N._._._._.N.N.N.N.G.N.N.N."
};
