/* XPM */
static char *cartoon_wood[] = {
/* columns rows colors chars-per-pixel */
"512 512 256 2 ",
"   c #391A0B",
".  c #3D2715",
"X  c #3F2A21",
"o  c #4B2B0D",
"O  c #48250D",
"+  c #532D0E",
"@  c #56320E",
"#  c #4C2C14",
"$  c #4B2D1B",
"%  c #462A18",
"&  c #522E14",
"*  c #522E1A",
"=  c #582D13",
"-  c #4E3116",
";  c #4D331C",
":  c #48341D",
">  c #533214",
",  c #5A3514",
"<  c #53341C",
"1  c #5A351B",
"2  c #56391F",
"3  c #5A391D",
"4  c #5C3915",
"5  c #633B1C",
"6  c #653A19",
"7  c #6B3417",
"8  c #4A2E21",
"9  c #4C3322",
"0  c #4E3923",
"q  c #473322",
"w  c #543622",
"e  c #593722",
"r  c #563922",
"t  c #593A23",
"y  c #553C2A",
"u  c #5B3C29",
"i  c #563729",
"p  c #5A3C2F",
"a  c #633D22",
"s  c #683D23",
"d  c #723F2C",
"f  c #421E0B",
"g  c #6B431C",
"h  c #68441A",
"j  c #74491D",
"k  c #7F511F",
"l  c #5C4028",
"z  c #5E4133",
"x  c #644224",
"c  c #6B4323",
"v  c #63432B",
"b  c #6B452B",
"n  c #6C4A2A",
"m  c #744B24",
"M  c #744B2C",
"N  c #7B4C2B",
"B  c #754627",
"V  c #7C522D",
"C  c #7A5226",
"Z  c #694934",
"A  c #764D32",
"S  c #7B5333",
"D  c #785536",
"F  c #6E5033",
"G  c #795742",
"H  c #854E2C",
"J  c #82532B",
"K  c #8A5D2C",
"L  c #85572A",
"P  c #835433",
"I  c #835B34",
"U  c #8C5B34",
"Y  c #8C5D3C",
"T  c #875837",
"R  c #935D3C",
"E  c #955B37",
"W  c #8B5232",
"Q  c #8C623C",
"!  c #8B6438",
"~  c #93633C",
"^  c #956A3D",
"/  c #9C6B3D",
"(  c #986537",
")  c #92642F",
"_  c #A5643B",
"`  c #AA663C",
"'  c #A46C3C",
"]  c #AC6B3E",
"[  c #A66836",
"{  c #B16C3E",
"}  c #B1663E",
"|  c #AC723E",
" . c #A7753B",
".. c #B3723D",
"X. c #B5793E",
"o. c #A86528",
"O. c #A65F39",
"+. c #8C5E41",
"@. c #955D42",
"#. c #8B6443",
"$. c #946342",
"%. c #9B6C44",
"&. c #986945",
"*. c #9C7246",
"=. c #997655",
"-. c #A36543",
";. c #AC6642",
":. c #A36B44",
">. c #AE6C43",
",. c #AE6D49",
"<. c #A56B49",
"1. c #B16D45",
"2. c #B96E45",
"3. c #B36D49",
"4. c #B66B47",
"5. c #A47344",
"6. c #AD7243",
"7. c #AC7A44",
"8. c #A4744A",
"9. c #AC734A",
"0. c #AD7B4A",
"q. c #A57A48",
"w. c #B37344",
"e. c #B97445",
"r. c #B57A44",
"t. c #BA7C45",
"y. c #B4724A",
"u. c #B9754A",
"i. c #B47B4B",
"p. c #BC7C4A",
"a. c #A77A52",
"s. c #BD7D51",
"d. c #B57952",
"f. c #A25D42",
"g. c #C17D4C",
"h. c #C17B46",
"j. c #C27E53",
"k. c #C07D3A",
"l. c #C3873E",
"z. c #BD8446",
"x. c #BE8846",
"c. c #BE834A",
"v. c #BE894B",
"b. c #B58248",
"n. c #BD8452",
"m. c #B88757",
"M. c #B18753",
"N. c #BB8E62",
"B. c #C18546",
"V. c #C48945",
"C. c #C98946",
"Z. c #C1854B",
"A. c #C9864D",
"S. c #C5894E",
"D. c #C98B4D",
"F. c #C98746",
"G. c #C9924D",
"H. c #C58652",
"J. c #C98753",
"K. c #C78953",
"L. c #C98A55",
"P. c #C68659",
"I. c #C98759",
"U. c #C68A59",
"Y. c #CB8B59",
"T. c #D28E55",
"R. c #D18E5A",
"E. c #D98F57",
"W. c #C69253",
"Q. c #CD9255",
"!. c #CE9955",
"~. c #CE935A",
"^. c #CE995B",
"/. c #C5935B",
"(. c #D19456",
"). c #D29956",
"_. c #D2955A",
"`. c #D49B5C",
"'. c #D99E5E",
"]. c #DA955A",
"[. c #D3924D",
"{. c #E2995C",
"}. c #D6A15D",
"|. c #DBA25E",
" X c #DEAA5E",
".X c #D8A357",
"XX c #CFA05C",
"oX c #E1AC5E",
"OX c #E1A75D",
"+X c #E4B05D",
"@X c #F0AF59",
"#X c #C39563",
"$X c #CB9863",
"%X c #D39562",
"&X c #D59B61",
"*X c #D99E61",
"=X c #DA9D6B",
"-X c #D69A68",
";X c #C98D62",
":X c #D5A263",
">X c #DDA463",
",X c #DFAA63",
"<X c #DDA46A",
"1X c #DDAB6A",
"2X c #D5A66B",
"3X c #DDA971",
"4X c #D8AD6E",
"5X c #E1A665",
"6X c #E3AD65",
"7X c #E9AD64",
"8X c #E2A66A",
"9X c #E4AD69",
"0X c #E8AE6B",
"qX c #EAA565",
"wX c #E4B065",
"eX c #EAB265",
"rX c #E5B16A",
"tX c #EAB36C",
"yX c #EAB96C",
"uX c #F1B56A",
"iX c #E4AC72",
"pX c #E6AA73",
"aX c #E5B372",
"sX c #EAB473",
"dX c #ECBA74",
"fX c #ECB47A",
"gX c #EDBB7B",
"hX c #E6B877",
"jX c #F1BC75",
"kX c #F2BD7B",
"lX c #F1B576",
"zX c #F4AC66",
"xX c #E49D62",
"cX c #EEC17C",
"vX c #F4C37C",
"bX c #F6C57A",
"nX c #BA823D",
"mX c #EDBA82",
"MX c #F3BD82",
"NX c #F5B986",
"BX c #F5C383",
"VX c #F9C584",
"CX c #F6C984",
"ZX c #FBCB85",
"AX c #FDCD8B",
"SX c #F8C689",
"DX c #FDD286",
"FX c #FFD28C",
"GX c #FED78A",
"HX c #FFCE92",
"JX c #FFCB97",
"KX c #FFD392",
"LX c #FFD993",
"PX c #FFD899",
"IX c #EEC181",
"UX c #FFDF98",
/* pixels */
"6X9XQ.I.Y.I.I.I.I.`.9X6X6X6X6X6X6X6X6X9X(.H.I.K.(.9XwX9XI.H.I.I.I.I.Q.6X6XoX>XH.K.I.I.K.|.rX|.D.I.D.6X6X6X6X6X+X6XI.K.I.I.I.K.|.+XoX1Xm < t t w t t t t t t t t 2 t < W y.p.S.B.D.c.c.c.c.c.z.z.`.AXjX>X9X6XQ.Y.Y.Y.S.*X9X0X6X6X6X6X6X6X6X6X6X6X6X6X6X6X6X6X6X6XrX|.K.K.K.K.K.K.K.D.I.>X6X6X6X6X6X6X6X6X'.I.I.I.I.'.9X6X6X6X6X6X6X6X6X9X6X6X6X6X7X5XQ.I.I.H.H.I.I.I.I.I.(.6XwX6X6X6X6X6X6X6X6X6X6X6X6XwXwX,X6X6X>XQ.D.U.c 2 t t t t t t t t t t t ; &.F.c.S.S.S.S.S.c.z.z.z.z.D.rX9X'.A.I.I.I.I.I.I.I.I.I.I.I.I.6X6X6X6X6X6X6X6X6XI.I.I.I.I.I.|.6X6X6X6X6X6X6X6X6X6X6X6X6X6X6X6X6X6X6XrX'.I.I.I.I.I.I.I.H.`.9X,XwX6X6X6X6X6X6XrX`.S.I.I.S.|.rX6X6X6X>XD.I.K.K.K.K.>X6X6X(.I.Y.I.Q.sXK 9 t t t t t t t t t t t 0 a >.3.1.1.r.B.B.z.B.S.t.{ ` c.FXFXVX6X6X6X6X6X6X6X6X6X6X6XI.H.Y.I.K.>XwX6X6XrX6XrX`.S.H.Y.K.`.rX6X6XrX(.I.I.I.I.I.K.>X6X6X6X6X6X9X*XD.I.I.I.I.,XwX6X6X6X6XwX(.H.I.I.I.I.I.I.I.I.D.!.6X X}.(.I.I.I.I.I.I.I.I.I.I.K.I.I.K.`.rX,X,X6X9X9X`.D.I.K.8X6X,X<X| y.S.S.c.c.c.c...1.D.9X6XwX,X6X6X6X6X6X6XQ.I.|.6X6XQ.H.I.I.I.D.5X6X6X6X6X6X6X6X6X6X6X6X6X",
"6X6X(.I.Y.I.I.I.I.*X9X6X6X6X6X6X6X6X6X9XQ.I.I.K.`.6XwX6XI.K.I.I.I.K.Q.6X6X6X|.H.K.I.I.K.>XrX|.D.I.D.6X6X6X6X6X+X6XI.K.I.I.I.K.|.+XoX4Xm < t t t t t t t t t t t 2 t < W y.e.S.S.S.c.c.c.c.c.z.z.`.AXjX,X6X6X(.I.Y.I.I.(.6X0X6X6X6X6X6X6X6X6X6X6X6X6X6X6X6X6X6X6X6XQ.K.K.K.K.K.K.I.D.(.6XrX6X6XwX6X6X6X6XQ.I.I.I.(.5X6X6X6X6X6X6X6X6X6X9X6X6X6XrX6X(.I.I.H.I.I.I.I.I.S.(.6X6X6X6X6X6X6X6X6X6X6X6X6X6X6X,X,X6X,X`.K.K.K.U.c 2 t t t t t t t t t t t ; &.F.c.S.S.S.S.S.c.z.z.z.z.D.rX6X'.I.I.I.I.I.I.I.I.I.I.I.H.(.6X6X6X6X6X6X6XwX6XI.I.I.I.I.I.|.6X6X6X6X6X6X6X6X6X6X6X6X6X6X6X6X6X6X6XrX|.I.I.I.I.I.I.I.H.(.9X,XwX6X6X6X6X6X9X9X`.S.I.I.S.'.rX6X6X6X>XK.K.K.K.K.K.>X6X6X`.H.Y.I.Q.sXK 9 t t t t t t t t t t t 0 a :.1.1.1.r.c.S.z.B.S.t.{ ` c.KXFXVX6X6X6X6X6X6X6X6X6X6X6XQ.I.I.I.K.>XrX6X6XwX6X9X}.K.K.Y.I.Q.6X6X6XrX(.I.I.I.I.I.K.>X6X6X6X6X6X9X*XD.I.I.I.I.,XwX6X6X6X6XwX(.H.I.I.I.I.I.I.I.K.`.rXwX6X6X6X>XI.I.I.S.S.I.I.I.I.I.I.I.K.(.6X6X6X9X9X9X>XD.I.K.*X6X+X>X| y.S.S.c.c.c.c...1.S.9X6XwX,X6X6X6X6X6XwX(.I.|.6X6XQ.H.I.I.I.D.>XwX6X6X6X6X6X6X6X6X6X6X6X",
"6X6X`.I.Y.I.I.I.I.>X6X6X6X6X6X6X6X6X6X9XI.I.I.K.*X9XrX>XI.K.I.I.I.K.(.6X6X6X|.H.I.I.I.K.>XrX|.D.I.D.6X6X6X6X6X+X6XI.K.I.I.I.K.|.+XoX1XC < t t t t t t t t t t t 2 t < W u.{ g.S.c.c.S.S.S.c.z.z.`.AXkX6X6XwX>XI.Y.I.I.I.5X0X6X6X6X6X6X6X6X6X6X6X6X6X6X6X6X6X6X6X`.K.K.K.K.K.K.K.I.D.'.0XrX6X6X6X6X6X6X`.I.I.I.I.5X6X6X6X6X6X6X6X6X6X6X6X6X6X0XrX(.S.I.H.H.I.I.I.I.S.(.9X6X6XwX6X6X6X6X6X6X6X6X6X6X6X6XwX,X`.Q.D.K.K.D.m.5 < t t t t t t t t t t t < &.F.c.S.S.c.S.c.c.z.z.z.z.Q.rX6X>XI.I.I.I.I.I.I.I.I.I.I.S.*X6X6X6X6X6X6X6XrX6XI.I.I.I.I.I.|.6X6X6X6X6X6X6X6X6X6X6X6X6X6X6X6X6X6X6X6XOXI.I.I.I.I.I.I.I.I.6X6XwX6X6X6X6X6X9X9X>XD.I.I.S.`.9X6X6X6X5XI.K.K.K.K.K.`.6X6X>XH.Y.I.I.0XK $ t t t t t t t t t t t 0 a :.1.1.1.r.t.S.B.z.S.p.r.` p.AXFXVX6X6X6X6X6X6X6X6X6X6X6X(.I.I.I.D.`.9X6X6X6X9X9X,XI.K.I.I.D.,X6X6X6X`.I.I.I.I.I.K.>XwX6X6X6X6X9X*XD.I.I.I.I.,XwX6X6X6X6XoX(.K.I.I.I.I.I.I.K.Q.9X6X6X6X6X6X6X9X(.S.I.I.K.I.I.I.I.I.I.K.I.`.6X6X6X6X9X9XI.H.I.Q.6XwX6X..y.S.S.c.c.c.c...1.S.9X6XwX,X6X6X6X6X6XwX(.H.|.6X6X`.H.I.I.I.I.|.wX6X6X6X6X6X6X6X6X6X6X6X",
"6X6X>XI.I.I.I.I.I.6X6X6X6X6X6X6X6X6X6X9XI.I.I.K.>X9XrX>XI.I.I.I.I.H.`.wXoXwX|.H.I.I.I.K.>XrX}.K.I.D.6X6X6X6X6X+X6XI.K.I.I.I.K.|.+XoX4XC < t t t t t t t t t t t t t < W u.} e.S.c.c.S.c.S.S.z.z.`.AXkX6X6XwX6XQ.I.I.Y.I.'.9X6X6X6X6X6X6X6X6X6X6X6X6X6X6X6X6X6X>XD.I.I.I.I.I.I.I.K.Q.9X0XrX6X6X6X6XwX>XI.I.I.I.(.7X6X6X6X9X6X6X6X6X6X6X6X9X9X7X'.S.H.I.I.I.I.S.S.D.`.9X6X6X6X6X6X6X6X6X6X6X6X6X6X6XwX6X|.Q.K.K.Q.Q.I.K.m.5 t t t t t t t t t t t t < &.F.c.c.S.c.S.S.c.z.z.z.z.Q.rX6X5XI.I.I.I.I.I.I.I.I.I.I.I.6X6X6X6X6X6X6X6X9X6XI.I.I.I.I.(.6X6X6X6X6X6X6X6X6X6X6X6X6X6X6X6X6X6X6X6X6X6XI.I.I.I.I.I.I.I.D.>X6X6X6X6X6X6X6X6X6X6XD.I.I.H.(.9X6X6X6X9XQ.K.K.K.K.K.(.6X6X5XK.Y.I.I.9XT $ t t t t t t t t t t t t t &.3.1.1.r.t.S.B.z.S.S.r.` i.AXFXZX6X6X6X6X6X6X6X6X6X6X6X`.I.I.I.D.(.6X6X6X6X6X9X6XQ.K.I.I.S.>XwX6X6X`.I.I.I.I.I.K.>XwX6X6X6X6X9X*XD.I.I.I.I.,XwX6X6X6XwXoXQ.I.I.I.I.I.I.I.Q.6X6X6X6X6X6X6X6X6X6X>XI.I.I.I.I.I.I.I.I.I.K.Q.>X9X6X9X6X9X(.K.I.K.>XwX6X..y.S.S.S.c.c.c...>.S.9X6XwX6X6X6X6X6X6XwX`.H.|.6X6X`.H.I.I.I.I.`.wX6X6X6X6X6X6X6X6X6X6X6X",
"6X6X6XY.I.I.I.I.I.9X6X6X6X9X9X9X6X6X6X6XD.I.I.D.>X9XrX`.I.I.I.I.I.H.`.wXoXwX`.I.Y.I.I.I.>X9X`.K.I.G.6X6X6X6X6X+X6XI.K.I.I.I.K.|.+XoX4XC ; t t t t t t t t t t t t t < W y.} 1.t.c.c.c.S.S.c.z.z.`.AXkX6X6X6X6X`.I.I.I.I.(.9X7X6X6X6X6X6X6X6X6X6X6X6X6X6X6X6X0X`.D.K.I.I.I.I.I.I.I.|.rX6X6X7X6X6X6X6X(.H.I.I.I.5X0X6X6X6X9X9X9X9X6X6X6X6X6X9X|.D.K.K.K.K.I.I.S.D.`.9X9X6X6X6X6X6X6X6X6X6X6XwX6XwXrX5X`.I.K.I.K.K.I.K.K.m.5 2 t t t t t t t t t t t < %.F.S.S.S.S.S.S.c.z.z.z.z.Q.rX6X6XI.I.I.I.I.I.I.I.I.I.I.(.6X6X6X6X6X6X6X6XrX6XI.I.I.I.I.(.6X6X6X6X6X6X6X6X6X6X6X6X6X6X6X6X6X6X6X6X6X6X(.D.I.I.I.I.I.I.S.'.6X6X6X6X6X6X6X6X6X9XQ.I.I.D.Q.9X6X6X6X9X(.K.K.K.K.K.Y.6X6X6XY.I.I.K.<X) $ t t t t t t t t t t t t 3 &.3.1.1.1.r.S.B.z.z.S.t.` r.AXFXZXrX6X6X6X6X6X6X6X6X6XwX|.I.I.I.H.I.6X6X,X6X6X6XrX`.K.Y.I.K.'.wX6XwX|.I.I.I.I.I.K.>XwX6X6X6X6X9X*XD.I.I.I.I.,XwX6X6X6XwXoXQ.I.I.I.I.I.Y.I.`.6X6X6X6X6X6X6X6X6X6X6X5XQ.I.I.I.I.I.I.I.I.I.K.`.rX6X9X1XrX>XI.I.K.`.wX6X..3.S.S.S.c.c.c.r.>.c.9X6X6X6X6X6X6X6X6XwX`.H.'.6X6X|.H.K.I.I.I.Q.6X6X6X6X6X6X6X6X6X6X6X6X",
"6X6X6X(.H.I.I.H.(.9X6X6X9X9X9X9X6X6X6X5XS.I.I.D.9X6X9X`.H.I.I.I.I.K.>XwXoXwX`.I.Y.K.I.I.>X9X`.K.K.D.6X6X6X6X6X+X6XI.K.I.I.I.K.>X+XoX4XC ; t t t t t t t t t t t t t < W 3.1.1.r.c.c.S.S.S.c.z.z.`.AXkX6X6X6X6X|.I.I.I.I.I.>X9X6X6X6X6X6X6X6X6X6X6X6X6X6X6X9X9XI.D.I.K.I.I.K.K.K.Q.6X6X6X6X6X6X6X9X'.I.I.I.I.(.6X6X6X6X6X9X9X9X6X6X6X6X6X6X6XQ.K.K.I.K.K.I.I.K.`.9X6X6X6X6X6X6X6X6X,X6X6X6X6XwX6X`.I.I.I.I.K.K.K.K.K.K.a.4 t t t t t t t t t t t t < %.F.S.S.S.S.S.S.c.c.z.z.z.Q.rX6X6X(.I.I.I.I.I.I.I.I.I.I.|.wX6X6X6X6X6X6X6X9X6XI.I.I.I.I.(.6X6X6X6X6X6X6X6X6X6X6X6X6X6X6X6X6X6X6X6X7X6X|.D.I.I.I.I.I.I.S.(.6X6X6X6X6X6X6X6X6XrX(.I.I.I.I.9X6X6X6X9X`.K.K.K.I.I.I.>X6X6X(.I.I.K.*XT % t t t t t t t t t t t t 1 R 3.1.1.1.r.c.B.z.z.S.t.] r.SXFXZXrX6X6X6X6X6X6X6X6X6XwX5XI.I.I.H.I.6XwX6X6X6X6XrX*XD.I.I.K.`.6X6X6X|.I.I.I.I.I.K.>XwX6X6X6X6X9X'.D.I.I.I.I.,XwX6X6X6XwX XI.I.I.I.I.I.I.Q.5X6X6X6X6X6X6X6X6X6X6X6X6X>XI.K.I.I.I.K.I.I.I.K.Q.9X9X9X9XrX9XI.K.K.Q.6X9X..3.S.S.S.S.c.S.t.1.p.9X6X6X6X6X6X6X6X6XwX'.H.`.6X6X,XI.K.I.I.I.I.6X6X6X6X6X6X6X6X6X6X6X6X",
"6X6XwX`.H.Y.I.H.`.9X6X6X6X6X9X9X6X6XwX>XS.I.H.I.9X6X9XQ.H.I.I.I.I.I.>X6X6X6X(.H.I.K.I.D.>XrX`.K.I.D.6X6X6X6X6X+X6XQ.K.I.I.I.I.>X+XoXrXV ; t t t t t t t t t t t t t < W 3.1.1.1.c.c.c.S.S.S.z.z.`.AXkX5X6XwX6X6XQ.K.I.I.I.`.9X6X6X6X6X6X6X6X6X6X6X6X6X6X0X6XQ.I.I.I.I.I.I.K.I.K.>XwX6X6X6X6X6X6X>XI.I.Y.I.I.5X6X6X6X6X6X6X6X9X6X6X6X6X6X6X`.K.I.I.I.I.I.I.K.Q.6X6X6X6X6X6X6X6X6X6X6X6X6XwXwX|.Q.D.I.I.I.I.I.K.I.K.c.K.a.= t t t t t t t t t t t t < %.F.S.S.S.S.S.S.c.c.z.x.z.Q.rX6XwX(.I.I.I.I.I.I.I.I.I.I.6X6X6X6X6X6X6X6X6X9X6XI.I.I.I.I.'.6X6X6X6X6X6X6X6X6X6X6X6X6X6X6X6X6X6X6X6X6X6X6XD.I.I.I.I.I.I.I.Q.6X6XwX6X6X6X6X6X6XwX`.I.I.I.K.>X6X6X6X9X>XK.K.K.K.I.H.*X6X6X*XK.I.K.&XT $ t t t t t t t t t t w t < Y 3.1.1.1.1.p.B.z.z.S.p.1.6.BXFXZXrX6X6X6X6X6X6X6X6X6X6X6XI.D.I.I.H.|.wX6X6X6X6XwX>XK.I.I.H.Q.,X6X6X|.I.I.I.I.I.K.`.6X6X6X6X6X9X`.D.I.I.I.I.,XwX6X6X6XwX XI.I.I.I.I.I.I.'.9X6X6X6X6X6X6X6X6X6X6X6X6XwX>XI.I.I.I.K.K.I.I.I.K.`.9X9X6X6XrX`.H.I.I.>X9Xr.3.S.S.S.S.c.S.t.1.t.9X6X6X6X6X6X6X6X,XwX|.H.(.6X6X6XI.K.I.I.I.D.5X6X6X6X6X6X6X6X6X6X6X6X",
"6X6X6X|.I.Y.I.I.>X6X6X6X6X6X6X9X6X6XwX'.H.I.S.Q.9X6X9XQ.H.I.I.Y.K.I.6X6X6X6X(.K.I.K.I.I.>XrX`.K.K.Q.6X6X6X6X6X+X6XQ.K.I.I.I.I.>XoXoXrXL ; t t t t t t t t t t t w t < W 3.1.1.>.r.c.c.S.c.z.z.z.`.AXkX5X6X6X6X6X*XI.I.H.K.Q.5X6X6X6X6X6X6X6X6X6X6X6X6X7X0X(.K.I.I.I.I.I.I.I.K.Q.6X6X6X6X6X6X6X7X(.D.I.I.I.(.9X6X6X6X6X6X6X6X6X6X6X6X6XwX|.D.I.I.I.I.I.I.K.Q.>XwX6X6X6X6X6X6X6X6XwX6X XwX6X(.I.I.I.I.K.I.I.I.K.K.K.K.`.m.& t t t t t t t t t t t t < %.F.S.S.S.S.S.S.c.S.z.x.z.Q.rX6XwX`.I.I.I.I.I.I.I.I.D.(.rX6X6X6X6X6X6X6X6XrX6XI.I.I.I.D.|.6X6X6X6X6X6X6X6X6X6X6X6X6X6X6X6X6X6X6X6X6X6X6X(.I.I.I.I.I.I.I.D.6X6X6X6X6X6X6X6X6XwX|.I.I.I.K.'.6X6X6X6X>XI.K.K.K.I.P.`.6X6X>XI.I.K.%XT $ t t t t t t t t t t w t < T 3.1.1.1.1.e.z.z.B.S.c.r.| MXFXZXrX6X6X6X6X6X6X6X6X6X6X6XQ.A.I.I.H.`.9X6X6X6X6XwX6XI.I.I.I.K.>X6X6XoXI.D.I.I.I.K.`.6X6X6X6X6X9X`.D.I.I.I.I.,XwX6X6X6XwX|.I.I.I.I.I.I.I.>X6X6X6X6X6X6X6X6X6X6X6X6X6X6XwX|.H.I.Y.I.I.I.I.I.I.I.,X9X6X6XrX>XK.I.K.`.9Xt.1.S.S.S.S.c.S.z.1.r.9XwX6X6X6X6X6X6X6XwX>XH.Q.6X6X6X(.K.I.I.I.D.>X6X6X6X6X6X6X6X6X6X6X6X",
"6X6X6X5XY.Y.I.I.9X6X6X9X6X6X6X6X6X6XwX`.I.I.H.(.9X6X6XQ.K.I.I.I.K.Q.6X6X6X6XQ.K.I.H.I.I.6XrX(.I.K.Q.6X6X6X6X6X+X6XQ.K.I.I.I.I.>X+XoXrXL ; t 2 t t t t t t t t t w t < W 3.1.1.>.r.c.S.S.S.c.z.z.`.AXkX9X9X6XwX6X6XQ.K.H.I.K.`.6X6X6X6X6X6X6X6X6X6X6X6XrX`.K.K.K.I.I.I.I.I.I.K.>X6X6X6X6X6XwX7X'.D.I.I.I.I.>X6X6X6X6X6X6X6X6X6X6X6X6X6X6XD.S.I.I.I.I.I.K.I.>X9X6X6X6X6X6X6X6X6X6X X6X6X'.I.K.I.I.I.I.I.I.I.I.I.K.K.(.eXm.& t t t t t t t t t t t t < %.F.c.c.S.S.S.S.c.S.z.x.z.Q.rX,X6X*XI.I.I.I.I.I.I.I.I.|.9X6X6X6X6X6X6X6X6X9X6XI.I.I.I.D.>X6X6X6X6X6X6X6X6X6X6X6X6X6X6X6X6X6X6X6X6X6X6X6X`.I.I.I.I.I.I.I.D.>XrX6XwX6X6X6X6X6X6X6XI.I.I.I.`.6X6X6X6X9XQ.K.K.K.I.P.Q.6X6X6XI.I.H.Q.L $ t t t t t t t t t t t t < D y.1.1.1.1.r.z.B.B.S.c.r.] MXFXAXdX6X6X6X6X6X6X6X6X6X6X6X(.S.I.I.I.(.9X6X6X6X6XwX6X`.I.K.I.S.`.6X6X6XI.S.I.I.I.K.Q.6X6X6X6X6X9X`.D.I.I.I.I.,X6X6X6X6XwX|.I.I.I.I.I.I.(.6X6X6X6X6X6X6X6X6X6X6X6X6X6X6XwXrX`.I.I.I.I.I.I.I.I.D.`.9X9X6X9X9XQ.K.I.`.9Xt.1.c.S.c.c.c.S.S.1.r.9XwX6X6X6X6X6X6X6X6X>XK.Y.6X6XwX`.K.I.I.I.D.'.6X6X6X6X6X6X6X6X6X6X6X",
"6X6X6X6X(.I.H.(.9X6X6X9X6X6X6X6X6X6X6X(.I.I.H.`.rXwX6XI.K.I.I.I.K.Q.6X6XwX6XQ.I.I.I.I.I.6XrX(.I.K.I.6X6X6X6X6X+X6XQ.H.I.I.I.I.>X+XoXrXL ; t t t t t t t t t t t t t < W 3.1.1.>.>.p.S.S.S.S.z.z.`.AXkX9X9X6X6X6X6X`.K.K.K.K.Q.5X6X6X6X6X6X6X6X6X6X6XrX>XD.K.K.K.I.I.I.I.I.H.Q.9X6X6X6X6X6X6X5XI.I.I.I.S.(.6X6X6X6X6X6X6X6X6X6X6X6X6X6X'.S.K.I.I.I.I.I.I.&X6X6X6X6X6X6X6X6X6X6X,X6X6X(.I.I.I.I.I.I.I.I.I.I.I.I.I.>X6XzXm.# t t t t t t t t t t t t < %.F.c.c.S.S.S.S.c.c.z.x.z.Q.sX,X6X>XI.I.I.I.I.I.I.I.I.6X9X6X6X6X6X6X6X6X6X9X6XI.I.I.I.D.5X6X6X6X6X6X6X6X6X6X6X6X6X6X6X6X6X6X6X6X6X6X6X6X>XI.I.I.I.I.I.I.D.|.rX6X6X6X6X6X6X6X6X9XQ.I.I.I.(.9X6X6X6X9XQ.K.K.K.I.I.I.6XwX6XI.H.K.Q.L $ t t t t t t t t t t t t < S y.1.>.1.1.r.p.B.B.S.S.u.] MXFXAXdXoX6X6X6X6X6X6X6X6X6X9X`.S.I.I.I.Q.6X6X6X6X6X6X6X>XD.I.I.S.Q.6X6X6XQ.S.I.I.I.K.Q.6X6X6X6X6X9X`.D.I.I.I.I.6X6X6X6X6XwX|.I.I.I.Y.I.I.>X6X6X6X6X6X6X6X6X6X6X6X6X6X6X6X6X6XrX`.S.I.I.I.I.I.I.K.K.>XrX6X6XrX&XK.I.Q.9Xz.;.p.S.c.S.c.S.S.1.r.9XwX6X6X6X6X6X6X6XoX>XI.I.6X6XwX>XI.I.I.I.I.`.wX6X6X6X6X6X6X6X6X6X6X",
"6X6X6X6X(.I.H.(.9X6X6X9X6X9X6X6XwX6X6X(.I.I.S.>XrX6X6XK.I.I.I.I.H.Q.9X6XwX6XQ.I.I.I.I.I.6XrXQ.K.K.Q.6X6X6X6X6X+X6XQ.K.I.I.I.I.>X+XoXrXL $ t w t t t t t t t t t t t < W y.1.1.>.>.r.c.S.c.S.z.z.(.AXkX6X9X6X6X6X6X>XQ.K.H.I.I.|.6X6X6X6X6X6X6X6X6X6X>XI.I.K.K.K.I.I.K.I.K.H.>X9X,X6X6X6XwX6X).I.I.I.I.A.'.rX6X6X6X6X6X6X9X9X6X6X6X6X6XQ.I.I.I.I.I.Y.K.Q.9X6X6X6X6X6X6X6X6X6XwX6X'.I.K.I.I.I.I.I.I.I.I.I.I.K.D.'.0X7XeXm.& t t t t t t t t t t t t < $.F.c.c.S.S.S.c.c.c.B.B.z.Q.sX6X6X>XD.I.I.I.I.I.I.H.Q.6X6X6X6X6X6X6X6X6X6X9X6XI.I.I.I.D.6X6X6X6X6X6X6X6X6X6X6X6X6X6X6X6X6X6X6X6X6X6X6X6X>XS.I.I.I.I.I.I.D.`.rX6X6X6X6X6X6X6X6XrXQ.K.I.K.Q.9X6X6X6XrX`.K.K.K.I.Y.I.6XwX9XQ.K.K.Q.L $ t t t t t t t t t t t t < S u.1.>.1.1.1.p.S.S.z.S.u.' gXFXAXdX6X6X6X6X6X6X6X6X6X6X6X`.S.I.I.I.I.>X6X6X6X6X6X6X6XD.I.I.D.I.9X6X6X(.S.I.I.I.K.Q.6X6X6X6X6X9X`.D.I.I.I.I.,X6X6X6X6XwX|.I.I.I.I.I.Q.6X6X6X6X6X6X6X6X6X6X6X6X6X6X6X6X6X6X6X9XI.S.I.I.I.I.I.I.K.^.9X6X6XrX8XI.K.Q.9Xz.;.c.S.S.S.c.S.S.r...9XwX,X6X6X6X6X6X6X X>XI.I.6X6XwX>XI.I.I.I.K.(.wX6X6X6X6X6X6X6X6X6X6X",
"6X6X6X6X*XH.H.>X9X6X6X9X6X6X9X6X6X6X6XI.I.I.I.6X9X6X>XK.I.I.I.I.H.`.9X6XwX6XQ.K.I.I.I.I.6XrXQ.K.I.I.,X6X6X6X6X+XwXQ.K.I.I.I.I.>XwXoXaX! $ t w t t t t t t t t t t t < H y.1.1.>.>.6.t.S.B.B.B.nX(.AXvX6X9X6X6X6X6X6X`.I.K.I.K.K.6XwX6X6X6X6X6X6X0X>XD.I.I.I.I.I.I.I.K.K.K.(.,X6X6X6X6X6XwX|.D.I.I.I.H.I.,X6X6X6X6X6X6X6X9X9X9X6XoX6X|.I.I.I.I.I.I.I.K.>X9X6X6X6X6X6X6X6X6X6X9X`.K.K.I.K.K.I.I.I.I.I.K.I.I.(.9X6X6X6XuX0.# 2 2 2 2 2 t t t t t t t < ~ A.c.c.S.S.S.S.S.S.S.S.z.Q.sX,X6X5XI.I.I.I.I.I.I.S.*X6X6X6X6X6X6X6X6X6X6X9X6XI.I.I.I.Q.6X6X6X6X6X6X6X6X6X6X6X6X6X6X6X6X6X6X6X6X6X6X6X6X6XI.K.I.I.I.I.I.K.Q.6X6X6X6X6X6X6X6X6XrX(.I.I.I.I.6X6X6X6XrX`.K.K.K.I.I.I.>XwX9XQ.K.K.Q.V 9 t t t t t t t t t t t t < F 3.1.>.1.1.1.p.S.B.z.c.j.] fXFXAXrX6X6X6X6X6X6X6X6X6X6X6X|.K.I.I.I.K.>X6X6X6X6X6X6X9XQ.K.I.K.D.5X6X6X(.S.I.I.I.I.D.6X6X6X6X9X9X`.D.I.I.I.K.>X9X6X6X6XrX|.K.I.I.I.I.`.6X6X6X6X6X6X6X6X6X6X6X6X6X6X6X6X6X6X6X6X>XD.I.I.I.I.I.I.K.K.>X9X6X6X9XQ.H.H.>XD.;.S.S.S.S.z.S.S.r.] 9XwX,X6X6X6X6X6X6X6X6XI.I.|.wX9X6XQ.K.I.Y.K.Q.6X6X6X6X6X6X6X6X6X6X6X",
"6X6X6X6X5XD.Q.9X6X6X9X6X9X9X9X6X6X6X5XI.I.I.I.9X6X6X>XH.I.I.I.I.H.'.6X6XwX6XI.I.I.I.I.Q.6XrXQ.K.I.I.,X6X6X6X6X+XwXQ.K.I.I.I.K.>XwXoXaX! % t w t t t t t t t t t t t < B y.1.1.>.>.>.r.c.S.B.B.z.(.AXVX6X9X6X6X6X6X6X>XI.I.K.K.S.Q.6XwX6X6X6X6X6X5XQ.I.Y.I.I.I.I.I.I.I.K.I.>X6X6X6X6X6X6X5XQ.I.I.I.K.K.(.9X6X6X6X6X6X6X6X9X6X6X6X6X6X`.D.I.I.I.I.I.K.`.9X6X6X6X6X6X6X6X6X6X6XQ.S.K.K.K.K.K.K.K.I.I.I.D.I.*X0X9X6X6X6XeX*.# 2 2 2 2 2 2 t t t t t t < ~ A.S.S.S.S.S.S.c.S.z.z.z.Q.sX6X6X6XQ.H.I.I.I.I.I.I.9X6X6X6X6X6X6X6X6X6X6XrX6XI.I.I.I.(.9X6X6X6X6X6X6X6X6X6X6X6X6X6X6X6X6X6X6X6X6X6X6X6X9X(.D.I.I.I.K.I.K.I.6XwX6X6X6X6X6X6X6XrX`.K.I.I.I.>X6X6X6XrX>XK.K.K.I.I.K.>XwX9X`.K.K.Q.V 9 t w t t t t t t t t t t < n 1.1.>.>.1.1.u.c.S.z.c.H.] fXFXAXrX6X6X6X6X6X6X6X6X6X6X6X|.I.I.I.I.K.`.wX6X6X6X6X6XrX`.K.I.K.D.>X6X6X`.K.I.I.I.I.K.,X6X6X6X9X9X`.D.I.I.I.K.>X9X6X6X6XrX|.K.I.I.I.I.>X6X6X6X6X6X6X6X6X6X6X6X6X6X6X6X6X6X6X6X6XwX>XI.I.I.I.I.I.I.K.`.9X6X6XrX`.K.H.`.S.,.S.S.S.c.z.S.S.y.[ 8XwX,X6X6X6X6X6X6X6X6XI.I.|.6X6X6X(.K.I.Y.Y.I.>X6X6X6X6X6X6X6X6X6X6X",
"6X6X6X6X9XQ.>X9X6X9X9X6X9X9X9X6X6X6X>XI.I.K.Q.9X6XrX&XH.I.I.I.I.K.>X6X6XwX>XI.I.I.I.I.Q.9X9XQ.K.I.I. X6X6X6X6XoXwX(.K.I.I.I.K.>XwXoXaX! % t w t t t t t t t t t t t < B y.1.1.1.>.>.r.p.S.B.x.b.Q.AXVX6X6X6X6X6X6X,XrXQ.I.K.K.I.I.(.6X6X6X6X0X9XQ.K.Y.I.I.I.I.I.I.I.I.K.Q.9X6X6X7X6X6X6X(.I.I.I.K.K.I.|.rX6X6X6X6X6X6X6X9X9X6X6X6X6X(.D.I.I.I.Y.K.Q.6X6X6X6X6X6X6X6X6X6X>XI.H.Y.K.K.I.I.H.K.K.K.K.I.(.5X6X6X6X6X6X6XeX^ # 2 2 < < < t t t t t t t < Y A.S.S.S.S.S.S.S.S.B.B.z.Q.sX6X6X6XQ.H.I.I.I.I.D.'.9X6X6X6X6X6X6X6X6X6X6XrX6XI.I.I.I.(.9X6X6X6X6X6X6X6X6X6X6X6X6X6X6X6X6X6X6X6X6X6X6X6X0X*XD.D.I.I.I.I.K.I.,XwX6X6X6X6X6X6X6XrX`.K.I.I.K.|.6X6X6XrX>XI.K.K.I.I.K.`.wX9X>XK.I.Q.V 9 t w t t t t t t t t t t w b >.1.>.>.1.1.r.p.S.c.c.H.] pXKXAXrX X6X6X6X6X6X6X6X6X6X6X,XI.I.I.I.K.Q.wX6X6X6X6X6XrX|.K.I.I.S.`.6X6X`.I.Y.I.I.I.K.>X6X6X6X9X9X`.D.I.I.I.K.|.9X6X6X6XrX`.K.I.I.I.Q.>X6X6X6X6X6X6X6X6X6X6X6X6X6X6X6X6X6X6X6X6X6XrX`.I.I.I.I.I.I.K.Q.6X9X6XwX,XI.H.Q.H.3.c.S.c.c.z.S.S.u.] <XrX,X6X6X6X6X6X6X6X6XQ.I.`.6X6XwX>XK.I.Y.Y.H.`.9X6X6X6X6X6X6X6X6X6X",
"9X9X6X6X6X>X9X6X6X9X6X6X6X6X6X6X6X6X`.S.I.K.`.9X6XrX(.H.I.I.I.I.I.>X6XwXwX>XI.I.I.Y.I.Q.9X9XQ.K.I.Q. X6X6X6X6XoXwX(.K.I.I.I.K.>XwXoXaX! % t w t t t t t t t t t t t < B y.1.1.1.1.1.1.r.S.B.z.z.!.KXVX6X6X6X6X6X6X6XwX|.K.I.K.I.I.K.(.6X6X6X>XQ.K.I.I.I.I.I.I.I.I.I.I.D.|.6X6X6X7X6X6X'.I.I.I.H.K.K.Q.6X6X6X6X6X6X6X6X9X6X6X6X6XwX5XI.D.I.Y.I.Y.K.}.rX6X6X6X6X6X6X6X9X>XI.H.K.K.K.K.I.I.K.I.I.I.S.`.6X6X6X6X6X6X6X6XeX! ; t w w < < w t t t t t t < Y h.S.z.S.S.S.S.S.S.B.B.t.Q.sX9X6X6X(.H.I.I.I.I.I.5XrX6X6X6X6X6X6X6X6X6X6XrX6XI.I.I.I.(.9X6X6X6X6X6X6X6X6X6X6X6X6X6X6X6X6X6X6X6X6X6X6X6X6X>XD.I.I.I.I.I.K.K.>XrX6X6X6X6X6X6X6XwX>XK.I.I.K.'.6X6X6XrX6XQ.K.K.I.I.I.(.rX9X9XI.I.Y.L 9 t w w t w w t t t t t t w b ] 1.1.>.1.1.r.t.S.z.c.H.6.iXKXFXaX|.6X6X6X6X6X6X6X6X6X6X6XQ.K.I.I.I.Q.6XwX6X6X6X6XwX,XI.K.I.S.(.6XwX'.I.I.I.I.I.K.>X6X6X6X9X9X`.D.I.I.I.K.'.9X6X6X6X9X`.K.I.I.I.`.6X6X6X6X6X6X6X6X6X6X6X6X6X6X6X6X6X6X6X6X6X6X6X6XQ.I.I.I.I.I.I.K.>XrX6X6X9XQ.K.K.H.1.p.S.c.c.c.c.S.p._ <XrX,X6X6X6X6X6X6X6X6X(.I.(.6X6XwX,XI.I.Y.Y.H.Q.6X6X6X6X6X6X6X6X6X6X",
"9X9X6X6X6X9X9X6X6X9X6X6X6X6X6X6X6X6X(.H.I.K.>X9X6X9X(.H.I.I.I.I.I.6X6XwX6X>XK.I.I.Y.I.(.9X9XQ.K.I.Q. X6X6X6X6X+XwX`.K.I.I.I.K.>XwXoXaX! % t w t t t t t t t t t t t < B y.1.1.1.1.1.1.r.p.S.z.b.!.KXBX6X6X6X6X6X6X6X,X6XQ.D.Q.I.I.I.S.(.>X`.K.K.I.I.I.I.I.I.I.I.I.I.K.Q.,X6X6X6X6X7X>XI.I.I.I.I.I.I.`.wX6X6X6X6X6X6X6X6X6X6X6X6XrX|.D.I.I.K.Y.K.(.9X6X6X6X6X6X6X6X9X>XI.I.K.K.I.Q.I.K.K.I.I.I.I.'.6X6X6X6X6X6X6X,XwXeXI < t t e w w w t t t t t t < Y h.S.c.c.S.c.S.c.S.S.B.t.Q.sX6X6X9X`.H.I.I.I.H.Q.9X6X6X6X6X6X6X6X6X6X6X6X9X6XI.I.I.I.(.9X6X6X6X6X6X6X6X6X6X6X6X6X6X6X6X6X6X6X6X6X6X6X6X6X6XD.I.I.I.I.I.I.K.|.rX6X6X6X6X6X6X6X9X>XK.I.I.K.`.9X6X6X6X9XQ.K.I.I.I.I.Q.6X9X9XQ.D.Q.L 9 t w w w w w w t t t t t t t ] 1.1.>.1.1.1.t.c.z.c.H.r.pXKXFXaX}.6X6X6X6X6X6X6X6X6X6X6X(.S.I.I.I.I.6XwX6X6X6X6XwX6XQ.K.I.K.I.6XwX|.I.I.I.K.I.K.'.wX6X6X9X9X`.D.I.I.I.I.`.9X6X6X6X6X(.K.I.I.K.`.6X6X6X6X6X6X6X6X6X6X6X6X6X6X6X6X6X6X6X6X6X6X6XwX>XD.I.I.I.I.I.K.Q.9X6X6XrX}.K.K.p.1.p.S.c.c.c.c.S.p.` *XrX,X6X6X6X6X6X6X6X6X`.H.Q.6X6X6X9XQ.K.Y.Y.Y.Y.>X6X6X6X6X6X6X6X6X6X",
"6X6X6X6X6X6X6X6X6X6X6X9X9X6X9X6X6X6XI.K.I.I.>X6X6X6XQ.H.I.I.I.K.(.0X6XwX6X'.K.I.I.Y.I.`.9X9XQ.K.I.Q. X6X6X6X6XoXwX`.K.I.I.I.I.>XwXoXhX^ % t t t t t t t t t t t t t < c y.1.>.>.1.1.1.1.t.S.z.b.!.FXBX6X9X6X6X6X6X6X,XwX|.D.Q.I.I.K.I.D.D.D.K.I.I.I.I.I.I.I.I.I.Y.K.H.`.6X,X6X6XwX6X(.D.I.I.I.I.I.I.>XwX6X6X6X6X6X6X6X6X6X6X6X6X6X).D.I.I.I.I.K.>XwX6X6X6X6X6X6XwX`.K.I.I.K.K.I.I.I.I.I.I.I.I.>XrX6X6X6X6X6X6X6X6X6XrXL < t t t e t e t t t t t t < Y h.S.c.c.c.c.z.c.S.S.S.z.Q.sX6X6XrX`.H.I.I.I.H.|.rX6X6X6X6X6X6X6X6X6X6X6X9X6XI.I.I.I.(.6X6X6X6X6X6X6X6X6X6X6X6X6X6X6X6X6X6X6X6X6X6X6X6X6X9XQ.D.K.K.K.K.I.K.`.rX6X6X6X6X6X6X6X9X,XI.I.I.D.`.9X6X6X6XrX`.K.I.I.I.I.I.6X9X9X`.S.Q.L 9 t w t t w t t t t t t t t t ] >.>.>.>.>.1.r.S.c.c.H.r.3XHXFXdX!.6X6X6X6X6X6X6X6X6X6X6X'.K.I.K.I.K.>X9X6X6X6X6X6XrX`.K.I.I.I.6XwX|.I.I.I.I.I.D.`.wX6X6X9X9X`.D.I.I.I.I.`.9X6X6X6XrX).K.I.I.I.>X9X6X6X6X6X6X6X6X6X6X6X6X6X6X6X6X6X6X6X6X6X6XwX6X6X(.I.I.I.I.I.I.I.>X6X6X6X6XU.K.p.;.t.S.c.c.c.S.S.p.] *XdX,X6X6X6X6X6X6X6X6X'.H.I.6X6X6XrX`.K.I.Y.Y.I.'.6X6X6X6X6X6X6X6X6X",
"6X6X6X6X6X6X6X6X6X6X6X6X6X6X9X6XwX|.K.I.K.Q.6X6X6X6XQ.H.I.I.I.I.'.rX6X6X6X'.I.I.I.I.I.`.rX9XQ.K.I.I. X6X6X6X6XoXwX`.K.I.I.I.K.>XwXoXhX^ % t w t t t t t t t t t t t < c 3.1.>.>.1.1.1.1.r.z.z.b.!.FXBX6X9X6X6X6X6X6X6X6XwXQ.I.I.I.K.I.I.I.I.I.I.I.I.I.I.I.I.I.I.Y.K.I.6XwX6XwX6XwX|.D.I.I.I.I.I.I.I.6X6X6X6X6X6X6X6X6X6X6X6X6X6X0X(.D.I.I.I.K.Q.,XwX6X6X6XwX6X6X|.K.K.I.I.K.K.I.I.I.I.I.I.I.>X9X6X6X6X6X6X6X6XeX6X6X9Xm * t t t e e e t t t t t t ; Y e.c.c.z.c.c.c.c.c.c.c.z.Q.sX6X6XwX|.H.I.I.K.I.6XwX6X6X6X6X6X6X6X6X6X6X6X9X6XI.I.I.I.(.6X6X6X6X6X6X6X6X6X6X6X6X6X6X6X6X6X6X6X6X6X6X6X6X6X9X).S.K.K.K.K.I.K.`.9XwX6X6X6X6X6X6X9X9XQ.I.I.D.(.9X6X6X6XrX`.K.I.I.I.I.I.5X9X9X*XA.Y.L 9 t w t t w w t t t t t t t t 6.y.>.>.>.1.1.r.p.S.c.H.t.-XKXFXdXG.6X6X6X6X6X6X6X6X6X6X6X>XI.K.K.I.K.(.9X6X6X6X6X6XrX}.K.I.I.I.>XwX6XY.I.I.I.I.D.`.6X6X6X9X9X`.D.I.I.I.K.Q.9X6X6X6XrX!.K.I.I.Q.9X9X6X6X6X6X6X6X6X6X6X6X6X6X6X6X6X6X6X6X6X6X6X6XwX6X5XQ.I.I.I.I.I.I.`.6X6X6X6XQ.K.p.;.r.S.S.c.S.S.S.c.[ &XdX,X6X6X6X6X6X6X6X6X|.I.I.>X6X6XrX>XI.K.Y.Y.Y.Q.6X6X6X6X6X6X6X6X6X",
"6X6X6X6X6X6X6X6X6X6X6X6X6X6X9X6X6X`.K.I.D.`.6X6X6X6XQ.I.I.I.I.I.|.rX6X6X6X`.H.I.I.I.I.`.6X6XQ.K.K.K. X6X6X6X6X6XwX`.K.I.I.I.K.>XwXoXaX^ % t t t t t t t t t t t t t < c ,.1.>.1.1.1.1.1.1.t.z.b.!.FXBX6X6X6X6X6X6X6X6X,XwX>XD.I.I.K.I.I.I.K.I.I.I.I.I.I.I.I.I.I.K.H.`.6X6XwXwXwX,XI.I.I.I.I.I.I.D.).wX6X6X6X6X6X6X6X6X6X9X6X6X6X9X(.I.I.I.I.K.(.9X6X6X6X6X6XwX|.Q.K.I.I.I.I.I.I.I.I.I.I.Q.>X6X6X6X6X6X6X6X6X6X6XeX>XQ.c * t t t t t t t t t t t t ; Y e.p.S.z.S.z.z.S.S.S.S.t.Q.sX6XwXwX>XI.I.Y.K.`.rX6X6X6X6X6X6X6X6X6X6X6X6X9X6XI.I.I.I.(.6X6X6X6X6X6X6X6X6X6X6X6X6X6X6X6X6X6X6X6X6X6X6X6X6X9X`.D.K.K.K.K.I.K.Q.6XwX6X6X6X6X6X6X6X9XQ.K.I.K.Q.9X6X6X6XrX}.K.K.I.I.I.I.>XrX9X>XD.Y.L 9 t w t t t t t t t t t t t w 6.y.3.3.>.1.>.1.p.S.c.H.t.*XAXFXgXG.9X9X6X6X6X6X6X6X6X6X6X>XI.K.I.I.K.Q.9X6X6X6X6X6XwX,XI.K.I.P.`.wX6XQ.I.I.I.I.K.(.6X6X6X9X9X`.D.I.I.I.K.Q.9X6X6X6XrX!.K.I.K.Q.9X6X6X6X6X6X6X6X6X6X6X6X6X6X6X6X6X6X6X6X6X6X6X6X6X6X6X>XI.I.I.I.I.I.Q.,X6XoX6X`.K.p.1.r.S.S.c.S.S.S.S.[ %XdX,X6X6X6X6X6X6X6X6X|.I.D.>X9X6XrX,XY.K.Y.Y.Y.K.`.6X6X6X6X6X6X6X6X",
"6X6X6X6X6X6X6X6X6X6X6X6X6X6X9X6X>XQ.I.I.D.}.6X6X6X6XQ.H.I.I.I.I.,XwX6X6X6X`.I.I.I.I.I.`.6X6XQ.K.K.D. XwX6X6X6X6XwX`.K.I.I.I.K.>XwXoXaX^ % t t t t t t t t t t t t t < c ,.1.>.>.1.1.1.1.1.r.z.b.!.FXBX,X6X6X6X6X6X6X6X6X,X9XQ.D.I.K.I.I.I.I.I.I.I.I.I.I.I.I.I.I.K.Y.6X6X6XwXwX6XQ.K.I.I.I.I.I.I.D.|.wX6X6X6X6X6X6X6X6X6X9X9X9X6X9X(.I.I.I.I.K.`.9X6X6X6X6X6X6XD.S.I.I.I.I.I.I.I.I.I.H.Q.5X6X6X6X6X6X6X6X6X6X6X6X>X`.K.6 w t t t t t e e e e t t t ; Y e.t.S.c.c.c.c.S.S.S.S.z.^.sX6XwXwX>XI.I.Y.I.,XrX6X6X6X6X6X6X6X6X6X6X6X6X9X6XI.I.I.I.(.6X6X6X6X6X6X6X6X6X6X6X6X6X6X6X6X6X6X6X6X6X6X6X6X6XrX|.D.K.K.K.K.K.I.I.,XrX,X6X6X6X6X6X6X9X`.K.I.I.I.6X6X6X6XrX>XD.K.I.I.I.I.*XrX9X6XI.Y.L 9 t w t t t t t t t t t t t < | y.,.3.1.1.>.>.p.S.c.H.t.*XFXFXvXG.>X9X6X6X6X6X6X6X6X6X6X9XI.K.I.I.K.K.1X9X6X6X6X6XwXwXQ.K.I.H.(.6X6X(.I.I.K.I.I.Q.6X6X6X9X9X`.D.I.I.I.K.I.6X6X6X6X6X!.K.I.K.`.9X6X6X6X6X6X6X6X6X6X6X6X6X6X6X6X6X6X6X6X6X6X6X6X6XwX6X6X(.I.I.I.I.I.I.|.wXoX6X>XI.S.1.r.S.S.c.S.S.S.S.] %XdX,X6X6X6X6X6X6X6X6X|.I.H.`.9X6XwX6XQ.K.I.Y.Y.K.Q.6X6X6X6X6X6X6X6X",
"6X6X6X6X6X6X6X6X6X6X6X6X6X6X6X6X`.I.K.K.Q. X6X6XwX6XQ.I.I.I.I.I.6X6X6X6XwX(.I.I.I.I.I.}.6X9XQ.K.K.D.|.6X6X6X6X6XwX'.K.I.I.I.I.>XwXoXaX/ % t w t t t t t t t t t t t < c ,.1.>.>.1.1.1.1.1.r.z.b.!.FXBX,X6X6X6X6X6X6X6X6X6X6X>XD.D.I.I.I.I.K.I.I.I.I.I.I.I.I.Y.K.K.*X6X6X6XwXrX`.K.I.I.I.I.I.I.I.K.>X6X6X6X6X6X6X6X6X6X6X6X6X6X6X9XQ.A.I.I.K.K.>XwX6X6X6X6X6X(.S.K.I.I.I.I.I.I.I.I.D.Q.>X6X6X6X6X6X6X6X6X6X6X6X5XQ.K.U.6 w t t t t t t t t t t t t ; Y 2.r.S.c.c.c.S.S.S.c.S.z.`.dX6XwX6X6XI.K.I.`.wX6X6X6X6X6X6X6X6X6X6X6X6X6X6X6XI.I.I.I.(.9X6X6X6X6X6X6X6X6X6X6X6X6X6X6X6X6X6X6X6X6X6X6X6X6X6X>XK.K.K.K.K.K.I.K.>XrX6X6X6X6X6X6X6XrX'.K.I.I.I.6X6X6X6XrX,XK.K.I.I.I.I.'.9X9X6X(.Y.L 9 t w t t t t t t t t t t t ; ' y.>.3.1.1.>.>.r.S.c.S.t.&XFXFXBXD.>X9X9X6X9X9X6X6X6X6X6X9XQ.K.K.I.K.K.>X9X6X6X6X6XwXwX`.K.I.H.Q.6XwX(.H.I.K.I.K.Q.6X6X6X9X9X`.D.I.I.I.I.I.>X6X6X6X6XQ.K.I.K.`.9X6X6X6X6X6X6X6X6X6X6X6X6X6X6X6X6X6X6X6X6X6X6X6X6X6X6X6X'.I.I.I.I.I.I.(.6XoX6X6X(.H.1.r.S.S.c.c.c.S.H.` Q.dX,X6X6X6X6X6X6X6X6X6XY.H.Q.9X6X6X9X`.K.I.Y.Y.Y.I.*X6X6X6X6X6X6X6X",
"6X6X6X6X6X6X6X6X6X6X6X6X6X6X6X6X(.D.K.H.`.6X,X,XwX6XI.I.I.I.I.(.6X6X6X6X6X(.I.I.I.I.D.|.6X9XQ.K.K.D.|.wX6X6X6X6XwX|.K.I.I.I.K.>XwXoXaX/ % t w t t t t t t t t t t t < s ,.1.>.>.1.1.1.1.1.1.t.z.^.FXBX,X6X6X6X6X6X6X6X6X6X6X6X).D.I.I.I.I.I.I.I.I.I.I.I.I.I.Y.H.Q.9X6X X6XwX>XI.I.I.I.I.I.I.I.K.Q.,X6X6X6X6X6X6X6X6X6X6X6X6X6X6X6XQ.A.I.I.K.I.6XwX6X6X6XrX|.K.I.I.K.I.I.I.I.I.I.D.).6XwX6X6X6X6X6X6X6X6X6X6X0X(.K.U.K.6 w t t t t t t t t t t t t ; Y 1.r.S.c.c.c.S.S.S.S.S.z.`.dX6XwX6X9XQ.H.K.>XrX6X6X6X6X6X6X6X6X6X6X6X6X6X6X6XI.I.I.I.(.6X6X6X6X6X6X6X6X6X6X6X6X6X6X6X6X6X6X6X6X6X6X6X6X6X6X,XQ.K.K.K.K.K.I.K.>XwX,X6X6X6X6X6X6XrX>XD.I.I.D.5X6X6X6XrX9XK.K.K.I.I.I.`.9X9X9X(.Y.L 9 t w t t w t t t t t t t t $ [ p.>.1.1.1.1.1.r.H.c.S.p.&XFXFXZXK.>X9X9X6X6X6X6X6X6X6X6X9X(.K.K.I.K.S.`.9X6X6X6X6X6XwX'.K.I.H.I.6XwX`.H.I.K.I.I.I.>X6X6X9X9X`.D.I.I.I.I.I.>X6X6X6X6XQ.K.I.K.}.9X6X6X6X6X6X6X6X6X6X6X6X6X6X6X6X6X6X6X6X6X6X6X6X6X6X6X6X6X(.I.I.I.I.I.I.|.wX6X6X'.S.1.r.S.S.c.z.z.S.H.` Y.dX,X6X6X6X6X6X6X6X6X6XY.H.I.8X9X,X9X:XI.K.Y.Y.Y.I.Q.6X6X6X6X6X6X6X",
"6X6X6X6X6X6X6X6X6X6X6X6X6X6XrX>XS.I.H.S.*X6X6X6XwX,XI.I.I.I.I.`.6X6X6X6X6XQ.I.I.I.I.I.|.6X9XQ.K.K.D.|.wX6X6X6X6XwX|.K.I.I.I.K.>XwXoXaX*.% t w t t t t t t t t t t t < 6 ,.1.>.1.1.1.1.1.1.>.p.p.Q.FXBX,X9X6X6X6X6X6X6X6X6X6X6X6XQ.D.I.I.I.I.I.I.I.I.I.I.I.I.Y.K.*XwX6X,X6X6XQ.I.I.K.I.I.I.I.I.I.`.,X6X6X6X6X6X6X6X6X6X6X6X6X6X6X6XI.K.I.I.K.Q.9X6X9X6X6X>XQ.I.Y.K.K.I.I.I.I.I.K.Q.6XwX6X6X6X6X6X6X6X6X6X6X>XQ.D.K.Q.n.5 w t t t t t t t t w t t t ; Y 2...S.c.c.c.S.S.S.S.S.z.`.dX,XrX6X9XQ.c.Q.9XwX6X6X6X6X6X6X6X6X6X6X6X6X6X6X6XI.I.I.I.Q.6X6X6X6X6X6X6X6X6X6X6X6X6X6X6X6X6X6X6X6X6X6X6X6X6X6X6X(.K.I.I.K.K.I.K.}.rX6X6X6X6X6X6X6XwX6XK.I.I.D.>X6X6X6X6X9XQ.K.K.I.I.I.`.9X9X9X'.Y.L 9 t w t t w w w t t t t t t $ ( H.r.1.1.1.1.1.r.c.S.S.p.&XFXAXAXI.`.rX6X6X6X6X6X6X6X6X6X9X`.D.K.I.K.S.(.6X6X6X6X6X6XwX>XI.I.Y.I.>XwX>XK.I.K.I.I.K.>X6X6X9X9X`.D.I.I.I.I.K.'.wX6X6X6XQ.K.I.K.}.rX6X6X6X6X6X6X6X6X6X6X6X6X6X6X6X6X6X6X6X6X6X6X6X6X6X6X6X9X>XI.I.I.I.I.I.).6X6X6X>XS.1.1.S.S.c.z.z.S.S.] Y.dX,X6X6X6X6X6X6X6XoX6X(.H.K.8X6X,X6X9XQ.K.I.Y.Y.I.I.`.6X6X6X6X6X6X",
"6X6X6X6X6X6X6X6X6X6X6X6X6XrX9XI.H.I.I.D.9X6X6X6XwX|.I.I.I.I.D.'.6X6X6X6X6XQ.I.I.I.I.I.|.6X9XQ.K.K.D.}.wX6X6X6X6XwX|.K.I.I.I.I.6XwXoXaX5.% t t t t t t t t t t t t t < 6 ,.1.>.1.1.1.1.1.1.1.r.r.Q.FXZX,X6X6X6X6X6X6X6X6X6X6X6X6X|.D.I.I.I.I.I.I.I.I.I.I.I.I.I.I.9X6X,X6X6X`.I.I.I.I.I.I.I.I.I.D.>X6X6X6X6X6X6X6X6X6X6X6X6X6X6X6X>XK.K.I.I.K.>X9X6X6XrX6XQ.I.Y.K.K.K.I.I.I.I.I.I.>XwX6X6X6X6X6X6X6X6X6X6X5XI.I.K.K.Q.b.5 e t w w w w t t t t t t t ; Y 2.{ S.c.c.c.S.S.S.S.S.z.`.dX,XwX6X9X`.K.,XrX6X6X6X6X6X6X6X6X6X6X6X6X6X6X6X6XI.I.I.I.I.6X6X6X6X6X6X6X6X6X6X6X6X6X6X6X6X6X6X6X6X6X6X6X6X6X6X6X`.D.I.I.I.K.I.K.`.wX6X6X6X6X6X6X6XwX6XK.I.I.D.|.6X6X6X6X9XQ.K.K.I.I.I.`.9X6X6X5XY.L 9 t t t t w t t t t t t t t ; ) K...1.1.1.1.1.>.p.S.S.t.`.FXAXAXQ.Q.9X6X6X6X6X6X6X6X6X6X9X>XK.K.I.K.S.Q.6X6X6X6X6X6XwX6XI.I.Y.I.|.wX>XI.I.I.I.I.K.>X9X6X9XrX`.D.I.I.I.I.K.`.6X6X6X6XQ.K.I.K.`.rX6X6X6X6X6X6X6X6X6X6X6X6X6X6X6X6X6X6X6X6X6X6X6X6X6X6X6X9X9XI.I.I.I.I.I.Q.5X6X6X6XI.>.1.p.S.c.z.z.B.S.] Y.dX,X6X6X6X6X6X6X6XoX6X`.H.K.>XwX,X6X9X(.K.I.Y.I.Y.I.I.|.6X6X6X6X6X",
"6X6X6X6X6X6X6X6X6X6X6X6XwXrX'.S.I.I.I.I.9X6X6X6XwX|.I.I.I.I.I.5X6X6X6X6X5XI.I.I.I.I.I.,X6X9XQ.K.K.S.`.wX6X6X6X6XwX>XK.I.I.I.I.6XwX XrX*.% t 2 t t t t t t t t t t t < 5 >.1.>.1.1.1.1.1.1.1.1.1.Y.FXZX6X6X6X6X6X6X6X6X6X6X6X6X6XwX`.D.I.I.I.I.I.I.I.I.I.I.I.I.>X9X6X,X6X6XI.I.I.K.I.I.I.I.I.D.G.5X9X6X6X6X6X6X6X6X6X6X6X6X6X6XwX`.D.I.I.I.D.,X9X9X6X6X'.I.Y.Y.K.K.K.I.I.I.I.D.>XrX6X6X6X6X6XwX6X6X6X6X>XK.U.Q.K.D.W.0.4 w t w w w w t t t t t t t ; Y 1.>.p.S.c.c.z.S.S.S.S.z.`.dX,XwX6XrX>X`.9X6X6XrX6X6X6X6X6X6X6X6X6X6X6X6X6X6XI.I.I.I.I.5X6X6X6X6X6X6X6X6X6X6X6X6X6X6X6X6X6X6X6X6X6X6X6X6X6X6X`.S.I.I.I.I.I.K.`.wX6X6X6X6X6X6X6X6X,XI.I.I.D.`.6X6X6X6X9X`.K.K.I.I.I.`.6X6X6X8XQ.L 9 t w t t t t t t t t 2 3 t ; K D...1.1.1.1.1.>.p.c.S.z.Q.AXAXAX(.I.9X6X6X6X6X6X6X6X6X6X9X>XI.K.I.I.H.I.,X6X6X6X6X6X6X6XQ.H.I.K.`.wX5XI.I.I.I.I.K.}.6X6X9X9X&XK.I.I.I.I.K.Q.6X6X6X6XQ.K.I.K.`.rX6X6X6X6X6X6X6X6X6X6X6X6X6X6X6X6X6X6X6X6X6X6X6X6X6X6X6X6X0X`.I.I.I.I.I.I.`.6X6XrXQ.] >.p.S.S.c.z.z.S.r.Y.dX,X6X6X6X6X6X6X6X X6X`.H.H.`.wX6X6X9X>XI.H.Y.Y.H.Y.Y.I.>XrX6X6X6X",
"6X6X6X6X6X6X6X6X6X6X6X6XrX,XY.I.I.I.I.`.6X6X6X6X6X`.I.I.I.I.Q.6X6X6X6X6X>XI.I.I.I.I.I.6X6X9XQ.D.K.S.).wX6X6X6X6XwX>XI.I.I.I.I.6XwX XyX .% t 2 t t t t t t t t t t t < 5 >.1.>.1.1.1.1.1.1.1.r.>.H.FXZX9X6X6X6X6X6X6X6X6X6X6X6X6XwX6XQ.D.I.I.I.I.I.I.I.I.Y.I.'.9X6X5XwX9XQ.K.I.I.I.I.I.I.I.I.D.Q.9X9X6X6X6X6X6X6X6X6X6X6X6X6X6X6X(.H.I.I.I.G.6X6X6X,X>XI.Y.Y.K.K.K.K.I.I.I.D.`.rX6X6X6X6X6X6X6X6XoXwX|.I.K.I.I.Q.x.D.0.1 w t t t w w t t t t t t t ; Y 1.] p.S.c.c.z.S.S.S.S.z.`.dX,X9X6XwX6X6X9X,X6X9X9X6X6X6X6X6X6X6X6X6X6X6X6X6XI.I.I.I.D.5X6X6X6X6X6X6X6X6X6X6X6X6X6X6X6X6X6X6X6X6X6X6X6X6X6X6X'.D.I.I.I.I.I.K.`.wX6X6X6X6X6X6X6X6X6XQ.I.I.D.`.6X6X6X6X9X`.K.I.I.I.I.`.6X6X6X0X%XL 9 t w w t t t t t t t 2 2 t < L D.X.r.1.1.1.1.1.r.c.S.c.Q.AXAXAX&XH.>XwX6X6X6X6X6X6X6X6X9X6XQ.K.I.I.H.K.>X6X6X6X6X6X6XwX`.H.I.H.(.wX9XQ.I.I.I.I.K.`.6X6X9X9X>XK.I.I.I.I.K.Q.6X6X6X6XQ.K.I.K.`.rX6X6X6X6X6X6X6X6X6X6X6X6X,X6X6X6X6X6X6X6X6X6X6X6X6X6X6X6XrX>XI.I.I.Y.I.Y.Q.6X6XwX`.r.>.p.S.c.z.z.z.S.e.Y.sX,X6X6X6X6X6X6X6X X6X|.K.S.Q.6XoX6X6X9XQ.H.Y.Y.H.Y.Y.I.Q.6X6X6X6X",
"6X6X6X6X6X6X6X6X6X6X6X6X6X`.K.I.I.I.I.>X6X6X6X6X6X`.I.I.I.I.).6X6X6X6X6X>XI.I.I.I.I.(.6X6XrXQ.D.I.S.Q.6X6X6X6X6XwX>XI.I.I.K.I.6X+X,XyX .% t 2 t t t t t t t t t t t < 5 >.1.>.1.1.1.1.1.1.1.r.>.H.FXZX9X6X6X6X6X6X6X6X6X6X6X6X6X6X6X,XD.K.I.I.I.I.I.I.I.H.Q.6X6XoX6X0X`.K.I.I.I.I.I.I.I.I.I.D.).9X9X6X6X6X6X6X6X6X6X6X6X6X6X6X6XQ.K.I.I.K.Q.6X6XwX6X`.I.I.K.K.K.K.K.I.I.K.Q.9XwX6X6X6X6X6X6X6X6X6X'.I.I.Y.Y.K.K.D.^.m.1 w t t t t t t t t t t t t ; Y 1.] p.S.c.c.z.c.S.S.B.t.`.dX,X6X,X6XwX6X,X6X6X9X6X6X6X6X6X6X6X6X6X6X6X6X6X6XI.I.I.I.D.>XwX6X6X6X6X6X6X6X6X6X6X6X6X6X6X6X6X6X6X6X6X6X6X6X6X6X>XD.I.I.I.I.I.K.`.wX6X6X6X6X6X6X6X6X9XQ.I.I.D.Q.6X6X6X6XrX&XK.I.I.I.I.`.9X6X6X0X*XH 9 t w w t t t t t t 2 2 2 t < m K.t.r.1.1.1.3.1.r.p.S.c.Q.AXAXAX&XS.>X9X6X6X6X6X6X6X6X6X6X9XQ.K.I.I.K.K.|.9X6X6X6X6X6XwX|.H.I.I.(.6X9XQ.K.K.K.I.K.`.6X6X6X9X>XI.I.I.I.I.K.D.6X6X6X6XQ.K.I.K.`.rX6X6X6X6X6X6X6X6X6X6X6X>XQ.6X6X6X6X6X6X6X6X6X6X6X6X6X6X6XwX9XQ.I.Y.I.I.Y.I.>X6X6X>Xc.,.y.S.c.z.z.z.S.t.I.aX>X9X6X6X6X6X6X6X X6X|.I.I.D.6X6X6X6XrX`.H.Y.Y.H.Y.Y.Y.I.`.9X6X6X",
"6X6X6X6X6X6X6X6X6X6X6XrX`.I.I.K.I.H.Q.9X6X6X6X6X6X(.I.I.I.I.'.6X6X6X6X6X|.I.I.I.I.I.(.9X6XrXQ.K.I.D.Q.6X6X6X6X6X6X5XI.I.I.K.Q.6X+X,XyX7.% t 2 t t t t t t t t t t t < 5 :.1.>.1.1.1.1.1.1.1.r.>.j.FXAX9X6X6X6X6X6X6X6X6X6X6X6X6X6X6X6X|.I.I.I.I.I.I.I.I.I.5X6X6X X6X'.I.I.I.I.I.I.I.I.I.I.I.D.|.9X6X6X6X6X6X6X6X6X6X6X6X6X6X6X>XD.I.I.I.K.`.rX6XwX,XI.Y.K.K.K.K.K.K.I.I.Q.6XrXwX6X6X6X6X6X6X6XwX'.K.H.I.I.I.I.K.Q.,Xm.4 w t t t t t t t t t t t t ; Y 2.] p.S.c.c.z.c.S.S.B.t.`.dX,X6X6X6XwX6X6X6X6X6X6X6X6X6X6X6X6X6X6X6X6X6X6X6XI.I.I.I.D.>XwX6X6X6X6X6X6X6X6X6X6X6X6X6X6X6X6X6X6X6X6X6X6X6X6X6X>XD.I.I.I.I.I.H.`.wX6X6X6X6X6X6X6X6X9XQ.K.I.I.Q.wX6X6X6XrX>XK.I.I.I.I.`.9X6X6X0X<XH $ t w t t t t t t 2 2 2 2 t < c K.t.r.1.1.1.3.1.{ t.S.S.I.AXAXFX>XS.*X9X6X6X6X6X6X6X6X6X6X9X(.K.I.I.K.H.`.9X6X6X6X6X6XwX,XI.I.I.I.6X9X(.K.K.I.I.K.(.6X6X6X9X>XI.K.I.I.I.K.D.,X6X6X6XQ.K.I.K.`.9X6X6X6X6X6X6X6X6X6X6XwX`.H.`.6X,X6X6X6X6X6X6X6X6X6X6X6X6X6XrX'.K.Y.I.I.I.K.(.9X6X,XD.y.r.S.c.z.z.B.S.p.H.aX}.9X6X6X6X6X6X6X X6X>XI.I.D.|.6X6X6XrX>XK.Y.Y.H.K.Y.Y.Y.I.>X9X6X",
"6X6X6X6X6X6X6X6X6X6XrX>XI.Y.K.I.I.S.`.rX6X6X6X6X6XI.I.I.I.I.>X6X6X6X6X6X'.D.I.I.I.I.(.9X6XrX(.K.I.K.Q.6X6X6X6X6XwX5XI.I.I.K.Q.6XoX,XyX7.% t < t t t t t t t t t t t < 5 :.1.1.1.1.1.1.1.1.1.1.>.j.AXAX9X6X6X6X6X6X6X6X6X6X6X6X6X6X6X6X9X(.K.K.I.I.S.S.Q.5X0X6XoX6XoXD.I.I.I.I.I.I.I.I.I.I.I.I.9X6X6X6X6X6X6X6X6X6X6X6X6X6X6X6X`.K.I.I.I.I.6XrX6X6XQ.K.K.K.K.K.K.K.I.I.I.>XrX6X6X6X6X6X6X6X6X6X>XI.H.I.H.H.I.K.Q.`.rXM.& u t w t t t t t t t t t t < Y 2.] r.S.c.c.c.S.S.S.S.z.}.dX,X6X6X6X6X6X6X6X6X6X6X6X6X6X6X6X6X6X6X6X6X6X6X6XI.I.I.I.D.'.rX6X6X6X6X6X6X6X6X6X6X6X6X6X6X6X6X6X6X6X6X6X6X6X6X6X5XD.I.I.I.I.I.H.`.6X6X6X6X6X6X6X9X9X9XQ.K.I.I.Q.6X6X6X6XwX5XI.H.I.I.I.`.9X6X6X0X9XL $ t t t t t t 2 2 3 2 2 2 t < x K.B.r.1.3.1.1.1.] t.S.S.I.AXFXFX<XH.(.9X6X6X6X6X6X6X6X6X6X9X`.K.K.I.I.H.I.6X6X6X6X6X6X6X6XI.I.I.I.6X9X`.K.I.I.I.K.Q.6X6X6X6X>XI.K.I.I.I.I.D.|.wX6X6XQ.K.I.K.`.6X6X6X6X6X6X6X6X6X6X6XwX`.H.Q.6X,X6X6X6X6X6X6X6X6X6X6X6X6X6X6X>XD.K.I.K.K.K.I.9X9X6XD.y.r.S.c.z.z.B.S.p.H.aX`.9X6X6X6X6X6X6X6X6X6XI.I.I.'.6X6X6X6X9XI.K.Y.Y.I.I.I.I.I.D.|.6X",
"wX6X6X6X6X6X6X6XwX6X5XI.K.I.K.I.I.D.|.6X6X6X6X6X>XI.I.Y.I.Q.6X6X6X6X6X6X`.D.I.I.I.H.`.rX6XrX`.K.I.K.I.6XwX6X6X6X6X6XI.K.I.K.Q.6X+X,XyXb.% t < t t t t t t t t t t t < 3 :.1.>.1.1.1.1.1.1.1.1.>.j.AXSX9X6X6X6X6X6X6X6X6X6X6X6X6X6X6X6X6X9X`.I.I.I.I.`.6X9X6X6X6X6X(.I.I.I.I.I.I.I.I.I.I.I.I.Q.9X6X6X6X6X6X6X6X6X6X6X6X6X6X6X6XI.K.I.I.K.Q.6X6XwX|.I.I.K.K.K.K.K.K.I.D.`.9X6X6X6X6X6X6XwXwXrX|.I.I.I.K.I.I.K.Q.&X,XdXa.+ u t t t t t t t t t t t t < Y 2.] r.c.c.c.c.c.S.S.B.z.`.dX,X6X6X6X6X6X6X6X6X6X6X6X6X6X6X6X6X6X6X6X6X6X6X6XI.I.I.I.D.'.0X6X6X6X6X6X6X6X6X6X6X6X6X6X6X6X6X6X6X6X6X6X6X6X6X6X6XI.I.I.I.I.I.I.`.6X6X6X6X6X6X6X6X6X9XQ.H.I.I.I.6X6X6X6XwX6XQ.H.I.I.I.`.9X6X6X0X0XL $ t t t t t t 2 2 3 3 2 2 t < x c.B.r.r.1.1.1.1.] r.c.S.D.AXFXFX<XH.Y.8X6X6X6X6X6X6X6X6X6X9X>XI.K.I.I.K.D.>X9X6X6X6X6X6X9X(.K.I.D.|.0X>XD.I.I.I.I.Q.,X6X6X6X,XI.K.I.I.I.I.K.|.wX6X6XQ.K.I.K.`.6X6X6X6X6X6X6X6X6X6X6XwX`.K.I.>XwX6X6X6X6X6X6X6X6X6X6X6X6X6X6X6XQ.D.K.K.K.K.I.>X9X6XC.p.r.p.S.z.z.B.S.p.H.aX!.9X6X6X6X6X6X6X6X6X6XQ.I.I.(.9X6X6X6XrX`.H.I.I.I.I.I.I.I.I.D.`.",
"`.6XrX6X6XwX,X,XrX>XK.H.I.K.I.I.I.Q.6X6X6X6X6X6X`.I.I.I.S.`.6X6X6X6X6X6X(.I.I.I.I.H.*X9X6XrX`.K.I.K.I.6XwX6X6X6X6X6XI.K.I.I.Q.6X+X,XyXb.$ t < t t t t t t t t t t t < 3 :.1.1.1.1.1.1.1.1.1.1.` s.FXBX9X6X6X6X6X6X6X6X6X6X6X6X6X6X6X6X6X6X9X5X>X>X>X9X6X6X6X6X6X'.I.I.I.I.I.I.I.I.I.I.I.I.I.(.9X6X6X6X6X6X6X6X6X6X6X6X6X6X6X|.K.K.I.I.K.>X6XwX6XQ.I.K.K.K.K.K.K.K.K.Q.6X6X6X6X6X6X6X6X6X6X6XI.S.I.I.I.I.I.K.|.9X9XrX*.o a t t t t w t t t t t t t ; Y 2.] r.c.c.c.c.S.S.S.B.z.`.dX,X6X6X6X6X6X6X6X6X6X6X6X6X6X6X6X6X6X6X6X6X6X6X6XI.I.I.I.I.(.9X6X6X6X6X6X6X6X6X6X6X6X6X6X6X6X6X6X6X6X6X6X6X6X6X6X6XI.I.I.I.I.I.I.(.6X6X6X6X6X6X6X6X6XrX`.H.I.I.I.6X6X6X6X6X9X(.H.I.I.I.`.9X6X6X7X0XL % t t t t t t 2 2 3 3 2 2 t < a c.B.r.r.1.1.1.1.>.r.z.S.D.VXFXFX1XH.I.>X6X6X6X6X6X6X6X6X6X9X>XI.K.I.I.K.D.&XrX6X6X6X6X,X9X`.D.I.D.`.0X>XK.I.I.I.I.I.>XwX6X6X6XI.K.I.I.I.I.K.`.wX6X6XQ.K.I.K.).6X6X6X6X6X6X6X6X6X6X6X6X).K.K.`.rX6X6X6X6X6X6X6X6X6X6X6X6X6X6X9X`.D.K.K.K.K.K.&X9X6Xx.p.r.p.S.z.z.B.S.p.H.aXQ.6X6X6X6X6X6X6X6XoXwX(.I.I.I.9X6X6X6XrX6XK.K.Y.I.I.I.I.I.I.K.D.",
"I.Q.,XwX6XrXrX6X`.S.H.I.I.I.I.I.I.`.6X6X6X6X6X6XQ.Y.I.I.D.|.6X6X6X6X6X6X(.I.I.I.I.H.>X9X6XrX`.K.I.K.D.,XwX6X6X6X6X6XY.K.I.I.Q.6X+X,XyXb.9 t < t t t t t t t t t t t < 3 :.1.1.1.1.1.1.1.1.1.1.] s.FXZX>X9X6X6X6X6X6X6X6X6X6X6X6X6X6X6X6X6X6X6X9XwXwX6X6X9X6X9X5XD.I.I.I.I.I.I.I.I.I.I.I.I.I.>X9X6X6X6X6X6X6X6X6X6X6X6X6X6X6X`.H.I.I.I.I.,X6XrX`.D.K.K.K.K.K.K.K.K.I.>X6X6X6X6X6X6X6X6X6X|.I.I.I.I.I.I.I.S.'.wXrX9XrX*.o u t t t t t t t t t t t t < Y 2.] ..c.c.c.z.S.S.S.S.z.`.dX,X6X6X6X6X6X6X6X6X6X6X6X6X6X6X6X6X6X6X6X6X6X6X6XI.I.I.I.I.(.6X6X6X6X6X6X6X6X6X6X6X6X6X6X6X6X6X6X6X6X6X6X6X6X6XwX6XQ.I.I.I.I.I.I.(.6X6X6X6X6X6X6X9X9XrX`.H.I.I.I.5X6X6X6X6X9X(.I.I.I.I.`.9X6X6X6XsXK % t t t t t t 2 2 2 2 2 2 t 1 t i.B.r.r.1.1.1.1.>.1.z.c.D.BXFXFX1XH.K.*X6X6X6X6X6X6X6X6X6X6X6XQ.K.I.I.I.K.(.9X6X6X6X6X,X6X>XD.I.D.(.9X5XK.I.I.I.I.I.`.wX6X6X6XI.K.I.I.I.I.K.`.wX6X6X!.K.I.H.(.6X6X6X6X6X6X6X6X6X6X6X6XQ.K.K.Q.6X6X6X6X6X6X6X6X6X6X6X6X6X6X6X6X5XI.K.K.K.K.K.(.9X9Xx.c.r.r.c.z.z.B.S.p.H.aXD.,X6X6X6X6X6X6X6XoXwX`.K.I.I.>X6X6X6X6XrX(.H.Y.I.I.I.I.I.I.I.I.",
"K.H.K.Q.|.>X|.(.I.K.K.I.I.I.I.I.I.>X6X6X6XwX6X>XI.Y.I.I.I.,X6X6X6X6X6X6X(.I.I.I.I.I.5XwX6XrX`.K.I.I.D.|.wX6X6X6X6X6XQ.K.I.I.(.6X+X,XyXb.8 t 2 t t t t t t t t t t t < 3 :.1.1.1.1.1.1.1.1.1.1.>.p.FXAX|.6X6X6X6X6X6X6X6X6X6X6X6X6X6X6X6X6X9X9X6X6X6X6X6X6XrX6XQ.D.I.I.I.I.I.I.I.I.I.I.I.I.Q.9X6X6X6X6X6X6X6X6X6X6X6X6X6XwX,XI.K.I.I.I.Q.9XwX,XK.K.H.K.K.K.K.I.K.K.`.9X6X6X6X6X6XrX6X,X>XD.D.I.I.I.H.H.K.'.oX6X6X,XrX&.O t w t t t t t t t t t t t < Y 2.] | c.c.c.z.S.S.S.B.z.`.dX,X6X6X6X6X6X6X6X6X6X6X6X6X6X6X6X6X6X6X6X6X6X6X9XQ.I.I.I.I.Q.6X6X6X6X6X6X6X6X6X6X6X6X6X6X6X6X6X6X6X6X6X6X6X6X6XwX6X(.I.I.I.I.I.I.(.6X6X6X6X6X6X6X6X6XrX`.H.I.I.I.>X6X6X6X6XrX(.I.I.I.I.`.9X6X6X6XsXK % t t t t t t 2 2 t t 2 2 t 2 t 6.B.z.r.1.3.3.1.1.1.t.c.D.BXFXFXiXH.K.(.wX6X6X6X6X6X6X6X6X6X6X(.K.I.I.I.K.Q.9X6X6X6X6X6X6X5XD.I.I.(.9X9XI.I.I.I.I.I.`.6X6X6X6XI.K.I.I.K.I.K.Q.wX,X6X).D.I.H.(.6X6X6X6X6X6X6X6X6X6X6X6XQ.K.I.D.>X9X6X6X6X6X6X6X6X6X6X6X6X6X6X6X9XQ.K.I.K.K.K.Y.>X9XD.S.p.r.z.z.z.z.S.p.K.dXD.,X6X6X6X6X6X6X6XoXwX>XI.I.I.'.6X6X6X6XrX>XD.I.I.I.I.I.I.I.I.I.",
"I.I.K.K.D.D.D.D.K.I.I.I.I.I.I.I.Q.6X6X6X6X6X6X`.I.Y.I.D.Q.6X6X6X6X6X6X>XI.I.I.I.I.S.5X6X6XrX'.K.I.I.D.|.wX6X6X6X6X6XI.K.I.K.(.6X+X,XyXb.9 t 2 t t t t t t t t t t t < 4 8.1.1.1.1.1.1.1.1.1.1.1.p.FXAX!.'.7X6X6X6X6X6X6X6X6X6X6X6X6X6X6X6X9X9X9X6X6X6X6X6X6XQ.D.I.I.I.I.I.I.I.I.I.I.I.I.I.'.rX6X6X6X6X6X6X6X6X6X6X6X6X6X6X`.K.I.I.I.I.>X6XrX`.D.I.K.K.H.I.I.I.K.I.9X9X6X6X6X6X6X6X6X>XQ.S.I.I.I.I.I.H.`.rX6X6X6X6XrX$.# t w t t t t t t t t t t t < Y 2.>.| c.c.c.c.S.S.S.B.z.`.dX,X6X6X6X6X6X6X6X6X6X6X6X6X6X6X6X6X6X6X6X6X6X6X6X(.I.I.I.I.I.6XwX6X6X6X6X6X6X6X6X6X6X6X6X6X6X6X6X6X6X6X6X6X6X6XwX6X(.I.I.I.I.I.I.(.6X6X6X6X6X6X6X6X6XwX>XI.I.I.D.|.6X6X6X6XrX`.I.I.I.I.`.9X6X6X6XsXK % t t t t t t t t t t t 2 t t t | F.z.i.1.3.1.1.>.>.e.c.c.BXFXFXsXH.H.Q.6X6X6X6X6X6X6X6X6X6X6X`.K.I.I.I.I.I.6X9X6X6X6X6X6X6XI.K.K.I.6X9XQ.I.I.I.I.K.(.wX6X6X9XQ.K.I.I.K.I.K.Q.wX6XwX`.D.I.H.(.6X6X6X6X6X6X6X6X6X6X6X6XQ.I.I.K.Q.9X6X6X6X6X6X6X6X6X6X6X6X6X6X6X9X`.K.U.K.K.I.U.(.6XD.z.S.t.z.S.z.S.S.c.K.gXD.}.rX6X6X6X6X6X6XoXwX>XI.I.H.`.6X6X6X6X6X9X(.S.I.I.I.I.I.I.I.I.",
"I.I.I.I.I.I.I.I.I.I.I.I.I.I.I.D.`.9X6X6X6X6X6XQ.I.I.I.D.`.6X6XrX6X6X6X>XD.I.I.I.I.D.6X6X6XrX>XK.I.I.D.|.wX6X6X6X6X5XI.K.I.I.(.6X+X,XwXv.9 t 2 t t t t t t t e e t t < 4 8.e.1.1.1.1.1.1.1.1.1.>.p.ZXAXQ.Q.6X6X6X6X6X6X6X6X6X6X6X6X6X6X6X6X9X6X9X6X6X6X6X9X(.D.I.I.I.I.I.I.I.I.I.I.I.I.I.I.9X6X6X6X6X6X6X6X6X6X6X6X6X6X6X6XQ.K.I.I.K.Q.9X6X9XQ.K.I.I.I.H.K.I.I.K.>X9X6X6X6X6X9X6X6X6XQ.K.I.I.I.I.I.H.(.9X6X6X6X6X6XrXQ # t w t t t t t t w w t t t < +.2.>.] c.c.c.c.S.S.S.B.t.`.dX,X6X6X6X6X6X6X6X6X6X6X6X6X6X6X6X6X6X6X6X6X6X6X6X(.H.I.I.I.I.>XrX6X6X6X6X6X6X6X6X6X6X6X6X6X6X6X6X6X6X6X6X6X6X6XwX6X(.I.I.I.I.I.K.(.6X6X6X6X6X6X6X6X6XwX>XI.I.I.D.'.7X6X6X6X9X'.I.I.I.I.`.9X6X6X6XsXK % t t t t t t t t t t t t t t t  .C.z.p.r.3.3.1.1.] r.c.c.gXFXFXgXH.Y.I.6X6X6X6X6X6X6X6X6X6X6X`.I.I.I.I.I.K.>X9X6X6X6X6X6X6XQ.K.I.I.6X9XQ.I.I.I.I.H.Q.wX6X6X9XQ.K.I.I.I.I.H.I.,XoXwX`.K.I.K.(.6X6X6X6X6X6X6X6X6X6X6XwXQ.I.I.K.Q.9X6X6X6X6X6X6X6X6X6X6X6X6X6X6X6X>XK.U.K.K.K.K.I.6XD.z.S.p.z.S.z.S.S.S.K.gXD.`.9X6X6X6X6X6X6X6XwX5XI.I.K.Q.6X6X6X6X6XrX9XQ.K.I.I.I.I.I.I.I.",
"I.I.I.I.I.I.I.I.I.I.I.I.I.I.I.D.>X6X6X6X6X6X>XI.I.I.I.I.>X6X6X6X6X6X6X'.D.I.I.I.I.I.6X6X6XrX>XK.K.I.D.}.wX6X6X6X6X5XI.K.I.I.(.6X+X,XwXx.9 t 2 t t t t t e e t e t t < 4 0.h.>.>.1.1.1.1.1.1.1.1.p.ZXAX`.D.|.6X6X6X6X6X6X6X6X6X6X6X6X6X6X6X9X6X6X6X6X6XrX`.D.I.I.I.I.I.I.I.I.I.I.I.I.I.D.'.rX6X6X6X6X6X6X6X6X6X6X6X6X6X9X`.D.I.I.I.D.>X6XrX`.K.I.K.I.I.I.I.I.I.(.9X6X6X6X6X6X6X6X6XQ.H.I.I.I.I.I.I.Q.6XwXoX6X6X6X6XrXT # t w t t w t t t t w t t t < +.2.1.>.p.x.c.c.S.S.S.B.t.`.dX,X6X6X6X6X6X6X6X6X6X6X6X6X6X6X6X6X6X6X6X6X6X6XrX`.D.I.I.I.K.}.rX6X6X6X6X6X6X6X6X6X6X6X6X6X6X6X6X6X6X6X6X6X6X6XwX6X(.K.I.I.I.I.K.`.6X6X6X6X6X6X6X6X6XwX>XI.I.I.I.'.6X6X6X6X6X>XI.I.I.I.(.9X6X6X6XrXK $ t t t t t t t t t t t w t t w ^ C.z.c.r.3.3.1.1.] { t.c.gXFXAXgXP.Y.K.>X6X6X6X6X6X6X6X6X6X6X|.I.I.I.I.I.S.`.9X6X6X6X6X6X6X(.S.I.D.>XrX).I.I.I.I.H.Q.6X6X6X9XQ.K.I.I.I.I.H.I.,X6XwX`.K.I.K.T.6X6X6X6X6X6X6X6X6X6X6XwXQ.I.I.K.K.|.9X6X6X6X6X6X6X6X6X6X6X6X6X6X6X6XQ.U.K.K.U.K.D.5XG.t.S.c.t.S.S.S.S.S.D.gXW.Q.9X6X6X6X6X6X6X6X6X9XQ.I.Y.K.>X6X6X6X6X6XrX>XQ.K.I.I.I.I.I.I.",
"I.I.I.I.I.I.I.I.I.I.I.I.I.I.I.Q.6X6X6X6X6X6X`.I.Y.I.D.Q.6X6X6X6X6X6XwX`.A.I.I.I.I.(.6X6X6XrX,XI.K.I.D.`.wX6X6X6X6X6XI.I.I.I.(.6XoX,XwXx.9 t 2 t t t t t t t e e t t < 4 r.S.r.1.1.1.1.1.1.1.1.1.p.ZXAXQ.S.Q.5X6X6X6X6X6X6X6X6X6X6X6X6X6X6X6X6X6X6X6XrX|.D.I.I.I.I.I.I.I.I.I.I.I.I.I.I.I.6X6X6X6X6X6X6X6X6X6X6X6X6X6X6X6XQ.H.I.I.K.Q.6X6X9XI.K.I.K.I.I.K.I.I.I.,X9X6X6X6X6X6X6X,X(.K.I.I.I.I.I.I.I.5XwX6X6X6X6X6X6X6XD - t w t t w w t t t w t t t < +.2.1.1.p.x.c.c.S.S.S.S.z.}.dX,X6X6X6X6X6X6X6X6X6X6X6X6X6X6X6X6X6X6X6X6X6X6XwX'.D.I.I.I.K.`.rX6X6X6X6X6X6X6X6X6X6X6X6X6X6X6X6X6X6X6X6X6X6X6XwX6XQ.K.I.K.K.I.K.`.6X6X6X6X6X6X6X6X6XwX>XI.I.I.D.'.9X6X6X6X6X>XI.I.I.H.(.9X6X6XoXrXK $ t t t t t t t t t w t t t t 9 ( C.c.B.p.3.3.3.>.>.1.t.c.fXKXAXkXY.Y.H.>X9X6X6X6X6X6X6X6X6X6X|.I.I.I.I.I.H.(.9X6X6X6X6X6X6X`.S.I.I.'.rX}.I.I.I.I.K.K.,X6X6X9XQ.K.I.I.I.I.K.I. X6XwX'.I.I.I.I.5X6X6X6X6X6X6X6X6X6X6X6XQ.I.I.I.D.`.6X6X6X6X6X6X6X6X6X6X6X6X6X6X6X6X`.H.K.K.K.K.S.`.Q.z.S.S.r.z.S.S.S.S.D.gXQ.Q.5XwX6X6X6X6X6X6X6X9XQ.K.I.K.`.6X6X6X6X6X6XrX}.I.K.I.I.I.I.I.",
"I.I.I.I.I.I.I.I.I.I.I.I.I.I.I.'.9X6X6X6X6X6X(.H.Y.I.D.`.9X6X6X6X6X6X9X(.D.I.I.I.I.`.wX6X6XrX6XI.K.I.D.`.9X6X6X6X6X6XI.I.I.I.(.6XoX,XeXD.w t 2 t t t t e t t e e t t < 4 7.D.p.1.1.1.1.1.1.1.1.1.p.ZXAX`.I.I.(.6X6X6X6X6X6X6X6X6X6X6X6X6X6X6X6X6X6X9X5XI.I.I.I.I.I.I.I.I.I.I.I.I.I.I.D.`.rX6X6X6X6X6X6X6X6X6X6X6X6X6X9X`.D.I.I.I.D.|.6XrX`.H.I.I.I.I.I.I.I.H.`.rX6X6X9X9X6X6X9X`.S.I.I.I.I.I.I.I.>X9X X6X6X6X6X6X6X6XF < t w t t w w t t t t t t t < +.2.1.1.p.x.z.c.S.S.S.S.z.}.dX,X6X6X6X6X|.`.`.6XwX6X6X6X6X6X6X6X6X6X6X6X6X6XwX|.D.I.I.I.K.Q.9X6X6X6X6X6X6X6X6X6X6X6X6X6X6X6X6X6X6X6X6X6X6X6XwX6XQ.K.K.K.K.K.K.`.,X6X6X6X6X6X6X6X6XwX>XI.I.I.I.`.6X6X6X6X6X6XI.I.I.I.(.6X6X6XoXrXK $ t t t t t t t t t w w w t t 9 ) C.c.B.p.3.,.3.1.1.1.r.c.sXKXAXBXY.Y.H.&X9X6X6X6X6X6X6X6X6X6X XQ.K.I.I.I.K.Y.6X6X6X6X6X6X6X'.S.I.H.`.rX|.I.I.I.I.K.D.>X6X6X9X(.K.I.I.I.I.K.I. X6XwX|.I.I.I.I.>XwX6X6X6X6X6X6X6X6X6X6XQ.I.I.I.K.I.>X6X6X6X6X6X6X6X6X6X6X6X6X6X6X6X>XK.K.K.K.K.S.Q.Q.z.z.S.r.t.D.S.S.S.D.gXQ.K.>XwX6X6X6X6X6X6X6X9XQ.K.I.K.Q.6X6X6X6X6X6X6X6X`.K.I.I.I.I.I.",
"I.I.I.I.I.I.I.I.I.I.I.I.I.I.I.5X6X6X6X6X6X,XI.I.Y.I.D.|.9X6X6X6X6X6X6XQ.I.I.I.I.I.'.wX6X6X6X6XI.K.I.D.`.9X6X6X6X6X6XI.K.I.K.(.6XoX,XeXD.w t 2 t t t w e t t t t t t < > 7.D.H.y.>.1.1.1.1.1.1.1.s.AXAX`.I.I.D.5XwXoX6X6X6X6X6X6X6X6X6X6X6X6X9X6X9X6XQ.I.I.I.I.I.I.I.I.I.I.I.I.I.I.I.Q.6X6X6X6X6X6X6X6X6X6X6X6X6X6X6X9XQ.K.I.I.K.Q.6XwX9XI.K.I.I.I.K.I.I.K.K.>X6X9X9X9X9X6X9X>XD.I.I.K.I.I.I.A.'.9X6X X6X6X6X6X6X6X,XF < t w t t t t t t t t t t t < +.2.1.1.p.x.z.c.c.S.B.B.z.}.dX,X6X6X6X6XQ.S.S.Q.`.6X6X6X6X6X6X6X6X6X6X6X6X6X6X>XD.I.I.I.K.Q.9X6X6X6X6X6X6X6X6X6X6X6X6X6X6X6X6X6X6X6X6X6X6X6XwX6XQ.K.K.K.K.K.K.`.6X6X6X6X6X6X6X6X6XwX>XI.I.I.A.(.6X6X6X6X6X6XD.I.I.I.(.6X6XoXoXrXK $ t t t t t t t t t t t w t t 8 K D.c.S.p.r.,.3.1.1.1.r.t.sXKXAXVXY.Y.H.Q.9X6X6X6X6X6X6X6X6X6XoX(.K.I.I.I.I.I.,X6X6X6X6X6XwX>XD.I.S.Q.rX,XI.I.I.I.K.S.>XwX6X9X`.H.I.I.I.I.K.K. XwXwX|.I.I.I.I.>XwX6X6X6X6X6X6X6X6X6XwXQ.I.I.I.I.K.>X9X6X6X6X6X6X6X6X6X6X6X6X6X6X6X,XI.K.K.K.I.H.I.D.B.B.S.t...D.S.S.S.S.gXQ.S.*XwX6X6X6X6X6X6X6X9X`.K.I.K.I.>X6X6X6X6X6X6XwX6X(.I.I.I.I.I.",
"I.I.I.I.I.I.I.I.I.I.I.I.I.I.(.9X6X6X6X6X6X(.S.I.I.D.Q.6X6X9X9X6X6X6X6XD.I.I.I.I.I.>XwX6X6X6X9XQ.K.I.D.`.9X6X6X6X6X6XI.K.I.K.(.6XoX,XeXW.i 2 2 t t t w w t t t t t t < 2 5.D.H.p.6.1.1.1.1.1.1.>.s.AXFX`.K.I.H.I.6X6X6X6X6X6X6X6X6X6X6X6X6X6X6X>X8X(.K.Y.I.I.I.I.I.I.I.I.I.I.I.I.I.D.>X0X6X6X6X6X6X6X6X6X6X6X6XwX6X6X`.D.I.I.I.D.}.6XrX*XD.K.K.I.I.I.I.I.K.&XrX,X9X9X6X6X6X>XK.K.I.I.I.I.I.S.(.6XwX6X6X6X6X6X6X6X6X>Xn < t w t w t t t t t t t t t < +.2.1.1.p.x.z.c.c.S.S.S.z.>XdX,X6X6X6X`.D.I.I.I.D.Q.9X6X6X6X6X6X6X6X6X6X6X6X6X6XI.K.I.I.I.I.>XrX6X6X6X6X6X6X6X6X6X6X6X6X6X6X6X6X6X6X6X6X6X6XwX6XQ.K.I.K.K.K.I.>X6X,X6X6X6X6X6X6X6XwX>XI.I.I.D.(.6X6X6X6X6X9XD.I.I.I.Q.6X6XoXoXrXK $ t t t t t t t t t t t w t t 8 L D.B.z.S.r.,.,.>.>.1.>.>.sXKXAXAXQ.Y.I.Q.9X9X6X6X6X6X6X6X6X6X6X`.S.I.I.I.I.I.>X6X6X6X6X6X6X,XK.I.H.Q.rX6XQ.I.I.I.I.S.>XwX6XrX`.H.I.I.I.I.K.K.|.wX6X|.I.I.I.H.>XrX6X6X6X6X6X6X6X6X6XwXQ.I.I.I.I.K.Q.9X6X6X6X6X6X6X6X6X6X6X6X6X6X6X6X(.K.Y.I.K.K.K.S.S.B.S.t...S.S.S.S.c.gX(.S.%X6X6X6X6X6X6X6X6X9X>XK.K.K.K.`.6X6X6X6X6X6X6XwX6X`.I.I.I.I.",
"I.I.I.I.I.I.I.I.I.I.I.I.I.I.|.6X6X6X6XrX,XI.H.Y.I.K.`.9X6X6X6X6X6X6X>XD.I.I.I.I.I.5XwX6X6X6X9X(.K.I.D.`.9X6X6X6X6X6XI.K.I.I.(.6XoX,XeXQ.i 2 2 t e e e e e e t t t t < < 5.D.c.c.y.1.1.1.1.1.1.>.s.ZXFX`.K.I.I.S.).6X6X6X6X6X6X6X6X6X6X6X6X6X6X6XQ.K.I.I.I.I.I.I.I.I.I.I.I.I.I.I.I.(.6X6X6X6X6X6X6X6X6X6X6X6X6XwXwX>XK.I.I.I.I.Q.,XwXrXQ.D.I.I.K.I.I.K.K.Q.9X6X6X6X6XwX6X9XQ.H.I.I.I.I.I.H.D.5X6XwX6X6X6X6X6X6X6X9X>Xb w t t t w t t t t t t t t t < +.2.1.1.p.x.z.c.c.S.S.S.z.>XdX,X6X6X,XQ.K.K.I.I.I.I.(.6X6X6X6X6X6X6X6X6X6X6X6X6XQ.I.I.I.I.I.>XrX6X6X6X6X6X6X6X6X6X6X6X6X6X6X6X6X6X6X6X6X6X6XwX6XD.K.I.I.K.K.I.>X6X6X6X6X6X6X6X6X6XwX|.I.I.I.D.(.6X6X6X6X6X9XI.I.I.H.Q.6X6X6XoXrXK $ t t t t t t t t t t t w t t 9 L D.B.z.S.r.,.>.1.1.1.>.>.9XKXAXAX%XI.Y.K.<X9X6X6X6X6X6X6X6X6XwX|.D.I.I.I.I.K.`.6X6X6X6X6X6X6XI.K.K.G.6X6X(.D.I.I.I.S.`.wX6XrX`.H.I.I.I.I.K.K.|.rX6X>XI.I.I.H.|.rX6X6X6X6X6X6X6X6X6XwXQ.I.I.I.I.K.I.6X6X6X6X6X6X6X6X6X6X6X6X6X6X6X9X*XK.Y.I.I.I.K.S.S.z.S.z...p.S.z.S.c.IX`.S.Y.>X6X6X6X6X6X6X6X9X>XD.K.K.K.Q.6X6X6X6X6X6X6X6X6X6X(.I.I.I.",
"I.I.I.I.I.I.I.I.I.I.I.I.I.Q.6X6X6X6X6XrX`.H.Y.I.I.I.>X9X6X6X6X6X6X6X'.D.I.I.I.I.(.6XwX6X6X6X9X`.K.I.D.`.9X6X6X6X6X5XI.K.I.I.(.6XoX,XeXQ.i 2 2 t e e e e e e t t t t 1 < 5.D.c.c.p.1.1.1.1.1.1.>.p.ZXFX`.K.I.I.I.D.|.6X6X6X6X6X6X6X6X6X6X6X6X9X(.D.K.I.I.I.I.I.I.I.I.I.I.I.I.I.I.I.5X6X6X6X6X6X6X6X6X6X6X6X6X6XrX6XQ.H.I.I.I.I.`.6XrX>XD.I.I.I.K.I.I.K.D.>XrX,X9X9X6X,X9X&XK.I.K.I.I.I.I.D.`.6X6X6X6X6X6X6X6X6X6XrX}.t w t t t t t t t t t t t t t < +.2.1.1.p.x.z.c.S.S.S.B.z.>XdX,X6X6X|.D.K.K.I.I.I.I.D.`.6X6X6X6X6X6X6X6X6X6X6X9X(.K.I.I.I.K.`.9X6X6X6X6X6X6X6X6X6X6X6X6X6X6X6X6X6X6X6X6X6X6XwX,XD.H.I.I.I.I.I.5X6X6X6X6X6X6X6X6X6XwX|.I.I.I.I.(.6X6X6X6X6X9XQ.I.I.H.Q.6X6X6X6XrXK $ t t t t t t t t t t t t t t 9 m c.z.z.S.p.,.>.1.1.1.>.>.<XKXAXAX%XH.Y.H.>X9X6X6X6X6X6X6X6X6XwX>XD.I.I.I.I.K.`.9X6X6X6X6X6X6XQ.K.K.D.,XrX(.D.I.I.I.S.`.wX6XrX>XH.I.I.I.I.I.H.`.rX6X,XI.I.I.K.`.rX6X6X6X6X6X6X6X6X6XwXQ.I.I.I.I.I.D.`.6X6X6X6X6X6X6X6X6X6X6X6X6X6X9X>XI.I.I.K.I.K.S.S.z.S.S.r.t.S.c.S.c.IX`.H.Y.>X6X6X6X6X6X6X6X9X>XD.D.K.K.D.|.wX6X6X6X6X6X6X6X6X6X(.K.Y.",
"I.I.I.I.I.I.I.I.I.I.I.I.D.'.6X6X6X6X6X9XQ.I.Y.I.I.Q.9X6X6X6X6X6X6X6X`.D.I.I.I.D.(.6XwX6X6X6XrX&XK.I.D.`.9X6X6X6X6X5XI.K.I.I.(.6XoX,XeX(.i 2 t t e e e e e e t t t t 1 w %.D.c.c.c.r.1.1.1.1.1.1.p.ZXFX&XI.I.I.I.I.Q.|.6X6X6X6X6X6X6X6X6X6X9XQ.H.I.I.I.I.I.I.I.I.I.I.I.I.I.I.I.I.`.rX6X6X6X6X6X6X6X6X6X6X6X6X6X6X`.S.I.I.I.K.Q.,X6XrX(.D.I.I.I.I.Q.K.K.Q.9X6X6X9X9X6X6X>XK.I.I.K.I.I.I.K.Q.6X6X6X,X6X6X6X6X6X6X6XrX}.e t t t t t w w w t t w t t t < +.2.>.1.p.x.c.c.S.S.S.S.t.>XdX,X6X6XQ.D.I.I.I.I.I.I.I.I.'.6X6X6X6X6X6X6X6X6X6X9X`.H.I.I.I.H.Q.9X6X6X6X6X6X6X6X6X6X6X6X6X6X6X6X6X6X6X6X6X6X6XwX,XD.K.I.I.I.I.Y.9X6X6X6X6X6X6X6X6X6XwX|.D.I.I.I.(.6X6X6X6X6X9X(.H.I.H.Q.6X6X6X6XrXK $ t t t t t t t t t t t t t t 9 m c.z.z.B.c.3.>.1.1.1.1.] *XKXAXAX&XH.Y.H.`.9X6X6X6X6X6X6X6X6XwX,XQ.I.I.I.I.K.Q.9X6X6X6X6X6XwX`.H.K.D.>XrX`.D.I.I.I.S.(.wX6XrX>XK.I.I.I.I.I.H.`.9X6X6XI.K.I.K.`.rX6X6X6X6X6X6X6X6X6X6XQ.I.I.I.I.I.K.Q.6X6X6X6X6X6X6X6X6X6X6X6X6X6X6X6X(.K.I.K.I.K.S.S.S.S.S.r.r.S.S.S.z.gX`.H.Y.`.6X6X6X6X6X6X6X9X9XQ.D.I.I.D.`.wX6X6X6X6X6X6X6X6X6X6XQ.H.",
"I.I.I.I.I.I.I.I.I.I.I.K.G.6X6X6X6X6XrX*XK.K.I.I.I.'.9X6X6X6X6X6X6X9X(.I.I.I.I.D.`.6X6X6X6X6XrX*XK.I.D.`.9X6X6X6X6X5XI.K.I.I.(.6XoX,XeX`.i 2 2 t e e e e e e t t t t e w %.D.c.c.c.p.1.1.1.1.1.1.p.ZXFX&XK.I.I.I.I.I.(.6X6X6X6X6X6X6X6X7X6XI.H.I.I.I.I.I.I.I.I.I.I.I.I.I.I.I.I.Q.6X6X6X6X6X6X6X6X6X6X6X6X6X6X6X>XI.H.I.I.I.I.`.6XrX6XK.K.I.I.I.I.I.I.D.>X9X6X9X9X6X6X1XI.K.I.K.I.I.I.I.D.|.6X X,X6X6X6X6X6X6X6X6XrX`.< t w t t t w w w w t w t t t < +.2.1.1.p.x.c.c.S.S.S.S.z.>XdX,XwX'.D.S.K.I.I.I.I.I.I.K.D.*X9X6X6X6X6X6X6X6X6X9X*XI.I.I.I.H.I.9X6X6X6X6X6X6X6X6X6X6X6X6X6X6X6X6X6X6X6X6X6X6XwX|.D.I.I.I.I.I.Q.9X6X6X6X6X6X6X6X6X6XwX|.D.I.I.I.Q.6X6X6X6X6X0X`.A.I.I.I.,X6X6X6XrXK $ t t t t t t t t t w t t w t 9 g c.z.B.B.S.y.>.1.1.1.1.] &XKXAXAX&XH.Y.I.Q.9X6X6X6X6X6X6X6X6XwX6XQ.K.I.I.I.K.Q.6X6X6X6X6X6XwX`.S.K.D.|.rX`.D.I.I.I.S.Q.wX,XwX,XK.I.I.I.I.I.H.(.9X6X6XQ.K.I.K.(.rX6X6X6X6X6X6X6X6X6XwXQ.I.I.I.I.I.K.K.,X6X6X6X6X6X6X6X6X6X6X6X6X6X6X6X&XK.I.K.I.K.S.S.B.D.C.e.1.c.S.S.z.gX&XH.I.Q.6X6X6X6X6X6X6X6X9X(.D.I.I.K.Q.6X6X6X6X6X6X6X6X6X6X6X>XQ.",
"K.I.I.I.I.I.I.I.I.K.H.(.6XwX6X6X6X6X9X(.H.I.I.I.I.>X9X6X6X9X9X6X6X6XQ.I.I.I.I.D.|.6X6X6X6X6XrX>XK.I.D.`.9X6X6X6XwX5XI.I.I.I.(.6XoX1XeX`.i < 2 t e e e e e w t t t t t w ^ D.c.z.c.p.r.1.1.1.1.1.p.ZXFX:XK.I.I.I.I.I.I.(.|.6X6X6X6XrX9X|.Q.S.K.I.K.I.I.I.I.I.I.I.I.I.I.I.I.I.Q.>X6X6X6X6X6X6X6X6X6X6X6X6X6X6X6X(.I.I.I.I.K.I.9X6XrX`.K.I.I.I.I.I.I.K.Q.9X6X6X6XrX6X9X`.H.Y.K.K.K.K.I.K.(.6X6X6X6X6X6X6X6X6X6X6X6XrX!.* t w t w t t t t w t t t t t < +.2.1.1.p.x.c.c.S.B.S.S.t.>XdX,X6XQ.K.S.I.I.I.I.I.I.I.I.I.I.(.6X6X6X6X6X6X6X6X6X5XI.I.I.I.K.D.>X9X6X6X6X6X6X6X6X6X6X6X6X6X6X6X6X6X6X6X6X6X6XwX|.D.I.I.I.I.I.Q.6X6X6X6X6X6X6X6X6X6XwX|.D.I.I.I.Y.6X6X6X6X6XrX`.A.I.I.I.>X6X6XoXrXK $ t t t t t t t t t t t t t t 9 6 n.B.S.B.S.p.>.1.1.1.1._ Q.KXAXFX*XS.I.I.I.1X9X6X6X6X6X6X6X6X6XwX).H.I.I.I.I.D.'.6X6X6X6X6XwX>XD.K.D.'.rX|.I.I.I.I.H.I.6X,X6X6XY.I.I.I.I.I.H.Q.9X6X6XQ.H.I.K.Q.9X6X6X6X6X6X6X6X6X6XwXQ.I.I.I.I.I.I.K.`.9X6X6X6X6X6X6X6X6X6X6X6X6X6X6X>XI.K.K.I.K.S.S.S.S.B.p...t.S.S.z.gX9XK.K.I.,X6X,X6X6X6X6X6XwX).I.I.I.K.I.|.wX6X6X6X6X6X6X6X6X6X6X6X",
"(.S.I.I.I.I.I.I.I.(.>XrXrX6X6X6X6X9X>XK.I.Y.I.H.(.6X6X6X6X9X9X6X9X>XI.I.I.I.I.I.5X6X6X6X6X6X9X*XK.K.D.`.9X6X6X6XwX5XI.I.I.I.(.6XoX1XeX`.u < 2 t e e t e t t t t t t t 9 ^ D.c.z.z.c.y.1.1.1.1.1.p.ZXFX:XK.I.I.I.I.I.I.I.Q.`.6X9XrX5X`.I.K.K.K.K.K.K.I.I.I.I.I.I.I.I.I.I.I.Q.>X9X6X6X6X6X6X6X6X6X6X6X6X6X6X6X`.S.I.Y.I.I.K.`.9X9X9XQ.K.I.I.I.I.I.I.K.>X9X6X6X6X6X9X>XK.I.K.K.I.K.K.K.I.6X6X6X6X6X6X6X6X6X6X6X6X6XrXW.* t w t e t t t t w t t t t t < +.2.1.1.p.x.z.c.S.B.S.S.t.>XdX6X`.S.K.K.I.I.I.I.I.I.I.I.I.I.K.'.9X6X6X6X6X6X6X6X9X(.I.I.I.I.S.`.9X6X6X6X6X6X6X6X6X6X6X6X6X6X6X6X6X6X6X6X6X6XwX'.D.I.I.I.I.I.(.6X6X6X6X6X6X6X6X6X6XwX|.D.I.I.I.Y.6X6X6X6X6X9X'.S.I.I.K.>X6X6XoXrXK $ t t t t t t t t t t t t t t w 5 m.S.S.z.S.p.1.1.1.1.1._ Y.KXAXFX<XS.K.I.K.>XrX6X6X6X6X6X6X6X6XwX`.S.I.I.I.I.S.`.6X6X6X6X6XwX>XK.K.D.`.6X,XI.I.I.I.H.I.,X6X6X6XY.K.I.I.I.I.H.Q.9X6XwX(.H.I.K.Q.6XwX6X6X6X6X6X6X6X6XwX).I.I.I.I.I.I.K.Q.9X6X6X6X6X6X6X6X6X6X6X6X6X6X6X6XQ.K.I.K.I.S.z.S.S.z.S...r.S.S.z.gXsXD.I.K.|.6X,X6X6X6X6X6XwX|.I.I.I.I.K.(.6X6X6X6X6X6X6X6X6X6X6X6X",
">XD.I.I.I.I.I.K.`.6XwXwX6X6X6X6X6X9X(.K.I.Y.I.I.`.9X6X6X9X9X6X6X9X|.D.I.I.I.D.Q.6X6X6X6X6X6X9X*XK.K.D.`.9X6X6X6XwX>XI.I.I.K.(.6XoX9XeX`.u < 2 t e t t t t t t t t t t 9 ^ D.c.z.z.z.p.1.1.1.1.1.p.ZXFX>XK.I.I.I.I.I.I.I.I.I.(.`.`.Q.K.K.I.K.K.K.K.I.I.I.I.I.I.I.I.I.I.I.I.5X9X6X6X6X6X6X6X6X6X6X6X6X6X6X6X>XD.I.I.Y.Y.H.Q.9X6XrX>XD.K.I.K.I.I.I.K.Q.9X6X6X6XwX6X9XQ.K.Y.K.K.I.K.K.D.`.rX6X6X6X6X6X6X6X6X6X6X6X6XrXK.* u w t t t t t w w w t t t t < +.2.>.r.p.x.z.z.B.B.B.B.z.:XdX|.Y.K.K.I.I.I.I.I.I.I.I.I.I.I.I.I.>X6X6X6X6X6X6X6X6X'.I.I.I.Y.H.Q.9X6X6X6X6X6X6X6X6X6X6X6X6X6X6X6X6X6X6X6X6X6X+X`.H.I.I.I.I.I.).6X6X6X6X6X6X6X6X6X6XwX|.K.I.I.I.I.6X6X6X6X6X9X'.D.I.I.D.|.6X6XoXrXL $ t t t t t t t t t t t t t t w 1 0.D.S.B.S.p.r.1.1.1.1.` Y.KXAXFX9XK.K.I.K.`.wX1X6X6X6X6X6X6X6XwX|.K.I.I.I.I.S.`.6X6X6X6X6X6X6XI.K.D.).6X6XQ.I.I.I.K.I.>X6X6X6XQ.K.I.I.I.I.H.Q.9X6XwX`.K.I.K.D.6XwX6X6X6X6X6X6X6X6XwX).I.I.I.I.I.I.K.K.>X9X6X6X6X6X6X6X6X6X6X6X6X6X6X6X`.K.I.K.I.S.z.D.S.z.S.....S.S.z.gXfXK.K.H.).6X,X6X6X6X6X6X6X|.I.I.I.I.I.I.>XwX6X6X6X6X6X6X6X6X6X6X",
"6XQ.I.I.I.I.K.(.9XwX6X6X6X6X6X6X6X>XK.I.I.Y.I.I.>X9X6X9X9X9X6X6X9X`.D.I.I.I.S.(.9X6X6X6X6X6X9X*XK.K.K.:X9X6X6X6XwX>XI.I.I.K.(.6X6X6XeX`.p < t t e t t t t t t t t t t 9 ~ D.c.z.z.z.c.r.1.1.1.1.p.ZXFX>XK.I.I.I.I.I.I.I.I.I.I.I.I.I.I.I.I.I.K.K.K.I.I.I.I.I.I.I.I.I.I.D.'.9X6X6X6X6X6X6X6X6X6X6X6X6X6X6X6XI.D.I.I.I.I.D.|.rX6X9X(.K.I.I.I.I.I.I.D.|.9X6X6X6X6XrX,XK.I.K.K.I.I.I.K.Q.9XwX6X6X6X6X6X6X6X6X6X6X6X6XrXc.$ u w t t t t t w w w t t t t < +.2.1.r.c.z.z.z.B.B.S.S.z.>XjXQ.I.I.I.K.I.I.I.I.I.I.I.I.I.I.I.K.(.6X6X6X6X6X6X6X6X5XI.I.I.I.H.K.>X6X6X6X6X6X6X6X6X6X6X6X6X6X6X6X6X6X6X6X6X6X6X`.K.I.I.I.I.K.`.6X6X6X6X6X6X6X6X6X6XwX|.K.I.I.I.I.6X6X6X6X6X9X'.D.I.I.D.`.6X6X6XrXK $ t t t t t t t t t t t t t t t 1 5.S.S.B.S.S.r.>.1.1.1.` U.HXAXFXsXK.K.I.K.Q.6X6X6X6X6X6X6X6X6XwX>XI.K.I.I.I.D.(.9X6X6X6X6X6X6XQ.K.D.(.6XwX(.I.I.I.K.K.>X6X6XrX(.K.I.I.I.I.H.Q.9X6XwX`.D.I.I.D.>XrX6X6X6X6X6X6X6X6XwX`.I.I.I.I.I.I.I.K.`.9X6X6X6X6X6X6X6X6X6X6X6X6X6X6X>XI.I.K.I.c.t.D.B.z.S.t...S.S.z.hXkXI.K.H.Q.,X,X,X6X6X6X6X6XoXI.I.I.I.I.K.`.6X6X6X6X6X6X6X6X6X6X6X",
"6X`.I.I.I.I.H.>XrX6X6X6X6X6X6X6X6X(.H.I.Y.I.I.Q.6X6X6X6X6X6X6X6X9X).D.I.I.I.D.'.rX6X6X6X6X6X9X*XK.K.K.>X9X6X6X6XwX>XK.K.I.K.(.9X6X9X7X|.p < t t e t t t t t t t t t t 9 ~ D.c.z.z.z.z.p.1.1.1.>.p.ZXKX>XH.K.K.I.I.I.I.I.I.I.I.I.I.I.I.I.I.I.K.K.K.K.I.I.I.I.I.I.I.I.D.`.6X6X6X6X6X6X6X6X6X6X6X6X6X6X6X7X(.I.I.Y.Y.K.D.(.9X6XrX8XK.K.I.I.I.I.I.D.Q.6X9X6X6XwX6X9X`.K.I.K.I.I.I.K.K.>X6X6X6X6X6X6X6X6X6X6X6X6X6X6XrXb.$ t t t t t e e e e e t t t t < +.2.>.r.c.z.c.c.B.B.S.S.t.>XrXD.K.I.I.I.I.I.I.I.I.I.I.I.I.I.I.I.D.|.6X6X6X6X6X6X6X6X(.K.I.I.I.S.*X6X6X6X6X6X6X6X6X6X6X6X6X6X6X6X6X6X6X6X6X6X6X(.H.I.I.I.I.K.|.6X6X6X6X6X6X6X6X6X6XwX|.H.I.I.I.I.oXwX6X6X6X9X|.D.I.I.K.`.6X6XoXrXK $ t t t t t t t t t t t t t t t < %.S.S.B.S.S.r.>.>.1.1.` H.HXAXFXfXK.K.K.K.Q.6X6X6X6X6X6X6X6X6X6X6XI.K.I.I.I.D.Q.5X6X6X6X6X6X6XQ.K.D.Q.6XwX`.I.I.I.I.D.|.wX6X9X%XK.I.I.I.I.H.I.9X6XwX|.D.I.I.D.>XrX6X6X6X6X6X6X6X6X6X`.I.I.I.I.I.I.I.K.Q.6X6X6X6X6X6X6X6X6X6X6X6X6X6X6X5XQ.I.K.I.z.X.D.S.z.z.z.| p.H.z.aXMXQ.S.K.K.>X6X6X6X6X6X6X6X6XI.I.I.I.I.I.I.>XwX6X6X6X6X6X6X6X6X6X",
"rX>XI.I.I.I.I.,XwX6XwXwX6X6X6X6X>XD.K.K.I.I.D.(.6X6X6X6X6X6X6X6X9XQ.I.H.I.I.D.>XrX6X6X6X6X6X9X*XK.K.K.>X9X6X6X6XwX'.K.K.I.K.(.9X6X9X7X>Xp < t t e t t t t t t t t t t 9 ~ D.c.z.z.z.z.c.r.1.1.>.p.ZXKX<XH.I.K.I.I.I.I.I.I.I.I.I.I.I.I.I.I.I.K.K.K.I.I.I.I.I.I.I.I.D.(.5X6X6X6X6X6X6X6X6X6X6X6X6X6X6X7X'.I.I.H.I.Y.K.I.6XrX6XrX&XD.I.I.I.I.I.I.D.|.9X6X9X6X6X6X>XK.I.K.K.I.K.I.K.Q.9X6X6X6X6X6X6X6X6X6X6X6X6X6X6XsX7.# t w t t t t t e e t t t t t < +.2.>.r.S.z.c.c.B.B.S.S.t.<X9XS.K.K.I.I.I.I.I.I.I.I.I.I.I.I.I.I.D.Q.6X6X6X6X6X6X6X6X'.K.I.I.I.S.(.6X6X6X6X6X6X6X6X6X6X6X6X6X6X6X6X6X6X6X6X6X6XQ.H.I.I.I.I.K.|.wX6X6X6X6X6X6X6X6X6XwX`.H.I.I.I.I.oXwX6X6X6X9X|.D.I.I.D.Q.6X6XoXrXK $ t t t t t t t t t t t t t t t < Q S.B.S.B.S.t.] >.>.1.` H.HXAXFXMXK.K.K.I.K.,X6X6X6X6X6X6X6X6X6X9X(.D.I.I.I.I.D.>X6X6X6X6X6X6XQ.K.K.I.6XwX>XI.I.I.I.S.`.wX6XrX*XD.I.I.I.I.H.I.6X6XwX>XD.I.I.S.>XrX6X6X6X6X6X6X6X6X6X`.I.I.I.I.I.I.I.I.D.>X9X6X6X6X6X6X6X6X6X6X6X6X6X6X9X`.K.K.I.z.X.D.S.z.z.S.r.t.H.z.aXVX`.D.K.K.`.6X6X6X6X6X6X6X6X(.I.I.I.I.I.K.`.6XwX6X6X6X6X6X6X6X6X",
"6X6X(.S.I.H.Q.6XwX6XwXwX6X6X6X9X(.K.K.K.I.I.S.`.9X6X6X6X6X6X6X6X5XI.K.H.I.I.I.9XrX6X6X6X6X6X9X&XK.K.I.>X6X6X6X6XwX`.K.K.I.I.(.9X6X9X7X>Xz ; t t e t t t t t t t t t t 9 ! D.c.z.z.z.z.c.t.1.>.>.p.SXKX<XH.I.K.I.I.I.I.I.I.I.I.I.I.I.I.I.I.I.I.I.I.I.I.I.I.I.I.I.D.(.>X6X6X6X6X6X6X6X6X6X6X6X6X6X6X7X5XI.K.H.I.I.I.K.`.rXwX6X6XQ.K.I.I.I.I.I.D.Q.1X6X6X6X6X6X9X`.H.K.K.K.K.K.K.K.*X6X6X6X6X6X6X6X6X6X6X6X6X6X6X6XsX .# t w t t t t t t t t t t t t < +.2.] p.S.c.c.S.B.B.S.S...>X9XS.I.K.I.I.I.I.I.I.I.I.I.I.I.I.I.I.I.D.`.9X6X6X6X6X6X6X>XI.I.I.I.H.I.,X6X6X6X6X6X6X6X6X6X6X6X6X6X6X6X6X6X6X6X6X6XQ.H.I.I.I.K.I.6XwX6X6X6X6X6X6X6X6X6XwX`.H.I.I.I.I.oXwX6X6X6X9X|.D.K.I.D.Q.6X6X6XrXK $ t t t t t t t t t t t t t t t ; T g.c.S.B.S.p.1.1.1.1.` j.AXAXFXMXQ.H.I.I.D.>X6X6X6X6X6X6X6X6X6X9X`.K.I.I.K.I.D.`.6X6X6X6X6X6X`.K.K.K.5XwX5XK.K.I.I.S.`.6X6XwX>XD.I.I.I.I.H.I.,X6XwX>XI.I.I.S.`.rX6X6X6X6X6X6X6X6X6X|.I.I.I.I.I.I.I.I.K.(.9X6X6X6X6X6X6X6X6X6X6X6X6X6X9X9XD.D.I.c...D.S.z.z.S.r.r.S.z.aXVX*XK.K.K.Q.oX6X6X6X6X6X6X6X`.K.I.K.I.I.I.I.>XwX6X6X6X6X6X6X6X6X",
"6XrX>XS.I.S.(.wXwXwXwX6X6X6X6X>XI.K.K.K.K.K.D.>X0X6X6X6X6X6X6XrX>XI.K.K.I.K.(.rX6X6X6X6X6X6X6X(.K.K.I.>XwX6X6X6X9X`.K.I.I.K.(.9X6X9X7X>Xz ; t t e t t t t t t t t t t ; ! D.c.z.z.z.z.z.z.r.>.>.p.SXKX<XH.I.I.I.I.I.I.I.I.I.I.I.I.I.I.I.I.I.I.I.I.I.I.I.I.I.I.I.Q.>X9X6X9X6X6X6X6X6X6X6X6X6X6X6X7X5XQ.I.K.K.I.K.K.Q.,XwX6XwX>XK.I.I.I.I.I.I.K.`.9X6X9X6XwX6X6XQ.H.K.K.K.K.K.K.I.6X6X6X6X6X6X6X6X6X6X6X6X6X6X6X6XsX^ # u w t t t t t t t t t t t t < +.2.>.p.S.c.c.S.B.S.H.p.' >XiXS.I.I.I.I.I.I.I.I.I.I.I.I.I.I.I.I.I.I.I.>X6X6X6X6X6X6X6X(.I.I.I.K.K.>X9X6X6X6X6X6X6X6X6X6X6X6X6X6X6X6X6X6X6X6X6XI.H.I.I.I.K.I.6X6X6X6X6X6X6X6X6X6X6XwX`.H.I.I.I.I.oXwX6X6X6X6X|.D.I.I.D.Q.6X6X6XrXK $ t t t t t t t t t t t t t t t < I p.t.S.B.S.S.r.>.1.1.` p.AXAXFXBX(.H.I.I.D.`.9X6X6X6X6X6X6X6X6X6X'.I.I.I.K.I.D.`.6X6X6X6X6X6X}.K.K.K.>XwX6XI.H.I.I.S.(.6X6XwX>XD.I.I.I.I.K.I.>XwXwX>XI.K.I.D.`.9X6X6X6X6X6X6X6X6X6X|.I.I.I.I.I.I.I.I.K.Q.6X6X6X6X6X6X6X6X6X6X6X6X6X6X6X6XD.S.I.S...S.S.S.S.D.r.| S.z.rXVX>XD.H.K.I. X9X6X6X6X6X6X6X>XI.I.K.I.I.I.I.).6X6X6X6X6X6X6X6X6X",
"6XwX9X`.D.D.>XwX6XwX6X6X6X6X6X(.D.K.K.K.K.K.I.6X9X6X6X6X6X6X6XrX`.I.K.I.I.K.`.rX6X6X6X6X6X6X6XQ.K.K.Q.,X6X6X6X6XrX`.K.I.I.K.(.rX,X9X7X>XZ ; t t e t t t t t t t t t t ; T D.c.z.z.z.z.z.z.r.r.>.p.SXKX<XH.K.I.I.I.I.I.I.I.I.I.I.I.I.I.I.I.I.I.I.I.I.I.I.I.I.I.Q.>X9X9X9X9X6X6X6X6X6X6X6X6X6X6X6X6X(.I.K.K.I.I.I.K.>X,XwX,XrX`.D.I.I.I.I.I.K.I.>X9X6X9X6XwX6X>XK.K.K.K.K.K.K.D.`.6X6X6X6X6X6X6X6X6X6X6X6X6X6X6X6XaX) $ u w t e e e t t t t t t t t < +.2.3.p.B.c.c.S.S.S.p.y._ <XiXS.I.K.I.I.I.I.I.I.I.I.I.I.I.I.I.I.I.I.I.Q.6X6X6X6X6X6X6X`.I.I.I.I.S.`.6X6X6X6X6X6X6X6X6X6X6X6X6X6X6X6X6X6X6X6X6XI.K.I.I.I.K.I.6X6X6X6X6X6X6X6X6X6X6XwX`.H.I.I.I.I. XwX6X6X6X6X>XD.I.I.I.D.>X6X6XrXK $ t t t t t t t t t t t t t t t < P u.t.S.B.S.S.r.>.1.1.` p.SXAXFXBX*XD.I.I.D.(.9X6X6X6X6X6X6X6X6X6X>XI.K.K.K.I.D.Q.6X6X6X6X6X6X>XK.K.K.*XwX6XI.H.I.I.S.(.6X6XwX>XK.K.I.I.I.K.H.|.wX6X6XI.K.I.D.).6X6X6X6X6X6X6X6X6X6X>XI.I.I.I.I.I.I.I.K.K.>XwX6X6X6X6X6X6X6X6X6X6X6X6X6X9XQ.S.I.S...S.S.S.S.S.t...S.z.rXVX>XQ.H.K.K.}.9X6X6X6X6X6X6X6XQ.K.I.I.I.I.I.I.|.6X6X6X6X6X6X6X6X",
"6X6X6X6X>X>X9XwXwX6X6X6X6X6X>XK.K.K.K.K.I.K.(.9X6X9X6X6X6X6X6X6XQ.I.K.I.I.D.>X0X6X6X6X6X6X6X,XI.K.K.Q.6X6X6X6X6XrX(.H.I.I.K.(.9X,X6X7X>XZ ; t t e t t t t t t t t t t ; T D.c.z.z.z.z.z.S.t.r.] p.SXKX1XH.K.I.I.I.I.I.I.I.I.I.I.I.I.I.I.I.I.I.I.I.I.I.I.I.I.Q.|.9X9X9X9X9X6X9X6X6X9X6X6X6X6X6X6X`.I.I.I.I.I.I.K.`.6X,XwX6X6XQ.K.I.I.I.I.I.K.).9X6X9X6XwX6X6X`.S.K.K.K.K.K.K.D.>X6X6X6X6X6X6X6X6X6X6X6X6X6X6X6X6XaXL * u w t t t e e t t t t t w t < +.2.y.c.z.c.S.S.S.t.r.r._ <XiXS.I.K.I.I.I.I.I.I.I.I.I.I.I.I.I.I.I.I.I.D.`.9X6X6X6X6X6X|.I.I.I.I.S.(.6X6X6X6X6X6X6X6X6X6X6X6X6X6X6X6X6X6X6X6XoXI.K.I.I.I.K.I.6X6X6X6X6X6X6X6X6X6X6X6X`.H.I.I.I.I. XwX6X6X6X6X>XI.I.I.I.D.>X6XoXrXK $ t t t t t t t t t t t t t t t < S u.t.S.B.S.S.t.>.1.1.>.y.SXAXFXVX>XD.I.I.K.Q.8X9X6X6X6X6X6X6X9X9X9XD.D.K.K.I.D.Q.6X6X6X6X6X6X6XI.K.K.(.wX6X(.H.I.I.S.Q.6X6X6X,XI.K.I.I.I.K.H.}.wX6X6XQ.H.I.D.Q.6XwX6X6X6X6X6X6X6X6X>XI.I.I.I.I.I.I.I.I.K.(.6X6X6X6X6X6X6X6X6X6X6X6X6X6X9X`.K.I.S.X.S.S.S.c.S.t.r.c.z.4XVX6X).H.I.H.(.9X6X6X6X6X6X6X6X`.D.I.K.I.I.I.I.(.9X6X6X6X6X6X6X6X",
"rX6X6X6XrX9X6X6X6X6X6X6X6X6X`.D.K.K.K.K.I.K.`.rX6X9X9X6X6X6X6X,XI.I.H.I.I.I.5X6X6X6X6X6X6XwX|.K.K.K.(.6X6X6X6X6XrX(.H.I.I.K.(.rX,X6X7X>XZ ; t t e t t t t t t t t t t $ K D.c.z.z.z.z.z.S.c.p.] p.AXKX9XS.K.I.I.I.I.I.I.I.I.I.I.I.I.I.I.I.I.I.I.I.I.I.I.I.I.'.6X0X9X9X9X9X6X6X6X6X6X6X6X6X6X6X9XD.I.K.I.I.I.D.D.,XwXwX6XwX|.K.K.I.I.I.I.I.D.>X6X6X6X6X6X6X,XQ.K.K.K.K.K.I.K.Q.6X6X6X6X6X6X6X6X6X6X6X6X6X6X6X6X6XaXV * t t t t t e e t t t t w w t < +.1.y.S.c.S.B.S.S.r.] y._ <XiXS.I.K.I.I.I.I.I.I.I.I.I.I.I.I.I.I.I.I.I.I.Q.5X6X6X6X6X6X6XQ.I.I.I.S.Q.9X6X6X6X6X6X6X6X6X6X6X6X6X6X6X6X6X6X6X6X6XI.K.I.I.I.K.I.6X6X6X6X6X6X6X6X6X6X6XwX`.H.I.I.I.I.|.wX6X6X6X6X6XI.I.K.I.D.>X6XoXrXK $ t t t t t t t t t t t t t t t < A 1.r.S.B.z.S.p.r.>.1.>.y.SXAXFXVX9XI.H.I.K.I.5X9X6X6X6X6X6X6X6X6X6XQ.D.K.I.I.K.D.,X6X6X6X6X6X9XQ.K.K.(.6X6X`.H.I.I.D.I.,X6X6X6XQ.H.I.I.I.I.H.`.6X6X9X(.H.I.D.G.6XwX6X6X6X6X6X6X6X6X>XI.I.I.I.I.I.I.I.I.K.I.,X6X6X6X6X6X6X6X6X6X6X6X6X6X9X9XK.K.D.X.S.S.S.z.c.S.r.c.c.1XVX,X).H.I.H.I.9X9X6X6X6X6X6X6X|.D.D.I.I.I.I.I.I.*X6X6X6X6X6X6X6X",
"6X6X6X6X,X6X6X6X6X6X6X6X6X>XI.K.K.K.I.I.K.K.>X0X6X6X6X6X6X6X9X|.I.I.K.I.I.Q.9X6X6X6X6X6X6XwX}.K.K.K.`.6X6X6X6X6X9XQ.H.I.I.H.Q.rX,X6X7X9XZ - t e e t t t t t t t t t t ; L D.c.z.z.z.x.c.S.S.S.r.t.SXKXiXS.K.I.K.K.K.I.I.I.I.I.I.I.I.I.I.I.I.I.I.I.I.I.I.I.>X6X6X9X9X9X9X9X9X9X6X6X6X6X6X6X7X0X(.I.I.I.Y.I.I.S.`.wXwXwX6XwX`.K.I.I.I.I.I.K.Q.6X6X6X6X6X6X6X`.D.I.K.K.K.K.I.K.`.9X6X6X6X6X6X6X6X6X6X6X6X6X6X6X6X7X*Xm < t w t t t w t t t t t t w t < Y r.p.S.z.c.c.S.p.1.>.y._ <XiXS.I.I.I.I.I.I.I.I.I.I.I.I.I.I.I.I.I.I.I.I.I.`.6X6X6X6X6X6X).K.I.I.K.K.>X9X6X6X6X6X6X6X6X6X6X6X6X6X6X6X6X6X6X6XoXI.K.I.I.I.K.(.6X6X6X6X6X6X6X6X6X6X6X6X(.I.I.I.I.I.|.wX6X6X6X6X6XI.I.I.I.D.`.6XoXrXK $ t t t t t t t t t t t t t t t < B 3.r.S.B.z.S.S.r.>.1.>.r.SXHXFXVX9X(.H.I.I.K.|.9X6X6X6X6X6X6X6X6X9X(.K.K.K.I.I.K.>X6X6X6X6X6X9X(.K.H.Q.6X6X'.H.I.I.D.I.>X6X6X6XQ.K.I.I.I.I.H.`.6X6X9X`.K.I.D.D.6XwX6X6X6X6X6X6X6X6X>XI.I.I.I.I.I.I.I.I.I.D.|.6X6X6X6X6X6X6X6X6X6X6X6X6X6X9XQ.K.K.t.S.S.S.S.S.S.t.p.p.1XVX,X XI.I.K.I.>X9X6X6X6X6X6X6X,XQ.D.I.I.I.I.I.K.I.5X6X6X6X6X6X6X",
"6X6X6X6X6X6X6X6X6X6X6X6X6XQ.K.K.I.I.I.K.K.Q.9X6X6X6X6X6X6X6X9X`.I.I.I.I.K.`.9X6X6X6X6X6X6X6X`.K.I.K.>XwX6X6X6X6X6XQ.H.I.I.H.(.rX,X9X7X9XZ - t e t t t t t t t t t t t ; L D.c.z.z.z.x.c.S.c.D.t.t.SXKXiXS.K.K.K.K.K.I.I.I.I.I.I.I.I.I.I.I.I.I.I.H.I.I.I.>X0X6X6X6X9X9X9X6X6X6X9X9X6X6X6X6X0X).A.I.I.I.I.Y.D.Q.6XwXwX,XwX6XQ.K.I.I.I.I.I.K.`.9X6X6X6X6X6X6XQ.D.I.K.K.I.I.Y.I.>X9X6X6X6X6X6X6X6X6X6X6X6X6X6X6X6XqXT.c < t t t t t w w w t t t t w t < Y t.t.c.S.c.c.p.r.1.1.3.;.<XiXS.I.I.I.I.I.I.I.I.I.I.I.I.I.I.I.I.I.I.I.I.I.Q.6X6X6X6X6X6X|.I.I.I.I.H.`.9X6X6X6X6X6X6X6X6X6X6X6X6X6X6X6X6X6X6X|.I.K.I.I.I.H.`.6X6X6X6X6X6X6X6X6X6X6X6XI.I.I.I.I.I.|.wX6X6X6X9X9XI.I.I.I.K.`.wXoXrXK $ t t t t t t t t t t t t t t t < n 3.| t.B.z.B.S.r.1.1.>.r.MXHXAXAX6X).H.I.I.K.`.6X6X6X6X6X6X6X6X6X9X`.I.K.I.I.I.K.'.9X6X6X6X6X9X(.K.H.I.6X6X>XY.I.I.K.I.|.wXwXwX(.K.I.I.I.I.H.`.6X6XwX`.D.I.I.D.>XwX6X6X6X6X6X6X6X6X>XI.I.I.I.I.I.I.I.I.I.K.(.6X6X6X6X6X6X6X6X6X6X6X6X6X6X0X`.I.K.z.S.S.S.S.S.S.p.p.p.>XZX,XoXI.I.I.I.(.9X6X6X9X6X6X6X6XQ.D.K.I.K.K.I.I.H.(.9X6X6X6X6X6X",
"6X6X6X6X6X6X6X6X6X6XoXwX}.K.I.I.I.I.I.I.K.Q.6X6X6X6X6X6X6X6X9X(.I.K.I.I.I.|.wX6X6X6X6X6X6X6XQ.K.I.Q.,X6X6X6X6X6X6XQ.H.I.I.H.`.rX,X9X7X9XZ - t e t t t t t t t t t t t ; L D.c.z.z.x.x.z.B.B.S.t.B.AXKXiXS.D.K.K.K.K.I.I.I.I.I.I.I.I.I.I.I.I.I.I.I.I.(.>X6X6X6X9X6X6X6X6X6X6X6X6X9X9X6X6X6X`.D.T.I.I.I.I.I.K.>XwXwX,X,XwX>XK.K.I.I.I.I.I.I.>X6X6X6X6X6X6X>XI.K.I.K.K.I.I.Y.Q.9X6X9X6X6X6X6X6X6X6X6X6X6X6X6X6X6X'.Y.c < t t t t t w t w w t t t w t < Q t.t.z.S.S.c.p.>.1.1.3.;.<XiXS.I.I.I.I.I.I.I.I.I.I.I.I.I.I.I.I.I.I.I.I.I.D.'.6X6X6X6X6X>XQ.K.I.Y.H.Q.9X6X6X6X6X6X6X6X6X6X6X6X6X6X6X6X6X6X6X|.I.K.I.Y.I.S.`.wX6X6X6X6X6X6X6X6X6X6X5XI.I.I.I.I.I.|.wX6X6X6X9X9XI.K.I.I.K.`.6XoXrXK $ t t t t t t t t t t t t t t t < c 3.] t.B.z.B.S.t.>.1.>.1.MXHXAXAXrX`.I.K.I.K.`.6X6X6X6X6X6X6X6X6X6X*XI.I.I.I.I.K.(.6X6X6X6X6X9X(.K.K.I.5X6X5XY.I.I.I.D.}.wX6XwX`.D.I.I.I.I.H.).wX6XwX'.D.I.I.D.|.wX6X6X6X6X6X6X6X6X6XI.I.I.I.I.I.I.I.I.I.K.I.6X6X6X6X6X6X6X6X6X6X6X6X6X6XrX>XI.K.c.S.S.S.c.S.S.S.p.p.>XAX6X+X(.I.I.I.I.6X6X6X9X6X6X6X6X`.D.K.I.K.I.I.I.I.K.'.wX6X6X6X6X",
"6X6X6X6X6X6X6X6XoXoX6X,XQ.K.I.I.I.I.I.Q.K.`.rX6X6X6X6X6X6X6X5XI.I.K.I.I.Q.6X6X6X6X6X6X6X6X>XI.K.K.Q.9X6X6X6X6X6X6XI.H.I.I.H.`.9X,X9X7X9XF # t t t t t t t t t t t t t ; L D.c.z.z.x.x.B.B.B.D.z.D.SXKXiXS.I.K.K.K.I.I.I.I.I.I.I.I.I.I.I.I.I.I.Q.I.I.5XrX6X6X6X6X9X6X6X6X6X6X6X6X6X6X6X0X|.D.I.I.I.I.I.I.D.`.rXwXwX6XwXwX`.D.K.I.I.I.I.I.Q.6X6X6X6X6X6X6X'.D.I.I.I.I.I.I.K.`.9X6X6X6X6X6X6X6X9X9X6X6X6X6X6X9X>XT.U.x < t t t t t t t t t t t t w t < Q B.S.S.S.S.p.1.>.3.3.3.;.<XiXS.I.I.I.I.Y.Y.Y.I.I.I.I.I.I.I.I.I.I.I.I.I.I.D.(.6X6X6X6X6X6X(.K.I.Y.H.I.>X6X6X6X6X6X6X6X6X6X6X6X6X6X6X6X6X6X6X|.I.K.I.Y.I.S.'.wX6X6X6X6X6X6X6X6X6X6X5XI.I.I.I.I.I.|.wX6X6X6X9X6XQ.I.I.I.K.(.6X6XrXK $ t t t t t t t t t t t t t t t < a ,.{ r.B.B.z.S.t.1.>.>.1.lXHXAXAXrX|.Y.H.I.K.Q.6X6X6X6X6X6X6X6X6X9X>XI.I.I.I.I.K.Q.9X6X6X6X6X9X`.K.K.K.>X6X6XY.K.I.I.D.`.6XwXwX`.D.I.I.I.I.H.).wX6XwX>XD.D.I.D.`.wX6X6X6X6X6X6X6X6X6XI.I.I.I.I.I.I.I.I.I.K.I.>X9X6X6X6X6X6X6X6X6X6X6X6X6X9X8XY.K.S.S.S.S.c.c.S.S.p.p.>XZX,X6X'.I.I.I.K.|.6X6X9X9X6X6X6X|.D.K.I.K.I.I.K.I.I.I.5X6X6X6X6X",
"6X6X6X6X6X6X6X6XwX6X6X`.K.I.I.I.I.I.K.Q.K.,XwX6X6X6X6X6X6X6X>XI.I.I.I.K.).6X6X6X6X6X6X6XwX}.K.I.K.^.9X6X6X6X6X6X6XD.H.I.I.K.`.rX,X9X7X0XF # t t t t t t t t t t t t t ; C D.c.z.z.x.x.B.B.B.S.S.K.SXKXaXS.I.K.K.K.K.I.I.I.I.I.I.I.I.I.I.I.I.I.I.Q.>X9X6X6X6X6X6X9X6X6X6X6X6X6X6X6X6X0X5XI.I.I.I.I.I.I.K.K.6XwXwX,X6XwX6XQ.K.I.I.I.I.I.K.`.9X6X6X6X6X6X9XQ.D.I.I.I.I.I.K.I.,X6X9X6X6X6X6X9X9X9X9X6X6X6X6X6X6X(.A.P.t < t t t t t t t t t t t t t t < ~ F.S.B.S.c.u.>.>.1.1.3.;.3XiXS.I.I.I.K.H.I.`.>X>X|.(.I.I.I.I.I.I.I.I.I.I.K.I.>X6X6X6X6X6X`.D.I.I.I.K.*X9X6X6X6X6X6X6X6X6X6X6X6X6X6X6X6X6X6X|.I.K.I.Y.I.S.>XwX6X6X6X6X6X6X6X6X6X6X>XI.I.I.I.I.I.|.wX6X6X6X9X9XI.D.I.I.K.Q.6X6XrXK $ t t t t t t t t t t t t t t t < 5 >.{ ..B.B.z.S.p.1.>.1.1.fXHXAXAXrX,XY.H.I.K.I.6X6X6X6X6X6X6X6X6X6X5XI.I.I.I.I.I.Y.6X6X6X6X6X9X'.I.I.H.|.6X6X(.I.I.I.I.).6X,XwX>XK.I.I.I.I.H.!.wX6XwX>XD.I.I.D.(.wX6X6X6X6X6X6X6X6X6XQ.I.I.I.I.I.I.I.I.I.I.K.`.9X6X6X6X6X6X6X6X6X6X6X6X6X9X9X(.K.S.c.S.S.S.c.S.S.g.t.>XDX,X6X|.I.I.I.H.(.6X6X9X9X9X6X6X XQ.D.I.I.I.I.I.I.I.I.Q.6X6X6X6X",
"6X6X,X6X,X,X|.,X,X|.).D.K.I.I.I.I.I.I.K.I.6X6X6X6X6X6X6X6X6X`.I.I.I.I.I..X6X6X6X6X6X6X6XrX`.K.Y.K.`.9X6X6X6X6X6X,XD.K.I.I.H.`.9X,X9X7X0XF # t t t t t t t t t t t t t ; C D.c.c.z.z.x.B.z.B.S.S.I.SXKXaXS.I.I.K.K.I.I.I.I.I.I.I.I.I.I.I.I.Y.H.Q.9X6X6X6X6X6X6X6X9X6X6X6X6X6X6X6X6X6X9X(.I.I.I.I.I.I.I.S.>XrXwX,XwX,XwX,XI.K.I.I.I.I.I.I.>XwX6X6X6X6X6X6XI.D.I.I.I.I.I.K.(.6X6X6X6X6X9X9X9X6X6X6X6X6X6X6X6X>XY.T.n.t < t t t t t t t t t t t t t t < &.D.S.S.S.p.1.>.1.1.1.3.;.3XiXS.I.I.K.I.(.5XeX6XwXwXwX5X`.Q.I.I.I.I.I.I.K.K.K.`.6X6X6X6X6X|.Q.K.I.I.H.(.9X6X6X6X6X6X6X6X6X6X6X6X6X6X6X6X6X6X|.K.K.I.I.I.D.>XwX6X6X6X6X6X6X6X6X6X6X*XS.I.I.I.I.I. XwX6X6X6X9X6XQ.I.I.I.K.Q.oX6XrXK $ t t t t t t t t t t t t t t t < 3 >.1...t.S.z.S.p.3.>.3.>.fXHXAXAXrX6XY.I.I.I.I.5XwX6X6X6X6X6X9X6X9X9X(.I.I.I.I.I.Y.6X6X6X6X6X9X>XY.I.I.'.7X6X].I.I.I.H.).6X6XrX>XK.K.I.Y.Y.K.Q.6X6X6X>XI.I.I.D.Q.wX6X6XwXwXwX6X6X6X6XQ.I.I.I.I.I.I.I.I.I.I.K.Q.9X6X6X6X6X6X6X6X6X6X6X6X6X6X6X`.K.S.c.S.S.S.S.S.S.S.t.&XFX6X6X6XQ.I.I.H.I.,X6X6X9X6X6X6X6XQ.D.I.I.I.I.I.I.I.I.S.`.6X6X6X",
"6X,X,X>XY.Y.K.K.K.K.K.I.I.I.I.I.I.K.I.K.(.9X9X6X6X6X6X6X6X6XQ.I.I.I.I.Q. X6X6X6X6X6X6X6X6XQ.K.K.K.,X9X6X6X6X6X6X>XD.K.I.I.K.`.9X,X9X7X0XF # t t t t t t t t t t t t t 9 C D.c.c.z.z.x.B.z.z.S.S.D.SXKXiXS.I.I.K.D.I.I.I.I.I.I.I.I.I.I.I.I.K.(.6X6X6X6X6X6X6X6X6X6X6X6X6X6X6X6X6X6X6X(.K.I.I.I.I.I.I.D.(.9XwXwX6X,X6XrX`.K.I.I.I.I.I.I.Q.6X6X6X6X6X6X9X`.D.I.I.I.I.I.I.K.`.6X6X6X6X6X9X9X6X6X6X6X6X6X6X6X9X(.Y.T.d.t w t t w t t t w t t t t t t t $ %.D.B.S.S.y.>.3.1.1.1.3.;.3XsXS.Y.I.(.>X9X9X6X6X6X6X6XwX6X>X`.I.I.I.I.I.I.I.I.Q.6XwX6X6X6X6X(.K.I.I.K.Q.9X6X6X6X6X6X6X6X6X6X6X6X6X6X6X6X6X6X|.K.I.I.I.I.D.5XwX6X6X6X6X6X6X6X6X6X6X*XS.I.I.I.I.I. XwX6X6X6X9X6XG.K.I.I.I.Q.oX6XrXK $ t t t t t t t t t t t t t t t < 3 :.r.] t.S.t.S.S.u.1.3.;.iXKXAXAXdX6X(.S.S.I.I.`.6X6X6X6X6X6X6X6X6X9XQ.S.S.S.S.H.H.>X6X6X6X6X6X>XH.I.I.'.6X6X*XI.I.I.I.(.9X9X6X9XI.K.I.I.I.I.Q.6X6X6X6XQ.A.I.D.I.6XwXrX9X6X9X6X6X6X6X(.I.I.I.I.I.I.I.I.I.I.K.I.>XrX6X6X6X6X6X6X6X6X6X6X6X6X6X>XI.S.S.S.S.S.S.c.S.H.r.&XAXwX X6X`.H.I.I.K.`.9X6X9X9X6X6X6X}.D.D.I.I.I.I.I.I.I.I.D.5X6X6X",
"6X6X6X`.I.Y.Y.I.I.I.I.I.I.I.I.I.I.K.I.D.>X9X9X6X6X9X6X6XrX>XI.K.I.I.K.).6X6X6XwXrX6X6XrX>XK.U.K.Q.9X6X6X6X6X6X6X|.D.K.I.I.K.}.9X6X9X7X0XM # t t t t t t t t t t t t t 9 m D.c.z.z.z.z.z.z.z.S.S.D.SXKXsXD.I.Q.D.K.K.I.I.I.I.I.I.I.I.I.K.K.`.9X9X6X6X6X6X6X6X6X6X9X9X9X6X6X6X6X6X6X*XI.I.I.I.I.I.I.K.I.6X6X6X6X6X,X6X9XQ.D.I.I.I.I.I.I.`.9X6X6X6X6X6X9X`.D.I.I.I.I.I.I.I.>X6X6X6X6X9X9X9X6X6X6X6X9X9X6X6X6XK.Y.T.i.2 w t t w t w w w w t t t t t t $ %.D.z.c.p.3.>.3.1.1.1.3.;.3XiXS.I.`.6X9X6X6X6X6X6X6X6X6X6XwX6X`.I.I.I.K.K.I.I.I.>XrX6X6X6X6X`.D.K.I.K.I.>X9X6X6X6X6X6X6X6X6X6X6X6X6X6X6X6XwX|.K.I.I.I.I.I.6X6X6X6X6X6X6X6X6X6X6X6X`.S.I.I.I.I.I. XwX6X6X6X9X6XI.D.I.I.I.Q.oX6XrXK $ t t t t t t t t t t t t t t t t 1 -.y.] r.H.p.S.S.p.1.3.;.<XKXAXAXZXvXdX>X>X`.Q.`.6XrXrXrXrXrXrXsXsXsX1X}.`.`.>X*X`.6XrXrXrXrXrX>XQ.K.D.`.6X6X>XS.S.S.S.K.>X9X,X9XI.H.I.H.H.I.Q.6X6X9X9X(.I.(.I.I.>X9X,X,X6X6X6X6XwX9X(.I.I.I.K.I.I.I.I.I.I.I.K.`.9X6X6X6X6X6X6X6X6X6X6X6X6X6X6XQ.c.S.S.S.S.S.S.S.H.r.(.AXwX XoX>XH.I.I.H.Q.6X6X9X9X6X6X6X6XQ.D.I.I.I.I.I.I.I.I.D.'.6XoX",
"6X6X9XQ.K.Y.Y.I.I.I.I.I.I.I.I.I.I.I.K.I.>X9X9X6X6X6X6X6X6X`.D.K.I.I.I.|.6X6X6XwX6X6XrX9X&XK.Y.K.`.rX6X6X6X6X6X6X`.D.I.I.I.K.>X6X6X9X7X0XM # t t w t t t t t t t t t t 9 m D.c.z.z.z.z.z.z.z.S.S.D.SXKXvX}.D.K.I.S.D.I.I.I.I.I.I.I.I.I.I.`.9X6X6X9X6X6X6X6X6X6X6X9X9X9X6X6X6X6X6X|.I.I.Y.I.I.I.I.I.D.>XwX,X X6X6X6X9X9XI.D.I.I.I.I.I.I.>XrX6X6X6X6X6X9X(.D.I.I.I.I.I.I.Q.6XwX6X6X6X9X9X9X6X6X6X6X9X9X6XrX`.H.Y.T.0.< t t t w t w w w t t t w t t t * %.D.c.p.r.>.>.1.1.3.1.3.;.3XiXS.>X6XwXwX6X6X6X6X6X6X6X6X6X6XwXrX`.S.I.I.D.I.I.K.'.9X6X6X6X6X>XQ.K.I.I.K.`.9X6X6X6X6X6X6X6X6X6X6X6X6X6X6X6X6X|.K.I.I.I.I.I.6X6X6X6X6X6X6X6X6X6X6X6X(.A.I.I.I.I.I. XwX6X6X6X9X6XI.D.I.I.I.D. X6XrXK $ t t t t t t t t t t t t t t t t 1 &.y.>.r.g.p.c.S.p.1.3.1.%XKXAXAXAXFXFXAXFXFXVXZXZXZXFXFXFXAXAXAXAXAXFXZXZXZXFXAXAXZXZXZXZXZXZXZXAXZXvXvXvXvXBXsXsXsX0X9XsXdXrXaX`.Q.I.K.I.K.Q.>X,X9X9XQ.S.I.I.S.*X9X6X9X9X9X9XwXwX9X`.K.I.K.K.I.I.I.I.I.I.I.K.Q.6X6X6X6X6X6X6X6X6X6X6X6X6X6X9X(.c.S.S.S.S.S.S.S.I.r.Q.AXrX XwX5XI.I.Y.H.K.|.9X6X9X6X6X6X6X`.D.I.I.I.I.I.I.I.I.I.D.6XwX",
"6X6X>XY.Y.Y.Y.I.I.I.I.I.I.I.I.I.I.I.K.!.9X9X6X6X6X6X6X6X5XQ.H.I.I.I.Q.6X6X6X6X6X6X6XrX6XQ.K.K.K.>XwX6X6X6X6X6X9X`.D.I.I.I.K.>X6X6X6X7X0XM # t t t t t t t t t t t t t ; m S.c.z.z.z.x.z.B.B.S.S.D.SXKXvXwX`.S.I.K.K.I.K.I.I.I.I.K.K.I.>X9X6X6X9X6X6X9X6X6X6X6X6X6X6X6X6X6X6XwX6XQ.I.I.Y.I.I.I.I.S.`.rX6X6X6X6X6X6X9X|.D.I.I.I.I.I.K.I.,X6X6X6X6X6X6X6XQ.I.I.I.I.I.I.K.(.6X9X6X6X6X6X6X6X9X9X6X9X6X9XrX6XI.I.I.T.6.< t t t t t t t t t t t w t t t < %.F.c.r.>.,.>.>.3.3.1.3.;.3XsX|.6X6X6X6X6X6X6X6X6X6X6X6X6X6X6X6X6X(.I.Y.K.I.I.K.(.9X6X6X6X6X6X(.D.I.I.K.(.6X6X6X6X6X6X6X6X6X6X6X6X6X6X6X6X9X|.K.I.I.Y.K.I.6X9X6X6X6X6X6X6X6X6X6X6X(.I.I.I.I.I.I. XwX6X6X6X9X6XI.K.I.I.I.D. X6XrXK $ t t t t t t t t t t t t t t t t 1 R y.1.1.p.c.c.S.p.1.3.;.H.HXAXAXAXAXAXZXAXFXAXFXFXFXFXFXFXFXFXFXFXFXFXDXFXFXGXFXFXFXFXFXFXFXFXFXFXFXGXFXFXDXFXFXFXFXFXFXFXDXDXFXZXZXSXSXBXvXgXvXvXvXgX9X&X(.Q.I.*X8X,X9X9X6X6X6X6XrX*XI.I.I.I.I.I.I.I.I.K.I.I.I.>X6X6X6X6X6X6X6X6X6X6X6X6X6X6X'.S.S.S.S.S.S.S.S.H.r.I.AXrX XwX6XQ.I.Y.I.H.(.6X6X9X9X6X6X6X>XQ.K.I.I.I.I.I.K.I.I.S.Q.6X",
"9XrX`.H.Y.Y.I.I.I.I.I.I.I.I.I.I.I.I.K.`.9X9X9X6X6X6X6X9X>XH.K.I.I.I.`.6X6X6X6X6X6X6XrX>XK.K.K.Q.6XwX6X6X9X6X6X9X).S.I.I.I.I.,XwX6X6X7X0XM # t t t t t t t t t t t t t ; m S.c.z.z.z.x.S.B.B.S.S.D.SXKXvX,X6X`.D.K.K.K.K.K.K.I.I.K.(.6X6X6X9X9X6X6X6X6X6X6X6X6X6X6X6X6X6X6X6X6X(.I.I.I.I.I.I.I.K.K.,X6X6X6X6X6X6X6XrX`.D.I.I.I.I.I.K.(.9X6X6X6X6X6XwX>XI.I.I.I.I.I.I.K.&X6X9X6X6X9X6X9X9X9X6X6X6X6X6XrX`.D.I.K.(.5.< t t t t t t t t t t w w t t t < %.F.c.r.>.3.>.1.3.3.1.3.;.3XvX6X6X6X6X6X6X6X6X6X6X6X6X9X6X9X9X6X6X6XQ.I.I.K.I.I.I.5XrX6X6X6X9X'.D.I.I.K.Q.6X6X6X6X6X6X6X6X6X6X6X6X6X6X6X6X9X|.K.I.I.Y.K.I.9X6X6X6X6X6X6X6X6X6X6X6XI.I.I.I.I.I.I. XwX6X6X6X9X6XQ.D.I.I.I.D.|.6XrXK $ t t t t t t t t t t t 2 2 2 t t 1 R y.1.] p.S.c.S.c.1.3.;.<XHXAXAXAXAXAXKXKXKXKXHXAXAXAXAXSXBXBXkXkXMX0X8X9X8XiXiX8XsXsXsXdXdXkXjXfXfXfXsXkXvXMXkXkXkXkXkXVXAXZXZXZXAXZXDXFXFXFXFXFXFXFXFXFXAXZXBXVXBXvXjXdXsXrXrX6X9X`.H.H.S.S.S.D.K.K.K.I.I.I.K.`.9X6X6X6X6X6X6X6X6X6X6X6X6X6X>XS.S.S.S.S.S.S.S.H...I.AXrX6XwX6X(.I.I.I.I.I.>X9X6X9X6X6X6X9X`.K.I.I.I.I.I.K.I.I.I.D.`.",
"`.`.I.I.Y.I.I.I.I.I.I.I.I.I.I.I.K.K.Q.,X9X9X9X6X6X6X6X9X(.H.K.I.I.I.>X6X6X6X6X6X6X6X9X`.K.K.K.`.9X6X6X6X6X6X6X6XQ.K.I.I.K.I.6X6X6X6X7XrXV # t t t t t t t t t t t t t 9 j c.c.c.z.z.z.z.z.z.S.S.D.SXKXvX,X6X9X`.K.I.Y.I.I.I.K.I.`.6X6X6X6X6X6X6X6X6X6X6X6X6X6X6X6X6X6X6X6X6X'.I.I.I.I.I.I.I.I.K.>X6X6X6X6XwX6X6X6X6XQ.D.I.I.I.I.I.K.&X9X6X6X6X6X6XwX|.D.I.I.I.I.I.I.I.>XwX6X6X6X6X6X6X6X6X6X6X9X6X6X6XQ.I.I.H.(.' ; t t t t t t t t t w w w t t t < %.D.t.>.3.3.1.3.1.1.1.3.;.3XkXoX6X6X6X6X6X6X6X6X6X6X9X9X9X9X9X9X6X6X,XI.I.K.I.I.D.|.rX6X6X6X6X>XI.K.I.I.I.>X9X6X6X6X6X6X6X6X6X6X6X6X6X6X6X9X|.H.I.I.I.H.Q.6X6X6X6X6X6X6X6X6X6X6X6XI.I.I.I.I.I.I. XwX6X6X6X6X6XI.K.I.I.I.D..X6XrXK $ t t t t t t t t t t t 2 t t t t < P y.1.] u.S.c.S.S.r.>.p.VXAXFXAXAXKXAXiX<X&XQ.K.Q.&X&X&X`.Q.Q.Q.Q.Q.r.` ` _ ] ] { I.Q.Q.Q.Q.Q.r.>.1.r.I.(.`.&XS.r.r.p.e.S.`.>X}.>XQ.Q.Q.&X&X:XsXkXdXdXvXkXkXVXZXAXAXAXAXAXAXAXFXZXZXBXgXdXaX1X:X`.Q.Q.K.S.S.S.S.K.>X9X6X6X6X9X6X6X6X6X6X6X6X6X6XQ.c.S.S.S.c.c.S.S.r.H.AXrX6XwX6X'.K.Y.Y.I.K.`.9X6X9X6X6X6X6X>XI.K.I.I.I.I.I.I.I.I.I.I.",
"D.K.I.I.I.I.I.I.I.I.I.I.I.I.I.I.I.D.`.9X9X6X6X6X6X6X6X>XD.I.I.I.K.(.6X6X6X6X6X6X6X6X6XQ.S.K.I.>X6X6X6X6X6X6XrX>XQ.K.I.I.K.Q.6X6X6X6X6XrXP # t t t t t t t t t t t t t t g t.n.c.c.z.z.x.z.z.S.S.D.SXKXvX,X6X6X9X&XY.H.H.H.H.Q.>X6X6X6X6X6X6X6X6X6X6X6X6X6X6X6X6X6X6X6X6X6X|.Q.I.Y.I.I.I.I.I.K.(.9X6X6X6X6X6X6X6X6X>XD.D.K.K.K.K.K.I.>X9X6X6X6X6X6X6X`.K.I.I.I.I.I.I.Q.>X6X6X6X6X6X6X6X6X6X6X6X9X6X6X6XI.I.I.I.(./ ; t t t t t t t t t w t w t t t < %.D...] 3.3.3.1.1.>.>.y.u.aXjXoX6X6X6X6X6X6X6X6X6X6X9X6X6X9X6X9X6X6X6X(.I.I.I.I.D.(.9X6X6X6X6X6XQ.K.I.I.K.`.9X6X6X6X6X6X6X6X6X6X6X6X6X6X6X9X`.H.I.I.I.K.Q.6X6X6X6X6X6X6X6X6X6X6X|.I.I.I.I.I.I.I. XwX6X6X6X9X6XD.K.I.I.I.D..X6XrXK $ t t t t t t t t t t t t t t t t < S 3.1.>.e.S.S.S.S.p._ >XLXAXKXFXFXaXc.] ] ] _ ] Y.Q.Q.Q.Q.Q.Q.Q.(.H.1.3.1.3.3.1.H.`.(.(.Q.`.K.>.3.1.g.(.Q.Q.(.p.] >.1.1.>.S.`.Q.Q.t.>.>.>.>.c.`.`.!.^.`.c.r.c.S.K.,X9X9XrXsXgXgXvXZXZXZXZXAXAXHXHXHXHXSXMXfXiX>X`.>X6X X6X6X X,X6X6X6X6X6X6X6X6X`.z.S.S.c.c.S.S.S.t.S.AXrX6X9X6X5XI.I.Y.I.I.I.>X9X9X6X6X6X6X6X`.I.I.I.I.I.I.I.I.K.I.I.",
"I.I.I.I.I.I.I.I.I.I.I.I.I.I.I.I.I.I.,XrX6X6X6X6X6X6X6XQ.S.I.I.I.S.`.9X6X6X6X6X6X6XrX,XH.K.K.(.6X6X6X6X6X6X6XrX>XI.I.I.I.K.Q.6X6X6X6X6XrXP # t t t t t t t t t t t t t w g r.n.c.c.z.z.z.z.B.S.B.D.ZXFXvX,X,X,X6X6X6X`.(.(.`.6X6X6X6X6X6X6X6X6X6X6X6X6X6X6X6X6X6X6X6X6X6X6X`.I.I.I.I.I.I.I.Y.K.,X6X6X6X6X6X6X6X6XwX|.K.K.K.K.K.K.K.Q.9X9X6X6X6X6X6X6X(.K.I.I.I.I.I.I.Q.6XwX6X6X6X6X6X6X6X6X6X6X9X6X6X'.I.I.I.I.(.~ ; t t t w w t w w w w t w t t t < %.A.r.1.1.3.1.1.1.>.>.H.p.aXvXoX6X6X6X6X6X6X6X6X6X6X6X6X9X9X6X6X6X6X6X|.I.I.K.I.K.D.9X9X6X6X6X9X`.K.I.I.K.Q.9X6X6X6X6X6X6X6X6X6X6X6X6X6X6X9X`.H.I.I.I.K.Q.6X6X6X6X6X6X6X6X6X6XwX|.I.I.I.I.I.I.I. XwX6X6X6X9X6XD.K.I.I.I.D..X6XrXK $ t t t t t t t t t t t t t t t t < S y.1.>.1.S.S.S.S.t.S.DXFXAXAXAX3Xc.>.r.1.1.r.I.(.(.(.(.Q.Q.(.(.(.u.1.3.>.3.3.r.Q.(.(.(.Q.Q.i.,.>.1.Y.(.(.(.I.r.y.1.3.1.>.Y.&X!.Q.y.>.3.3.3.Y.^.Q.Q.`.K.y.1.3.;.1.Y.Q.Q.Q.Q.Q.Q.`.`.`.p.p.H.I.Y.Q.&X<XiXaXgXkXvXbXbXbXbXcXcXdXrXrXwX6X6X6X6X6X6X`.c.S.c.c.c.S.S.S.t.S.AXrX6X9X6X9XQ.K.Y.I.I.D.).6X6X9X6X6X6X6X>XI.K.I.I.I.I.I.I.I.I.I.",
"I.I.I.I.I.I.I.I.I.I.I.I.I.I.I.I.D.`.9X9X9X6X6X6X6XeX*XS.H.K.I.I.D.>X6X6X6X6X6X6X6XrX`.K.K.K.>XwX6X6X6X6X6X6X9X'.K.I.K.I.K.Q.6X6X6X6X7XrXI # t t t t t t t t t t t t t ; g | p.S.c.c.z.z.z.c.S.B.D.SXFXvXwXwX,X6X6X6X6X6X6X6X6X6X6X6X6X6X6X6X6X6X6X6X6X6X6X6X6X6X6X6X6X0X>XI.I.I.I.I.I.I.I.H.`.wX6X6X6X6X6X6X6X6XwX`.S.I.K.K.K.K.K.(.6X6X6X6X6X6X6X6XQ.I.I.I.I.I.I.K.`.6X6X6X6X6X6X6X6X6X6X9X6X6X6X5XI.I.I.I.I.(.T ; t t t w t t t t w w t w t t t $ %.h.>.1.3.3.1.1.>.r.p.H.u.aXvXoX6X6X6X6X6X6X6X6X6X6X6X6X9X9X6X6X9X6X6X6XQ.I.I.I.I.S.>X9X6X6X6X6X|.I.K.I.I.I.>X6X6X6X6X6X6X6X6X6X6X6X6X6X6X9X`.H.I.I.I.K.(.6X6X6X6X6X6X6X6X6X6XwX'.I.I.I.I.I.I.I. XwX6X6X6X9X5XD.I.I.I.I.D..X6XrXK $ t t t t t t t t t t t t t t t t < M y.1.] { g.S.S.S.z.dXFXZXFXAXiXY.>.1.>.>.>.S.(.Q.(.Q.Q.Q.Q.Q.%XH.1.r.1.1.3.1.p.(.(.(.(.`.H.>.,.>.p.(.Q.(.(.g.] y.3.3.1.r.Q.`.Q.Y.3.1.3.1.p.Q.Q.Q.Q.Q.p.1.3.3.;.p.%X`.`.`.).Q.Q.Q.Q.c.] ] 1.1.{ { ] ` ` ` ] 1.r.p.H.Y.%X*X9XsXsXjXjXjXjXrXeX6X7X'.c.S.c.c.c.S.S.S.p.S.AXsX6X9X,XrX&XK.I.I.I.D.D.6X6X6X6X6X6X6X6X).D.I.I.I.I.I.I.I.I.I.",
"I.I.I.I.I.I.I.I.I.I.I.I.I.I.I.I.K.>X9X9X9X6X6X6X6X6XQ.K.K.K.I.D.(.6X6X6X6X6X6X6X6X9XQ.I.K.Q.6X6X6X6X6X6X6X6X9X`.K.I.H.K.K.(.6X6X6X6X7XsXT # t t t t t t t t t t t t t ; 6 >.y.S.c.c.z.z.c.S.S.B.D.SXFXvXwXwX6X6X6X6X6X6X6X6X6X6X6X6X6X6X6X6X6X6X6X6X6X6X6X6X6X6X6X6X7X9XK.I.I.I.I.I.I.K.I.Q.6XwX6X6X6X6X6X6X6XwX6XQ.H.I.K.K.K.K.K.`.6X6X6X6X6X6X6X,XI.I.I.I.I.I.I.K.`.wX6X6X6X6X6X6X6X6X6X9X9X6X9X'.S.I.I.I.I.(.P % t t t t t t t t t t t t t t t * %.t.] r.1.1.1.>.>.p.H.H.t.aXjXoX6X6X6X6X6X6X6X6X6X6X9X6X6X9X9X9X9X6X6X6X|.D.I.I.I.H.(.0X6X6X6X6X6XQ.K.I.I.K.&X9X6X6X6X6X6X6X6X6X6X6X6X6X6X9X`.H.I.I.I.K.`.6X6X9X6X6X6X6X6X6X6XwX`.I.I.I.I.I.I.I.|.wX6X6X6X9X>XD.I.I.I.I.D..X6XrXK $ t t t t t t t t t t t t t t t t < n r.1.>.] t.S.D.t.:XFXSXFXKX<XY.H.] 1.1.] r.I.(.Q.Q.(.Q.Q.Q.(.(.r.1.r.1.3.1.1.Y.(.(.(.`.(.y.>.,.>.Y.(.Q.(.I.r.` 1.y.1.1.p.%XQ.Q.c.>.3.3.3.H.Q.Q.Q.Q.H.1.>.3.3.1.H.(.Q.Q.Q.Q.Q.Q.Q.I.r.1.1.r.1.1.1.1.1.1.1.1.1.1.1.1.;.` ] c.Q.Q.(.(.(.`.`.).`.'.I.c.S.c.c.S.S.S.S.p.g.VXdX6X6X6X9X,XK.I.I.I.I.D.`.6X6X6X6XwX6X6X|.D.D.I.I.I.I.I.I.I.I.",
"I.I.I.I.I.I.I.I.I.I.I.I.I.I.I.K.`.rX,X6X6X6X6X6X6X^.K.I.I.I.K.S.|.6X6X6X6X6X6X6X6X>XK.I.K.`.6X6X6X6X6X6X6X6X6XQ.K.I.I.K.K.`.6X6X6X6X6XsXT # t t t t t t t t t t t t t < 6 >.r.p.S.S.z.z.z.S.S.S.D.SXFXvX6X6XwXwX6X6X6X6X6X6X6X6X6X6X6X6X6X6X6X6X6X6X6X6X6X6X6X6X6X6X6X(.K.I.I.I.I.I.K.H.I.,XwX6X6X6X6X6X6X6XwXwX,XI.K.I.K.K.K.K.I.>X9X6X6X6X6X6XwX|.I.I.I.I.I.I.I.K.|.wX6X6X6X6X6X6X6X6X6X9X9X6X6X`.I.I.I.I.I.(.L % t t t t t t t t t t t t t t t < $.X.>.1.1.1.1.>.r.H.H.H.t.aXvXoX6X6X6X6X6X6X6X6X6X6X6X6X6X6X6X6X6X6X6XwX6XQ.I.I.I.K.I.9X9X6X6X6X6X`.K.I.I.K.(.9X6X6X6X6X6X6X6X6X6X6X6X6X6X9X).H.I.I.I.K.`.6X6X6X6X6X6X6X6X6X6XrX(.I.I.I.I.I.I.I. XwX6X6X6X9X>XD.I.I.I.I.D..X6XrXK $ t t t t t t t t t t t t t t t t < b >.1.>.] e.S.S.S.vXDXZXFX1XY.Y.r.r.1.1.r.I.(.(.(.(.Q.Q.Q.Q.(.H.] 1.1.1.3.>.p.Q.(.(.(.`.H.1.>.,.r.Q.(.(.(.p.1.1.1.y.1.>.H.&XQ.Q.p.>.3.3.3.Q.Q.Q.Q.Y.p.3.1.3.1.1.Y.(.Q.Q.Q.^.!.`.(.p.1.1.1.1.1.1.1.1.1.1.1.1.1.1.1.1.3.1.y.Y.&X(.(.(.Q.Q.Q.Q.Q.K.r.c.c.c.c.S.S.S.S.c.g.VXjX6X6X6X9X9XQ.K.I.I.I.D.I.,X6X6X6X6X6X6X6X(.D.I.I.I.I.I.I.I.I.",
"I.I.I.I.I.I.I.I.I.I.I.I.I.I.I.I.6X6X6X6X6X6X6X6X,XK.K.I.I.I.S.Q.6X6X6X6X6X6X6X6X9X(.K.K.I.>X6X6X6X6X6X6X6XwX5XI.K.I.Y.K.K.>X6X6X6X6X+XsXY # t t t t t t t t t t t t t < 6 :.>.r.S.S.z.z.c.S.S.S.D.AXFXvX6X6X6XwX6X6X6X6X6X6X6X6X6X6X6X6X6X6X6X6X6X6X6X6X6X6X6X6X6X7X'.S.I.I.I.I.I.Y.H.H.`.rX6X6X6X6X6X6X6XwXwXwX>XD.I.K.K.K.K.K.Q.,X6X6X6X6X6X6XwX}.K.I.I.I.I.I.I.I.>XwX6X6X6X6X6X6X6X6X6X6X6X6X|.D.I.I.I.I.I.Y.L ; t t t t t t t t t w w w t t t < $.e.>.1.1.1.1.>.p.H.c.S.t.aXvX X6X6X6X6X6X6X6X6X6X6X6X6X6X6X6X6X6X6X6X6X6XQ.K.I.I.I.I.>X9X6X6X6X6X|.D.I.I.I.I.6XrX6X6X6X6X6X6X6X6X6X6X6X6X9X`.H.I.I.I.K.&X6X6X9X6X6X6X6X6X6X6X6X(.I.Y.I.I.I.I.I. XwX6X6X6X9X>XD.I.I.I.I.D..X6XrXK $ t t t t t t t t t t t t t t t t < x >.1.>.] e.S.t.1XFXZXFX9XY.&Xj.>.y.r.1.p.(.(.(.(.(.Q.Q.Q.Q.(.r.>.1.1.1.1.>.I.Q.(.(.Q.%Xi.1.3.>.S.`.(.`.Y.1.1.1.1.1.>.6.Y.(.Q.Y.r.3.y.>.s.&XQ.Q.%XH.1.3.1.3.1.j.&XQ.Q.Q.!.!.Q.(.Y.r.1.1.1.1.1.1.1.1.1.1.1.1.1.1.1.1.1.>.p.(.(.Q.(.(.(.(.Q.(.K.:.r.H.c.c.c.c.S.S.S.c.S.VXsX,X9X6X9X9X}.K.I.I.I.I.K.`.9X6X9X6X6X6X6X>XQ.K.K.K.K.K.I.I.I.",
"I.I.I.I.I.I.I.I.I.I.I.I.I.I.D.|.6X6X6X6X6X6X6X9XQ.K.K.K.K.I.K.'.6X6X6X6X6X6X6X6X>XI.I.H.(.9X6X6X6X6X6X6X6XwX>XI.I.K.I.K.I.5X6X6X6X6XoXsXQ # t t t t t t t t t t t t t w 6 <.>.r.c.c.z.z.c.S.S.S.S.SXFXvX6X6X6X6X6X6X6X6X6X6X6X6X6X6X6X6X6X6X6X6X6X6X6X6X6X6X6X6X6X6XT.I.I.I.I.I.I.Y.H.I.6XwX6X6X6X6X6X6X6X6X6XwX`.D.I.K.K.K.K.D.Q.9X9X6X6X6X6X6XwX`.K.I.I.I.I.I.I.Q.6XwX6X6X6X6X6X6X6X6X6X6X6X6X`.S.I.I.I.I.I.Y.N ; t t t t t t t t w w t w t t t < Y e.>.>.1.1.] t.S.S.S.S.t.aXcX XwX>XI.I.|.6X6X6X6X6X6X6X6X6X6X6X6X6X6X6X9X`.D.I.I.I.K.*X9X6X6X6X6X6XI.I.I.I.H.>XrX6X6X6X6X6X6X6X6X6X6X6X6X9X`.H.I.I.I.K.&X6X6X9X6X6X6X6X6X6X6X6XQ.I.Y.I.I.I.I.Y.6XwX6X6X6X9X|.D.I.I.I.I.D..X6XrXK $ t t t t t t t t t t t t t t t t < l >.1.>.>.e.r.Q.ZXDXFX<XQ.%XI.1.r.1.1.r.Q.(.Q.(.(.(.Q.Q.Q.`.Y.>.3.r.1.1.>.p.(.Q.(.Q.(.P.>.1.1.y.Q.(.(.(.g.` 1.>.>.>.>.r.`.Q.(.n.>.3.3.>.Y.&XQ.&XQ.r.1.3.1.;.1.Q.(.Q.Q.Q.Q.Q.Q.(.p.1.1.1.1.1.1.1.1.1.1.1.1.1.1.1.1.1.1.>.H.&X(.Q.Q.(.(.(.Q.-X) S y.c.c.c.c.c.c.S.S.c.S.ZXrX>X6X6X9X9X,XI.I.I.I.Y.I.D.5X9X6X9X6X6X6X6X>XK.K.K.K.K.I.I.I.",
"I.I.I.I.I.I.I.I.I.I.I.I.I.S.`.9X6X6X6X6X6X6XrX`.K.K.K.K.I.I.Q.6X6X6X6X6X6X6X6X6X`.K.I.S.>X9X6X6X9X6X6X6X6X6X`.I.I.K.I.K.(.6X6X6X6X6X+XsX$.# t t t t t t t t t t t t t w 5 <.>.>.t.c.z.z.z.S.S.S.S.SXFXvX6X6X6X6X6X6X6X6X6X6X6X6X6X6X6X6X6X6X6X6X6X6X6X6X6X6X6X6X6X`.I.Y.I.I.I.I.Y.Y.K.'.wX6XwX6X6X6X6X6X6X6X6XwX(.D.I.K.K.K.K.D.`.9X9X6X6X6X6X6XwX`.K.I.I.I.I.I.I.Q.6XwX6X6X6X6X6X6X6X6X6X6X6X6XQ.S.I.I.I.I.I.I.m ; t t t t t t t t t t t t t t t w Y e.>.>.1.] r.S.S.S.S.S.t.rXcX6X|.K.H.P.Q.|.6X7X6X6X6X6X6X6X6X6X6X6X6X6X6X6XI.K.H.I.K.(.9X6X6X6X6X6X(.K.I.I.H.`.9X6X6X6X6X6X6X6X6X6X6X6X6X9X`.H.I.I.I.K.*X6X6X9X6X6X6X6X6X6X6X6XI.I.I.I.I.I.I.Y.6X6X6X6X6X0X'.D.I.I.I.I.D..X6XrXK $ t t t t t t t t t t t t t t t t < t >.1.>.1.1.t.gXDXFX1XI.(.(.t.] 1.1.1.H.(.Q.(.(.(.(.Q.Q.Q.(.u.>.y.r.1.>.>.Q.(.(.(.Q.%Xy.>.1.1.H.(.Q.(.Y.1.1.>.>.>.>.>.K.Q.Q.Q.r.1.3.;.p.Q.Q.&X%Xp.>.1.1.3.>.S.`.Q.(.Q.(.Q.Q.`.Y.r.1.1.1.1.1.1.1.1.1.1.1.1.1.1.1.1.1.>.r.Q.(.(.(.(.(.(.(.(.m.4 T y.p.c.c.c.c.c.c.S.c.S.ZXrX`.6X6X9X6X6X).K.I.I.I.I.D.`.9X6X9X6X6X6X6X6XQ.K.K.K.K.I.I.I.",
"I.I.I.I.I.I.I.I.I.I.I.I.S.Q.9X6X6X6X6X6X6X6X>XK.K.I.I.H.I.I.'.6X6X6X6X6X6X6X6X,XI.K.I.Q.9X9X6X6X9X6X6X6X6X6XQ.I.I.I.I.K.`.6X6X6X6X6X+XsX$.# t t t t t t t t t t t t t < 5 <.1.>.r.c.z.z.z.S.S.S.S.SXFXvXwX6X6X6X6X6X6X6X6X6X6X6X6X6X6X6X6X6X6X6X6X6X6X6X6X6X6X6X5XI.I.I.I.I.I.I.Y.I.Q.6X6X6XwX6X6X6X6X6X6X6XwX6XQ.K.I.K.K.K.K.D.`.9X9X6X6X6X6X6X6X`.K.I.I.I.I.I.I.`.9XwX6X6X6X6X6X6X6X6X6X6X6X>XD.I.I.I.I.I.I.I.B 9 t t t t t t t t t t t t t t t w +.e.y.>.>.r.S.S.S.S.S.S.t.rXvX|.Y.Y.Y.Y.I.Q.6XeX6X6X6X6X6X6X6X6X6X6X6X6X6X9X).D.H.I.K.Q.9X6X6X6X6X6X|.D.I.I.K.I.9X9X6X6X6X6X6X6X6X6X6X6X6X9X`.H.I.I.I.K.>X6X6X9X6X6X6X6X6X6X6X,XI.I.I.I.I.I.I.Y.6X6X6X6X6X0X`.D.I.I.I.I.D..X6XrXK $ t t t t t t t t t t t t t t t t < t >.1.>.1.` &XFXZX>XK.`.(.I.{ { r.1.p.(.(.Q.(.(.(.(.Q.Q.`.K.>.3.3.1.1.>.p.`.Q.(.(.(.H.>.1.1.y.Q.`.Q.(.g.{ 1.>.>.>.>.i.Q.Q.%XU.>.3.3.>.Y.Q.%XQ.H.6.3.1.1.3.r.(.(.(.(.(.(.Q.Q.(.g.1.1.1.1.1.1.1.1.1.1.1.1.1.1.1.1.1.1.>.p.(.Q.(.(.(.(.Q.Q.H.M * P u.p.c.c.c.c.c.c.c.z.c.ZXrXQ.6X6X9X6X9X|.D.I.I.I.I.I.I.>X6X6X9X6X6X6XwX XQ.K.Y.I.I.I.I.",
"I.I.I.I.I.I.I.I.I.I.I.I.Q.9X9X9X6X6X6X6X6XrXQ.D.I.I.I.I.I.Q.9X6X6X6X6X6X6X6X6X'.K.I.K.`.9X9X6X6X9X6X6X6X6X,XK.I.Y.I.I.K.|.6X6X6X6X6X+XsX$.# t t t t t t t t t t t t t w 5 <.3.] | c.z.z.z.c.S.B.S.ZXFXVXrX6X6XwX6X6X6X6X6X6X6X6X6X6X6X6X6X6X6X6X6X6X6X6X6X6X6X0X`.H.I.I.I.I.I.I.H.I.>XwX6XwXwXwX6X6X6X6X6X6XwX|.I.I.I.I.K.K.K.K.&X9X6X6X6X6X6X6X6X(.K.I.I.I.I.I.K.`.rX6X6X6X6X6X6X6X6X6X6X6X6X*XS.I.I.I.I.I.I.H.g 9 t t t w t w w w w t t t t t t * +.e.,.>.r.c.S.S.z.B.B.S.t.rXkXD.I.I.Y.Y.I.H.(.6X6X6X6X6X6X6X6X6X6X6X6X6X6X0X|.D.H.I.I.I.<X9X6X6X6X6X5XI.I.I.I.K.>X9X6X6X6X6X6X6X6X6X6X6X6X9X`.S.I.I.I.K.<X6X6X6X6X6X6X6X6X6XwX>XI.I.I.I.I.I.I.(.6X6X6X6X6X9X`.D.I.I.I.I.D..X6XrXK $ t 2 t t t t t t t t t t t t t t w t ;.1.>.1.r.BXFX*XS.(.Q.Q.p.1.r.1.r.Y.(.Q.Q.(.(.(.(.Q.(.(.y.>.3.1.r.1.r.Q.(.(.Q.(.Q.r.>.3.>.S.`.(.(.Y.1.1.>.>.>.>.>.K.^.Q.&Xp.1.1.>.p.Q.Q.`.Q.r.>.1.3.3.>.S.(.Q.(.(.(.(.Q.`.Y.r.1.1.1.1.1.1.1.1.1.1.>.1.1.>.1.>.1.1.>.K.(.(.Q.(.`.(.Q.Q.$.< < T u.t.c.c.c.c.c.z.x.z.x.ZXdXx.6X6X9X6X6X6XQ.K.I.I.I.I.K.(.9X6X6X6X6X6X6X,X>XQ.K.Y.I.I.I.",
"I.I.I.I.I.I.I.I.I.I.K.K.,XrX9XwX6X6X6X6XwX>XD.K.I.I.I.I.I.'.0X6X6X6X6X6X6X6X6XQ.K.Y.K.>X9X6X6X6X6X6X6X6X9X>XH.I.Y.I.I.I.5X6X6X6X6X6X+XsX$.# t t t t t t t t t t t t t t 5 -.3.>.] c.c.z.z.S.S.B.S.AXFXZXrX6X6X6X6X6X6X6X6X6X6X6X6X6X6X6X6X6X6X6X6X6X6X6X6X6X0X>XI.I.I.I.I.K.K.K.K.`.6X6X6X6X6X6X6X6X6X6X6X6XwX|.K.I.I.I.K.K.K.K.>X9X6X6X6X6X6X6X6XQ.K.I.I.I.I.I.K.>XrX6X6X6X6X6X6X6X6X6X6X6X6X(.I.I.I.I.I.I.I.H.g 9 t t t w t t w w t t t t t t t * +.e.>.>.p.S.S.z.z.S.B.S.t.aXgXS.I.K.I.I.K.K.K.'.6X6X6X6X6X6X6X6X6X6X6X6X6X6X6XI.H.I.I.I.*X9X6X6X6X6X9XQ.H.I.I.H.`.rX6X6X6X6X6X6X6X6X6X6X6X9X`.S.I.I.I.K.<X6X6X6X6X6X6X6X6X6XwX|.D.I.I.I.I.I.I.(.6X6X6X6X6XrX).D.I.I.I.I.D..X6XrXK $ t 2 t t t t t t t t t t t t t t t ; _ y.1.>.>XLX1Xr.(.(.Q.H.>.r.r.>.H.`.Q.Q.Q.(.(.(.(.Q.`.I.1.1.1.1.r.>.H.(.`.(.Q.(.n.>.1.3.r.Q.`.(.(.p.] 1.>.1.1.>.i.^.^.^.Y.y.1.>.1.Y.Q.Q.&XK.>.>.1.3.;.1.I.(.Q.(.(.(.Q.Q.(.H.1.1.1.1.1.1.1.1.1.1.1.1.1.1.1.>.1.1.>.r.Q.Q.(.Q.(.Q.(.I.s.b w 1 P 3.r.c.c.c.c.c.z.x.z.x.ZXdXx.|.9X6X6X6X6X`.K.I.I.I.I.I.K.'.6X6X6X6X6X6X,X,X}.K.I.I.I.I.",
"I.I.I.I.I.I.I.I.I.I.D.|.rX6XrX6X6X6X6XwX|.K.I.I.I.I.I.H.(.9X6X6X6X6X6X6X6X6X|.I.Y.I.(.9X6X6X6X6X6X6X6X6X9XQ.H.I.I.I.K.(.6X6X6X6X6X6X7XsX&.> t t t t t t t t t t t t t t 5 &.1.1.] r.c.z.z.S.S.B.S.AXKXZXrX6X6X6X6X6X6X6X6X6X6X6X6X6X6X6X6X6X6X6X6X6X6X6X6X6X0X(.K.I.I.I.I.K.H.K.Q.9X6X6X6X6X6X6X6X6X6X6X6X6XwX`.K.I.I.I.K.K.K.I.>X6X6X6X6X6X6XwX6XI.K.I.I.I.I.I.K.>XrX6X6X6X6X6X6X6X6X6X6X6X,XI.I.I.I.I.I.I.I.n.6 t t t t t t t w w t t t t t t t < +.e.>.r.p.B.c.z.B.S.B.S.r.aXgXS.I.I.I.I.I.I.H.Q.6X6X6X6X6X6X6X6X6X6X6X6X6X6X6X`.H.I.I.K.(.9X9X6X6X6X9X`.H.I.I.K.Q.6XwX6X6X6X6X6X6X6X6X6X6X9X`.H.I.I.I.K.8X6X6X6X6X6X6X6X6X6XwX|.D.I.I.I.I.I.I.(.6X6X6X6X6X9XQ.D.I.I.I.I.D.|.6XrXK $ t 2 t t t t t t t t t t t t t t t ; E u.] j.GXwX[ I.(.Q.(.y.>.y.>.r.(.(.Q.Q.(.(.(.(.(.Q.(.p.1.1.1.1.1.e.Q.(.(.Q.(.Y.>.>.1.1.H.`.(.(.I.] 1.>.1.1.>.r.Q.^.Q.(.p.>.3.;.p.%XQ.Q.Y.r.1.1.3.3.1.S.(.(.(.(.(.(.(.(.Y.e.1.1.3.1.1.1.1.1.1.1.1.1.1.1.1.>.1.1.>.I.(.(.Q.(.(.(.%Xs.W ; i < A 3.r.c.c.c.c.c.z.x.z.c.VXkXC.(.9X6X6X6X6X>XI.K.Y.I.I.Y.K.I.9X6X6X6X6X6X6X X,X`.K.I.I.K.",
"I.I.I.I.I.I.I.I.I.I.(.9X6X6X6X6X6X6XwX9XI.K.I.I.I.I.I.I.>XrX6X6X6X6X6X6XwX6X(.I.Y.I.>X6X6X6X6X6X6X6X6XrX,XK.K.I.I.I.K.`.0X6X6X6X6X6X7XsX%.& t t t t t t t t t t t t t t 3 &.r.1.>.r.c.S.B.z.S.B.S.AXKXZXrX6X6X6X6X6X6X6X6X6X6X6X6X6X6X6X6X6X6X6X6X6X6X6X6X6X9XI.I.I.I.I.I.K.K.I.>XrX6X6X6X6X6X6X6X6X6X6X6X6X6X`.I.I.I.I.K.K.K.Q.,X6X6X6X6X6X6XwX6XI.K.I.I.I.I.I.K.>XrX6X6X6X6X6X6X6X6X6X6X6X|.K.I.I.I.I.I.K.I.m.5 t t t t t t t w t t t t t t t t < +.e.>.r.c.S.c.z.B.B.B.S...aXgXS.I.K.K.K.I.K.I.I.`.6X6X6X6X6X6X6X6X6X6X6X6X6XwX>XD.I.I.I.I.8X9X6X6X6X6X>XH.I.I.I.I.>XwX6X6X6X6X6X6X6X6X6X6X9X`.H.I.I.I.K.8X6X6X6X6X6X6X6X6X6XwX|.D.I.I.I.I.I.I.(.6X6X6X6X6X6XQ.D.I.I.I.I.D. X6XrXK $ t t t t t t t t t t t t t t t t t ; E 1.] NXmX] H.`.Q.(.I.>.3.,.>.H.(.Q.Q.Q.(.(.(.(.Q.(.Y.1.1.1.1.1.1.I.`.(.(.(.%Xp.>.1.1.u.(.`.(.(.r.>.>.1.1.1.>.K.`.Q.(.H.>.>.3.>.K.Q.Q.Q.p.>.1.1.3.1.y.Q.(.(.(.(.(.(.Q.(.H.1.1.3.1.1.1.1.1.1.1.1.1.1.1.1.1.>.1.>.p.(.(.Q.Q.(.(.].H.<.a < t < F y.1.g.c.c.c.c.c.D.c.c.BXkXD.I.6XwX6X6X6X6X(.K.I.I.I.K.I.K.(.9X6X6X6X6X6X6X,X,XQ.K.I.K.",
"I.I.I.I.I.I.I.I.I.I.>X6X6X6X6X6X6XwX6XQ.K.Y.I.I.K.I.D.(.9X6X6X6X6X6X6X6XwX>XI.Y.I.(.6X6X6X6X6X6X6X6XwXrX`.S.I.I.I.K.I.>X7X6X6X6X6X6X6XsX%.& t 2 t 2 2 2 2 t t t t t t t 1 &.1.1.1.] t.S.B.B.S.S.S.AXFXZXrX6X6X6X6X6X6X6X6X6X6X6X6X6X6X6X6X6X6X6X6X6X6X6X6X0X'.K.I.I.I.I.K.K.K.`.rX6X6X6X6X6X6X6X6X6X6X6X6X6X6X(.K.I.K.K.K.I.K.Q.6X6X6X6X6X6X6XwX6XI.K.I.I.I.I.I.K.>XrX6X6X6X6X6X6X6X6X6X6X6X).H.I.I.I.I.I.K.I.d.1 t t t t t t t t t t t t t t t t w +.e.] r.S.S.c.z.B.B.S.c.] aXgXS.I.K.I.K.I.I.K.I.G.6X6X6X6X6X6X6X6X6X6X6X6X6X6X6XQ.H.I.I.I.*X9X6X6X6X6X6XI.H.I.I.K.`.rX6X6X6X6X6X6X6X6X6X6X9X`.H.I.I.I.K.5X6X6X6X6X6X6X6X6X6X9X`.I.I.I.I.I.I.I.(.6X6X6X6X6X6XQ.K.I.I.I.I.Q.oX6XrXK $ t t t t t t t t t t t t t t t t t ; E _ -XNX` r.(.(.Q.Q.p.1.3.>.p.(.(.(.Q.Q.(.(.(.(.Q.(.p.1.1.1.3.` p.(.`.(.Q.(.K.>.>.1.{ I.`.(.(.H.1.>.>.1.1.>.p.`.!.^.K.r.>.1.>.p.Q.Q.Q.K.1.>.3.1.3.>.H.(.(.(.(.(.(.(.(.(.p.1.3.1.1.1.1.1.1.1.1.1.1.1.1.1.1.1.>.>.Y.(.(.Q.(.`.].H.,.A w t t < F 3.} g.c.c.c.c.c.c.c.c.vXvXD.I.|.wX6X6X6X6X*XK.Y.I.K.K.I.K.H.'.6X6X6X6X6X6X6X6X>XQ.K.K.",
"I.I.I.I.I.I.I.I.I.`.9X6X6X6X6X6X6X6X:XI.Y.Y.I.I.I.I.D.5X0X6X6X6X6X6X6X6X6X(.I.Y.I.>XwX6X6X6X6X6X6X6XwX9XI.I.I.I.I.H.I.6X6X6X6X6X6X6X6XsX*.< t 3 2 2 2 2 2 2 t t t t t t 1 &.1.1.1.1.r.S.S.B.S.B.S.SXKXZXrX6X6X6X6X6X6X6X6X6X6X6X6X6X6X6X6X6X6X6X6X6X6X6X6X6XI.K.I.I.I.I.K.K.Q.6XwX6X6X6X6X6X6X6X6X6X6X6X6XwX6XQ.K.I.K.K.K.K.K.Q.9X6X6X6X6X6X6XwX6XI.K.I.I.I.I.I.K.>XrX6X6X6X6X6X6X6X6X6X6X6XQ.S.I.I.I.I.I.K.I.0.1 t t t t t t t t t t t t t t t t w +.r...t.S.S.z.S.z.z.S.t.] aXgXH.I.K.I.K.K.I.I.I.D.|.6X6X6X6X6X6X6X6X6X6X6X6X6X6X`.H.I.I.K.(.9X6X6X6X6X9X(.S.I.I.H.(.9X6X6X6X6X6X6X6X6X6X6X9X`.H.K.I.I.K.6X6X6X6X6X6X6X6X6X6X9X`.I.I.I.I.I.I.I.`.6X6X6X6XwX,XI.K.I.I.I.K.Q.oX6XrXK $ t t t t t t t t t t t t t t t t t ; H s.fX1.` I.(.Q.I.I.>.y.1.>.I.`.Q.(.Q.(.(.(.(.Q.(.Y.] 1.1.1.1.1.I.(.(.(.Q.Y.y.>.1.] p.(.(.(.I.y.3.>.1.>.>.r.Q.^.^.Q.r.>.1.>.>.Y.Q.Q.Q.p.;.1.1.>.>.r.(.Q.(.(.(.(.(.(.(.I.r.1.1.1.1.1.1.1.1.1.1.1.1.1.1.1.1.1.>.r.%X(.(.(.(.(.I.1.@.1 w w t < F 3.;.u.S.c.c.c.c.S.c.z.vXBXD.I.`.9X6X6X6X6X6XY.K.I.H.K.K.I.I.D.6X6X6X6X6X6X6X6XwX}.K.K.",
"I.I.I.I.I.I.I.I.Q.<X9XwX6X6X6X6XwX XY.K.Y.Y.I.I.I.H.(.rX6X6X6X6X6X6X6X6X|.I.Y.I.(.6X6X6X6X6X6X6X6X6XrX>XD.I.I.I.I.H.(.0X6X6X6X6X6X6X6XsX5.< u 2 2 2 2 2 2 2 t t t t t t 1 &.r.1.1.1.>.p.S.z.S.B.S.SXKXZXrX6X6X6X6X6X6X6X6X6X6X6X6X6X6X6X6X6X6X6X6X6X6X6X0X'.K.I.I.I.I.I.I.K.'.rX6X6X6X6X6X6X6X6X6X6X6X6X,XwXoXI.I.I.K.K.K.K.K.Q.9X6X6X6X6X6X6XwX6XI.K.I.I.I.I.I.K.>X9X6X6X6X6X6X6X6X6X6X6X,XI.H.I.I.I.I.I.K.I.8.< i t t t t t t w w w w w w t t t w +.1.r.z.S.S.c.S.z.z.c.r.` hXgXS.I.K.I.K.K.I.I.K.K.Q.9X6X6X6X6X6X6X6X6X6X6X6X6XwX5XI.I.I.K.Q.9X9X6X6X6X6X>XS.I.I.I.I.6XwX6X6X6X6X6X6X6X6X6X9X`.S.I.I.I.I.6X6X6X6X6X6X6X6X6X6X9X`.I.I.I.I.I.I.I.`.6X6X6X6XwX>XI.I.I.I.I.K.(.6XoXrXK $ t t t t t t t t t t t t t t t t t ; W 3Xj.>.H.&X`.'.&Xp.3.y.>.s.).`.(.(.(.(.(.(.(.(.Q.y.1.1.1.3.1.H.`.`.`.(.`.H.,.y.1.e.(.*X`.(.s.y.3.3.1.1.>.K.`.Q.^.p.>.>.>.>.p.Q.Q.Q.H.>.1.>.>.>.1.I.(.I.(.(.(.(.(.(.(.p.>.1.1.1.1.1.1.1.1.1.1.1.1.1.1.1.1.1.] H.%X(.Q.(.`.Y.y.>.d e t w t < F 3.;.3.S.c.c.c.c.S.S.c.kXBXD.I.Q.9X6X6X6X6X6X`.K.K.K.K.K.I.I.D.(.6X6X6X6X6X6XwXwX6X`.K.",
"I.I.I.I.I.I.I.S.>X9X,X6X6X6X6X6XwX(.H.I.I.I.I.I.I.I.5XrX6X6X6X6X6X6X6X6X(.K.Y.K.|.6X6X6X6X6X6X6X6X6X9XQ.K.I.I.I.H.I.|.6X6X6X6X6X6X6X6XrX5.< t 3 3 2 2 2 2 2 t t t t t t 1 $.1.1.1.1.>.t.S.c.S.B.S.BXKXZXrX6X6X6X6X6X6X6X6X6X6X6X6X6X6X6X6X6X6X6X6X6X6X6X9XQ.K.I.I.I.I.I.I.Q.,X6X6X6X6X6X6X6X6X6X6X6X6X6X,XwX XK.I.I.K.K.K.K.K.Q.rX6X6X6X6X6X6XwX6XI.K.I.I.I.I.I.K.>X9X6X6X6X6X6X6X6X6X6X6X'.K.K.I.I.I.I.I.K.I.*.< i t t t t t t w w w w t w t t t < Y 1.t.S.S.c.c.S.z.z.t.r.` aXgXS.I.K.I.K.K.K.I.K.I.I.>XwX6X6X6X6X6X6X6X6X6X6X6X6X6X(.H.I.I.I.8X9X6X6X6X6X9XQ.D.I.I.K.>X9X6X6X6X6X6X6X6X6X6X9X`.S.I.I.I.I.6X6X6X6X6X6X6X6X6X6X9X(.I.I.I.I.I.I.I.'.6X6X6X6XwX>XK.I.I.I.I.K.).6XoXrXK $ t t t t t t t t t t t t t t t t t ; P <.R Y $.%.&.$.$.F F F F F F F F F F F F F F F Z b b b n n n F A S S P T P N A P +.%.<.a.8.&.&.%.%.:.6.H.xX{.].I.i.6.i.r.r.].].].I.r.>.8.>.:.>.p.(.T.I.I.(.(.(.(.(.I.>.>.1.1.1.1.1.1.1.1.1.1.1.1.1.>.>.3.,.p.Q.(.(.Q.`.`.p.y.P $ t t w t < M 3.1.1.g.S.c.c.z.S.S.z.gXZXD.I.I.>XwX6X6X6X6X5XI.K.K.H.K.I.I.I.D.`.6X6X6X6X6XwXwX6X6X).",
"(.D.I.I.I.I.S.Q.6XrX6X6X6X6X6XrX'.D.K.I.I.I.I.I.H.`.0X6X6X6X6X6X6X6X6X>XI.H.I.Q.6X6X6X6X6X6X6X6X6XrX>XI.I.I.I.I.S.Q.6X6X6X6X6X6X6X6X6XrX7.& t 2 2 2 2 2 2 2 t t t t t t > $.1.1.1.1.>.r.S.S.S.B.S.BXKXZXrX6X6X6X6X6X6X6X6X6X6X6X6X6X6X6X6X6X6X6X6X6X6X9X6XI.I.I.I.I.I.I.I.>X6XwXwX6X6X6X6X6X6X6X6X6X6X6X6XwX|.H.I.I.K.K.K.K.K.Q.rX6X6X6X6X6X6XwX6XI.K.I.I.I.I.I.K.>XrX6X6X6X6X6X6X6X6X6X6X`.K.I.I.K.I.I.I.K.I.%.< i t t t t t t t t t t t t t t t < Y r.t.S.S.z.S.S.z.t...1.;.hXgXS.I.K.K.K.K.K.I.I.K.K.`.6X6X6X6X6X6X6X6X6X6X6X6X6X6X'.S.I.I.I.>X9X6X6X6X6X6X(.D.I.I.D.`.9X6X6X6X6X6X6X6X6X6X9X`.H.K.I.I.I.6X6X6X6X6X6X6X6X6X6X6X(.I.I.I.I.I.I.I.'.6X6X6X6XrX>XK.I.I.I.I.K.`.6XoXrXK $ t t t t t t t t t t t t t t t t t 2 4 4 1 & & & & > < < < < < < < < < < < < < < < < w w w w < < < < < < * * * < < < < & * * < < 1 3 3 t 5 a n M V S N S S T Y %.m.m.;Xd.8.8.:.8.8.p.(.*X].].'.].].(.(.T.p.] r.1.>.1.1.1.1.1.1.1.1.1.1.1.>.>.>.>.H.(.&X(.(.(.H.1.:.t w t e < t < M y.1.1.u.S.c.c.z.S.S.z.dXZXG.I.I.(.wXwX6X6X6X6X`.K.K.H.K.I.I.I.I.D.>XwX6X6X6X6X6X6X6X6X",
"6XQ.D.I.I.D.D.>X6X6X6X6X6X6XrX>XK.H.I.I.I.I.I.I.I.6XrX6X6X6X6X6X6X6X6X).H.I.K.>X6X6X6X6X6X6X6X6X6X9X`.I.I.I.I.K.S.'.6X6X6X6X6X6X6X6X6XrX7.& t 2 2 2 2 2 2 t t t t t t t > Q 1.>.1.1.>.r.c.S.S.B.S.BXKXZXrX6X6X6X6X6X6X6X6X6X6X6X6X6X6X6X6X6X6X6X6X6X6X0X|.D.I.I.I.I.I.K.Q.6XwXwX6X6X6X6X6X6X6X6X6X6X6X6X6XwX}.H.I.I.K.K.K.K.K.Q.rX6X6X6X6X6X6XwX6XQ.K.I.I.I.I.I.K.>XrX6X6X6X6X6X6X6X6X6X6XQ.I.I.I.I.I.I.I.K.I.&.< i t t t t t w t t t t t t t t t < Y u.z.S.S.z.B.B.S.t.] 1.;.hXgXS.I.K.K.K.K.K.K.I.I.K.I.|.6X6X6X6X6X6X6X6X6X6X6X6X6X>XD.K.I.H.`.6X6X6X6X6X6X|.D.I.I.K.Q.6X6X6X6X6X6X6X6X6X6X9X`.H.I.I.I.I.6X6X6X6X6X6X6X6X6X6X6X(.I.I.I.I.I.I.I.*X6X6X6X6XrX`.K.I.I.I.I.K.'.6XoXrXK $ t t t t t t t t t t t t t t t t t 2 t t t t t t t t t t t t t t t t t t t t t t t t t t t t t t t t t t t t t t t t t t i t t t t t t t w 9 9 9 9 9 w w t < < < 1 4 1 5 s c c M N E :.6.i.p.n.U.Q.%X*X%Xy.y.y.y.y.y.r.r.1.1.1.1.1.1.1.1.1.>.>.r.I.I.(.`.(.I.1.8.M 9 i u e t t < M 1.1.1.1.S.c.c.z.S.S.t.dXZXQ.I.I.I.6XwX6X6X6X6X>XI.K.K.K.I.K.I.K.I.Q.6X6X6X6X6X6X6X6X6X",
"wX6XI.I.I.S.Q.6X6X6X6XwX6X6X6XQ.H.I.K.K.K.I.I.D.*XrX6X6X6X6X6X6X6X6X>XI.I.K.Q.6X6X6X6X6X6X6X6X6XrX6XI.I.I.I.I.H.I.5X6X6X6X6X6X6X6X6X6XrX7.& t 2 2 2 2 2 2 t t t t t t t > Q 1.>.1.1.1.r.c.S.S.B.S.BXKXZXrX6X6X6X6X6X6X6X6X6X6X6X6X6X6X6X6X6X6X6X6X6X6X9X(.K.I.I.I.I.I.D.|.6XwXwX6X6X6X6X6X6X6X6X6X6X6X6X6XwX).H.I.K.K.K.K.K.K.Q.rX6X6X6X6X6X6XwX6XQ.K.I.I.I.I.I.K.>XrX6X6X6X6X6X6X6X6X6X6XI.I.I.I.I.I.I.I.K.I.$.< i w t t t w w t t w t t t t t t < Y j.B.B.c.z.B.z.c...] 1.;.hXmXH.I.K.K.K.K.K.K.I.I.I.D.`.6XoX6X6X6X6X6X6X6X6X6X6X6X6XI.H.I.I.Q.6X6X6X6X6X6X6XI.K.I.I.I.>X9X6X6X6X6X6X6X6X6X9X`.S.I.I.I.Q.6XoX6X6X6X6X6X6X6X6X6XQ.I.I.I.I.I.I.I.>XwX6X6X6XrX`.K.I.I.I.I.K.|.6XoXrXL $ t t t t t t t t t t t t t t t t t 2 2 2 3 3 2 2 2 2 2 2 2 2 2 2 2 2 2 2 2 2 2 2 2 2 2 2 2 2 2 2 2 2 2 2 2 2 2 t t 2 t 2 2 2 2 2 t t t t t t t t t t t t t t t t t e w w w w w w 9 ; % % ; t t x x n M P L P T / / :.>.1.r.e.u.h.u.u.e.e.r.r.>.D.(.(.Q.Q.(.p.1.D X X : ; ; 9 t < n 1.1.1.1.p.c.c.c.S.H.p.sXAXQ.I.I.A.|.eX6X6X6X6X6X`.K.K.K.I.K.K.I.I.D.`.6X6X6X6X6X6X6X6X",
"6XwX|.Q.D.I.5X6X6X6X6X6X6XrX`.S.I.K.K.K.K.I.K.Q.6X6X6X6X6X6X6X6X6X6X).K.Y.S.`.wX6X6X6X6X6X6X6X6XrX`.K.I.I.I.I.H.(.6X6X6X6X6X6X6X6X6X6XrXb.& t 2 2 2 2 2 2 2 t t t t t t > Y 1.>.1.1.1.6.c.S.S.B.S.BXKXZXrX6X6X6X6X6X6X6X6X6X6X6X6X6X6X6X6X6X6X6X6X6X6X6XI.I.I.I.I.I.I.Q.6XwXwX6X6X6X6X6X6X6X6X6X6X6X6X6X6XwX(.H.I.H.I.K.K.K.K.Q.rX6X6X6X6X6X6XwX6XQ.K.I.I.I.I.I.K.>XrX6X6X6X6X6X6X6X6XwX6XK.I.I.I.I.I.I.I.K.I.$.< t w t t t w w t t w w w t t t t < Y H.B.z.c.S.B.S.c.] r.1.;.hXgXH.I.K.K.K.K.K.K.K.I.I.K.I.,X6X6X6X6X6X6X6X6X6X6X6X6X9X(.D.I.I.I.>X6X6X6X6X6X6XQ.K.I.I.K.*X6X6X6X6X6X6X6X6X6X9X`.S.I.I.I.Q.6XoX6X6X6X6X6X6X6X6X6XQ.I.I.I.I.I.I.I.>XwX6X6X6XrX`.K.I.I.I.I.I.>X6X6XrXK $ t t t t t t t t t t t t t t t t t 2 2 2 2 2 2 2 2 2 2 2 2 2 2 2 2 2 2 2 t t t t t t 2 2 3 3 2 t t t t t t t t t t 2 t t t t 2 t t t t t t t t t t t t t t t t w w e e t t t t t t t t t t t t 2 < < < < e e < e w w t t u l b n F D T Y @.f.>.I.(.(.`.Q.I.p.e.) ! ) E E / E 3 ; n 1.1.1.;.e.S.c.c.S.H.t.sXFXQ.I.I.D.Q.6X6X6X6X6X6X|.I.H.I.I.K.K.I.I.I.I.>X6X6X6X6X6X6X6X",
"wX6X6X|.D.`.0XoX6X6X6X6XrX>XK.K.I.K.K.K.K.I.K.'.rX6X6X6X6X6X6X6X6X,XD.I.I.I.6X6X6X6X6X6X6X6X6XwX6XQ.I.I.I.I.I.Q.5X6X6X6X6X6X6X6X6X6X6XrXb.& t 2 2 2 2 2 2 t t t t t t t > Y 1.>.1.1.1.6.r.S.S.B.S.BXFXZXrX6X6X6X6X6X6X6X6X6X6X6X6X6X6X6X6X6X6X6X6X6X9X>XI.I.I.I.I.I.K.`.oX6X6X6X6X6X6X6X6X6X6X6X6X6X6X6X6XrXQ.H.I.K.K.K.K.K.K.Q.rX6X6X6X6X6X6XwX6X(.K.I.I.I.I.I.K.>XrX6X6X6X6X6X6X6X6XwX>XD.I.I.I.I.I.I.I.K.I.+.< t t t t t t w t w w w t t t t t < $.I.B.z.c.S.B.S.t.] 1.1.;.hXgXH.I.K.K.K.K.K.K.K.K.I.K.K.`.6X6X6X6X6X6X6X6X6X6X6X6X0X`.S.I.I.S.'.6X6X6X6X6X6X|.K.I.I.I.Q.6XwX6X6X6X6X6X6X6X9X`.H.I.I.I.I.6XoX6X6X6X6X6X6X6X6X6XD.I.I.I.I.I.I.I.5XwX6X6X6X9XQ.I.I.I.I.I.I.5X6XoXrXK $ t t t t t t t t t t t t t t t t t 2 2 2 t t t t 2 2 2 2 t t t 2 2 t t t t t t t t t 2 2 3 2 2 t t t t t t t t t t t t t t t t t t t t t t t t t t t t t t t t t t t t t t t t t w w w < w w ; ; ; ; ; > & & + > 4 4 4 h h x n j C L ! / 8.] r.S.S.D.Q.5X6X9X9X1XaX9X%XT.*Xy.4 ; c 1.{ 1.1.1.S.S.c.S.H.t.sXFXQ.I.I.I.D.>XrX6X6X6X6X6X`.H.Y.I.K.K.K.I.I.I.Q.6XwXwX6X6X6X6X",
"wX6X6X6X6X5X6X6X6X6X6X6X9XQ.H.I.I.K.K.K.I.D.Q.9X6X6X6X6X6X6X6X6XrX(.K.Y.K.`.6X6X6X6X6X6X6X6X6XwX|.I.I.I.I.I.D.'.0X6X6X6X6X6X6X6X6X6X6XrXc.& t 2 2 2 t t t t t t t t t t & Y r.>.1.1.1.>.r.S.S.B.S.BXFXZXrX6X6X6X6X6X6X6X6X6X6X6X6X6X6X6X6X6X6X6X6X6X9X'.K.I.I.Y.Y.Y.I.6XoX6X6X6X6X6X6X6X6X6X6X6X6X6X6X6X6XwX(.H.I.K.K.I.K.K.K.Q.9X6X6X6X6X6X6XwXrX`.K.I.I.I.I.I.K.`.9X6X6X6X6X6X6X6X6X6X|.D.I.I.I.I.I.I.I.K.T.T ; t t t t t t w t t w w t t t t t < %.I.B.z.B.B.B.c.r.1.1.1.;.hXgXH.Y.K.K.K.K.K.K.K.K.I.I.K.Q.6X6X6X6X6X6X6X6X6X6X6X6X9X>XD.H.I.H.(.9X6X6X6X6X6X>XD.I.I.I.K.6XwX6X6X6X6X6X6X6X9X`.K.I.I.I.I.6X6X6X6X6X6X6X6X6X6X6XD.I.I.I.I.I.I.I.6XwX6X6X6X9XQ.I.I.I.I.I.I.9X6X6XrXK $ t t t t t t t t t t t t t t t t t t t t t t t t t t t t t t t t t t t t t t 2 2 2 t t t t t t t t t t t t t t t t t t t t t t t 2 < < < < < $ $ < < < * * * < < * * * < < 1 < 1 t a b n F D D D D #.#.*.a.m.m.W.W.!.}.,X1XrXrXdXdXdXeXwXdX6XY.H.I.K.I.>XrX6X6X6X6X6X(.H.Q.1.4 < c 1.{ 1.1.1.p.S.c.S.H.t.aXFX).I.I.I.D.`.9X6X6X6XoX6X,XK.I.I.I.K.K.I.I.I.I.).6XwXwX6X6X6X",
"wX6X6X6X6X6X6X6X6X6X6XwX>XK.K.I.K.K.K.K.K.K.'.9X6X6X6X6X6X6X6X0X>XD.I.I.I.6X6X6X6X6X6X6X6X6X6X6XQ.I.I.I.I.I.Q.6X6X6X6X6X6X6X6X6X6X6X6XsXc.& u t 2 t t t t t t t t t t t & Y e.] 1.1.1.>.r.S.S.B.S.BXAXZXrX6X6X6X6X6X6X6X6X6X6X6X6X6X6X6X6X6X6X6X6X6X6X(.K.I.I.Y.Y.Y.`.rX6X6X6X6X6X6X6X6X6X6X6X6X6X6X6X6X6X6X`.H.I.K.K.I.K.K.K.Q.9X6X6X6X6X6X6XwXwX`.K.I.I.I.I.I.K.`.9X6X6X6X6X6X6X6X6X6X).D.I.I.K.K.I.I.I.I.(.S 9 t t t t t t t t t w w t w t t t < %.I.S.z.z.B.B.c.1.1.1.1.` dXgXH.I.K.K.K.K.K.K.K.K.K.I.K.K.`.9X6X6X6X6X6X6X6X6X6X6X6X6XQ.H.I.K.I.>X6X6X6X6X6X6XQ.K.I.I.D.|.6X6X6X6X6X6X6X6X9X`.K.I.I.I.I.6X6X6X6X6X6X6X6X6X6X6XI.I.I.I.I.I.I.I.6XwX6X6X6X9XQ.I.I.I.I.I.I.9X6X6XrXK $ t t t t t t t t t t t t t t t t t t t t t t t t t t t t t t t t t t t t 2 2 2 2 2 ; < ; < < < < < > > > > > # % % % : ; ; ; 2 t t t t t x x c n M V I ! ! ^ *.8.%.%.5.5.7.b.Q.`.|.|.>X5XQ.D.I.K.Q.(.(.*XsX0XrXrXeXeX7X6X6X6X6X6X6X6X6X6X,X9X`.H.H.I.I.(.9X6X6X6X6X6X>XK.Q.y.4 < x 1.{ 1.1.1.r.S.c.S.H.t.9XKX`.I.I.I.K.Q.6XwX6X6X6X6X6X`.K.I.I.I.I.I.I.I.I.I.}.wXwX6X6X6X",
"wX6X6X6X6X6X6X6X6X6X6XwX`.S.I.K.K.K.K.K.K.I.9X6X6X6X6X6X6X6X6X9XQ.K.I.K.`.6X6X6X6X6X6X6X6X6XwX>XI.I.I.I.I.I.`.6X6X6X6X6X6X6X6X6X6X6X6XsXx.& u t 2 t t t t t t t t t t t & Y e.] 1.1.1.>.r.c.S.B.B.BXAXZXrX,X6X6X6X6X6X6X6X6X6X6X6X6X6X6X6X6X6X6X6X6X9XQ.K.I.I.Y.I.I.>XwX6X6X6X6X6X6X6X6X6X6X6X6X6X6X6X6X6X6X|.K.I.K.K.I.K.K.K.Q.6X6X6X6X6X6X6X6XwX`.K.I.I.I.I.I.K.(.9X6X6X6X6X6X6X6X6X6XQ.D.I.I.I.K.I.I.K.K.(.F 9 t t t t t t t t t t t t w t t t < %.I.S.z.z.z.B.p.>.1.1.1.` dXgXH.I.K.K.K.K.K.K.K.K.K.I.I.K.Q.6X6X6X6X6X6X6X6X6X6X6X6X6X`.H.I.I.K.'.6X6X6X6X6X6X(.K.I.I.D.(.6X6X6X6X6X6X6X6X9X'.K.I.I.I.I.6X6X6X6X6X6X6X6X6X6X6XI.I.I.I.I.I.I.I.6X6X6X6X6X9XQ.I.I.I.I.I.Q.9X6X6XrXK $ t t t t t t t t t t t t t t t t t t t t ; % # - - - - - # # o o o o o @ @ , , 4 6 h h c c g j m C L L L L L ! / 5.7.b.b.x.0.0.i.i.i./.2X2X3XaXaXaXaXaXaXaXaXsXiXQ.Q.Q./.K.Q.rX7X6X6X6XrX|.C.K.K.K.K.I.I.-X0X5X5XoX6X6X6X6X,X,X,X,X,X,X6X6X,X,XI.H.I.I.I.5XwX6X6X6X6X9XI.Y.y.4 < x >.1.1.1.1.1.c.c.S.H.p.1XKX>XI.I.I.K.I.|.wX6X6X6X6X6X6XQ.K.I.I.I.I.I.I.I.I.I.>XwX6X6X6X",
"6X6X6X6X6X6X6X6X6X6X6X>XI.K.I.K.K.K.K.I.D.`.rX6X6X6X6X6X6X6X9X|.K.Y.K.Q.6X6X6X6X6X6X6X6X6X6X6X(.K.I.I.I.I.Q.6X6X6X6X6X6X6X6X6X6X6X6X6XsXx.* i t t t t t t t t t t t t t & $.t.] 1.1.1.>.6.c.S.B.S.BXFXAXrX,XwX6X6X6X6X6X6X6X6X6X6X6X6X6X6X6X6X6X6X6X>XI.I.I.I.I.K.Q.6X6X6X6X6X6X6X6X6X6X6X6X6X6X6X6X6X6X6X6X>XI.K.K.K.I.K.K.K.Q.6X6X6X6X6X6X6X6XwX|.K.I.I.I.I.I.I.Q.9XwX6X6X6X6X6X6X6X6XQ.D.I.I.I.K.I.I.K.K.(.M 9 t t t t t t t t t w t t w t t t < %.A.S.z.z.B.S.t.>.1.1.1.;.gXgXH.I.K.K.K.K.K.K.K.K.K.I.I.K.K.'.6X6X6X6X6X6X6X6X6X6X6X6X>XD.K.I.H.(.6X6X6X6X6X6X'.K.I.I.I.I.5XwX6X6X6X6X6X6X9X|.K.I.I.I.I.6X6X6X6X6X6X6X6X6X6X6XD.I.I.I.I.I.I.(.6X6X6X6X6X9XQ.I.I.I.I.I.Q.9X6XoXrXK $ t t t t t t t t t t t t t t t t t t t < n &.Q Q Q #.&.&.&.*.m.m.m.#X#X$X$X$X&X:X2X2Xm.m.m.m.K.K.K.K.Q.Q.Q.W.1XdXsXrXrXuXzX(.I.I.I.A.'.0X6X6X6X6XoXoXoX6X X6X6X5XD.D.I.K.S.Q.7X6X6X6X6X7X6X).I.Y.I.K.K.S.(.9X5X5XoX6X6X6X6X9X9X9X6X,X,X6X6X6X6X`.K.K.I.I.`.rX6X6X6X6X9X`.Y.y.4 < a >.1.1.1.1.1.p.S.S.H.p.>XKX9XI.I.I.I.K.(.6X6X6X6X6X6X6X|.K.I.I.I.I.I.I.I.I.I.Q.,X6X6X6X",
"wX6X6X6X6X6X6X6X6X6X6X`.D.I.I.K.K.K.K.K.I.6X6X6X6X6X6X6X6X6X6XQ.K.I.D.|.6X6X6X6X6X6X6X6X6X6X,XI.I.I.I.I.I.'.6X6X6X6X6X6X6X6X6X6X6X6X6XsXc.* i t t t t t t t t t t t t t & $.h.] 1.1.1.>.] p.S.B.S.BXFXAXrX,XwX6X6X6X6X6X6X6X6X6X6X6X6X6X6X6X6X6X6X9X'.K.I.I.I.Y.K.'.6X6XoX6X6X6X6X6X6X6X6X6X6X6X6X6X6X6X6X6X5XI.K.K.I.I.K.K.K.Q.6X6X6X6X6X6X6X6XwX|.I.I.I.I.I.I.I.Q.9XwX6X6X6X6X6X6X6X,XI.K.I.I.I.K.I.I.K.K.(.n 9 t t t t t w w t t w w t t t t t < %.A.S.z.z.B.S.r.>.1.1.1.;.gXgXH.I.K.K.I.I.K.K.K.K.K.I.I.I.K.Q.9X9X6X6X6X6X6X6X6X6X6X6X6XD.H.Y.K.I.>X6X6X6X6X6X|.D.I.I.I.D.|.6X6X6X6X6X6X6X9X|.K.I.I.I.I.6X6X6X6X6X6X6X6X6X6X6XD.I.I.I.I.I.I.(.wX6X6X6X6X9XQ.I.I.I.I.I.Q.9X6XoXrXK $ t t t t t t t t t t t t t t t t t 2 t > M.uX'.Q.I.Q.(.Q.Q.'.zXzXzXzXzX7X7XeXeXeXrX6XD.C.C.D.D.D.D.K.D.D.D.D.:X9X,X,X6X6X6XI.I.K.I.S.(.9X,X,X,X,X,X6X6X6X6X6XrX6XI.S.K.I.K.`.7X6X6X6X6X7X6X6XI.K.I.K.K.I.I.>X6X6X6X6X6X6X6X9X9X9X6X6X6X6X6X6X6X9XQ.H.I.H.Q.9X6X6X6X6X6X*XY.1.1 < a >.1.1.1.1.1.r.c.S.H.p.>XFXrXI.I.I.I.D.D.5X6X6X6X6X6X6X6X(.K.I.I.I.I.I.I.I.I.K.Q.6X6XoX",
"wXwXwX6X6X6X6X6X6XrX6XI.K.I.I.I.I.K.K.D.`.wX6X6X6X6X6X6X6X9X'.D.I.K.Q.6XwX6X6X6X6X6X6X6X6X9X`.D.I.I.I.I.(.6X6X6X6X6X6X6X6X6X6X6X6X6X6XsX7.* i t t t t t t t t t t t t t & $.B.{ 1.1.1.1.] t.S.B.S.BXFXAXrX,XwX6X6X6X6X6X6X6X6X6X6X6X6X6X6X6X6X6X6X6X`.K.I.I.Y.I.I.,X6X6X X6X6X6X6X6X6X6X6X6X6X6X6X6X6X6X6X6X6X(.H.K.I.I.K.K.K.I.>X6X6X6X6X6X6X6XwX6XQ.K.I.I.I.I.K.I.6XwX6X6X6X6X6X6XwX,XD.K.I.K.I.K.I.I.K.K.I.c w t t t t t t w t t t w t t t t t < %.A.S.c.c.B.S.r.>.1.1.1.;.gXMXH.I.I.I.I.I.K.K.I.Y.I.I.I.Y.I.K.>X9X6X6X6X6X6X6X6X6X6X6X6X(.H.I.I.K.`.6X6X6X6X6X6XQ.D.I.I.I.`.6X6X6X6X6X6X6X9X|.K.I.I.I.Q.6X6X6X6X6X6X6X6X6X6X6XD.I.I.I.I.I.S.(.rX6X6X6X6X9XQ.I.I.I.I.I.(.6X6XoXrXL $ t t t t t t t t t t t t t t t t t t * L Q.6X(.S.H.I.I.K.I.I.|.6X6X6X6X6X6X6X6X,X,X>XK.K.K.K.K.K.I.I.I.I.I.I.>XrXwXwXwXwX6XI.I.I.I.S.`.9X6X6X6X6X6X6X6X6X6X6XrX6XI.H.I.I.I.*X6X6X6X6X6X6X6X7X*XK.I.I.I.I.I.(.0X7X7X6X6X6X6X6X6X6X6X6X6X6X6X6X6XrX`.K.I.I.I.>X6X6X6X6X6X>X(.6.1 < x >.1.1.1.1.1.1.p.S.S.t.>XFXdXQ.I.I.K.I.D.`.wX6X6X6X6X6X6X9XQ.K.K.I.I.I.I.I.I.I.D.`.6X6X",
"6X6X6X6X6X6X6X6X6XrX>XI.I.I.I.I.I.K.K.Q.6X6X6X6X6X6X6X6X6X6XQ.K.I.I.|.wX6X6X6X6X6X6XwX6X6X>XI.S.K.I.I.I.>X6X6X6X6X6X6X6X6X6X6X6X6X6X6X5X .< i t t t t t t t t t t t t u & Q B.r.1.1.1.1.] t.S.B.S.BXFXAXrX,XwX6X6X6X6X6X6X6X6X6X6X6X6X6X6X6X6X6X6X6XQ.K.I.I.Y.K.Q.6X6X6XoX6X6X6X6X6X6X6X6X6X6X6X6X6X6X6X6X6X6X*XK.K.K.I.K.K.K.D.`.rX6X6X6X6X6X6XwXwX`.K.I.I.I.I.K.K.>XwX6X6X6X6X6X6X9X,XD.D.I.K.I.K.I.I.K.I.I.x t t t t t t t w t t t w t t t t t < %.A.S.c.S.B.S.r.>.1.1.1.;.gXMXH.I.I.I.K.I.I.I.S.I.Y.I.K.I.I.H.Q.9X6X6X6X6X9X6X6X6X6X6X6X'.I.I.I.H.(.6X6X6X6X6X6X`.D.I.I.I.Q.6X6X6X6X6X6X6X6X|.K.I.I.I.Q.6X6X6X6X6X6X6X6X6X6X6XD.I.I.I.I.I.A.`.rX6X6X6X6X9XQ.I.I.I.I.I.(.9X6X6XrXK $ t t t t t t t t t t t t t t t t t < 6 i.Q.wX`.S.I.I.I.I.I.I.'.6X6X6X6X6X6X6X6X,X6X,XY.K.K.K.K.I.I.I.I.I.I.I.>XrX6X6X6X6X6XI.I.I.I.S.`.9X6X6X6X6X6X6X6X6X6X6XrX6XI.H.I.I.I.>X7X6X6X6X6X6X6X6X9X(.H.I.I.I.I.I.>X9X6X6X6X6X6X6X6X6X6X6X6X6X6X6X6X6X9XI.K.I.I.|.6X6X6X6X6X6X`.6.< ; x 1.1.1.1.1.1.1.r.S.S.t.>XFXdX`.K.I.I.I.D.Q.6X6X6X6X6X6X6X9X|.D.K.I.I.I.I.I.I.I.I.K.|.wX",
"6X6X6XoX6X6X6X6X6X9XQ.K.I.I.I.I.I.I.K.`.wX6X6X6X6X6X6X6X0X`.K.I.K.(.6XwX6X6X6X6X6XwXeX6X,X(.I.K.H.I.I.(.9X6X6X6X6X6X6X6X6X6X6X6X6X0X6X(. .< i t t t t t t t t t t t t u * Y F.e.1.1.1.1.] t.S.h.S.BXAXAXrX,X6X6X6X6X6X6X6X6X6X6X6X6X6X6X6X6X6X6X9X6XI.I.I.I.Y.K.`.6X6X6X6X6X6X6X6X6X6X6X6X6X6X6X6X6X6X6X6X6X6X6XQ.K.I.I.I.K.I.D.`.rX6X6X6X6X6X6X6XwX>XI.K.I.I.I.I.K.`.rX6X6X6X6XwX6X9X>XD.D.I.K.I.K.I.I.H.I.S.a t t t t w w w w w t t t t w t t t < %.F.B.z.S.B.c.>.>.1.1.1.;.sXMXH.K.K.K.Y.I.H.I.(.I.I.I.K.K.I.I.D.>X6X6X6X6X6X6X6X6X6X6X6X|.I.I.I.H.I.>X6X6X6X6X6X|.D.I.I.I.I.>X6X6X6X6X6X6X6X>XK.I.K.K.Q.6X6X6X6X6X6X6X6X6X6X6XD.I.I.I.I.I.A.*XrX6X6X6X6X9XQ.I.I.I.I.I.`.6XoXoXrXK $ t t t t t t t t t t t t t t t t t > / H.D.eX>XD.I.I.I.I.I.K.`.6X6X6X6X6X6X6X6X,X6X,XI.K.K.K.K.I.I.I.I.K.I.I.>X6X6X6X6X6X6XI.I.I.D.D.'.9X6X6X6X6X6X6X6X6X6X6XrX6XQ.H.I.I.Q.5X6X6X6X6X6X6X6X6X6X9XY.I.I.I.I.I.(.6X6X6X6X6X6X6X6X6X6X6X6X6X6X6X6X6X9X`.H.I.S.`.6X6X6X6X6X6X>X6.> ; l y.r.1.1.3.1.1.r.c.S.t.>XFXkX>XD.K.I.I.K.I.5X6X6X6X6X6X6X6X6X`.K.I.I.I.I.I.I.I.I.I.I. X",
"6XwXwX6X6XwX6X6XrX>XH.I.I.I.I.I.I.K.I.,XwX6X6X6X6X6X6X6X,XI.I.I.K.|.wX6X6X6X6X6X6X6XwX,X'.I.I.I.H.I.I.5X6X6X6X6X6X6X6X6X6X6X6X6X0X0X'.I. .e i t t t t t t t t t t t t u $ T D.p.1.1.1.1.] r.S.B.S.BXAXAXrX,X9X6X9X6X6X6X6X6X6X6X6X6X6X6X6X6X6X6X9X8XI.I.I.I.Y.K.>X6X6X6X6X6X6X6X6X6X6X6X6X6X6X6X6X6X6X6X6X6X6X6X&XK.I.K.I.K.K.K.Q.9X6X6X6X6X6X6X6XwX9XQ.K.I.I.I.I.K.Q.9X6X6X6X6XwX6X9X>XD.D.I.K.I.K.I.I.I.Y.S.5 i t t t w w w t w t t t t w t t t < %.F.B.z.S.c.p.] >.1.1.1.;.dXMXH.I.K.Y.H.K.(.5XwX'.I.I.I.K.K.I.K.(.9X6X6X6X6X6X6X6X6X6X6X6X(.S.I.I.I.|.6X6X6X6X6X5XI.K.I.I.D.'.6X6X6X6X6X6X9X>XK.I.K.K.I.9X6X6X6X6X6X6X6X6X6X6XD.I.I.I.I.I.S.*XwX6X6X6X6X9XQ.I.I.I.I.I.`.9X6XoXrXK $ t t t t t t t t t t t t t t t t < n H.z.I.oX>XI.I.I.I.I.I.H.`.6X6X6X6X6X6X6X6X6X6X>XI.K.K.K.K.I.I.I.I.K.I.I.'.6X6X6X6X6X6XI.I.I.K.D.|.9X6X6X6X6X6X6X6X6X6X6XrX6XQ.H.I.I.(.6X6X6X6X6X6X6X6X6X6X6X>XI.I.I.I.I.I.>X6X6X6X6X6X6X6X6X6X6X6X6X6X6X6X6X9X>XK.I.H.(.6X6X6X6X6X6X,X6.> ; t i.u.3.3.3.1.1...t.S.p.>XFXkX1XI.H.I.I.I.K.`.6X6X6X6X6X6X6X6X9XQ.K.I.I.I.I.I.I.I.I.I.I.",
"(.6XeX6X6X6X6X6X9XI.I.I.I.I.I.I.I.K.`.rXwXwX6X6X6X6X6X9X`.K.I.I.I.6XwXwX6X6X6X6X6X6X6X>XQ.K.I.I.I.D.'.6X6X6X6X6X6X6X6X6X6X6X6X6XrX5XD.D.7.w i t t t t t t t t t t t t t $ I D.p.{ 1.1.1.] r.S.S.S.BXAXAXrX,X9X6X6X6X6X6X6X6X6X6X6X6X6X6X6X6X6X6X9X5XK.I.I.I.Y.I.,X X6X6X6X6X6X6X6X6X6X6X6X6X6X6X6X6X6X6X6X6X6X6X5XI.H.I.I.K.I.I.K.6X6X6X6X6X6X6X6X6XrX`.K.I.I.I.I.K.I.6X6X6X,X6XwX6X9X>XD.K.I.I.I.I.I.I.I.I.g.1 t w t w w t t t t t t t t w t t t < %.F.z.z.S.z.p.>.>.1.1.1.;.gXMXH.Y.K.K.I.>X9X6XwXrX>XD.I.I.K.K.I.I.>X6X6X6X9X6X6X6X6X6X6X6X`.S.I.I.H.`.6X6X6X6X6X6X(.S.I.I.I.Q.6X6X6X6X6X6X9X>XK.I.K.I.I.9X6X6X9X6X6X6X6X6X6X6XD.I.I.I.I.I.D.>XwX6X6X6X6X9XQ.I.I.I.I.I.`.9XoX6XrXK $ t t t t t t t t t t t t t t t t 3 5.D.t.D.oX>XI.I.I.K.I.I.S.(.,X6X6X6X6X6X6X6X6X6X,XI.K.K.K.K.I.I.I.I.K.I.I.'.9X6X6X6X6X6XI.I.I.K.D.|.9X6X6X6X6X6X6X6X6X6X6XwX6XQ.H.I.I.(.6X6X6X6X6X6X6X6X6X6X6X6X'.A.I.I.I.I.(.6X6X6X6X9X9X6X6X6X6X6X6X6X6X6X6X9X9XQ.I.H.Q.6X6X6X6X6X6X9X8.> ; 3 i.p.1.3.3.3.1.r.r.S.c.>XFXgX9X`.D.K.I.I.K.Q.6X6X6X6X6X6X6X6X6X>XI.K.I.I.I.I.I.I.I.I.I.",
"H.`.6X6X6XwX6X9X`.K.I.K.I.I.I.I.K.I.,XrXwXwX6X6X6X6X9X>XI.K.Y.K.`.6X6X6X6X6X6X6X6X6X6X|.D.I.K.I.I.Q.9X6X6X6X6X6X6X6X6X6X6XrX6X6XrX(.B.D.i.e i t t t t t t t t t t t t t ; S D.g.r.1.1.1.] r.S.B.S.BXAXAXdX,X6X6X6X6X6X6X6X6X6X6X6X6X6X6X6X6X6X6X9X>XI.I.I.Y.K.Q.,X6X6X,X6X6X6X6X6X6X6X6X6X6X6X6X6X6X6X6X6X6X6X6X9X(.H.Y.I.I.I.I.K.`.6X6X6XwX6X6X6X6XwX>XK.K.K.K.K.H.D.`.6X6X,X6X6X,X9X>XD.K.K.K.K.I.I.I.I.I.p.5 t t t w w t t t w w t t t t t t t < %.F.z.z.S.S.t.>.>.1.1.1.;.gXMXH.Y.K.K.>X9X6X6XwXwX6X(.I.I.K.K.I.K.(.9X6X6X6X6X6X6X6X6X6X6X>XD.I.I.I.Q.5X6X6X6X6X6X'.D.I.I.I.I.,X6X6X6X6X6X6X>XK.K.K.I.I.9X6X6X9X6X6X6X6X6X6X6XD.I.I.I.I.I.D.5X6X6X6X6X6X9XQ.I.I.I.I.I.`.9XoX6XrXK $ t t t t t t t t t t t t t w t < S x.c.c.D.6X6XQ.I.K.K.I.I.H.Q.,X6X6X6X6X6X6X6X6XwX,XI.K.K.K.K.I.I.I.I.I.I.I.'.rX6X6X6X6X6XI.I.I.K.D.>X6X6X6X6X6X6X6X6X6X6X6X6X6XQ.H.I.I.'.6X6X6X6X6X6X6X6X6X6X6X6X6X(.I.I.I.I.I.'.6X6X6X9X9X6X6X6X6X6X6X6X6X6X6X6X9X`.H.H.I.,X6X6X6X6X6XrX6.> 0 2 i.p.>.3.3.1.1.r.r.S.c.>XAXkX9X*XK.I.I.I.I.I.>X6X6X6X6X6X6X6X6X6X`.K.I.I.I.I.I.I.I.I.I.",
"I.K.Q.'.9X0X>X(.I.I.I.I.I.I.I.I.K.`.9X6X6X6X6X6X6X6X9X(.K.I.I.I.5X6X6X6X6X6X6X6XwX6X,XQ.K.I.K.I.I.*X9X9X6X6X9X9X6X6X9X9X9X6X6X9X>XI.D.I.b.e i t t t t t t t t t t t t t ; S F.S.g.1.1.1.>.r.S.B.S.BXAXAXdX,X9X9X,X6X9X9X6X9X9X9X6X6X6X9X9X6X9X9X9X`.I.K.K.H.H.Q.,X6X6X6X6X6X6X6X6X6X6X6X6X6XrXrX6X6X6X6X6X6X6X6X,X>XS.S.H.H.H.H.H.K.|.,X,X6X6X6X6X6X+X6X%XI.Q.Q.Q.Y.Q.`.wXrXwXrXrX9XrX<XI.I.I.Y.I.I.I.I.I.(.i.a w t t t t t t t w t t t t t w w t < %.F.c.c.S.S.p.>.1.1.1.1.;.gXMXH.Y.H.*X9X6X6X6X6X6X6X>XI.I.I.K.K.I.I.>X6X6X6X6X6X6X6X6X6X6X6X(.I.I.I.D.'.wX6X6X6X6X>XD.D.I.I.I.>X9X6X6X6X6X9X>XK.I.K.I.D.>X6X6X9X6X6X6X6X6X6X6XD.I.I.I.I.I.I.6X6X6X6X6X6X9XQ.K.I.I.I.K.(.6X6X6XrXK $ t t t t t t t t t t t t t w w 5 d.B.S.c.D.6X6X`.S.K.K.I.I.K.I.>XwX6X6X6X6X6X6X6XwX>XK.K.I.I.I.I.I.I.I.I.I.I.'.rX6X6X6X6X6XI.I.I.K.D.6X6X6X6X6X6X6X6X6X6X6X6X6XwX(.H.K.I.5X9X6X6X6X6X6X6X6X6X6X6X6X6X>XI.I.I.I.I.(.9X9X6X9X9X6X6X6X6X6X6X6X6X6X6X6XrX|.H.H.I.6X6X6X6X6X6XrX5.> t 2 7.H.r.1.1.1.1.1.1.p.p.&XKXkX9X9XI.I.K.K.I.I.(.6X6X6X6X6X6X6X6X6X9X`.K.I.I.I.I.I.I.I.I.",
"I.I.K.K.(.`.I.K.K.I.I.I.I.I.I.K.Q.9XrX6X6X6X6X6X6X6X>XK.I.Y.K.`.wX6X6X6X6X6XwX6X6XrX).K.I.K.I.I.Q.9X9X6X6X6X6X9X6X6X6X6X9X9X6XrXQ.I.K.Y.b.e i t t t t t t t t t t t t t ; S F.S.g.r.1.1.>.y.S.S.S.BXAXAXdX,XrX9X9X6X6X6X6X6X6X6X6X6X6X6X6X6X9X9X6XQ.K.K.K.H.H.`.6XwX6X6X6X6X6X6X6X6X6X6X,X,X,X,X6X6X6X6X6X9XrXrXsXsX>X>X,X1XrXyXhXdXcXbXbXbXZXZXZXZXZXZXSXBXBXBXBXgXgXdXcXcXdXdXdXdXdXrX<X<X<X&X&X(.].I.I.T.:.3 t t t t t t t t w w t t t t t t t < %.F.z.z.S.S.e.1.1.1.1.1.;.gXMXH.Y.(.9X6X6X6X6X6X6X6X6X(.I.I.K.K.K.K.(.6X6X6X6X6X6X6X6X6X6X6X`.D.I.I.I.(.6X6X6X6X6X6XQ.D.I.I.K.`.9X6X6X6X6X6X,XI.K.K.I.D.>X9X6X9X6X6X6X6X6X6X6XD.I.I.I.I.I.I.9X6X6X6X6X6X9XQ.K.I.I.I.I.(.6X6X6XrXK $ t t t t t t t t t t t t t t : ~ K.z.S.S.D.6X6X'.H.K.K.I.I.I.I.>XrX6X6X6X6X6X6X6XwX6XI.K.K.I.I.I.I.I.I.I.I.I.'.rX6X6X6X6X6XI.I.I.K.D.5X6X6X6X6X6X6X6X6X6X6X6X6XwX(.H.K.I.9X9X6X6X6X6X6X6X6X6X6X6X6X6X5X(.H.I.I.I.I.>X9X6X9X9X6X6X6X6X6X6X6X6X6X6X6X9X|.K.H.I.oX6X6X6X6X6XrX0.> t 2  .D.t.>.>.>.>.1.1.r.i.&XKXkX6X0X(.K.I.K.I.I.I.>X6X6X6X6X6X6X6X6X6X6XQ.K.I.I.I.I.I.I.I.",
"I.I.I.I.K.K.I.I.I.I.I.I.I.I.I.K.*X9X6X6X6XwX6X6X6X6XQ.K.I.Y.I.>XwX6X6X6X6X6X6X6X6X>XK.I.I.I.I.I.>X9X6X6X6X6X9X9X6X6X9X6X6X6XrX>XI.I.K.Y.b.e i t t t t t t t t t t t t t ; S F.S.S.r.1.1.>.y.S.B.S.BXAXAXaX>XrX9X9X9X6X6X6X6X6X6X6X6X9X9X9X9X9X0X6XD.K.K.H.H.S.`.6X6X,X6X6X6XwXrXrXrXsXdXjXkXvXBXVXVXZXZXZXZXZXDXFXFXKXKXKXAXSXSXSXMXfXgXgXgXsX9X9X9X-XY.H.n.c.p.p.r.r.t.Q.Q.Q.Q.Q.Q.^.Y.r.r.r.r.] ..r...8.T 5 < t t t t t t e e t t t t t t t t t < %.F.c.c.S.p.r.1.1.1.1.1.;.gXBXH.Q.9X6X6X6X6X6X6X6X6X6X>XI.I.I.K.K.I.I.'.6X6X6X6X6X6X6X6X6X6X>XI.D.I.I.I.>X6X6X6X6X6X`.D.I.K.K.(.9X6X6X6X6X9X,XI.K.I.I.K.>X9X6X6X6X6X6X6X6X6X6XI.I.I.I.I.I.Q.9X6X6X6X6X6X9X`.I.I.I.I.I.Q.6X6XoXrXK $ t t t t t t t t t t t t t < c d.S.z.S.S.D.6X6X>XI.K.K.I.I.I.K.'.6X6X6X6X6X6X6X6X6X6XI.I.I.I.I.I.I.I.I.I.I.I.`.rX6X6X6X6X6XQ.I.I.K.D.6X6X6X6X6X6X6X6X6X6X6X6X6XwX(.K.D.Q.0X6X9X9X6X6X6X6X6X6X6X6X6X6X6X`.I.I.I.I.I.(.9X6X6X6X6X6X6X6X6X6X6X6X6X6X6X6X>XI.H.I.oX6X6X6X6X6XrX7.> t t | D.S.r.>.,.>.1.>.>.r.^.KXvX6X9X>XI.K.I.K.Y.K.`.9X6X6X6X6X6X6X6X6X6X>XQ.K.I.I.I.I.I.I.",
"I.I.I.I.I.I.I.I.I.I.I.I.I.I.K.Q.6XrX6X6X6X6X6X6X9X>XK.I.Y.K.`.6X6X6X6X6X6X6X6X6X,XQ.I.I.K.I.I.(.6X6X6X6X6X6X9X6X6X6X9X6X6XrX9XQ.I.I.H.Y.b.1 i t t t t t 2 t t t t t t t ; F C.S.S.r.1.1.1.p.S.B.c.BXAXAXvX1X,X9X9X9X9X9X9X9X9X9X6X6X6X9X6X,X,X6X>XD.I.Q.&X-X<XsXkXkXjXvXvXZXZXZXAXFXFXKXFXFXAXHXAXAXZXVXvXdXdXrXrX:XK.c.c.r.r.>.>.>.y.P.Y.Y.Q.Q.I.p.1.` ;.;.;.;.;.;.1.I.(.Y.(.(.%X&XK.r.>.1.1.1.1.6.6.:.M 1 w w t t t t t e e e t t t t t t t t t < %.F.c.S.S.p.r.>.1.1.1.1.;.gXMXS.>X9X6X6X6X6X6X6X6X6X6X6X`.I.I.K.H.I.H.Q.6X6X6X6X6X6X6X6X6X6X6X(.D.I.I.I.'.6X6X6X6X6X|.D.K.I.K.Q.6X9X6X6X6X9X9XI.K.I.I.D.>X9X6X6X6X6X6X6X6X6X6XD.I.I.I.I.A.(.9X6X6X6X6X6X9X`.K.I.I.I.I.I.5X6XoXrXK $ t t t t t t t t t t t t t < %.i.S.S.S.S.D.6X6X6XI.K.I.I.I.I.K.`.6X6X6X6X6X6X6X6X6X6XI.I.I.I.I.I.I.I.I.I.I.I.`.rX6X6X6X6X6XQ.K.I.K.I.6X6X6X6X6X6X6X6X6X6X6X6X6XwX(.K.D.`.0X9X9X9X6X6X6X>X6X6X6X6X6X6X6X>X(.I.I.I.I.I.>X9X6X6X6X6X6X6X6X6X6X6X6X6X6X6X,XI.H.I.oX6X6X6X6X6XrX0.> t 9 | D.S.c.>.,.1.1.>.>.>.^.FXvX6X9X0XQ.K.I.K.Y.K.Q.6X6X6X6X6X6X6X6X6X6X6X}.I.K.I.I.I.I.I.",
"I.I.I.I.I.I.I.I.I.I.I.I.I.I.I.|.wX6X6XwXwXwX6X6X6XQ.K.I.I.I.>XwX6X6X6X6X6X6X6X6X`.I.I.I.I.I.I.>X6X6X6X6X9X9X9X6X6X6X9X6X6XrX`.I.I.I.I.U.b.< t t t t t 2 2 t t t t t t t ; F B.c.S.r.>.1.>.p.S.z.c.IXFXAXFXVXrX,X,X9X1X1X1X1X1X9X9XrXrXaXdXdXjXkXkXvXBXZXAXFXFXFXFXFXAXFXKXFXAXAXAXBXBXgXsX9X1X<X*X`.(.Q.Q.Q.Q.(.g.` ;.1.1.1.1.3.1.u.Q.(.Q.(.(.Y.s.1.1.1.3.1.3.3.1.r.Y.%XQ.Q.(.&X%XH.1.1.r.1.1.1.r.y.E a < t < w t e e t t t e e t t t t t t t t t < %.F.c.z.S.t.1.>.1.1.1.1.;.gXkX(.rX6X6X6X6X6X6X6X6X6X6X6X5XQ.I.I.K.K.I.D.'.6X6X6X6X6X6X6X6X6X6X'.I.I.I.D.(.6X6X6X6X6X5XK.K.K.K.K.>X9X6X9X6X9X9XQ.K.K.I.K.>XrX6X9X6X6X6X6X6X6X6XD.I.I.I.I.A.).9X6X6X6X6X6X9X`.K.I.I.I.I.I.>X6XoXrXK $ t t t t t t t t t t t t < D y.r.S.S.S.S.S.6X6X9XQ.I.I.K.I.I.I.Q.6X6X6X6X6X6X6X6X6X6XI.I.I.I.I.I.I.I.I.I.I.I.`.rX6X6X6X6X6X).K.I.K.I.6X6X6X6X6X6X6X6X6X6X6X6X6XwX(.D.D.'.0X9X6X6X6X6X>XK.Q.6XwX6X6X6X6X9X>XI.I.I.I.I.`.6X6X6X6X6X6X6X6X6X6X6X6X6X6X6X,XI.H.I.6X6X6X6X6X6XrX0.> t 0 | D.S.S.y.>.1.1.>.1.] /.KXvX9X9XrX`.K.Y.U.Y.I.I.>X6X6X6X6X6X6X6X6X6X6X6X`.K.I.I.I.I.I.",
"I.I.I.I.I.I.I.I.I.I.I.I.I.K.(.6XwX6XwX6X6X6X6XrX`.S.I.Y.K.(.6XwX6X6X6X6X6X6X6X>XQ.I.K.I.I.I.`.6X6X6X6X6X6X6X9X9X6X9XrX6X9X9XD.I.K.K.I.K.m.3 w t t t t t 2 t t t t t t t ; F B.c.H.y.1.1.] i.S.c.c.BXFXAXAXAXZXvXaXrXaXdXdXgXkXvXBXZXZXZXAXFXFXKXKXLXKXKXFXAXAXSXVXkXsXaXaX1X>X&X`.(.Q.Q.Q.Q.Q.Q.Q.Q.Q.Q.`.(.I.p.1.1.3.3.3.3.3.3.u.Y.(.Q.I.(.Q.p.1.3.1.1.>.1.3.>.r.K.%XQ.Q.(.(.(.i.] 1.1.1.1.>.1.>.P 3 < t t t t e e e t t t e t e t t t t t t t t < %.F.z.z.S.t.>.1.1.1.1.1.1.gXVX5X6X6X6X6X6X6X6X6X6X6X6X6X6X`.I.I.K.K.I.D.(.6X6X6X6X6X6X6X6X6X6X5XI.S.I.I.I.5X9X6X6X6X6XQ.K.I.K.K.*X9X6X9X6X9X9XQ.K.I.I.K.`.rX6X9X6X6X6X6X6X6X6XI.I.I.I.I.A.'.rX6X6X6X6X6X9X`.I.I.I.I.I.I.>X6XoXrXK $ t t t t t t t t t t t w a <.>.] p.S.S.S.S.6X6X0X`.I.I.I.I.I.I.I.>X6X6X6X6X6X6X6X6X6XI.I.I.I.I.I.I.I.I.I.I.I.(.9X6X6X6X6XwX).K.I.K.Q.6X6X6X6X6X6X6X6X6X6X6X6X6XwX(.K.D.>X0X9X6X6XrX,XI.K.H.`.rX6X6X6X6X6X9XQ.I.I.I.I.Q.,X9X6X6X6X6X6X6X6X6X6X6X6X6X6X6XI.H.Y.6X6X6X6X6X6XrX0.> t ;  .D.c.S.c.6.>.1.1.1.] K.KXvX9X9X0X>XK.K.I.I.I.I.Q.9X6X6X6X6X6X6X6X6X6X6X,XQ.K.I.I.I.I.",
"I.I.I.I.I.I.I.I.I.I.I.I.I.I.|.wX6X6X6X6X6X6XrX6XQ.K.K.I.I.|.wX6X6X6X6X6X6X6X9XQ.K.I.K.K.I.Q.6X6X6X6X6X6X6X6X6X9X6X9X9X6X9X(.H.K.I.I.I.I.^.3 w t t t t t 2 t t t t t t t 9 n B.c.H.p.1.1.] i.S.z.D.AXFXAXAXZXZXZXZXZXFXFXFXFXFXFXKXKXKXFXKXAXSXMXfXpX<X&XQ.H.c.&X`.Q.Q.Q.Q.Q.Q.Q.Q.Q.Q.Q.Q.Q.Q.Q.Q.Q.`.`.(.H.r.>.1.1.1.1.1.1.1.r.Y.(.(.(.(.H.r.1.3.y.3.1.3.1.>.r.I.(.Q.Q.Q.(.I...] 1.>.>.>.1.y.&.c > t t t t t t t t t t t t t t e e e t e e w w t < %.F.B.z.S.r.>.1.1.1.1.1.1.gXZX6X6X6X6X6X6X6X6X6X6X6X6X6X6X|.I.K.I.I.I.I.I.5X6X6X6X6X6X6X6X6X6X6X(.D.I.I.D.'.9X6X6X6X6X).D.I.K.I.(.9X6X9X6X9X9XQ.K.I.I.D.`.rX6X9X6X6X6X6X6X6X6XI.I.I.I.I.D.'.rX6X6X6X6X6X9X>XI.I.I.I.I.I.>X6XoXrXK $ t t t t t t t t t t t * @.3.>.] r.S.S.S.S.6X6X6X>XI.I.I.I.I.I.I.`.9X6X6X6X6X6X6X6X9X(.I.I.I.I.I.I.I.I.I.I.I.Q.6X6X6X6X6XwX`.K.I.K.Q.6X6X6X6X6X6X6X6X6X6X6X6X6X6XQ.K.I.5X0X9X6X6X9X|.K.K.K.Q.9X6X6X6X6X6X6X>XI.I.I.I.K.`.9X6X6X6X6X6X6X6X6X6X6X6X6X6X,XI.H.Q.6X6X6X6X6XoXrX0.> i ;  .D.c.S.S.r.>.>.1.r.>.c.KXVX9X9X9X9XQ.D.I.I.I.I.K.>X6X6X6X6X6X6X6X6X6X6X6X>XQ.K.I.Y.I.",
"I.I.I.I.I.I.I.I.I.I.I.I.K.`.wXwXwXwX6X6X6X6X9X`.K.I.K.D.(.6XwX6X6X6X6X6X6X9X|.D.K.K.K.K.I.>X6X6X6X9X6X6X6X6X6X9X6X6X6X9X>XI.I.I.I.I.D.`.}.1 w t t t t t t t t t t t t t 9 n B.c.S.p.1.1.] p.S.r.^.KXAXFXFXZXZXFXAXFXKXFXFXFXZXvXgXhXrX1X<XU.y.1.1.;.` ` ;.` s.Q.`.Q.Q.Q.Q.Q.Q.Q.Q.Q.Q.Q.Q.Q.Q.Q.(.`.Q.H.r.1.1.1.1.1.1.3.3.>.u.Q.`.(.(.(.p.>.1.3.1.1.3.3.>.>.s.Q.(.Q.Q.Q.Q.S.1.>.6.>.1.1.1.>.W t < t t t t t t t t t t t t t t t e e t t t e w w t < %.F.B.z.S.r.>.1.1.1.1.1.1.MXZXoX6X6X6X6X6X6X6X6X6X6X6X6X6X6X(.K.I.I.I.I.K.'.7X6X6X6X6X6X6X6X6X0X'.I.I.I.D.).9X6X6X6X6X'.K.I.I.I.Q.6X9X6X6X9X9XQ.K.I.I.D.`.6X6X6X6X6X6X6X6X6X6XQ.I.I.I.I.D.|.rX6X6X6X6X6X9X>XI.I.I.I.I.I.|.6XoXrXK $ t t t t t t t t t t w B ,.1.1.] r.S.S.S.S.6X6X6X6XI.I.I.K.I.I.I.Q.6X6X6X6X6X6X6X6X9X(.I.I.I.I.I.I.I.I.I.I.I.Q.6X6X6X6X6XwX`.K.I.K.Q.6X6X6X6X6X6X6X6X6X6X6X6XwX6XQ.D.I.9X0X9X6X6X9X}.K.K.K.K.`.9X6X6X6X6X6X9XQ.I.I.I.K.Q.9X6X6X6X6X6X6X6X6X6X6X6X6X6X>XI.H.(.6X6X6X6X6XoXrX7.> i ; ' D.c.S.S.c.1.>.1.1.>.c.AXVX9X9X9X9X>XK.I.K.K.I.I.Q.6X6X6X6X6X6X6X6X6X6X6X6X>XI.K.Y.I.",
"I.I.I.I.I.I.I.I.I.I.I.I.I.>XwX6XwX6X6X6X6X6X>XD.K.I.K.I.>XwX6X6X6X6X6X6XwX6XQ.I.I.K.I.K.(.9X6X6X9X9X9X9X6X6X6X9X9X6X,X6XQ.H.Y.I.I.Y.Q.oX}.4 w t t t t t t t t t t t t t w n B.S.S.p.1.1.1.p.D.z.sXKXAXFXFXFXZXvXgXfX-XY.(.*X&XQ.Q.Q.Y.Y.j.1.;.3.1.1.1.1.] j.%X(.^.Q.Q.Q.Q.(.(.(.(.(.(.(.Q.%X(.(.`.I.u.1.>.1.1.1.1.1.3.1.>.H.(.(.Q.(.Y.y.;.>.1.1.1.1.1.1.r.H.(.Q.Q.^.`.Q.p.>.1.1.>.>.r.r.>.N ; < t < t t t t t t t t t t e e e e t t t t t t t t t < %.F.B.c.p.r.>.1.1.1.1.1.1.MXZXoX6X6X6X6X6X6X6X6X6X6X6X6X6X6X`.I.I.I.I.I.K.Q.6X6X6X6X6X6X6X6X6X0X5XI.I.I.I.Q.5X6X6X6X6X>XI.K.I.I.I.>XwX6X6X9X9XQ.K.I.I.D.Q.6X6X6X6X6X6X6X6X6X6XQ.I.I.I.I.D.5XrX6X6X6X6X6X9X>XI.I.I.I.I.I.'.6X6XrXK $ t t t t t t t t t < t &.1.1.r.{ ..p.c.S.S.6XeX6XwX'.S.I.K.I.I.I.D.>X6X6X6X6X6X6X6X9X(.K.I.I.I.I.I.I.I.I.I.I.Q.6X6X6X6X6XwX|.K.I.K.Q.6X6X6X6X6X6X6X6X6X6X6X6X6X6XQ.S.Q.0X9X9X9X6X9X^.K.K.K.I.K.>X6X6X6X6X6XrX>XI.I.I.K.K.>X9X6X6X6X6X6X6X6X6X6X6X6X9X|.K.H.(.6X6X6X6X6XoXrX0.> i ; / D.c.S.c.S.r.1.1.1.>.i.AXZX9X,X9X9XwX!.K.K.I.I.I.K.'.6X6X6X6X6X6X6X6X6X6X6X6X`.K.Y.K.",
"K.K.K.K.I.I.I.I.I.I.I.H.`.6XwXwX6X6X6X6X,X9X`.D.K.K.K.(.6X6X6X6XwX6X6X6XwX`.Q.I.I.I.I.K.>X9X6X6X9X9X9X9X6X6X6X9XrX6X6X`.S.I.K.Y.K.I.'.eXXX4 w t t t t t 2 2 t t t t t t w n B.S.S.p.1.1.1.p.z.Q.AXAXKXFXVXsX<X%XI.r.` ` | (.Q.%X(.Q.Q.%Xu.3.u.3.3.>.1.1.p.%X(.%XQ.Q.Q.Q.Q.Q.Q.Q.Q.Q.Q.%X%X%X(.K.p.>.>.1.1.1.1.>.1.1.>.r.I.%X(.Q.Y.S.r.1.1.3.1.1.1.1.1.u.(.(.Q.Q.Q.(.I.r.>.1.1.1.>.1.y.R 5 3 t t < < t t t t t t t t t t e e e t t t t w t t t t t < %.F.B.c.p.1.>.1.1.1.1.1.;.BXZXoX6X6X6X6X6X6X6X6X6X6X6X6X6X6X>XI.I.I.I.I.I.I.|.6X6X6X6X6X6X6X6X6X9X(.I.I.I.D.>X6X6X6X6X6XQ.K.I.I.I.`.rX6X6X6X9XQ.K.I.I.K.Q.6X6X6X6X6X6X6X6X6X6X(.I.I.I.I.I.5X9X6X6X6X6X6X6X5XI.I.I.I.I.K.`.6XoXrXK $ t t t t t t t t t < L y.1.1.1.] { p.z.S.S.6XeX6X6X5XD.I.I.I.I.I.D.>X6X6X6X6X6X6X6X9X(.K.I.I.I.I.I.I.I.I.I.I.Q.6X6X6X6X6XwX|.K.I.K.Q.6X6X6X6X6X6X6X6X6X6X6X6X6X XQ.S.(.0X9X9X6X6X9XQ.K.K.K.U.H.Q.9X6X6X6X6X6X9XQ.I.K.K.K.`.9X6X6X6X6X6X6X6X6X6X6X6X9X|.K.H.`.6X6X6X6X6X6XrX5.> i ; / D.c.S.S.S.p.r.>.1.>.i.AXZX6X6X9X6X6X,XK.K.I.I.I.I.Q.5X6X6X6X6X6X6X6X6X6X6X6X9X`.K.H.",
"I.I.I.I.I.I.K.I.I.I.K.(.6XwX6X6X6X6X6X,X6X>XD.K.K.K.D.|.6X6X6X6X6X6X6X6X>XQ.I.I.I.Y.I.Q.6X6X6X6X6X6X6X9X6X6X6X9X9X9X,XD.H.I.H.Y.H.Q.|.wX}.3 w t t t t t 2 2 t t t t t t w b B.S.S.p.1.1.1.p.W.vXFXSXBXsX`.Q.Y.j.1.1.u.1.p.%XQ.&X(.Q.(.p.1.3.3.3.3.3.>.u.(.(.&X(.(.Q.(.(.(.Q.Q.Q.Q.Q.Q.%X%XK.p.] >.>.1.1.1.1.1.3.1.1.u.T.(.(.%XT.p.{ 1.1.1.1.1.1.` 1.H.T.(.Q.Q.(.(.c.r.3.1.>.>.1.6.8.L 1 < t w w t t t t t t t t w w < < < t t t t t e w t t t t t < %.F.S.c.t.1.1.1.1.1.1.1.1.BXZX6X6X6X6X6X6X6X6X6X6X6X6X6X6X6X6XQ.K.I.I.I.I.K.`.0X6X6X6X6X6X6X6X6XrX*XI.I.I.I.`.6X6X6X6X6X(.K.I.K.I.Q.6X6X6X6X9X(.K.I.I.K.I.6X6X6X6X6X6X6X6X6X6X(.I.I.I.I.I.6X6X6X6X6X6X6X6X9XQ.I.I.I.I.K.`.6XoXrXK $ t t t t t t t t w x ] 1.1.r.] ] ..t.S.S.S.5XeX6X6X6XQ.H.A.K.I.I.I.|.6X6X6X6X6X6X6XrX`.K.I.I.I.I.I.I.I.I.I.I.D.6X6X6X6X6XwX>XD.I.K.Q.9X6X6X6X6X6X6X6X6X6X6X6X6X XD.D.`.rX6X6X6X6X9XI.K.K.K.H.H.K.>X6X6X6X6X6X9X*XK.I.I.K.Q.9X6X6X6X6X6X6X6X6X6X6X6XrX'.H.H.`.6X6X6X6X6X6X6X5.> t ; / D.z.c.B.c.S.r.>.3.>.i.AXZX9X6X6X6X6XwXQ.K.Q.I.I.I.K.`.6X6X6X6X6X6X6X6X6X6X6X9X9X(.K.",
"I.I.I.I.I.I.K.I.I.I.Q.9X6X6X6X6X6X6X,XwX6XQ.S.I.K.K.Q.6X6X6X6X6X6X6X6X,XQ.I.Y.I.I.I.I.|.0X6X6X6X6X6X6X6X6X6X6X9X6XrX(.D.I.Y.Y.H.K.>XoXwX X3 w t t t t t 2 2 t t t t t t w x B.S.S.p.1.1.1.S.vXFXSX1XQ.Q.Y.Y.y.` 1.u.1.1.K.%XQ.Q.Q.%Xp.] 1.1.3.3.3.>.y.I.(.(.(.(.(.(.(.(.(.(.(.(.&X&X%XY.p.r.>.>.>.1.1.1.>.1.>.>.u.I.T.T.(.(.I.e.` { 1.1.1.{ { ` r.I.(.Q.%XQ.Q.Q.c.] 6.y.1.>.1.y./ c < < t t w w t t 2 2 2 2 t t t t t t t t t t t t e e e t t t t < %.F.S.c.e.1.1.1.1.1.1.] u.BXZX6X6X6X6X6X6X6X6X6X6X6X6X6X6X6X6X`.K.K.I.I.I.I.(.9X6X6X6X6X6X6X6X6X6X5XI.I.I.I.I.6XwX6X6X9X`.K.I.I.I.I.6X9X6X6X9X`.K.I.I.K.K.6X6X6X6X6X6X6X6X6X6X(.I.I.I.I.I.6X9X6X6X6X6X6X6X9X(.I.I.I.I.K.`.6XoXrXK $ t t t t t t t t 1 Q r.1.1.1.1.1.{ r.S.S.z.5X0X6X6X6X`.H.I.K.I.I.I.Q.6X6X6X6X6X6X6XrX'.D.I.I.I.I.I.I.K.K.I.K.D.6X6X6X6X6X6X>XK.I.K.(.9X6X6X6X6X6X6X6X6X6X6X6X6X6XI.I.`.6X6X6X6X6X9XI.K.K.K.H.K.I.I.>X9X6X6X6X6X6XQ.K.I.K.I.>X9X6X6X6X6X6X6X6X6X6X6X9X(.H.S.>X6X6X6X6X6X6X6X5.> t : ) D.z.B.B.z.S.S.1.3.,.i.AXAX9X9X6X6X6XwX>XK.I.I.I.K.K.I.>X6X6X6X6X6X6X6X6X6X6X9X9X9X(.",
"(.I.I.I.I.I.I.I.I.I.>X6X6X6X6X6X6X6X,XrX`.S.I.K.K.K.).6X6X6X6X6X6X6X6X!.S.I.I.I.I.H.Q.6X6X6X6X6X6X6X6X6X6X6X9X6X9X>XD.I.I.K.Y.H.`.6X6X6X X3 w t t t t t 2 2 t t t t t t w x z.B.S.p.r.1.] hXLXdX&XK.`.Q.n.1.1.1.1.3.>.H.(.Q.&XQ.(.H.>.1.1.1.3.1.1.1.H.(.Q.(.(.(.(.(.(.(.(.Q.Q.Q.%XY.p.] ' ] >.>.1.1.1.1.1.1.r.g.E.{.E.].T.S.e.r.r.r.r.r.r.r.e.j.-X-X-X-X%X&X%Xp.| r.1.1.1.1.>.T t < < 2 t t t t t 2 t t w t t t t t t t t t t t t t t e e e t t t < %.F.B.c.r.1.1.1.1.1.1.1.p.BXZX,X6X6X6X6X6X6X6X6X6X6X6X6X6X6X6X6XQ.K.I.I.I.I.(.6X6X6X6X6X6X6X6X6X6XrX(.I.I.I.I.>XrX6X6X9X>XI.I.I.I.K.>X9X6X9X9X`.K.I.I.I.I.6X6X6X6X6X6X6X6X6X6X(.I.I.I.I.I.6X6X6X6X6X6X6X6X9X`.I.I.I.I.K.Q.6XoXrXK $ t t t t t t t ; V i.>.1.1.1.1.1.1.r.S.S.c.5X0X6X6X6X>XI.I.I.H.I.I.D.|.6X6X6X6X6X6XwX|.I.I.I.I.I.I.I.I.I.I.K.D.>X6X6X6X6X6X6XI.I.K.(.9X6X6X6X6X6X6X6X6X6X6X6X6X5XI.I.'.6X6X6X6X6X6XI.I.K.K.K.K.Y.H.`.9X6X6X6X6X9X`.K.I.I.K.:XrX6X6X6X6X6X6X6X6X6X6X9XQ.H.K.>X6X6X6X6X6X6X6X5.> i : ) D.B.B.B.B.S.S.y.3.,.r.AXZX9X9X6X6X6X6X9X(.D.Y.I.I.K.K.Q.>X6X6X6X6X6X6X6X6X6X6X6X9X6X",
"5X(.H.I.I.I.I.I.D.>X6X6X6X6X6X6X6X6XwX>XK.K.I.K.K.I.|.6X6X6X6X6X6XrX`.D.I.K.K.I.I.S.`.rX6X6X6X6X6X6X6X6X6X6X6X6X9XQ.S.I.K.K.K.Q.6X6X,X6X Xl w t t t t t 2 2 t t t t t t w a z.S.S.p.1.[ aXFXaXQ.Q.(.I.r.>.3.y.3.3.;.y.Q.(.(.(.&XI.>.>.3.1.1.3.1.] I.(.(.Q.(.(.(.(.(.(.(.(.(.].(.S.r.{ r.r.r.r.y.y.8.8.8.8.d.m.;XU.m.;Xm.:.~ ~ $.$.Y Y P P P P Y Y Y Y I P P M c c c c c c c c 1 < 2 t t t t t w t 2 t t t t t t t t t t t t t t t t e e e e t t t < %.F.S.c.r.1.1.1.1.1.1.1.p.BXZX,X6X6X6X6X6X6X6X6X6X6X6X6X6X6X6X6X`.K.I.I.I.I.I.6X6X6X6X6X6X6X6X6X6XwX|.I.I.I.I.'.wX6X6X6X,XI.K.I.I.K.&X9X6X9X9X&XK.I.I.I.I.>X6X6X6X6X6X6X6X6X6X(.I.I.I.I.I.6X6X6X6X6X6X6X6X9X`.I.I.I.I.I.I.5X6XrXK $ t t t t t t < t a.H.] 1.1.1.1.1.1.r.p.S.c.8XrX6X6X6X5X(.I.I.H.I.I.S.Q.6X6X6X6X6X6X6X6XI.I.I.I.I.I.K.K.I.I.I.D.>XwX6X6X6X6X6XQ.I.K.(.9X6X6X6X6X6X6X6X6X6X6X6X6X>XI.I.|.6X6X6X6X6X6XK.I.I.K.I.K.K.K.K.>XrX6X6X6X9X>XI.I.I.K.`.9X6X6X6X6X6X6X6X6X6X9X6XI.K.K.6X6X6X6X6X6X6X6X5.> i : ) D.B.B.B.B.B.S.p.3.,.r.AXZX>X8X6X6X6X6X6X5XK.I.I.I.K.K.K.`.6X6X6X6X6X6X6X6X6X6X6X6X6X",
"rX9X`.I.I.Q.D.H.|.6X6X6X6X6X6X6X6X6X6XQ.H.K.K.K.K.).6X6X6X6X6X6X6X>XI.K.I.K.K.I.I.Q.6XrX6X6X6X6X6X6X6X6X9X9X6XrX|.S.I.K.H.Y.K.>XwX6XwX,X Xx w t t t t t 2 2 t t t t t t w x z.S.S.t.r.aXAX:XI.(.(.p.1.r.1.>.1.3.;.p.Q.Q.Q.Q.`.Q.r.>.3.3.3.3.1.>.H.&X(.(.*X&X&X*X*X`.`.(.(.I.t.[ ( ( ( E E U W H B B B c c c c 5 3 3 < < < < < w w w w < < < ; $ ; ; ; ; ; ; ; < < ; < ; ; ; ; t t t 2 2 t t t t 2 2 t t t t t t t t t t t t t t t t t t e t t t t < %.F.S.p.r.1.1.1.1.1.1.u.c.vXZX,X6X6X6X6X6X6X6X6X6X6X6X6X6X6X6X6X9XI.K.I.I.I.I.5X6X6X6X6X6X6X6X6X6X6X6XI.I.I.I.(.6X6X6X6X6XQ.H.I.I.K.(.9X6X9X9X&XK.Y.I.I.K.'.wX6X6X6X6X6X6X6X6X).I.I.I.I.I.6X6X6X6X6X6X6X6X9X'.I.I.I.I.I.K.>X6XrXK $ t t t t t t < n m.H.r.1.1.1.1.1.1.1.p.H.p.8XrX6X6X6X6X'.I.K.K.H.I.H.I.5X6X6X6X6X6X6X6XQ.I.I.K.I.I.I.I.I.I.I.D.|.rX6X6X6X6X9X(.I.K.(.9X6X6X6X6X6X6X6X6X6X6X6X6X>XI.I.>X6X6X6X6X6X>XK.I.I.I.Y.K.K.I.K.Q.9XwX6X6X6X9XQ.I.I.I.Q.6X6X6X6X6X6X6X6X6X9X9X*XS.K.Q.9X6X6X6X6X6X6X|.5.> i ; ) D.B.B.B.B.B.c.c.y.>.6.SXFX*X>X6X6X6X6X6XwX`.H.I.I.K.K.K.I.>X6X6X6X6X6X6X6X6X6X6X6X6X",
"rX9X9X>XQ.D.D.'.6X6X6X6X6X6X6X6X6XrX`.K.K.K.K.K.I.|.wX6X6X6X6X6XrXQ.D.I.K.K.I.I.I.'.6X6X6X6X6X6X6X6X6X6X9X9X9X6XQ.S.I.K.I.K.Q.9X6XwXwX6X,Xx w t t t t t 2 2 t t t t t t w x z.S.S.z.rXvX(.Q.Q.Y.r.] >.y.r.>.;.>.p.Y.(.Q.(.&XY.r.1.u.u.u.u.2.1.I.(.I.H.n.s.8.%.Q I S M n x 3 2 2 9 ; % 9 9 9 8 9 9 9 ; < ; ; ; ; 9 9 0 0 0 0 w 9 9 w t t t t t t t t t t t t t t t t t t t t t t t t ; ; < < < < ; ; ; ; < < ; ; ; ; $ $ ; t t t t t t t t t t t t < %.F.S.p.1.1.1.1.1.1.1.i.K.vXZX6X6X6X6X6X6X6X6X6X6X6X6X6X6X6X6X6X9X`.K.I.I.I.H.>X6X6X6X6X6X6X6X6X6X6X9X).I.I.I.I.6XwX6X6X6X`.K.I.I.K.Y.9X6X9X9X*XK.Y.I.I.I.'.wX6X6X6X6X6X6X6X6X).I.I.I.I.I.6X6X6X6X6X6X6X6X9X>XI.I.Y.I.I.K.&X6XrXK $ t t t t t t ; j n.g.p.1.1.1.1.1.1.>.p.H.p.8XsX5X6X6X6X6XQ.H.I.H.K.K.S.`.6X6X6X6X6X6X6X(.D.I.I.I.I.I.I.I.I.I.D.`.rX6X6X6X6X6X`.I.K.(.9X6X6X6X6X6X6X6X6X6X6X6X6X'.I.I.6X6X6X6X6X6X>XK.I.I.I.Y.K.K.Y.K.K.>XrX6X6X6X9X`.K.I.I.D.>X6X6X6X6X6X6X6X6X6X9X(.S.K.Q.6X6X6X6X6X6X6X|.:.< i 9 ) D.B.B.B.B.B.c.S.p.>.| BXFX*X`.9X6X6X6X6X6X9XI.K.I.K.K.K.K.Q.>X6X6X6X6X6X6X6X6X6X6X6X",
"6X6X6X9X5X>X5X6X6X6X6X6X6X6X6X6XrX,XI.K.K.K.K.K.(.6XwX6X6X6X6XwX|.D.I.I.K.I.I.I.I.6X6XwX6X6X6X6X6X6X6X6X6X9XrX`.D.I.I.K.D.I.,X6X6X6X6X6X,Xx w t t t t t 2 t t t t t t t w a c.S.D.0XsXQ.(.].p.y.1.1.>.>.>.>.>.p.Q.Q.K.Q.Q.n.:.Q Y Y T P m g g g 6 4 4 , , , , 4 4 4 4 4 4 6 h j j j j j j j j j g g g g g g g g g g g g g g g c h h h 5 5 5 5 5 5 5 5 5 5 5 6 6 6 6 6 6 6 6 6 5 5 5 5 6 6 6 6 g g g g g c m I L L L K ) C w t t t e e t e t t t t < %.F.S.r.1.1.1.1.1.1.r.c.x.BXZX6X6X6X6X6X6X6X6X6X6X6X6X6X6X6X6X6X6X5XI.I.I.I.I.'.rX6X6X6X6X6X6X6X6X6X6X|.I.I.I.H.|.rX6X6X6X>XK.K.I.K.I.>X6X6X9X>XK.I.K.I.H.(.wX6X6X6X6X6X6X6XwX].I.I.I.I.I.6X6X6X6X6X6X6X6X9X9XI.I.I.I.I.K.`.6XrX) $ t t t t t t ; g n.g.S.r.1.1.1.1.>.>.y.j.p.>XrX6X6X6X6X6X|.I.K.K.K.K.H.I.6X6X6X6X6X6XwX`.K.I.I.I.I.I.I.I.I.I.D.`.9X6X6X6X6X9X'.K.K.Q.9X6X6X6X6X6X6X6X6X6X6X6X6X`.H.I.6X6X6X6X6X6X`.K.K.K.K.I.Y.K.Y.Y.H.Q.9X6X6X6X6X>XI.I.I.K.`.6X6X6X6X6X6X6X6X6X9XQ.H.H.`.rX6X6X6X6X6X6X).:.< i 9 ) K.z.B.B.S.S.S.S.c.] 6.MXFX*XQ.9X6X6X6X6X6X9X'.D.I.I.K.K.I.K.(.9X6X6X6X6X6X6X6X6X9X6X",
"6X6X6X6X6X9X9X6X6X6X6X6X6X6X6XwXrXQ.K.K.K.K.K.I.|.wX6X6X6X6X6X6XQ.D.I.I.I.I.I.K.(.9X6X6X6X6X6X6X6X6X6X6X6X6X9XI.S.K.I.K.D.>X9X6X6X6X6X6X,Xn w t t t t t 2 t t t t t t t w a r.S.0X>XQ.&XY.u.] ] >.>.>.>.r.r.K.`.'.).I.c.| ] :.%.5.8.8.8.0.m./././.$X$X#Xm.m.m.N.N.N.N.N.N.m./.2X1X1X1X1X1X1X1X1X1X1X1X1X1X1X1X1X1X1X1X1X1X1X1X4X4X4X4X2X/.b.m.m.m.m.m.m.m.m.U.=X<X<X<X<XQ.c.n.n.m.m.%X3X3X3X3X3X3X2XK.K.K.U.iXfX1XrXrXdXW.< t t t e e t t t t w t < %.F.c.r.1.1.1.1.1.>.y.S.c.BXZX6X6X6X6X6X6X6X6X6X6X6X6X6X6X6X6X6X6X6XQ.K.I.I.I.`.9X6X6X6X6X6X6X6X6X6X6X6XI.I.I.H.`.9X6X6X6X>XQ.K.I.I.K.>X9X6X9X>XK.I.K.I.I.(.6X6X6X6X6X6X6X6XwX].I.I.I.I.I.6X6X6X6X6X6X6X6X9X9XQ.K.I.Y.K.I.Q.6XrX) $ t t t t t t ; g n.g.S.t.1.1.1.1.1.1.>.y.c.>XrX6X6X6X6X6X6X(.K.I.I.I.K.K.'.rX6X6X6X6XrX|.I.I.I.I.I.I.I.I.I.I.K.(.9X6X6X6X6X6X>XK.K.I.9X6X6X6X6X6X6X6X6X6X6X6X6X(.H.(.6X6X6X6X6X6X`.K.K.K.I.I.K.I.K.Y.K.K.<X6X6X6X6X6X(.I.I.K.Q.6X6X6X6X6X6X6X6X6X>XI.K.H.>XrX6X6X6X6X6X6X(.:.< i 9 K K.z.B.B.S.S.S.S.S.r.| MXFX*XD.9X6X6X6X6X6X6X6XQ.K.I.K.K.K.I.K.`.9X6X6X6X6X6X6X6X9X6X",
"6X6X6X6X6X6X6X6X6X6X6X6X6X6X6XrX}.K.K.K.K.K.K.(.6X6X6X6X6X6X6X`.I.I.I.I.I.I.I.D.|.9X6X6X6X6X6X6X6X6X6X6X6XwX`.S.K.K.I.K.`.9X6X6X6X6X6X6X,Xn < t t t t t 2 2 t t t t t t 9 t n.qX5X^.(.n.' :.y.p.p.s.p.H.*X6X6X6X6X6X9X|.I.Q.Q.Q.Q.Y.I.I.T.qXsXrXrXrXsX>XI.I.I.I.I.I.I.I.I.S.Q.9XrXwX6X6X0X9X9X9X9X6X6XwXoX+X+X+X+X+X+X+X+X+X+X+X+X+X+X+XoXl.K.I.I.I.I.I.I.S.(.7XzX7X7X7XOXC.F.G.I.D.(.6X7X7X7X7X6X7X[.D.D.D.(.9X7XoXOXeXQ.w t t t t t t t t w t t < %.F.p.r.1.1.1.1.1.3.p.S.S.SXZX6X6X6X6X6X6X6X6X6X6X6X6X6X6X6X6X6X6X6X`.I.I.I.I.(.9X6X6X6X6X6X6X6X6X6X6X9X`.I.I.I.Q.9X6X6X6X6XQ.K.I.I.K.`.9X6X9X<XK.I.K.I.I.I.6X6X6X6X6X6X6X6XwX|.I.I.I.I.I.6X6X6X6X6X6X6X6X9X9XQ.K.I.I.K.K.I.|.rX) $ t t t t t t ; g n.S.S.S.r.>.1.1.1.1.,.3.p.>XrX6X6X6X6X6X6X>XI.I.I.I.K.K.Q.6XwX6X6X6XwX>XI.K.I.I.I.I.I.I.I.I.D.Q.9X6X6X6X6X6X5XI.I.I.9X6X6X6X6X6X6X6X6X6X6X6X6X(.H.(.wX6X6X6X6X6X`.K.K.Q.>X6XQ.K.U.K.Y.K.`.6X6X6X6X6X'.I.I.K.I.6X6X6X6X6X6X6X6X6X&XI.I.K.>XrX6X6X6X6X6X,XQ.5.< i 9 L D.B.B.B.B.S.S.S.B.t.| MXKX>XB.5X6X6X6X6X6X6X6X>XK.I.I.K.K.Y.K.I.>X9X6X6X6X6X6X6X6X6X",
"6X6X6X6X6X6X6X6X6X6X6X6X6X6XwX6XI.K.K.K.K.K.I.*X6X6X6X6X6X6X6XI.K.I.K.I.I.I.I.Q.6X6XwX6X6X6X6X6X6X6X6X6XwXwXI.H.K.K.K.Q.>X6X6X6X6X6X6X6X Xn w t t t t t 2 2 t t t t t t w t 8.a.Q D F t A r.I.T.T.T.I.(.9X9X6X6X6X6X6X|.K.K.H.K.K.K.H.H.I.8X0X9X6X6X9X'.D.D.K.I.I.I.I.I.I.S.Q.9X6X6X6X6X6X6X6X6X6X6X6X6X6X6X,X6X6X6X,X,X,X,X,X,X6X6X6X6X6X}.D.D.K.K.K.K.K.S.K.'.qX7X7X6X0X).B.I.H.H.K.'.9X9X6X6X8X9X*XK.Y.U.H.*XsX6XoX+X!.w t t t t e t t t w t t - %.D.t.r.1.1.1.1.1.3.p.S.S.SXZX6X6X6X6X6X6X6X6X6X6X6X6X6X6X6X6X6X6X6X>XI.I.I.I.Q.6X6X6X6X6X6X6X6X6X6X6X6X>XI.I.I.I.>XwX6X6X6X`.K.I.I.K.`.9X,X9X9XK.K.K.I.I.I.>X6X6X6X6X6X6X6XwX|.I.I.I.I.I.6X6X6X6X6X6X6X6X9X9X(.K.I.I.K.K.K..XrX) $ t t t t t t ; g n.S.S.S.p.6.>.,.,.>.3.3.1.>XrX6X6X6X6X6X6XwX`.I.I.I.I.K.I.>XwX6X6X6XwX6XI.K.I.I.I.I.I.I.I.I.K.Q.9X6X6X6X6X6X6XQ.K.K.5X6X6X6X6X6X6X6X6X6X6X6X6XQ.H.`.6X6X6X6X6X6X`.K.K.`.6X6X|.I.Y.I.I.K.I.6X6X6X6X6X6XI.I.I.I.>X6X6X6X6X6X6X6X6X(.I.Y.K.6X6X6X6X6X6X6X|.I.5.< i 9 H c.B.B.B.B.S.S.B.B.t.| mXKX8XB.'.6X6X6X6X6X6X6X6XQ.H.Y.I.K.K.Y.K.I.>X9X6X6X6X6X6X9X6X",
"6X6X6X6X6X6X6X6X6X6X6X6X6X6XrX`.K.K.K.K.K.K.Q.6X6X6X6X6X6XwX|.K.K.I.I.I.I.I.D.(.rX6XwX6X6X6X6X6X6X6X6X6XrX|.I.I.I.S.K.|.6X6X6X6X6X6X6X6X,Xn < t t t t t 2 2 t t t t t t t 2 > > - # % c 8.6.I.T.I.I.S.Q.9X6X6X6X6X6X6X|.K.K.K.I.I.I.I.I.`.9X9X9X6X6X9X'.D.K.I.I.I.I.I.I.I.D.).rX6X6X6X6X6X6X6X9X9X9X9X6X6X6X6X6X6X6X6X6X6X6X6X6X6X6X6X6X6X9XD.D.K.K.K.K.I.I.K.Q.qX7X7X6X0X>XD.K.K.I.I.(.9X9X6X6X6X9X9X^.K.K.K.I.5X6X6XeX^.t 3 t t t t e e t t t t # %.D.t.r.1.1.1.1.1.3.n.S.S.SXZX6X6X6X6X6X6X6X6X6X6X6X6X6X6X6X6X6X6X6X6XQ.I.I.I.I.>X6X6X6X6X6X6X6X6X6X6X6X9XI.S.I.I.`.wX6X6X6X|.I.I.I.K.Q.6X6X9X9XK.K.K.I.I.I.|.6X6X6X6X6X6X6XwX|.I.I.I.I.I.6X6X6X6X6X6X6X6X9X9X(.K.I.Y.I.K.K.).rXK $ t t t t t t ; g n.g.S.c.c.r.>.>.,.>.3.3.>.Q.rX6XwX6X6X6X6XwX6XQ.I.I.I.I.K.Q.6X6X6X6X6X9XQ.K.K.I.I.I.I.I.I.I.K.I.6X6X6X6X6X6X9X(.I.D.>X9X6X6X6X6X6X6X6X6X6X6X6XY.S.*X6X6X6X6X6X6X(.I.K.`.6X6X,X`.K.Y.K.K.S.>X6X6X6X6X6X(.I.I.I.>X6X6X6X6X6X6X6X6XQ.I.I.Q.9X6X6X6X6X6X6X`.I.8.< i w k z.S.B.B.S.S.S.B.z.z.| gXKX8XS.(.6X6X6X6X6X6X6X6X>XK.K.Y.I.K.K.K.K.(.>X6X6X6X6X6X6X6X",
"6X6X6X6X6X6X6X6X6X6X6X6X6XrX>XK.K.K.K.K.K.K.'.9X6X6X6X6X6XwX(.H.I.K.I.I.I.I.D.'.rX6XwX6X6X6X6X6X6X6X6X6X9XQ.D.I.I.D.).6XwX6X6X6X6X6X6X6X Xn < t t t t t 2 2 t t t t t t t t t i l < S 8.>.>.I.I.I.I.K.Q.9X6X7X6X6X6X7X5XK.K.K.K.I.I.I.K.*X9X9X6X6X6X9X`.D.K.I.I.I.I.I.I.I.K.).eX6X6X6X6X6X6X6X6X6X6X6X6X6X6X6X6X6X6X6X6X6X6X6X6X6X6X6X6X6X6X|.K.S.I.I.K.K.I.K.D.'.6X6X6X9XrX(.S.I.I.I.I.>X9X6X6X6X6X6X,XD.K.I.K.`.6X6XeX^.t < t t t t e t t t t t # %.D.t.r.1.1.1.1.1.y.S.S.S.SXZX6X6X6X6X6X6X6X6X6X6X6X6X6X6X6X6X6X6X6X6X(.I.I.I.I.>X6X6X6X6X6X6X6X6X6X6X6X9XQ.S.I.I.(.wX6X6XwX>XI.I.I.K.Q.,X6X6X9XK.I.K.I.I.H.'.9X6X6X6X6X6X6XwX|.I.I.I.I.I.6X6X6X6X6X6X6X6X6X9X`.K.I.I.I.K.K.G.rXK $ t t t t t t < g n.S.S.S.c.z.r.>.1.3.>.3.>.U.sX6X6X6X6X6X6X6X6X`.I.I.I.I.I.I.|.6X6X6X6X9XQ.D.K.I.I.I.I.I.I.K.K.I.6X6X6X6X6X6X9X(.K.D.>X9X6X6X6X6X6X6X6X6X6X6X6XI.S.>XwX6X6X6X6X6XQ.I.I.`.6X6X,X6X(.K.Y.K.S.!.6X6X6X6X6X|.I.I.I.`.6X6X6X6X6X6X9X>XI.I.I.Q.rX6X6X6X6X6XwX).Y.*.< i w k r.S.B.B.B.S.S.B.z.S.r.fXFX9XS.I.>X6X6X6X6X6X6X6X6X(.K.I.Y.I.K.I.Y.K.`.6X6X6X6X6X6X6X",
"6X6X6X6X6X6X6X6X6X6X6X6XrX,XI.K.K.H.I.I.I.K.6X6X6X6X6X6XwX6XD.K.I.I.K.I.I.K.I.6XrX6XwX6X6X6X6X6X6X6X6XrX>XI.I.K.I.I.,X6XwX6X6X6X6X6X6X>XG.n w t t t t t 2 2 t t t t t t t t t t > M S.r.>.1.I.I.I.I.K.(.9X6X6X6X6X6X6X5XK.I.K.K.I.I.I.I.9X9X6X6X6X6X9XQ.K.I.I.I.I.I.I.I.I.K.}.wXwX6X6X6X6X6X6X6X6X6X6X6X6X6X6X6X6X6X6X6X6X6X6X6X6X6X6X6X6X6X6X(.K.K.I.I.I.I.I.I.D.5X6X6X6XrX>XI.Y.I.I.I.Q.6XoX6X6X6X6XwX`.K.I.I.K.`.,X6X}.u < t t t t t t t w t t > %.D.r.>.1.1.1.3.1.t.S.z.D.SXZX6X6X6X6X6X6X6X6X6X6X6X6X6X6X6X6X6X6X6X6X'.I.I.I.I.5X9X6X6X6X6X9X9X6X6X6X6X9X`.S.I.I.Q.6X6X6X6X>XI.I.Y.I.I.>XwX6X9XQ.I.K.K.I.H.(.9X6X6X6X6X6X6XwXoXI.I.I.I.I.6X6X6X6X6X6X6X6X6X6X>XI.Y.I.I.K.K.G.rX) $ t t t t t t < g n.S.S.S.z.z.t.r.1.1.1.y.] U.sX6X6X6X6X6X6X6X6X,X(.D.K.I.I.K.Q.6X9X6X6X9X>XD.I.I.I.I.I.I.I.I.I.I.>XwX6X6X6X6X9X`.H.S.`.9X6X6X6X6X6X6X6X6X6X6X,XI.S.>XwX6X6X6X6X5XI.K.I.9X6X6X,X6X}.K.Y.Y.K.Q.9X6X6X6X6X XI.I.I.(.6X6X6X6X6X9X9X&XK.Y.K.`.6X6X6X6X6X6X9XQ.Y.*.< i w B ,.t.B.B.z.S.S.z.z.S.c.dXFXsXS.I.`.0X6X6X6X6X6X6X6X5XQ.K.Y.Y.K.I.Y.K.K.`.6X6X6X6X6X6X",
"6X6X6X6X6X6X6X6X6X6X6XrX9XQ.K.K.K.K.I.I.H.(.6X6X6X6X6X6XwX`.S.I.K.I.I.I.I.D.Q.9X6X6XwX6X6X6X6X6X6X6X6X9X`.I.I.I.D.`.6X6X6X6X6X6X6X6XrX!.D.n w t t t t t 2 t t t t t t t t t t < I x.c.6.>.3.I.Y.I.I.I.(.0X6X6X6X6X6X6XOXK.I.K.I.I.I.I.(.9X6X6X6X6X6X6XQ.H.I.I.I.I.I.K.I.I.I.|.wXwX6X6X6X6X6X6X6X6X6X9X9X9X9X6X6X6X6X6X6X6X6X6X6X6X6X6X9X6X6X6X,XD.I.Y.I.I.I.I.I.I.'.9X6XrX6X6X(.I.I.I.I.I.>X6X6X6X6X6XrX>XK.I.Y.I.I.|.6X:Xb < t e t t t t t w t t > %.D.r.>.1.1.1.3.1.t.S.B.D.SXZX6X6X6X6X6X6X6X6X6X6X6X6X6X6X6X6X6X6X6X6X5XI.H.I.D.>X9X6X6X6X6X9X6X6X6X6X9X9X*XD.I.I.I.,X6X6X6X6XY.I.I.I.I.&XrX,XrXQ.K.K.K.I.H.Q.9X6X6X6X6X6X6XwXoXI.I.I.I.I.6X6X6X6X6X6X6X6X6X6X>XI.Y.I.I.U.U.C.,X) $ t t t t t t < 6 n.S.S.B.z.z.z.r.>.1.1.y.` Y.1X|.6X,X6X6X6X6X6X6X|.D.D.I.I.I.I.|.9X6X6X6X6XI.K.I.I.K.I.I.I.I.I.D.>XwX6X6X6X6XrX*XK.S.Q.9X6X6X6X6X6X6X6X6X6X6X|.I.D.>XwX6X6X6X6X>XI.H.Q.9XwX6X6X6X>XI.K.Y.K.Q.6XoX6X6X6X6X(.I.I.(.6X6X6X6X6X6X6XQ.K.Y.I.|.6X6X6X6X6X6X9XI.Y.*.< i w B ,.r.t.z.B.S.c.S.c.S.z.sXKXsXS.I.(.6X6X6X6X6X6X6X6X6X>XK.K.Y.I.I.K.I.K.K.`.6X6X6X6X6X",
"6X6X6X6X6X6X6X6X6X6X6X0X(.K.K.K.K.K.I.I.K.>X6X6X6X6X6X6X6XI.K.K.K.I.I.I.I.D.).rX6X6X6X6X6X6X6X6X6X6X6X8XI.I.I.I.Q.6X6XwX6X6X6X6XrXrX>XD.W.F w t t t t t 2 2 t t t t t t t t < C m.B.S.r.>.1.I.Y.I.I.I.(.0X6X6X6X6X6X6X5XI.I.I.I.I.I.I.>X9X6X6X6X6X6X,XI.H.I.I.I.K.K.K.K.I.Y.>X6X6X6X6X6X6X6X6X6X6X6X6X6X6X6X6X6X6X6X6X6X6X6X6X9X9X9X9X9X6X6XwX6X).K.I.I.I.I.I.I.I.I.9X6XrX6X9X>XI.I.I.I.I.(.6X6X6X6X6X6XrX(.K.Y.I.I.I.OX:Xb < t w t e t t t t t t & %.A.r.>.1.1.1.>.1.B.S.B.D.SXZX6X6X6X6X6X6X6X6X6X6X6X6X6X6X6X6X6X6X6X6X9XQ.D.I.K.>X9X6X9X9X9X9X6X6X6X6X6X9X>XD.I.I.D.>X6X6X6X6X(.H.Y.I.Y.`.rX,XwX!.K.K.K.I.K.I.9X6X6X6X6X6X6X6X6XQ.I.I.I.I.5X6X6X6X6X6X6X6X6X6X6XQ.I.Y.I.U.U.D.>X) $ t t t t t t ; g n.S.S.B.B.z.B.p.r.>.1.y.` U.8XQ.rX6X6X6X6X6X6X6X6XQ.D.I.I.I.K.(.6X6X6X6X6X`.K.I.I.I.I.I.I.I.I.D.|.wX6X6X6X6XwX>XI.K.Q.6X6X6X6X6X6X6X6X6X6X6X`.I.D.>XwX6X6X6X6X>XI.H.Q.9XwX6X6X6X6XQ.H.Y.K.I.6X+X6X6X6XwX'.I.I.Q.,X6X6X6X6X9X>XI.I.Y.I.>X6X6X6X6X6X6X>XK.Y.*.< t w B ,.1.r.t.S.B.c.S.c.S.z.sXKXsXS.I.Q.5X6X6X6X6X6X6X6X6X6X`.K.I.Y.Y.I.K.Y.I.K.`.6X6X6X6X",
"6X6X6X6X6X6X6X6X6X6XrX'.K.K.K.K.K.K.I.K.Q.9X6X6X6X6X6X6X|.S.I.I.I.I.I.I.I.D.`.rX6X6X6X6X6X6X6X6X6X6X9X`.K.I.I.D.>XwX6X6X6X6X6X6XrX6XQ.D.W.F w t t t t t 2 2 t t t t t t t < S B.B.z.S.r.>.1.I.Y.I.I.I.(.9X6X6X6X6X6X6X5XI.I.I.I.I.I.Y.,XrX6X6X6X6X6X,XI.K.I.I.I.K.K.K.I.K.Y.,X6X6X6X6X6X6X6X6X9X6X6X6X6X6X9X6X6X6X6X6X6X6X6X9X9X9X9X9X9X6X6X6X6X6XI.H.I.I.I.I.I.I.I.>XwX6X6XrX6X(.I.I.I.Y.I.>X6X6X6X6X6XrX,XI.I.I.I.H.(.:XZ < t w t e t t t t t t # %.A.] 1.1.1.1.>.y.B.S.B.D.SXZX6X6X6X6X6X6X6X6X6X6X6X6X6X6X6X6X6X6X6X9X9X`.D.I.K.'.9X6X9X9X9X6X6X6X6X6X6X6X6XI.I.I.S.'.wX6X6X6X(.H.Y.Y.I.Q.9X,XwX`.K.K.K.I.K.I.>X6X6X6X6X6X6X6X6X(.I.I.I.I.5X9X6X6X6X6X6X6X6X6X6X`.K.Y.I.Y.U.D.`.K $ t t t t t t ; g n.B.S.S.B.B.B.S.p.6.>.y.` H.iXS.>XwX6X6X6X6X6X6X6X|.D.I.I.I.I.I.>X9X6X6XwX>XI.I.I.I.I.I.I.I.I.D.`.wX6X6X6X6XwX6XQ.K.K.>XwX6X6X6X6X6X6X6X6X6X`.K.D.>XwX6X6X6X6X*XK.H.`.rX6X6X6X6XrX`.H.Y.I.I.6X+X6X6X6XwX>XI.I.I.>X6X6X6X6X9X*XK.Y.I.I.6X6X6X6X6X6XwX*XS.Y.%.< i w c 8.1.>.t.S.B.z.S.S.S.z.aXKXsXS.I.D.>X9X6X6X6X6X6X6X6X6X6XQ.K.Y.I.I.I.Y.Y.I.I.`.6X6X9X",
"6X6X6X6X6X6X6X6X6XrX>XD.K.K.K.K.K.K.I.K.&X9X6X6X6X6X6X9XQ.H.I.I.I.I.I.I.I.D.>X9X6X6X6X6X6X6X6X6X6X9X5XI.I.I.K.(.9X6X6X6X6X6X6X,XwX}.D.K.W.F 9 t t t t t 2 2 t t t t t t < S C.z.z.B.S.r.>.3.I.Y.I.I.I.(.0X6X6X6X6X6X6X5XI.I.I.I.I.K.`.rX6X6X6X6X6X6X>XK.K.I.I.I.K.K.K.K.K.Y.6X6X6X6X6X6X6X6X9X9X9X9X6X6X9X9X9X6X6X9X6X6X9X9X9X9X6X6X6X6X6X6X6X6XwX`.S.I.I.I.I.I.I.H.(.rX6X6X6XrX*XS.I.I.I.I.(.6X6X6X6X6X6XrX(.K.I.I.I.I.%XZ < t w t t t t t t t t $ %.S.] 1.1.1.3.>.t.S.S.B.D.SXZX6X6X6X6X6X6X6X6X6X6X6X6X6X6X6X6X6X6X6X6X9X>XI.I.K.`.6X6X6X9X9X9X6X6X6X6X6X6X6XQ.K.I.S.`.9X6X6X6X*XK.Y.Y.I.Q.9X,XwX`.K.I.K.I.I.I.*X6X6X6X6X6X6X6XwX).I.I.I.I.5X9X6X6X6X6X6X6X6X6X6X|.I.Y.I.Y.U.D.Q.K $ t t t t t t 0 6 c.B.S.S.B.B.B.B.c.r.>.y._ H.iXS.(.6X6X6X6X6X6X6X6X9XQ.I.I.I.I.K.(.6X6X6X6X6XI.K.I.I.I.I.I.I.I.D.`.wX6X6X6X6X6X9X(.K.I.`.wX6X6X6X6X6X6X6X6X6XQ.H.I.6X6X6X6X6X6X`.K.H.`.rX6XwX,X,XrX:XK.Y.I.I.6X+X6X6X6X6X6XQ.I.I.|.6X6X6X6X9X(.K.Y.I.Q.9X6X6X6X6X6XwX(.S.Y.%.> t w c 8.1.;.1.p.S.B.S.S.S.z.aXKXgXH.I.I.`.9X6X6X6X6X6X6X6X6X9X>XK.I.I.I.I.Y.Y.Y.I.D.`.6X9X",
"6X6X6X6X6X6X6X6X9X>XQ.K.K.K.K.K.K.K.I.K.>XrX6X6X6X6X6X>XD.I.I.I.I.I.I.I.I.D.6X9X6X6X6X6X6X6X6X6X6X9X'.K.I.K.D.5X9X6X6X6X6X6X6X6X6XQ.D.K.W.D 9 t t t t t 2 2 t t t t t < V K.B.B.B.S.S.r.>.>.P.Y.I.I.K.(.0X6X6X6X6X6X6X>XI.I.I.I.Y.K.>XrX6X6X6X6X6X9X>XK.K.I.I.I.K.K.K.K.K.Q.6X6X6X6X6X6X6X6X9X9X9X9X9X9X6X6X6X6X6X6X6X6X6X6X9X9X6X6X6X6X6X6X6X6XwX6XI.K.Y.I.I.I.Y.I.I.5X6X6X6X9X5XI.I.I.I.Y.I.|.6X6X6X6X6X9X9XQ.K.I.I.I.U.Z < t w t t t t t t t t $ %.h.] 1.1.1.,.r.c.S.B.B.D.SXZX6X6X6X6X6X6X6X6X6X6X6X6X6X6X6X6X6X6X6X6X9X9XQ.I.K.`.6X6X6X9X9X6X6X6X6X6X6X6XwX`.H.I.K.Q.6X6X6X6X>XK.I.Y.Y.K.,X,XwX}.K.K.K.I.I.I.(.9X6X6X6X6X6X6XwX`.I.I.I.I.>XrX6X6X6X6X6X6X6X6X6X>XQ.I.I.Y.U.K.Q.L $ t t t t t t 0 g c.B.S.S.B.B.B.B.S.t.1.3.` H.0XS.I.`.9X6XwX6X6X6X6XeX'.K.I.I.I.I.I.>XwX6X6X6X`.D.I.I.I.I.I.I.I.D.Q.6X6X6X6X6X6X9X`.K.I.(.6X6X6X6X6X6X6X6X6X6XQ.H.I.6X6X6X6X6X6X(.I.H.}.9X6XwX,X,XrX>XK.Y.I.I.6X+X6X6X6X6XwX(.Y.I.`.6X6X6X6X9XQ.K.Y.K.(.9X6X6X6X6X6X6XQ.S.Y.%.> t w c 8.1.>.>.r.S.S.S.S.S.z.rXKXgXK.I.I.Q.5X6X6X6X6X6X6X6X6X6X9XQ.K.Y.I.I.I.I.I.I.K.D.`.9X",
"6X6XwX6X6XwXwX6X`.K.D.K.K.K.K.K.K.K.K.Q.9X6X6X6X6X6X9X`.D.I.K.I.I.I.I.I.I.I.9X9X9X6X6X9X6X6X6X6X6X6XQ.I.Q.S.`.9X6X6X6X6X6X6X6XrX`.D.K.K.W.D w t t t t t t t t t t 2 < V n.B.z.B.B.S.S.r.>.>.P.Y.I.I.K.`.9X6X6X6X6X6XwX|.I.I.K.I.Y.I.9X6X6X6X6X6X6XwX|.K.K.I.I.I.K.K.K.I.K.(.wX6X6X6X6X6X6X6X9X9X9X9X6X9X7X6X6X6X6X6X6X6X6X6X6X6X6X6X6X6X6X6X9X6X6XrX*XK.I.I.I.I.Y.I.D.'.6X6X6X6X0X(.I.I.I.Y.I.).6X6X6X6X9X6X0X*XK.I.I.I.U.F < t t t t e e e t t t # %.t.] 1.1.1.,.y.c.S.S.B.S.SXZX6X6X6X6X6X6XrX6X6X6X6X6X6X6X6X6X6X6X6X6X6X9XQ.K.K.(.6X6X9X6X6X6X6X6X6X6X6X6XwX'.H.I.K.Q.6X6X6X6X5XI.I.Y.Y.K.>X,XwX|.K.K.K.I.I.I.Q.6X6X6X6X6X6X6XwX'.I.I.I.A.'.eX6X6X6X6X6X6X6X6X6X,XQ.K.I.I.I.H.Q.L $ t t t t t t 0 h c.l.B.S.S.B.B.z.B.S.r.1.;.H.0Xc.H.I.6X6XwX6X6X6X6XwX>XK.I.I.K.Y.K.`.6X6X6X6X>XI.I.I.I.I.I.I.I.K.Q.6X6X6X6X6X6X9X'.K.I.Q.,X6X6X6X6X6X6X6X6X,XD.H.I.6XwX6X6X6X6X(.H.K.>XrX6X6X,X6X9X,XK.I.I.I.6X+X6X6X6X6XwX(.H.K.|.6X6X6XrX,XI.I.Y.I.`.rX6X6X6X6X6X,XI.H.Y.%.> t w s ,.1.1.>.1.z.S.c.S.S.z.rXLXvXI.I.I.I.>X9X6X6X6X6X6X6X6X6X6X9XI.I.I.I.I.I.K.K.I.K.S.Q.",
"I.`.6X6X6XwX,X).I.I.K.K.K.K.K.K.K.K.K.`.rX6X6X6X6X6X6X`.D.K.K.I.I.I.I.I.I.Q.9X6X6X6X6X6X6X6X6X6X9X*XK.I.I.I.,X6X6X6X6X6X6X6XwX,XH.K.K.K.W.G w t t t t t t t t t t < S C.B.z.B.B.B.S.S.r.,.>.P.Y.K.I.K.`.9X6X6X6X6X6XwX|.I.I.K.I.I.Q.9X6X6X6X6X6X6X6X`.K.K.I.I.I.K.K.K.I.K.(.6X6X6X6X6X6X6X6X6X6X9X9X6X9X7X6X6X6X6X6X6X6X6X6X6X6X6X6X6X6X9X6X9X6X6XwX9XQ.I.I.I.I.I.I.K.Q.6X6X6X6XrX>XI.I.Y.I.I.I.5X6X6X6X9X9X6X6X(.I.I.I.U.F < t t t t t t e t t t # %.X.] 1.1.1.3.p.S.S.S.B.S.SXZX6X6X6X6X6X,X}.,XwX,X6X6X6X6X6X6X6X6X6X6X6X9X`.K.K.Q.6X9X9X6X9X6X6X6X6X6X6X6XwX|.H.I.I.I.>X6X6X6X9XI.K.Y.Y.K.}.6XwX>XK.K.K.I.I.I.I.>X6X6X6X6X6X6XwX>XI.I.I.A.`.6X6X6X6X6X6X6X6X6X6X6X).I.I.I.I.H.%XL $ t t t t t t 0 h c.l.B.B.B.B.B.B.B.S.t.r.;.H.0Xc.I.I.`.6X6XwX6X6X6X6X6XQ.K.Y.K.Y.Y.Q.6X6X6X6X6XQ.K.I.I.I.I.I.I.K.I.,X6X6X6X6X6X9X|.K.I.I.>X6X6X6X6X6X6X6X6X>XD.H.D.6X6X6X6X6X6XI.H.I.,X9X6X6X6X6X6X>XK.I.I.I.6X+X6X6X6X6XwX*XH.K.|.6X6X6X6X>XD.I.I.I.>XrX6X6X6X6X6X>XI.H.Y.%.> t w s ,.1.1.>.>.r.S.S.c.S.z.rXLXvXI.I.I.K.`.6X6X6X6X6X6X6X6X6X6XwX|.K.I.I.I.I.I.I.I.I.I.D.",
"K.I.Y.`.`.`.Q.K.I.I.I.I.K.K.K.K.K.K.I.>X9X6X6X6X6X6X6X(.K.I.I.I.I.I.I.I.Y.Q.9X6X9X9X6X6X6X6X6X6X6XQ.H.I.D.>XrX,X6X6X6X6X6X6XrXQ.H.K.K.K.Q.+.$ t w t t t 2 t t t < M b.S.B.B.B.B.B.S.S.r.3.>.P.Q.K.I.K.&X9X6X6X6X6X6XwX|.I.I.I.I.K.>X9X6X6X6X6X6X6X9X`.K.I.I.I.I.K.K.K.I.D.`.6X6X6X6X6X6X6X6X6X6X6X9X9X6X6X6X6X6X6X6X6X6X6X6X6X6X9X9X9X9X6X9X9X9X6X6XrX'.K.I.I.I.I.I.I.I.*X9X6X9X6X9X(.I.Y.I.I.I.'.6X6X6X9X6X6X9X>XI.I.I.U.F < t t t t t t e t t t < %.X.] 1.3.3.r.c.S.S.B.B.S.SXZX6X6X9X9X9XQ.D.I.`.,X,X,X6X6X6X6X6X6X6X6X6X9X`.Y.P.Q.6X9X9X9X9X9X9X6X6X6X6X6XwX>XH.Y.I.I.>X6X6X9X9XQ.K.I.Y.K.`.9XwX>XK.I.K.I.I.I.I.`.6X6X6X6X6X6X6X>XI.I.I.S.(.9X6X6X6X6X6X6X6X6X6X6X`.D.I.I.I.I.;XL : t t t t t t 0 5 x.l.B.S.S.S.S.S.S.B.S.p.] p.fXS.I.I.D.>X6X6X6X6X6X6X6X`.H.Y.K.Y.Y.I.>X6X6X6X6X`.K.I.I.I.I.I.I.I.K.|.9X6X6X6X6XrX>XI.I.I.'.6X6X6X6X6X6X9X9X>XD.D.D.6X6X6X6X6X>XI.H.Y.6X6X6X6X6X6X6X>XK.I.I.I.6X+X6X6X6X6XwX>XK.K.|.6X6X6X6X`.K.Y.I.I.>XrX6X6X6X6X9X>XK.H.Y.%.> t w a ,.1.1.1.>.r.p.S.S.S.z.9XLXvXI.I.I.I.(.6X6X6X6X6X6X6X6X6X6X6X9X`.K.I.I.I.I.I.I.I.I.I.",
"I.I.K.K.K.K.D.K.I.I.I.I.I.K.K.K.I.K.Q.9X6X6X6X6X6X6X6XI.K.I.I.I.I.I.I.I.I.(.6X6X9X9X6X6X6X6X6X6X>XD.I.K.Q.9XrX,X6X6X6X6X6XrX`.D.K.K.K.K.<X#.$ t w t t t t t t < m 5.z.B.B.B.B.B.B.S.S.r.3.>.U.%XK.K.K.&X9X6X6X6X6X6XwX|.I.I.I.I.K.6X6X6X6X6X6X6X6X9X(.K.I.I.I.I.I.I.K.K.D.|.6X6X6X6X6X6X6X6X6X6X9X0X9X6X>X|.'.(.Q.(.`.6X6X6X6X6X6X6X6X6X9X6X9X9X6X6XwX6XI.I.I.I.I.I.I.I.(.9X6X6X6XrX>XI.I.I.I.I.I.6X6X6X9X6X6X6X9X`.I.I.U.F < t t t t t t e t t t < $...>.>.>.3.r.S.S.S.B.B.D.SXZX6X6X6X9X`.D.I.I.I.Q.>X6X6X6X6X6X6X6X6X6X6XrX|.Y.Y.Y.6X9X9X9X9X9X9X6X6X6X6X6X6X6XK.Y.Y.K.'.6X6X6X9X`.K.I.I.K.Q.9XwX>XK.I.K.I.I.I.K.Q.6X6X6X6X6X6X6X5XI.I.I.S.(.6X6X6X6X6X6X6X6X6X6X6X|.G.I.I.I.I.Y.L : t t t t t t 0 5 x.l.z.S.S.S.S.S.S.B.z.H.>.i.sXD.I.I.D.`.6X6X6X6X6X6X6X|.K.Y.I.Y.Y.I.`.6X6X6X6X>XI.K.I.I.I.I.I.I.K.'.9X6X6X6X6XwX>XI.I.I.`.6X6X6X6X6X6X6X9X`.S.D.D.6X6X6X6X6X>XD.H.Q.6X6X6X6X6X6X6X>XK.I.I.I.6XoX6X6X6X6X6X>XK.K.|.6X6X6X6XQ.H.Y.I.I.5XrX6X6X6X6X9X`.S.K.Y.%.< t w a ,.1.1.1.1.>.r.S.c.S.b.9XLXvXI.I.I.I.I.5X6X6X6X6X6X6X6X6X6X6X6X6XQ.K.I.I.I.I.I.I.I.I.",
"I.I.I.I.K.K.K.K.K.K.K.K.K.K.K.I.I.K.}.9X6X6X6X6X6X6X>XK.I.I.I.I.I.I.I.I.Y.`.6X6X6X6X6X6X6X6X6X6X`.D.I.K.*X6X6X6X6X6X6X6XwX6XI.I.K.K.K.Q.sX#.$ t w t t t t t < M 5.| l.B.B.B.B.B.z.S.S.r.3.>.U.%XK.I.D.*X9X6X6X6X6X6X9X|.I.I.I.I.Q.rX6X6X6X6X6X6X6X9XQ.K.I.I.I.I.I.K.K.K.K.>X9X6X6X6X6X6X9X6X6X6X9X0X0X5X*XQ.S.I.H.S.S.Q.>X6X6X6X6X6X6X6X9X9X9X9X6X6X6X9X`.K.Y.I.I.I.Y.I.I.>X6X6X6X9X6XI.I.I.I.Y.A.'.9X6X6X6X6X6X6X6XQ.D.Y.F < t w t w t t t t t t < $...>.>.>.>.t.S.S.S.B.B.D.SXZX6X6X6X>XD.D.K.K.K.K.D.`.,X6X6X6X6X6X6X6X6XrX,XY.Y.Y.,X9X6X6X6X6X6X6X6X6X6X6X6X6XI.Y.Y.H.(.6X6X6XrX`.K.I.I.K.Q.9XrX>XI.I.K.I.I.I.I.Q.9X6X6X6X6X6X6X6XI.I.I.S.Q.6X6X6X6X6X6X6X6X6X6X6X XQ.I.I.I.I.Q.L : t t t t t t 0 5 c.l.c.S.S.S.S.S.S.B.t.H.r.r.0XD.I.K.I.I.>X6X6X6X6X6X6X,XY.H.Y.Y.K.I.Q.6X6X6X6X9X(.K.I.I.I.I.I.I.K.`.9X6X6X6X6X9X6XI.K.I.Q.6X6X6X6X6X6X6X9X`.D.K.D.6X6X6X6X6X'.S.K.(.wX6X6X6X9X6X6X*XK.Y.I.Q.6X+X6X6X6X6X6X>XI.K.|.6X6X6X6XQ.K.Y.K.Q.6X6X6X6X6X6X6X(.D.K.Y.%.< i w a ,.1.>.1.1.] r.S.S.S.b.,XKXvXI.I.I.I.I.'.6X6X6X6X6X6X6X6X6X6X6X6X>XI.K.I.I.I.I.I.I.I.",
"I.I.I.I.I.I.I.I.I.I.I.I.K.K.I.I.K.I.,X9X6X6X9X6X6X6X`.K.I.I.I.I.I.I.I.I.I.|.6X6X6X6X6X6X6X6X6X,XQ.K.K.Q.,X,XwX6X6X6X6X6XrX`.K.I.K.K.K.}.eX#.# t w t t t t ; b 3.,.y.S.S.S.S.S.S.c.S.S.r.,.>.H.%XK.I.D.>X9X6X6X6X6X6X9X|.I.I.I.D.'.rX6X6X6X6X6X6X9X>XD.K.K.K.K.I.I.I.I.I.Q.9X6X6X6X6X6X6X6X6X6X6X6X9X6X).I.I.I.I.I.I.I.I.I.>X6X6X6X6X9X9X9X9X9X9X6X6X6X9X9XI.K.Y.I.I.I.I.H.`.9X6X6XwX9X'.D.I.I.Y.I.(.9X9X6X6X6X6X6X6X>XI.U.F < t w t w w t t t t t < ~ ..>.>.>.r.c.S.S.S.B.B.D.ZXZX6X6X6X).S.K.K.K.K.K.K.D.Q.,X6X6X6X9X6X6X6X6X6XQ.U.Y.>XrX6X6X6X6X6X6X6X6X6X6X6X6XI.Y.Y.H.(.6X6X6XwX>XK.I.Y.K.Q.6XrX6XI.I.I.I.I.I.I.I.5X6X6X6X6X6XwX6XQ.I.I.H.I.9X6X6X6X6X6X6X6X6X6X6X6X`.I.I.I.I.Q.L : t t t t t t 0 5 c.l.S.S.c.c.c.c.S.S.S.S.z.c.lXI.I.I.I.I.>X6X6X6X6X6X6X6XQ.K.Y.U.K.Y.I.>X6X6X6X6X|.I.I.I.I.I.I.I.K.(.6X6X6X6X6X9X6XQ.H.I.I.|.wX6X6X6X6X6X9XQ.I.I.D.6X6X6X6X6X`.S.I.(.wX6X6X1X,X6X9X(.I.Y.I.(.6X+X6X6X6X6X6X8XI.K.|.6X6X6X,XK.K.Y.K.Q.6X6X6X6X6X6X,XD.K.K.Q.%.< i e a ,.1.>.1.1.>.>.c.S.D.z.:XFXBXQ.I.I.I.I.(.6X6X6X6X6X6X6X6X6X6X6X6X9X>XD.I.I.I.I.I.I.I.",
"I.I.I.I.I.I.I.I.I.I.I.I.K.K.I.K.D.Q.9X6X6X6X6X6X6X6XQ.K.I.I.I.I.I.I.I.I.I.>X6X6X6X6X6X6X6X6XrX>XD.K.I.>X6X6X6X6X6X6X,X6X,XQ.K.K.K.D.!.6XeX&.# t t t t t ; B ,.3.,.y.c.S.c.c.c.c.c.S.S.r.,.>.H.%XK.I.K.>X6X6X6X6X6X6XrX`.K.I.I.K.|.wX6X6X6X6X6X6X9X>XD.K.K.K.K.I.I.I.I.K.Q.9X6X6X6X6X6X9X6X6X6X6X6X9X(.S.I.I.I.I.I.I.I.I.I.I.>X6X6X6X6X6X9X6X6X9X6X6X6X6X9X`.K.Y.I.I.I.I.H.Q.6X6X6XwX6X5XD.I.I.I.I.I.'.9X6X6X6X6X6X6XwX'.Q.S < t w t t t t t t t t < Y ..>.>.>.t.S.S.B.B.S.B.D.ZXZX,XwX,XD.S.K.K.K.K.K.K.K.S.).6X6X6X6X6X6X6X6XrX%XY.U.>XrX6X6X6X6X6X6X6X6X6X6X6X6XQ.I.Y.H.(.6X6X6X6X>XD.I.I.I.I.,XwX6XI.K.I.I.I.I.I.K.*X6X6X6X6X6XwXwX(.I.I.K.I.5X6X6X6X6X6X6X6X6X6X6X6X|.I.I.I.I.Q.L : t t t t t t 0 5 c.l.S.S.S.S.S.S.c.S.S.S.z.z.sXK.I.I.I.K.`.6X6X6X6X6X6X6X(.K.Y.I.K.Y.I.>X6X6X6X6X6XQ.I.I.I.K.K.I.K.Q.6XwX6X6X6X6X6X(.H.I.I.`.6X6X6X6X6X6X9XQ.I.I.D.6X6X6X6X6X(.I.I.&XrX6X9X1X1X1X6XI.I.Y.I.(.6X+X6X6X6X6X6X8XI.K.>X6X6X6X,XK.I.Y.K.Q.6X6X6X6X6X6X>XD.I.I.Q.%.< i w a 8.r.1.1.1.1.>.r.S.S.z.}.KXZXQ.I.I.I.I.I.5X6X6X6X6X6X6X6X6X6X6X6X6X6X(.K.I.I.I.I.I.I.",
"I.I.I.I.I.I.I.I.I.I.I.I.K.K.I.K.D.`.9X6X6X6X6X6X6X,XI.K.I.I.I.I.I.I.I.I.Q.6X6X6X6X6X6X6X6X6X9X(.K.K.(.,X,X6X6X6X6X6X6X6XQ.K.I.K.K.D.|.rXeX&.# t t t t w M ,.2.1.y.y.S.S.c.c.c.S.c.c.c.6.,.>.H.%XH.I.I.6X6X6X6X6X6X6X9X`.K.I.I.I.6X6X6X6X6X6X6X6X9X>XD.K.K.K.K.I.I.I.I.K.`.6X6X6X6X6X6X9X6X9X6X6X0X(.S.I.I.I.I.I.I.I.I.I.Y.S.(.9X6X6X6X6X6X6X6X6X6X6X6X6X6X6XQ.K.I.I.I.I.I.I.>X9X6X6X6X6X(.D.I.I.Y.I.(.6X6X6X6X6X6X6X6X6X<XQ < u t t t t t t t t t < Y ..>.>.y.c.S.S.B.S.S.B.D.ZXZX6XwX`.D.K.K.K.K.K.K.K.K.K.D.`.9X6X6X6X6X6X6XrX&XU.U.&X9X6X6X6X6X6X6X6X6X6X6X6X6XQ.I.Y.K.I.6X6X6X6X6XD.K.I.I.I.>XwX6XI.I.I.I.I.I.I.H.`.6X6X6X6X6X6XwX`.I.I.I.D.>X6X6X6X6X6X6X6X6X6X6X6X|.Q.I.I.I.Q.L : t t t t t t 0 5 c.l.S.S.S.S.c.c.c.S.S.z.B.z.sXQ.I.I.I.K.(.6X6X6X6X6X6X6X(.H.Y.Y.H.Y.K.>XrX6X6X6X6X`.K.I.I.I.I.I.K.Y.>XwX6X6X6X6XrX`.K.I.I.(.6X6X6X6X6X6X5XI.I.I.Q.6X6X6X6X6XQ.I.I.&XrX6X9X6X6X9X>XI.Y.Y.I.`.6X+X6X6X6X6X6X5XI.K.>X6X6X6X>XK.I.Y.K.(.6X6X6X6X6X6X`.D.I.I.(.%.< i w a a.r.>.1.1.1.>.] c.S.z.:XFXZX`.I.I.I.I.I.'.6X6X6X6X6X6X6X6X6X6X6X6X6X,XI.I.I.I.I.I.I.",
"I.I.I.I.I.I.K.I.I.I.I.K.I.K.I.K.K.>X9X6X6X6X6X6X9X>XK.I.I.I.I.I.I.I.I.K.`.6XwX6X6X6X6X6X6X9X>XI.K.I.>X,XwX6X6X6X6X6X6X>XH.I.K.K.K.Q.6XwXeX&.# t t t t 9 :.y.1.1.>.p.H.S.S.c.c.S.c.D.c.6.3.>.H.%XH.P.Q.6X6X6X6X6X6X6XrX`.K.I.I.(.6X6X6X6X6X6X6X6X9X`.K.K.K.K.I.I.I.K.K.D.|.6X6X6X6X6X6X6X6X6X6X9X'.S.I.I.I.I.I.I.I.I.I.I.K.I.K.>X6X6X9X9X9X9X6X6X6X6X9X6X6X6X`.K.I.I.I.I.I.K.`.9X9X6X6X6X|.D.I.I.Y.I.I.*X9X6X6X6X6X6X6X6XsX^ & u t t t t t t t t t < Y { >.>.p.S.S.B.B.B.S.B.D.ZXZX6X,XQ.S.K.K.K.K.K.K.I.K.K.I.K.>X9X6X6X6X6X6XrX>XK.K.`.9X6X6X6X6X6X6X6X6X6X6X6X6XQ.K.Y.K.I.6X6X6X6X6XI.K.Y.I.K.>X6X6XQ.D.I.I.I.I.I.I.(.6X6X6X6X6X6X6X*XK.I.I.H.*XrX6X6X6X6X6X6X6X6X6X6XoX(.I.I.I.Q.L ; t t t t t t 9 5 c.C.S.c.c.c.S.S.c.S.S.z.S.B.fXQ.Y.I.I.I.I.5X6X6X6X6X6X6X&XH.Y.Y.H.Y.H.`.rX6X6X6X6X>XK.I.I.I.I.I.K.I.>XrX6X9X9X6XwX*XK.K.I.Q.5X6X6X6X6X6X|.I.I.H.Q.6X6X6XwX6XD.I.I.&XrX6X9X6X6X9X(.K.Y.Y.I.`.6X6X6X6X6X6X6X>XI.K.>X6X6X6X>XD.I.Y.K.(.6X6X6X6X6X6XQ.S.I.I.(.%.< i w t d.X.>.1.1.1.1.] u.D.z.:XFXZX>XH.I.I.I.I.(.6X6X6X6X6X6X6X6X6X6X6X6X6X6X`.K.I.I.I.I.I.",
"I.I.I.I.I.I.I.I.I.I.I.I.I.K.I.D.Q.9X9X6X6X6X6X6XwX`.K.I.I.I.I.I.I.I.I.I.|.6X6X6X6X6X6X6X6X9X&XK.K.Q.9X6XwX6X6X6X6X6X6XQ.H.I.K.K.K.>XrXwXrX&.# t t t t 9 %.y.1.1.>.p.H.S.S.c.c.S.c.c.c.>.,.>.n.%XH.P.`.6X6X6X6X6X6X6XrX^.K.I.K.`.wX6X6X6X6X6X6X6X9X`.K.K.K.K.I.I.I.I.K.D.>X6X6X6X6X6X6X6X6X6X9X9XQ.D.I.I.I.I.I.I.I.I.I.I.K.I.H.(.9X6X9X9X9X9X6X6X6X6X6X6X6X6X6XQ.H.I.I.I.I.K.I.8X6X6X6X6X6XQ.I.I.I.Y.I.(.6X6X6X6X6X6X9X6XrX*.& t t t t t w t t t t < Y ..>.r.c.c.S.B.B.B.S.B.D.ZXZX6X>XS.K.K.K.K.K.K.K.K.I.I.K.K.Q.9X9X9X9X6X6X9X>XI.K.(.9X6X6X6X6X6X6X6X6X6X6X6X6X(.K.I.K.I.,XwX6X6X6XQ.K.I.I.K.'.6X6X(.S.I.I.I.I.I.I.I.6X6X6X6X6X6XwX>XK.I.I.H.`.rX6X6X6X6X6X6X6X6X6X6X6X`.I.I.I.Q.L ; t t t t t t 0 5 c.C.S.S.c.c.c.c.S.S.S.S.S.B.sXQ.I.I.I.I.K.>X6X6X6X6X6X6X*XK.Y.Y.U.Y.H.`.rX6X6X6X9X6XD.I.I.I.I.I.I.K.`.rX6X6X6X6XwX>XI.K.I.I.|.6X6X6X6X6X`.I.I.S.Q.9X6X6X6X>XD.I.I.&XrX6X9X9X,X9XQ.I.Y.Y.I.`.6X6X6X6X6X6X6X>XI.K.>X6X6X6X>XD.I.Y.K.`.6X6X6X6X6X6XQ.H.I.I.(.%.< i e t m.X.>.1.1.1.1.1.1.S.c.:XFXDX>XS.I.I.I.I.I.6X6X6X6X6X6X6X6X6X6X6X6X6X6X6XQ.I.I.I.I.I.",
"I.I.I.I.I.I.I.I.I.I.I.I.I.I.I.D.`.9X6X6X6X6X6X6X6X(.K.I.I.I.I.I.I.I.I.Q.>X6X6X6X6X6X6X6XwX9XQ.K.K.'.9X6X6X6X6X6X6X6X`.S.K.I.I.K.^.9X6XwXrX*.# t t t t 9 ~ y.1.3.>.p.S.S.S.c.c.z.c.S.p.>.3.>.s.%XH.K.`.wX6X6X6X6X6XwX9XQ.K.K.D.>XeX6X6X6X6X6X6X6X9XI.K.K.K.K.K.I.I.I.K.I.6X6X6X6X6X6X6X6X6X6X9X'.I.I.I.I.I.I.I.I.I.I.I.I.I.I.I.D.>X9X6X6X6X6X6X6X6X6X6X6X6X6X9X*XK.K.I.I.I.I.I.*X9X6X6X6X6X'.I.I.I.I.I.I.*X6X6X6X6X6X9X6XrX5.& t t t w w w w t t t < Y { ] p.S.c.S.B.B.B.S.B.D.ZXZX9XQ.K.K.K.K.K.K.K.K.K.I.I.K.I.I.>X9X6X6X6X6X6X6XI.I.Q.6XwX6X6X6X6X6X6X6X6X6X6X6X).K.I.K.I.|.6X6X6X9XQ.K.I.I.K.`.6XwX(.S.I.I.I.I.I.I.I.|.6X6X6X6X6XwX5XK.I.I.H.(.wX6X6X6X6X6X6X6X6X6X6X6X>XI.I.I.Q.L ; t t t t t t 0 5 c.C.c.c.c.c.c.c.c.z.S.S.S.z.sXQ.K.I.I.I.H.>X6X6X6X6X6X6X*XK.Y.Y.K.Y.H.`.rX6X6X6X9X9XQ.K.I.I.I.I.I.K.`.rX9X6X6X6XwX>XI.H.I.I.`.6X6X6X6X6X`.I.I.S.(.9X6X6X6X|.D.I.I.*XrX6XrX6XrX>XK.I.I.I.K.'.6X6X6X6X6X6XwX>XK.K.>X6X6X6X6XD.I.I.K.`.wX6X6X6X6X6XI.I.I.I.(.:.< i t t b.l.1.>.1.1.1.1.>.p.c.&XFXDXrXD.I.I.I.I.I.>X6X6X6X6X6X6X6X6X6X6X6X6X6X6X`.I.I.I.I.I.",
"I.I.I.I.I.I.I.I.I.I.I.I.I.I.I.D.|.9X6X6X6X6X6X9X,XI.K.I.I.I.I.I.I.I.K.(.6X6X6X6X6X6X6X6XrX>XK.H.Q.9X6X6X9X6X9X6XrX>XD.S.K.I.I.I.,XrX6X6XrX*.# t t t t 9 E y.,.>.6.c.S.S.S.c.c.z.z.S.p.>.y.>.p.-XH.I.|.wX6X6X6X6X6XwX9XQ.K.K.I.5X6X6X6X6X6X6X6X6X6XD.K.K.K.K.K.K.I.I.H.Q.9X6X6X6X6X6X6X6X6X6X5XI.I.I.I.I.I.I.I.I.I.I.I.I.I.I.I.S.`.9X6X6X6X6X6X6X9X6X6X6X6X6X6X,XQ.K.I.I.I.I.K.(.9X6X6X6X6X>XI.I.I.I.I.H.(.6X6X6X6X6X6X6XaXb.> t t t t w t w t t t < Y { r.p.S.c.S.S.S.B.S.B.D.AXAX`.K.I.K.K.K.K.K.K.K.K.I.I.I.I.K.`.9X6X6X6X6X6X6XQ.K.I.>XwX6X6X6X6X6X6X6X6X6X6X6X`.H.Y.K.I.|.6X6X6X9X(.K.I.Y.K.(.6XeX(.S.I.I.I.I.I.I.D.`.6X6X6X6X6XwX9XI.I.I.H.(.6X6X6X6X6X6X6X6X6X6X6X6X6X(.H.I.Q.L ; t t t t t t 0 5 c.C.c.c.c.c.c.c.c.z.z.S.S.z.sX`.H.I.I.I.H.>X6X6X6X6X6X6X&XK.Y.Y.K.I.K.>XrX6X6X6X9X9X`.H.I.I.I.I.I.K.`.rX6X6X6X6X6X6XQ.K.I.I.Q.6X6X6X6X6XQ.K.I.S.`.9X6X6X6X`.D.K.K.>XwX6XrX6XrX>XK.I.I.I.H.|.6X6X6X6X6X6XwX>XK.K.>X6X6X6X9XQ.K.I.K.`.wX6X6X6XwX>XD.I.I.I.(.:.< i t t 0.C.r.>.1.1.1.1.>.r.c.&XAXDXdXK.K.I.I.I.I.`.6X6X6X6X6X6X6X9X6X9X6X6X6XoX>XI.I.I.I.I.",
"I.I.I.I.I.I.I.K.I.I.I.I.I.I.I.I.>X6X6X6X6X6X6X9X>XK.I.I.I.I.I.I.I.I.I.'.6X6X6X6X6X6X6X6X6XQ.H.H.>XrX1X9X6X9X6XrX9X(.S.K.K.I.I.`.rX6XwX6XeX*.# t w t t 9 W y.>.>.r.S.S.z.c.S.S.B.z.S.i.>.3.>.p.-XH.I.|.6X6X6X6X6X6XwX6XI.I.H.(.0X6X6X6X6X6X6X6X6X6XD.K.K.K.K.K.I.I.I.H.(.wX6X6X6X6X6X6X6X6X6X).I.I.I.I.I.I.I.I.I.I.I.I.I.I.I.I.K.Q.9X6X6X9X9X6X6X9X9X9X9X6X6X6X6X`.K.I.I.I.I.K.I.5X6X6X6X6X6X(.I.I.I.I.I.I.*X6X6X6X6X6X6XsXb.- t t t w w t t t t 2 < Y { r.g.S.c.S.S.S.B.B.B.D.AXAXQ.K.I.H.K.K.K.K.K.K.K.I.I.I.I.K.Q.9X6X6X6X6X6XwX`.H.I.}.rX6X6X6X6X6X6X6X6X6X6X6X`.H.Y.I.I.|.6X6X6X6X`.H.I.Y.H.Q.6X0X`.S.I.I.I.I.I.I.D.(.6X6X6X6X6X6X6XQ.I.I.I.I.6X6X6X6X6X6X6X6X6X6X6X6X6X).H.K.;XL : t t t t t t 0 5 c.B.c.c.c.c.c.c.c.S.z.S.S.z.sX&XH.I.I.I.H.>X6X6X6X6X6X6X`.K.Y.I.K.I.K.>X9X6X6X6X9X9X(.H.Y.I.I.Y.I.K.`.9X9X6X6X6X6X9XQ.K.I.I.Q.,X6X6X6X,XQ.I.I.H.*X9X6X6X6X).D.I.I.>XwX6XrX6XrX`.K.I.I.I.K.|.6X6X6X6X6X6XwX>XK.K.>X6X6X6X9XQ.K.I.K.`.9X6X6X6XwX|.K.I.I.I.(.:.> t t 1 7.F.t.1.1.1.1.1.>.r.c.&XFXDXsXQ.I.I.I.I.I.Q.9X6X6X6X6X6X6X6X6X6X6X6X6X6X6XQ.I.I.I.I.",
"I.K.I.I.I.I.K.K.I.I.I.I.I.I.K.Q.6X6X6X6X6X6X6X9X`.K.I.I.I.I.I.I.I.I.Q.5X6X6X6X6X6X6X6X9X*XK.K.Q.9X9X6X6X9X9X6XrX'.I.K.K.K.K.K.6XwX6X6X6XeX=.# t w t t 9 L y.>.>.t.S.c.z.S.S.S.S.c.S.y.>.3.>.u.-XH.I.>X6X6X6X6X6X6XwX>XI.I.D.`.0X6X6X6X6X6X6X6X6X>XD.K.K.K.K.K.K.K.I.H.`.wX6X6X6X6X6X6X6X6X6XD.I.I.I.I.I.I.I.I.I.I.I.I.I.I.I.I.I.D.>X9X6X9X6X6X6X9X9X9X6X6X6X,X6X>XI.K.I.I.Y.I.K.'.9X6X6X6X6X'.I.I.I.I.I.I.Q.9X6X9X6X6X6XsXv.- t t t w w t t t t 2 < Y X.p.S.S.S.S.S.S.B.B.B.D.AXAXQ.H.Y.K.K.K.K.K.K.K.K.I.I.I.I.K.K.>X6X6X6X6X6XwX&XH.I.`.9X6X6X6X6X6X6X6X6X6X6X6X).D.Y.K.I.|.6X6X6XrX`.K.I.Y.K.Q.6X9X`.S.I.I.I.I.I.I.I.I.6X6X6X6X6X6X6X`.I.I.I.I.>X9X6X6X6X6X6X6X6X6X6X6X6X|.I.H.;XL ; t t t t t t 0 5 c.B.c.c.c.c.c.c.c.S.z.S.S.z.sX*XH.Y.I.I.I.5X6X6X6X6X6X6X(.K.I.I.I.I.I.6X9X6X6X6X6X9X>XI.I.I.Y.Y.I.K.`.9X9X6X9X6X6X9XQ.K.U.Y.K.>X9X6X6X>XY.Y.I.I.5X9X6X9X9XQ.K.I.I.<X6X6XrX6XrXQ.K.I.I.I.K.|.6X6X6X6X6X6XwX*XK.I.>X6X6X6X6X`.K.I.D.(.9X6X6X6XwX`.K.I.I.I.T.:.1 t t 1 5.C.z.r.>.1.1.1.1.1.p.&XFXDXdX`.I.I.I.I.I.I.5X6X6X6X6X6X6X6X6X6X6X6X6XoX6X`.K.I.I.I.",
"I.I.I.I.I.I.I.I.I.I.I.I.I.I.K.`.6X6X6X6X6X6X6X9XQ.K.I.K.I.I.I.I.I.K.(.6X6X6X6X6X6X6X6X9X`.S.I.|.9XrX6X6X6X6X9X>XI.I.I.K.K.S.`.rX6X6X6X6XeXa.# t w t t w H 6.>.>.c.S.c.c.c.c.S.S.c.S.y.>.3.>.y.-XS.I.,XoX6X6X6X6X6XwX>XI.I.D.>X0X6X6X6X6X6X6X6XeX'.K.K.K.K.K.K.K.K.I.H.`.wX6X6X6X6X6X6X6X6X|.D.I.I.I.I.I.I.I.I.I.I.I.I.I.I.I.I.I.K.(.9X9X9X9X6X6X6X6X9X9X6X6X6X6X6XQ.K.I.I.I.I.K.(.6X6X6X6X6X|.I.I.I.I.I.I.I.>X9X6X6X6X6XsXm.- t t t t t t t t t t * ~ h.H.S.S.S.S.S.S.B.S.B.D.AXAXQ.H.Y.H.U.K.K.Q.I.K.I.K.I.I.I.I.K.`.9X6X6X6X6XwX>XH.I.Q.9XwX6X6X6X6X6X6X6X6X6X6X}.D.Y.K.I.|.6X6X6XwX|.K.I.Y.I.I.6X9X`.I.I.I.I.I.I.I.I.I.>X6X6X6X6X6XwX`.H.I.I.I.>XrX6X6X6X6X6X6X6X6X6X6X6X6XY.H.%XL $ t t t t t t 0 5 c.B.H.S.c.S.c.c.S.S.S.S.S.X.9X>XH.I.I.H.(.9X6X6X6X6X6X XQ.K.I.I.I.K.Q.9X9X6X9X6X6X9X>XI.I.I.Y.Y.K.K.`.9X9X6X9X6X6X9XQ.K.U.Y.S.`.9X6X6X>XI.I.I.I.9X9X6X9X9XQ.K.I.I.9X6X6XrX6X9XG.K.I.K.K.K.>X6X6X6X6X6X6XwX&XH.I.6X6X6X6X6X>XK.I.S.Q.9X6X6X6XwX`.K.I.I.I.T.:.< t t < 5.B.z.t.] 1.1.1.1.1.r.*XAXDXdX`.I.I.I.I.I.I.'.0X6X6X6X6X6X6X9X9X6X6X6XoX6X|.I.I.I.I.",
"I.I.I.I.I.I.I.I.I.I.I.I.I.K.I.>XwX6X6X6X6X6X9X>XI.I.I.I.I.I.I.K.K.I.>X6X6X6X6X6X6X6X9X9XQ.K.Q.6X6XrX9X6X6X6X9X`.K.Y.I.K.K.K.6XwX6X6X6X6XeXa.# t w t t w m ,.>.r.S.x.c.c.c.c.c.S.S.S.y.>.3.>.y.-XS.Q.6X6X6X6X6X6X6XwX>XH.I.D.>X7X6X6X6X6X6X6X6X7X`.H.I.K.K.K.K.I.K.I.K.|.wX6X6X6X6X6X6X6X6X(.S.I.I.I.I.I.I.I.I.I.I.I.I.I.I.I.I.I.K.I.9X9X6X9X6X6X6X6X6X6X6X6X6X6X9X`.K.I.I.I.I.K.I.>X6X6X6X6X6X(.I.I.I.I.I.I.Q.8X6X6X6X6XrXm.# i t t t t t t t t t # $.A.H.S.S.S.S.S.S.S.S.B.I.ZXAXK.H.Y.U.K.K.>X9X|.K.K.Y.I.I.K.I.K.I.6X6X6X6X6X6X6XK.I.I.>XwX6X6X6X6X6X6X6X6X6X9X|.D.Y.K.I.|.6X6X6X6X|.K.I.Y.I.I.6X9X'.I.I.I.I.I.I.I.I.I.'.6X6X6X6X6XwX'.H.I.I.S.*XrX6X6X6X6X6X6X6X6X6X6X6X9XQ.H.%XL $ t w t t t t 0 5 c.B.H.S.S.S.c.c.S.S.S.S.S.X.9X<XH.I.I.H.*X9X6X6X6X6X6X XQ.K.I.K.I.D.(.9X6X6X9X9X6X9X5XI.I.I.I.I.I.H.`.9X9X6X9X6X6X9X(.K.U.U.S.`.9X6X6X`.K.I.K.Q.0X6X6X9X6XG.I.I.Q.9X6X6X6X6X,XD.K.I.K.K.I.>X6X6X6X6X6X6XwX`.H.I.9X6X6X6X6X,XK.K.S.(.9X6X6X6XrX`.K.K.I.I.Q.:.1 t t < 5.B.z.c.] 1.1.1.1.1.r.&XAXDXdX>XI.I.I.I.I.I.(.0X9X6X6X6X6X9X9X9X6X6X6X6X6X XI.I.I.I.",
"I.I.I.I.I.I.I.I.I.I.I.I.I.K.`.6X6X6X6X6X6X6X6X`.K.I.I.I.I.K.K.K.K.(.6X6X6X6X6X6X6X6XrX(.H.I.&X6X6XrX9X6X6X9X8XI.K.I.K.I.D.`.rX6X6X6X6X6XrXa.# t w t t w B 8.>.p.c.z.c.c.S.S.c.z.S.c.1.>.r.>.r.8XD.`.6X6X6X6X6X6X6XwX'.H.I.I.6X6X6X6X6X6X6X6X6X6XQ.H.I.K.K.K.K.I.I.I.K.>XwX6X6X6X6X6X6X6X6XQ.S.I.I.I.I.I.I.I.I.I.I.I.I.I.I.I.I.I.I.K.>X9X6X6X6X6X6X6X6X6X6X6X6X6X6X,XQ.H.I.I.I.I.I.`.6X6X6X6X6X'.I.I.I.I.I.I.K.'.6X6X6X6XrX/.# u t t t t t t t t t $ %.A.S.S.S.S.S.S.S.S.S.t.S.ZXZXI.K.Y.I.I.>XrX6XrX`.H.I.I.I.I.I.I.K.|.wX6X6X6X6X6XQ.I.I.`.9X6X6X6X6X6X6X6X6X6X6X|.D.I.I.I. XwX6X6XwX>XI.I.Y.I.K.>XrX}.H.I.I.I.I.I.I.I.I.`.6X6X6X6X6X9X>XI.I.I.H.`.9X6X6X6X6X6X6X6X6X6X6X6X9X`.K.Q.L ; t t t t t t 0 5 c.C.H.S.S.S.c.c.S.c.B.S.S...<X9XS.I.I.Q.9X6X6X6X6X6X6X|.I.I.I.I.I.D.>XrX6X6X9X6X6X9X5XI.I.I.I.I.I.H.`.rX6X6X6X6X6X9X`.K.K.K.S.Q.9X9X9X(.K.I.K.(.9X6X6X6X6XD.I.I.`.0X6X6X6X6X>XD.K.I.K.K.I.,X6X6X6X6X6X6X6X`.H.Q.9X6X6X6X6X9X(.K.I.(.9X6X6X6X9XQ.K.I.I.I.Q.:.1 i t < 5.B.z.S.r.1.1.1.1.1.1.Y.HXFXdX>XQ.K.I.I.I.I.I.6X6X6X6X6X6X9X9X9X6X6X6X6X6X6XY.I.I.I.",
"I.I.I.I.I.I.I.I.I.I.K.I.K.I.,XwX6X6X6X6X6X6X6XQ.K.I.I.I.I.K.K.K.K.*X6X6X6X6X6X6X6X6X6XI.I.I.,XwX6X9X6X6X6X9X`.K.I.K.I.I.K.>XrX6X6X6X6X6XrXa.# t w t t w c ,.r.c.c.z.c.c.S.S.c.z.S.p.1.>.r.>.r.8XD.}.6X6X6X6X6X6X6XwX`.H.I.Q.6X6X6X6X6X6X6X6X6X6XQ.H.I.K.K.K.K.I.I.I.I.>XwX6X6X6X6X6X6X6X6XI.A.I.I.I.I.I.I.I.I.I.I.I.I.I.I.I.I.I.I.D.).9X6X6X6X6X6X6X6X6X6X6X6X6X6X6X`.K.K.I.I.I.H.Q.6X6X6X6X6X6XQ.I.I.I.I.I.K.Q.5X6X6X6XrX^.> u t t t t t t t t t < %.D.S.S.S.S.S.S.S.K.H.r.p.ZXZXI.Y.Y.I.>XrX6X6X6X5XI.K.I.I.I.I.I.K.(.6X6X6X6X6X6XQ.K.I.I.6XwX6XwX6X6X6X6X6X6X6X|.D.I.I.I. XwX6X6XwX6XI.K.Y.Y.K.|.rX>XH.I.I.I.I.I.I.I.I.(.6X6X6X6X6X6X>XI.I.I.I.Q.9X6X6X6X6X6X6X6X6X6X6X6X6X,XK./.L : t t t t t t 0 5 c.B.S.S.S.S.c.c.c.c.B.B.S.6.<X9XS.Y.I.&X9X6X6X6X6X6X6X}.K.I.I.I.K.Q.9X9X9X6X6X6X6X9X>XI.I.I.I.I.I.H.`.rX6X6X6X6X6X9X`.K.K.K.D.Q.9X9X9XI.K.I.I.(.9X6X6X6X>XK.I.I.*X9X6X6X6X6X>XD.I.I.K.K.I.,X6X6X6X6X6X6X6X(.H.(.9X6X6X6X6X9X(.K.I.(.9X6X6X6X6XQ.K.K.I.K.Q.<.1 i t < 5.C.z.S.p.] 1.1.1.1.>.Y.HXFXjX6X(.K.Y.Y.I.I.K.'.6X6X6X6X6X6X6X9X6X6X6X6X6X6XQ.I.I.I.",
"I.I.I.K.I.I.I.I.I.I.I.I.D.`.6X6X6X6X6X6X6X6X>XI.K.I.I.I.I.K.K.K.I.5X6X6X6X6X6X6X6XrX`.I.I.(.6XwX6X6X6X6X6X,XI.K.I.K.I.D.Q.9XwX6X6X6X6X6XrXa.O t t t t w s :.p.x.c.z.S.c.S.S.S.c.S.p.1.1.r.>.r.8XD.|.6X6X6X6X6X6X6XwX(.I.I.).6X6X6X6X6X6X6X6X6X6XI.H.I.K.K.K.K.I.I.I.I.5XwX6X6X6X6X6X6X6X6XI.I.I.I.I.I.I.I.I.I.I.I.I.I.I.I.I.I.I.I.K.I.6X6X6X6X6X6X6X6X6X6X6X6X6X6X6X6XQ.K.I.I.I.I.I.>X6X6X6X6X6X).I.I.I.I.I.I.I.'.6X6X6XrX^.< u t t t t w w t t t < %.F.S.S.S.S.S.S.S.S.H.1.p.ZXZXQ.I.I.8XrX6X6X6X6X6X`.D.K.I.I.I.I.K.I.>X9X6X6X6X6X`.H.I.I.`.wX6X6X6X6X6X6X6X6X6X|.D.I.I.I. XwX6X6X6X6XQ.K.Y.Y.H.|.rX>XK.I.I.I.I.I.I.I.I.(.6X6X6X6X6X6X9XI.I.I.I.I.6XwX6X6X6X6X6X6X6X6X6X6X6X6XQ./.L $ t t t t t t 0 5 b.B.c.c.c.c.c.c.c.z.S.z.S.>.<X0XS.I.Q.9X6X6X6X6X6X6X6X`.K.I.I.I.D.'.rX9X9X6X6X6X6X9X>XH.I.I.I.I.I.I.'.rX6X6X6X6X6X9X`.K.K.K.K.W.9X9X>XH.I.I.I.(.9X6X6X6X>XH.I.I.5X6X6X6X6X6X|.D.I.I.K.K.Q.6X6X6X6X6X6X6X6XQ.H.`.9X6X6X6X6X9X'.I.I.Q.9X6X6X6X,XI.K.K.I.K.Q.8.1 t t < 5.D.z.S.H.1.1.1.1.1.] K.AXFXkX9X`.I.I.I.I.Y.I.(.6X6X6X6X6X6X6X6X6X6X6X6X6X6X(.I.I.I.",
"I.I.I.K.I.I.I.I.I.I.I.K.Q.,XwX6X6X6X6X6X6X6X'.I.I.I.I.I.I.K.I.K.(.6X6X6X6X6X6X6X6X9XI.K.I.>X6X6X6X6X6X6X9X`.K.I.K.K.I.D.>XrX6X6X6X6X6X6XrXa.# u w t t w a :.c.x.z.c.c.S.S.S.S.c.S.p.1.1.1.1.1.8XQ.,X,X6X6X6X6X6X6X6XQ.I.I.'.6X6X6X6X6X6X6X6X6X5XI.H.I.K.K.K.K.I.I.K.I.6X6X6X6X6X6X6X6X6X|.D.I.I.I.I.I.I.I.I.I.I.I.I.I.I.I.I.I.I.I.I.K.|.9X6X6X6X6X6X6X6X6X6X6X6X6X6X6X`.K.K.I.I.I.K.`.6X6X6X6XoX|.I.I.I.I.I.I.I.Q.6X6X6XrX^.< u t t t t w w t t t < %.F.S.S.S.S.S.S.S.p.r.] p.ZXZXQ.Y.>X9X6X6X6X6X6X6X5XQ.H.I.I.I.I.I.K.`.9X6X6X6X6X}.H.I.I.Q.,XwX6X6X6X6X6X6X6X6X|.I.I.I.I. X6X6X6X6X9XQ.K.Y.Y.H.`.9X>XK.K.I.I.I.I.I.I.I.Q.6X6X6X6X6X,X9XQ.K.I.I.I.|.rX6X6X6X6X6X6X6X6X6X6X6XrX*X/.V $ t t t t t t 0 5 b.B.c.c.c.c.c.c.c.B.B.S.c.-.>XsXH.I.<X9X6X6X6X6X6X6X,XQ.K.I.I.D.Q.6XrX9X9X6X6X6X6X9X'.S.I.I.I.I.I.I.|.wX6X6X6X6X9X9X&XD.K.K.K.K.>XrX`.H.I.I.I.I.6X6X6X6X'.I.I.I.6X6X6X6X6X9X`.D.I.I.K.H.Q.6X6X6X6X6X6X6X6XQ.H.`.9X6X6X6X6XrX>XI.D.Q.9X6X6XwX>XK.I.I.I.K.Q.8.1 t t < ^ D.z.S.H.u.>.1.1.1.] H.AXFXkX9X>XI.I.I.I.I.I.I.|.6X6X6X6X6X6X6X6X6X6X6X6X6X(.K.I.I.",
"I.I.I.I.I.I.I.I.I.I.I.D.`.9X6X6X6X6X6X6X6XwX).D.I.I.I.I.I.K.K.I.|.6X6X6X6X6X6X6X6X>XI.H.Q.9X6X6X6X6X6X6X6XI.K.I.K.I.H.Q.rXwX6X6X6X6X6X6XrXa.O u w t t w a 8.S.c.S.S.S.S.c.c.S.c.S.t.1.1.1.>.1.8X!.,X,X6X6X6X6X6X6X6XI.I.I.|.6X6X6X6X6X6X6X6X6X>XI.K.I.K.K.K.K.I.I.K.I.6X6X6X6X6X6X6X6X9X'.D.I.I.I.I.I.I.I.I.I.I.I.I.I.I.I.I.I.I.I.I.K.Q.9X6X6X6X6X6X6X6X6X6X6X6X6X6X6X,XQ.K.I.I.I.K.Q.,X9X6X6X6X6XQ.K.I.I.I.I.I.I.'.6X6XrX}.1 u t t t t t w t t t < %.F.B.S.S.S.S.S.S.r.1.] p.DXZXG.>XrX,X6X6X6X6X6X6X6X'.K.K.I.I.I.I.K.Q.9X6X6X6X6X>XK.I.I.K.`.rX6X6X6X6X6X6X6X6X|.I.I.I.I.|.6X6X6X6X9X(.K.I.Y.H.`.rX,XK.K.I.I.I.I.I.I.I.I.5X6X6X6X6X6X9X`.K.I.I.I.`.rX6X6X6X6X6X6X6X6X6X6X6X6X6XQ.V 9 t t t t t t 0 5 b.C.c.c.c.c.S.S.S.B.B.S.r.-.>XsXS.&XrX9X6X6X6X6X6X6X>XI.I.I.D.D.`.rX9X9X9X6X9X6X6X9X`.S.I.I.I.I.I.I.>XrX6X6X6X9X9X9X>XD.K.K.K.D.>X9X^.H.K.I.I.I.>XwX6X6X`.I.I.I.9X6X6X6X6X9X).D.I.I.I.H.(.9X6X6X6X6X6X6X5XY.H.*XrX6X6X6X6X9X5XQ.K.Q.9X6X6XwX}.D.I.I.I.K.Q.8.> i t < ^ D.z.S.H.j.1.1.1.1.] c.AXFXkX9X5XI.I.I.I.I.I.I.(.0X6X6X6X9X6X6X6X6X6X6X6X6X(.H.I.I.",
"I.I.I.K.I.I.I.I.I.I.K.'.6X6X6X6X6X6X6X6X6X6XQ.K.I.I.I.K.I.K.K.(.6X6X6X6X6X6X6X6X6XQ.I.S.'.9X6X6X6X6X6X9X`.D.I.K.K.I.H.`.rX6X6X6X6X6X6X6X6Xa.& u w w t w 1 8.D.z.S.S.S.S.c.S.S.S.S.r.1.1.1.1.] 8X,X6X,X6X6X6X6X6X6X>XI.I.I.5X6X6X6X6X6X6X6X6X9X>XD.I.I.K.K.K.K.I.I.K.I.9X6X6X6X6X6X6X6X9X'.D.I.I.I.I.I.I.I.I.I.I.I.I.I.I.I.I.I.I.I.I.I.I.6X6X6X6X6X6X6X6X6X6X6X6X6X6X6X6X`.K.I.I.I.I.I.>X9X6X6X6X6X`.D.I.I.I.I.I.I.Q.>X6X9X}.e u t t t w t w t t t * %.F.B.S.S.S.S.S.e.1.{ ] p.DXZX|.6X6X6X6X6X6X6X6X6X6X5X(.K.I.I.K.I.K.I.>X6X6X6XwX,XI.K.I.I.Q.,XwX6X6X6X6X6X6X6X,XI.I.I.I.|.6X6X6X6X9X`.K.I.Y.H.!.rX6XI.K.I.I.I.I.I.I.I.I.>X9X6X6X6X6X9X>XI.I.I.I.Q.9X6X6X6X6X6X6X6X6X6X6X6X6X6X&XV 9 t t t t t t 0 5 b.C.c.c.c.S.S.S.S.B.B.S.1.-.>XsXS.9X9X9X6X6X6X6X6X6X`.I.I.I.D.D.>XrX9X9X9X6X9X6X6X9X(.S.I.I.I.I.K.I.,XwX6X6X6X9X9X9X>XD.K.K.K.D.>X9XQ.I.K.I.I.H.`.6X6X6X(.I.I.`.6X6X6X6X6X9X!.D.I.I.I.S.(.rX6X6X6X6X6X6X>XI.H.>XrX6X6X6X6X6X6X(.K.Q.6X6X6XwX}.D.I.I.I.K.Q.0.> i t < ^ D.z.c.S.H.r.>.1.1.] p.AXFXvX6X9XQ.I.Y.I.I.I.I.Q.6X6X6X6X9X6X6X6X6X6X6X6X9X(.S.I.I.",
"I.I.I.K.I.K.K.K.H.K.(.6X6X6X6X6X6X6X6X6X6X`.D.I.I.I.I.I.K.I.D.*XrX6X6X6X6X6X6X9X`.I.I.D.>X9X6X6X6X6X6X6XQ.I.I.K.I.I.K.,XwX6X6X6X6X6X6X6X|.8.< u w w t w 1 8.D.z.z.S.c.S.c.c.c.S.c.] 1.1.1.1.] <XrX,X,X6X6X6X6X6X6X|.I.I.Q.6X6X6X6X6X6X6X6X6X6X>XD.I.I.K.K.K.K.I.I.K.Q.9X6X6X6X6X6X6X6X9X'.D.I.I.I.I.I.I.I.I.I.I.I.I.I.I.I.I.I.I.I.I.I.K.`.wX6X6X6X6X6X6X6X6X6X6X6X6X6X6X>XI.K.I.I.I.K.`.9X6X6X6X6X6XQ.K.I.I.I.I.I.I.`.6X6X|.a w t t t t t t t t t * %.F.B.S.S.S.S.t.1.1.1._ p.DXZXrX6X6X6X6X6X6X6X6X6X6X6X5XI.K.K.I.I.K.K.`.9X6X6X6X6XQ.K.I.I.I.:X9X6X6X6X6X6X6X6X,XI.I.I.I.|.6X6X6X6X9X`.K.I.Y.H.Q.rX6XI.K.I.I.I.I.I.I.I.K.|.9X6X6X6X6X6X6XI.D.I.I.I.6X9X6X6X6X6X6X6X6X6X6X6X6X6X<XV $ t t t t t t 0 5 b.C.S.c.c.c.S.S.B.S.B.t.>.-.&XkX`.9XrX9X6X6X6X,XwX9XK.K.I.I.D.`.9X9X9X9X6X6X9X6X9X6XQ.S.I.I.I.I.K.I.6XwX9X6X6X9X9X9X>XD.K.K.K.D.>X9XK.Y.K.I.I.H.(.6X6X6XQ.I.I.5X6X6X6X6X6XrX!.D.I.I.I.S.`.rX6X6X6X6X6X6X>XK.H.>XrX6X6X6X6X6X6X`.D.I.6X6X6XrX}.D.I.I.I.K.&X0.> i t 9 ^ D.z.c.c.S.r.] >.1.] i.SXFXvX6X0X`.K.Y.I.I.I.I.I.'.0X6X6X6X6X6X9X9X6X6X6X0X`.S.I.I.",
"I.I.I.I.K.K.K.H.I.'.6X6X6X6X6X6X6X6X6X6X,XI.I.I.I.I.I.I.K.I.I.6XwX6X6X6X6X6X6X>XI.I.I.Q.6X6X6X6X6X6X6X|.D.I.I.K.I.K.Q.rX6X6X6X6X6X6X9X|.(.8.* i t w t w 1 8.D.z.c.c.c.c.c.c.c.S.c.] 1.1.1.1.] <XrX,X,X6X6X6X6X6X6X`.I.I.(.6XoX6X6X6X6X6X6X6X6X*XK.I.K.K.K.K.K.I.I.K.Q.9X6X6X6X6X6X6X6X9X'.D.I.I.I.I.I.I.I.I.I.I.I.I.I.I.I.I.I.I.I.I.I.H.Q.6X6X6X6X6X6X6X6X6X6X6X6X6X6X6X6XQ.K.I.I.I.K.I.9X6X6X6X6XeX`.K.I.I.I.I.I.I.I.>X6X Xa w t t t t t t t t t $ %.F.B.S.B.S.p.1.1.1.1._ p.DXZX6X6X6X6X6X6X6X6X6X6X6X6X6X'.I.K.I.I.I.K.Q.6X6X6X6XrX`.S.I.Y.I.Q.6XwX6X6X6X6X6X6X,XI.I.I.I.|.6X6X6X6X9X`.K.I.I.I.Q.9X6XQ.K.I.I.I.I.I.I.I.H.`.9X6X6X6X6X6X6XQ.I.I.I.K.>X0X6X6X6X6X6X6X6X6X6X6X6X5XiXL % t t t t t t ; 5 b.C.c.c.c.c.S.S.z.S.S...1.-.Q.VX8X9X9X6X,XwX,X,X9X>XI.K.I.I.Q.5X9X6X6X6X6X6X6X6X9X5XI.H.I.I.I.I.K.(.6XwX6X6X6X9X9X9X>XD.K.K.K.D.>X<XD.Y.I.I.I.H.`.6X6X5XD.I.(.6X6X6X6X6X6X9X(.D.I.I.K.D.`.rX6X6X6X6X6X6X*XK.I.8X6X6X6X6X6X6XwX'.H.I. X6X6XrX`.D.I.I.I.K.&X7.@ i t 9 ^ D.z.c.c.S.p.] 1.1.] i.SXFXVX6X6X>XI.Y.I.I.I.I.I.(.9X6X6X6X6X6X9X9X6X6X6X9X8XI.K.I.",
"I.I.I.I.I.H.D.(.6X0X6X6X6X6X6X6X6X6X6X9X`.H.I.I.I.I.I.K.K.I.`.6X6X6X6X6X6X6X6X(.S.I.I.`.6X6X6X6X6X6X6X(.K.I.I.I.I.H.|.rX6X6X6X6X6X6X9X).D.8.< i w w t w 1 5.D.z.c.S.S.S.S.S.c.S.p.] 1.1.1.1.] <XrX,X6X6X6X6X6X6X6X`.I.I.`.6X6X6X6X6X6X6X6X6X6X`.K.I.K.K.K.K.I.I.I.K.Q.9X6X6X6X6X6X6X6X9X'.D.I.I.I.I.I.I.I.I.I.I.I.I.I.I.I.I.I.I.I.I.I.I.I.|.6X6X6X6X6X6X6X6X6X6X6X6X6X6X6X`.K.K.I.I.I.K.>X6X6X6X6XeX5XI.K.I.I.I.I.I.I.(.6X,Xn w t t t w t t t t t ; %.F.B.B.S.p.1.1.1.1.1.` H.DXZX6X6X6X6X6X6X6X6X6X6X6X6X6X6X`.K.K.I.I.K.K.'.9X6X6XrX>XD.K.Y.Y.I.>X6X6X6X6X6X6X6X XI.I.I.I.|.wX6X6X6X9X'.K.I.I.I.I.9X6X(.K.I.I.I.I.I.I.I.H.(.9X6X6X6X6X6X6X`.H.I.I.H.`.0X6X6X6X6X6X6X6X6X6X6X6X5XsXK % t t t t t t 2 5 i.S.c.c.c.c.S.B.z.S.p.] r.;.Q.AX9X9X6X6XwXwX6X6X,XQ.I.I.D.D.'.9X9X6X6X6X6X6X6X6X9X>XD.H.I.I.I.I.K.`.9X6X6X6X6X9X9X9X:XD.K.K.K.K.1X*XH.Y.I.I.I.I.|.6X6X>XS.I.`.9X6X6X6X6X6X9X(.D.I.I.K.K.`.rX6X6X6X6X6X6X*XH.Y.6X6X6X6X6XwX6XwX>XH.I.|.6X6XrX`.K.I.I.I.K.&X7.@ i t 9 Q D.z.c.c.c.c.1.1.1.] r.SXFXVX6XoX6XQ.I.I.I.I.I.I.I.5X0X6X6X6X6X9X9X6X6X6X6X9X5XI.I.",
"K.S.S.H.I.Q.>X9X9X6X6X6X6X6X6X6X6X6X6X6XI.H.I.I.I.I.I.K.K.I.5X6X6X6X6X6X6X6X6XK.S.I.I.>X6X6X6X6X6X6X>XI.I.I.I.I.I.I.6XwX6X6X6X6X6X6X,XD.D.5.& i w w t t < %.D.z.c.c.S.S.S.S.z.S.t.] 1.1.1.1.] >XrX,X6X6X6X6X6X6X9X(.K.I.|.6X6X6X6X6X6X6X6X6X6X(.I.I.K.K.K.K.I.I.I.K.Q.6X6X6X6X6X6X6X6X9X'.D.I.I.I.I.I.I.I.I.I.I.I.I.I.I.I.I.I.I.I.I.I.I.D.`.6X6X6X6X6X6X6X6X6X6X6X6X6X6XwX>XQ.K.I.I.I.D.`.6X6X6X6X6X6X`.K.I.I.I.I.I.I.I.>XwXM w t t t t t t t t t ; %.F.B.S.p.r.>.1.1.>.1.] I.DXZX6X6X6X6X6X6X6X6X6X6X6X6X6X6X6X`.K.I.I.I.K.Q.,X6X6X6X,XK.H.Y.Y.I.`.,X6X6X6X6X6X6X XI.I.I.I.|.6X6X6X6X9X'.I.I.I.I.I.6X6X(.K.I.I.I.I.I.I.I.H.Q.9X6X6X6X6X6X6X>XK.I.I.H.(.9X6X6X6X6X6X6X6X6X6X6X6X5XsXK % t t t t t t 2 1 i.S.c.S.c.c.S.S.B.z.r.1.1.` Q.AX9X9X6X6XwXwX6XwX|.I.I.I.D.Q.6X9X6X6X6X6X6X6X6X6X9X>XS.I.I.I.I.I.I.>XrX6X6X6X6X9X9X9X:XK.K.K.K.K.1X(.K.I.I.I.I.I.>X6X6X`.I.I.>X6X6X6X6X6X6X9X(.D.I.I.K.K.'.rX6X6X6X6X6X6X`.H.Y.6X6X6X6X6XrX6X6X>XI.I.|.6X6X9X(.K.I.I.I.K.*X7.o i t 9 I D.z.c.c.c.c.r.] 1.>.r.SXKXZX6X XwX`.K.I.I.I.I.I.I.'.9X6X6X6X6X9X9X6X6X6X6X6X9X>XI.",
"'.(.(.`.5X6X9X6X6X6X6X6X6X6X6X6X6X6X6X`.H.I.I.I.I.I.I.Y.K.Q.9X6X6X6X6X6X6X9X>XS.D.I.I.,X6X6X6X6X6X6X`.D.I.I.I.I.K.(.rX6X6X6X6X6X6X9X|.C.Q.5.& u w t t t < ^ D.z.z.c.c.c.B.z.z.S.t.] 3.1.1.1.] >XdX,X,X6X6X6X6X6X9XQ.H.I.|.6X6X6X6X6X6X6X6X6X6X(.I.I.K.K.K.K.I.I.I.K.Q.6X6X6X6X6X6X6X6X9X'.D.I.I.I.I.I.I.I.I.I.I.I.I.I.I.I.I.I.I.I.I.I.I.K.Q.6X6X6X6X6X6X6X6X6X6X6X6X6X6X6X9X`.K.I.I.I.K.I.6X6X6X6X XeX>XI.I.I.I.I.I.I.I.(.eXF < t t t t t t t t t ; %.F.S.S.r.1.1.1.1.] ] r.Q.DXZX6X6XrX9X6X6X6X6X6X6X6X6X6X6X6X5XI.K.I.I.I.D.>X6X6X6X6XQ.K.P.Y.Y.Q.:X6X6X6X6X6X6X XI.I.I.D..XwX6X6X6X6X'.I.I.I.I.I.6XwX`.K.I.K.I.I.I.I.I.H.I.6X6X6X6X6X6X6X>XI.I.I.I.I.9XrX6X6X6X6X6X6X6X6X6X6X5XsXK $ t t t t t t ; 1 i.B.S.S.c.S.S.S.S.t.>.1.>.] Q.ZX6X5X6X6X,X6X6XwX`.K.I.I.D.>X6X6X6X6X6X6X6X9X9X6X9X`.S.I.I.I.I.H.I.6XrX6X9X9X9X9X9X9X&XK.K.K.K.I.,XQ.I.K.I.I.I.I.>X6X6X(.I.I.6X6X6X6X6X6X6X9X(.D.I.I.K.K.>XrX6X6X6X6X6X6X(.H.Y.6X6X6X6X6XwX6X6X5XI.I.|.6X6X9X(.K.I.I.I.H.-X7.o i t 9 S S.z.c.c.c.S.t.] 1.>.6.BXFXZX6X XwX|.I.I.I.I.I.I.I.(.6X6X6X6X6X6X9X6X6X6X6X6X6X9X>X",
"9X0X0X9X6X6X6X6X6X6X6X6X6X6X6X6X6X6X6XI.I.I.I.I.I.I.I.I.H.'.rX6X6X6X6X6X6X>XD.D.I.D.`.6X6X6X6X6X6X6XQ.K.I.I.I.I.K.|.rX6X6X6X6X6X6X6XQ.D.G.8.& i t t t t ; ~ D.z.c.z.z.z.z.z.z.p.] 1.1.1.1.1.] <XdX,X6X6X6X6X6X6X>XI.H.I.|.6X6X6X6X6X6X6X6X6X6XI.I.I.I.I.I.I.I.I.I.K.Q.6X6X6X6X6X6X6X6X9X`.S.I.I.I.I.I.I.I.I.I.I.I.I.I.I.I.I.I.I.I.I.I.I.I.I.'.6X6X6X6X6X6X6X6X6X6X6X6X6X6X6X>XI.I.I.I.I.K.>X6X6X6X X6XrX'.K.I.I.I.I.I.I.I.'.S ; t t t t t t t t t ; %.D.p.p.1.>.1.1.1.` { p.Q.DXbXrXrX6X'.Q.|.6X6X6X6X6X6X6X6X6X6X'.D.I.I.I.K.Q.6X6X6X9X`.K.K.Y.Y.K.Q.6X6X6X6X6X6X XI.I.I.K.}.6X6X6X6X6X>XI.I.I.I.K.>XwX`.K.K.K.K.K.K.I.I.K.K.,X6X6X6X6X6X6X5XI.K.I.I.I.>XwX6X6X6X6X6X6X6X6X6X6X5XsXK $ t t t t t t ; 1 i.B.S.S.c.c.S.S.c.| >.>.1.r.(.ZXwX5X6X6X6X6X6X|.D.I.I.K.(.6X6X6X6X6X6X6X6X9X6X9X9XQ.D.I.I.I.I.H.Q.wXwX6X9X9X9X9X9X9X`.K.K.K.K.Q.>XI.I.K.I.I.I.I.6XwX>XI.D.(.6X6X6X6X6X6X6X9XQ.D.I.I.K.I.>XrX6X6X6X6X6X6XQ.H.(.9X6X6X6X6X6X6X6X>XD.I.>X6X6X6XQ.K.I.I.I.S.8X7.o i t 9 S p.z.S.z.z.S.c.] 1.>.6.BXFXZXwX6X6X6XI.I.I.I.I.I.I.I.>X9X6X6X6X6X6X9X9X6X6X6X6X6X6X",
"6X6X6X6X6X6X6X6X6X6X6X6X6X6X6X6X6XwX>XD.I.I.K.K.I.I.I.D.I.6X6X6X6X6X6X6X6XQ.I.D.I.D.>X6X6X6X6X6XwX|.I.I.I.I.I.I.I.6XwX6X6X6X6X6X6X>XG.D.G.M.> i t t t t ; T D.z.S.S.B.z.z.z.x.p.] r.1.1.1.>.] >XdX,X6X6X6X6X6X9X'.K.K.I. X6X6X6X6X6X6X6X6X6X6XQ.K.I.I.I.I.I.I.I.I.K.Q.6X6X6X6X6X6X6X6X9X).D.I.I.I.I.I.I.I.I.I.I.I.I.I.I.I.I.I.I.I.I.I.I.I.I.Q.6X6X6X6X6X6X6X6X6X6X6X6X6X6X6X6XQ.K.I.I.I.K.Q.6X6X6XoX6X6X6XI.H.I.I.I.I.I.I.(.S ; t t t t t t t t t $ %.D.r.r.>.1.1.1.1.{ t.c.Q.DXbXwX>XD.D.S.S.Q.>X6X6X6X6X6X6X6X6X6X).K.I.I.I.S.`.rX6X6X,XD.K.I.I.K.K.}.rX6X6X6X6X,XI.I.I.K.).6X6X6X6X6X>XI.I.I.I.I.>XwX'.D.K.K.K.K.K.I.I.I.K.>X9X6X6X6X6X6X6X(.K.I.I.K.`.wX6X6X6X6X6X6X6X6X6X6X6XsXK $ t t t t t t ; 1 i.S.S.S.S.S.S.S.t.] >.>.r.t.(.ZXwX6X6X6X6X6X6XQ.I.I.I.I.>X6X6X6X6X6X6X6X6X6X6X9X>XI.D.I.I.I.I.S.`.rX6X6X9X9X9X9X9X9XQ.K.K.I.K.Q.>XD.K.I.I.I.D.(.6X6X`.I.D.|.6X6X6X6X6X6X6XwXQ.D.I.I.K.I.>XrX6X6X6X6X6X XI.S.`.9X6X6X6X6X6X6X6X>XD.I.>X6X6X6XQ.K.I.I.I.D.9Xb.- i t 9 A y.z.S.z.z.S.S.r.>.>.r.MXFXZXwX6XoX6X(.K.I.I.I.I.I.I.(.9X6X9X9X6X6X9X9X9X9X9X6X6X6X",
"6X6X6X6X6X6X6X6X6X6X6X6X6X6X6X6X6XwX(.K.I.I.I.K.I.I.I.D.'.wX6X6X6X6X6X6X`.I.I.I.K.I.,X6X6X6X6X6X6X`.K.I.I.I.I.I.(.wX6X6X6X6X6X6X6X`.D.D.).m.> i t t t t ; L D.z.S.S.B.z.z.z.x.p.1.1.1.1.1.1.r.>XdX,X6X6X6X6X6X9X`.H.H.Q. X6X6X6XwX6X6X6X6X6X6XQ.K.I.I.I.I.I.I.I.I.K.Q.6X6X6X6X6X6X6X6X6X).D.I.I.I.I.I.I.I.I.I.I.I.I.I.I.I.I.I.I.I.I.I.I.I.I.I.`.6X6X6X6X6X6X6X6X6X6X6X6X6X6X6X}.I.I.I.I.K.I.>X6X6X6X6X6XrX`.H.I.I.I.I.I.I.T.S - t t t t t t t t t < %.A.r.>.>.1.3.1.1.t.S.c.Q.DXZX6XQ.I.I.I.I.H.S.(.>X6X6X6X6X6X6X+X XQ.K.I.I.K.K.>X6X6X6XQ.K.K.I.I.K.Q.6X6X6X6X6X6XQ.I.I.K.).6X6X6X6X9X>XI.I.I.I.I.|.wX'.D.K.K.K.K.K.I.I.I.K.}.rX6X6X6X6X6X9X`.K.I.I.K.Q.6X9X6X6X6X6X6X6X6X6X6X6XsXK $ t t t t t t ; 1 i.B.S.S.S.S.S.S...] >.1.p.z.Q.ZXwX6X6X6X6XwX|.S.I.I.K.`.6X6X6X6X6X6X6X6X6X6X6X9X|.D.K.I.I.I.I.D.>XrX6X6X9X9X9X9X9X,XI.K.K.Y.K.`.`.D.K.I.I.K.S.`.6X6X(.H.I.6X6X6X6X6X6X6X6XwX).D.I.I.I.I.>XrX6X6X6X6X6X XI.D.>X6X6X6X6X6X6X6X6X>XD.I.'.6X6X6XI.K.I.I.I.D.9Xb.- i t 9 A 3.r.S.z.z.c.S.p.1.>.r.MXFXZXrX6X6X6X'.I.I.I.I.I.I.I.I.5X9X6X9X9X6X9X9X9X9X9X9X9X9X",
"6X6X6X6X6X6X6X6X6X6X6X6X6X6X6X6XwX,XI.I.I.I.I.K.K.I.D.Q.9X6X6X6X6X6X6X>XH.I.I.I.H.Q.6X6X6X6X6X6X6XQ.I.I.I.I.I.K.'.wX6X6X6X6X6X6X6X(.D.D.).#X> w t t t t ; L D.z.S.S.B.z.z.z.z.i.1.1.1.1.1.r.t.}.dX,X6X6X6X6X6X9X(.H.H.(.6X6X6X6XwX6X6X6X6X6X6XQ.K.I.I.I.I.I.I.I.I.K.Q.6X6X6X6X6X6X6X6X6X(.D.I.I.I.I.I.I.I.I.I.I.I.I.I.I.I.I.I.I.I.I.I.I.I.I.I.I.>X6X6X6X6X6X6X6X6X6X6X6X6X6X6X,XQ.K.I.I.I.D.`.6X6X6XoX6X6X6XI.I.I.I.I.I.I.T.S - t t t t t t t t t < %.h.1.>.>.1.1.1.1.c.H.c.(.DXDX|.A.I.I.I.I.K.H.H.D.`.6X6X6X6X6XoXwX|.I.K.I.I.H.Q.9X6XwX).K.K.I.K.K.K.}.6X6X6X6X6XQ.I.I.K.).6X6X6X6XrX>XI.K.I.I.I.'.eX>XD.I.K.K.K.K.I.I.I.H.`.9X6X6X6X6X6X9X>XI.K.I.I.I.>XrX6X6X6X6X6X9X9X6X6X6XsXK % t t t t t t ; 1 i.B.c.c.c.c.S.r.] 1.1.r.S.z.Q.VXrX9X6X6X,X6XQ.I.I.K.I.>X6X6X6X6X6X6X6X6X6X6X6X6X).S.I.I.I.I.D.Q.9XwX6X6X6X9X9X9X9X>XD.K.K.I.K.&XQ.K.I.K.I.D.D.|.wX6XI.S.`.6X6X6X6X6X6X6X6X6X`.D.I.I.I.K.>XrX6X6X6X6X6X|.I.K.>X6X6X6X6X6X6X6X6X>XD.D.'.6X6X6XI.I.I.I.I.D.9Xb.> i t 9 N 3.r.z.z.z.c.S.c.r.] r.MXFXZXrXwX6X6X>XI.I.I.I.I.I.I.I.'.0X6X9X6X6X6X6X6X6X6X6X6X6X",
"6X6X6X6X6X6X6X6X6X6X6X6X6X6X6X6XrX`.H.I.I.I.I.K.I.I.D.(.rX6X6X6X6X6X>XQ.K.K.I.I.H.`.wX6X6X6X6X6X>XI.I.I.I.I.I.I.5XwX6X6X6X6X6X6X6XI.K.D.|.#X> w 2 t t t ; C C.z.c.S.B.z.z.z.x.r.1.1.1.1.1.r.z.`.jX,X6X6X6X6X6X6XY.K.H.`.6X6X6X6X6X6X6X6X6X6X6XI.K.I.I.I.I.I.I.I.I.K.Q.6X6X6X6X6X6X6X6X6X(.D.I.I.I.I.I.I.I.I.I.I.I.I.I.I.I.I.I.I.I.I.I.I.I.I.I.K.`.6X6X6X6X6X6X6X6X6X6X6X6X6X6X6X`.I.I.I.I.K.Q.6X6X6X6X6X6X9X'.I.I.K.I.I.I.(.T - t t t t t t t t t < %.t.>.1.>.1.1.1.e.S.S.c.(.DXDX).A.I.I.I.I.I.I.I.H.S.Q.5X6X6X6X6X+XwX`.D.I.I.I.H.*X6XoX|.D.I.K.H.K.K.Q.6X6X6X6X6XQ.I.Y.K.).6X6X6X6XrX>XI.I.I.I.I.'.eX>XD.K.K.K.K.K.I.I.I.K.(.9X6X6X6X6X6X9X>XI.K.I.I.D.'.9X6X6X6X9X9X9X9X6X6X6XsXK % t t t t t t ; 1 i.B.c.S.c.S.t.] r.1.>.t.B.z.I.VXrX9X6X6X6X'.D.I.I.K.`.6X6X6X6X6X6X6X6X6X6X6X6X,XQ.S.I.I.I.I.D.(.9X6X6X9X6X9X9X9X9X>XS.K.K.I.K.*XQ.K.I.K.K.D.D. X6X>XK.D.>X6X6X6X6X6X6X6X6X9X`.D.I.I.I.K.>XrX6X6X6X6X6X|.H.K.5X6X6X6X6X6X6X6X6X>XD.D.'.wX6X6XI.I.I.I.I.D.9Xi.> i t 9 B 3.>.r.c.z.z.c.S.p.] 6.gXFXZX,XwX6X6X6X(.I.I.I.I.I.I.I.Q.9X9X6X6X6X6X6X6X6X6X6X6X6X",
"6X6X6X6X6X6X6X6X6X6X6X6X6X6X6X6X6XI.I.Y.I.I.I.I.I.I.D.`.6X6X6X6X6X6X).S.I.I.I.I.K.|.wX6X6X6X6XrX`.K.I.I.I.I.I.Q.6XwX6X6X6X6X6X6X>XK.I.D.oX/.4 w t t t t ; j C.z.c.S.S.z.z.z.z.r.>.1.1.1.1.p.c.`.vX,X6X6X6X6X6X>XY.Y.H.*X6XoX6XwXwX6X6X6X6X6X6XI.K.I.I.I.I.I.I.I.I.K.Q.6X6X6X6X6X6X6X6X6XQ.K.I.K.I.I.I.I.I.I.I.I.I.I.I.I.I.I.I.I.I.I.I.I.I.I.I.I.I.|.6X6X6X6X6X6X6X6X6X6X6X6X6X6X>XI.H.I.I.K.K.>X6X6X6X6X6X6X9X(.K.I.I.I.I.T.T # t t t t t t t t t < $.X.>.1.>.1.1.r.p.S.c.p.Q.DXDXQ.A.I.I.I.I.I.I.I.I.I.S.Q.>X6X6X6X6X6X6X(.K.H.I.K.I.6X6X6XQ.I.I.H.K.K.K.:X9X6X6X6XQ.H.Y.K.(.9X6X6X6X9X5XI.I.I.I.I.`.wX>XK.K.K.K.K.K.I.I.I.K.Q.9X6X6X9X6X6X9X9XQ.H.I.I.I.(.6XwX6X9X9X9X6X6X6X6X6XsXK $ t w t t t t ; 1 i.S.c.c.c.S.r.>.r.>.r.c.B.z.D.VXrX6X6X6X6XI.I.I.I.Q.6X6X6X6X6X6X6X6X6X6X6X9X9X>XD.I.I.I.I.I.D.'.6X6X6X6X6X6XrX9X9X*XK.K.K.I.I.*XI.K.I.K.K.K.Q.oXwX`.D.Q.9X6X6X6X6X6X6X6X6X9X`.K.I.K.I.K.>XrX6X6X6X6X6X`.H.I.6X6X6X6X6X6X6X6X6X>XI.K.'.6X6X,XI.I.I.I.I.D.sXi.- i t ; M y.>.r.c.c.c.c.S.c.1.] fXFXZX>X6X6X6X6X&XI.I.I.I.I.I.I.I.|.6X6X6X6X6X6X6X6X9X9X6X6X",
"6X6X6X6X6X6X6X6X6X6X6X6X6X6X6X9X'.D.Y.I.I.I.I.I.I.I.I.6X6X6XwX6XwX|.I.I.K.I.I.K.I.>XwX6X6X6X6XrXQ.H.I.I.I.I.D.Q.9XwX6X6X6X6X6X6X'.K.I.K.6X/.4 w t t t t ; g z.z.c.S.c.z.z.z.z.>.>.1.1.1.1.H.z.!.cX,X6X6X6X6X6X|.Y.I.H.>XwX X6XwXwX6X6X6X6X6X6XI.I.I.I.I.I.I.I.I.I.K.Q.6X6X6X6X6X6X6XwX6XQ.K.I.K.K.K.K.K.K.I.I.I.I.I.K.I.I.I.I.I.I.I.I.I.I.I.I.I.I.(.6X6X6X6X6X6X6X6X6X6X6X6X6X6X6XQ.H.Y.I.I.K.`.6X6X6X6X6X6X9X>XI.I.I.I.I.T.T # t t t t t t t t t < Y ..>.>.1.1.1.e.S.S.c.c.Q.DXDXQ.I.I.I.I.I.I.I.I.I.I.I.D.D.`.6X6X6X6X6X9XQ.H.K.I.K.(.6X9X`.S.I.H.K.K.K.Q.,X6X6X6XQ.H.Y.K.Q.9X6X6X6X9X9XI.I.I.I.H.`.wX5XI.K.K.K.K.K.I.I.I.K.Q.6X9X9X6X6X6X6X9X`.I.I.I.I.I.6XwX6X9X9X9X6X9X6X6X6XsXK $ t w t t t t 2 5 i.D.c.c.c.c.r.1.>.] t.S.B.z.D.VXrX5X9X9X`.I.I.I.D.|.6X6X6X6X6X6X6X6X6X6X6X9X6X(.D.I.I.I.I.I.Q.6X6X6X6X6X6X6XwX6XrXQ.K.K.I.K.Q.&XK.I.I.K.I.I.`.wX6XD.D.`.9X6X6X6X6X6X6X6X6X9X`.K.I.K.I.I.>XrX6X6X6X6X6X`.H.(.6X6X6X6X6X6X6X6X6X*XI.K.'.6X6X|.I.I.I.I.I.D.sXi.- i t ; N u.>.6.p.S.c.c.c.S.y.] fXFXZX`.>X9X6X6X5XI.I.I.I.K.I.I.I.Q.6X6X6X6X6X6X6X6X9X9X6X6X",
"6X6X6X6X6X6X6X6X6X6X6X6X6X6X6X6XQ.K.Y.I.I.I.I.I.I.I.).rXwXwXwXwX6XQ.Q.I.H.I.I.K.Q.6X6X6X6X6X6X9XQ.H.I.I.I.I.D.(.9X6X6X6X6X6X6X6X`.K.K.K.6X^.4 w t t t t ; h b.z.c.c.c.x.z.z.r.>.1.3.3.1.r.S.z.Q.cX,X6X6X6X6X9X`.Y.I.I.>X6X6X6X6XwX6X6X6X6X6X6XI.I.I.I.I.I.I.I.I.I.K.Q.6X6X6X6X6X6X6XwX XI.K.K.K.I.I.I.I.I.I.I.I.I.I.I.I.I.I.I.I.I.I.I.I.I.I.I.I.I.I.`.6X6X6X6X6X6X6X6X6X6X6X6X6X6X*XH.I.I.I.K.Q.6X6X6X6X6X6X6X9X`.I.I.I.I.T.Y # t t t t t t t t t < Y ..>.1.1.1.r.p.S.S.c.c.Q.DXDXQ.I.I.I.I.I.I.I.I.I.I.I.I.H.D.(.>X9X6X6X9X9X(.H.I.I.K.`.9X6XI.I.S.K.I.K.Y.}.,X6X6X(.H.Y.K.Q.6X6X6X6X9X9XI.I.I.I.H.`.wX6XI.K.K.K.K.K.I.I.I.K.I.>X9X6X6X6X6X6X6X|.K.K.I.Y.I.'.rX6X9X9X9X6X6X6X6X6XsXK $ t t t t t t 2 5 i.D.c.S.H.r.1.y.>.r.c.z.B.z.D.VXrX5X9X9XI.I.I.I.(.6X6X6X6X6X6X6X6X6X6X6X6X9X>XI.K.I.I.I.I.I.Q.6X6X6X6X6X6XwXwX6X9XI.K.K.I.K.(.`.K.I.I.I.I.K.|.wX>XH.K.|.6X6X6X6X6X6X6X6X6X9X`.D.I.K.I.I.6XwX6X6X6XwX6X(.H.`.6X6X6X6X6X6X6X6X6X'.I.I.|.6X6X|.S.I.I.I.I.D.sX0.# i t ; N u.>.>.r.c.S.c.c.c.p.] fXFXZX!.`.rX6X6X6X(.I.I.I.I.I.I.I.D.>X9X6X6X6X6X6X6X9X9X9X6X",
"6X6X6X6X6X6X6X6X6X6X6X6X6X6X6X>XD.I.I.I.I.I.I.I.I.D.|.wXwXwXwX6X`.S.I.I.I.I.I.K.Q.6X6X6X6X6XwX6XI.K.I.I.I.I.D.`.9X6X6X6X6X6X6X6XQ.K.K.K.6X$X4 w t t t t 9 6 r.B.c.c.B.z.z.z.r.>.1.1.3.1.u.S.z.G.jX6X6X6X6X6X6XQ.Y.P.I.,X6X6X6X6XwX6X6X6X6X6X6XI.I.I.I.I.I.I.I.I.I.K.Q.6X6X6X6X6X6X6XwX XI.K.K.K.I.I.I.I.I.I.I.I.I.K.K.I.I.I.I.I.I.I.I.I.I.I.I.I.I.I.I.|.9X6X6X6X6X6X6X6X6X6X6X6X6X6XI.H.Y.Y.I.K.>X9X6X6X6X6X6X9X>XQ.I.K.K.(.$.# t t t t t t t t t < Y ..>.1.1.1.t.S.c.S.c.c.Q.DXAXQ.I.I.I.I.I.I.I.I.I.I.I.I.I.I.S.(.>X9X6X6X9X9XI.H.I.I.I.>XrX`.S.I.I.I.K.K.Q.9X9X6X`.H.Y.K.I.6X6X6X6X9X9XI.I.I.I.I.(.6X6XQ.D.K.K.K.K.I.I.I.I.D.>X9X6X6X6X6X6X6X>XI.K.I.I.I.Q.9X6X6X6X9X6X6X6X6X6XsXK $ t t t t t t ; 5 i.S.c.K.p.>.3.3.>.p.c.z.B.S.D.VXrX6X9X(.I.I.I.I.|.wX6X6X6X6X6X6X6X6X6X6X9X9X`.H.I.I.I.I.I.I.`.6X6X6X6X6X6XwX6X6X,XK.K.U.I.K.(.(.K.I.I.I.I.I.oXwX(.H.I.5X6X6X6X6X6X6X6X6X6X9X`.K.I.K.I.I.9XwX6X6X6XwX6XY.I.*X6X6X6X6X6X6X6X6X6X`.I.I.|.6X6X|.S.I.I.I.I.D.sX0.# i t ; N p.6.>.r.c.S.c.c.c.H.r.fXFXFX^.D.9X6XwX6X*XI.I.I.I.I.I.I.I.(.6X6X6X9X6X6X9X9X9X9X6X",
"6X6X6X6X6X6X6X6X6X6X6X6X6X6X6X).D.I.K.I.I.I.I.I.H.I.6XoX6X6X6X>XD.K.I.I.I.I.I.K.).wX6X6X6X6XwX>XD.I.I.K.I.I.D.`.9X6X6X6X6X6X6X6XI.I.I.K.6X$X6 w t t t t w 4 0.C.z.c.B.x.x.z.1.>.1.1.1.1.p.S.z.G.jX6X6X6X6XwX5XI.Y.H.Q.6X6X6X6X6X6X6X6X6X6X6X6XQ.K.I.I.I.I.I.I.I.I.K.Q.6X6X6X6X6X6X6XwX|.I.I.K.K.I.I.I.I.I.I.Y.I.S.D.I.I.I.I.I.I.I.I.I.I.I.I.I.I.I.I.I.Q.>X6X6X6X6X6X6X6X6X6X6X6X6X6X`.K.Y.Y.I.K.`.6X6X6X6X6X6X6X9X*XI.I.H.(.$.# t t t t t t t t t < Y ..>.1.1.r.p.S.c.S.c.c.(.DXAX(.I.Y.Y.I.I.I.I.I.I.I.I.I.I.I.I.I.(.>X9X9X6X0X9XI.K.I.H.Q.9X6XI.I.I.I.I.K.K.>X9X6X'.K.Y.K.I.5X6X6X6X6X6XI.I.I.I.I.(.6X6XQ.D.K.K.K.K.I.I.I.I.D.>X9X6X6X6X6X6X6X6XQ.D.I.I.I.I.>XrX6X6X6X6X6X6X6X6XsXK % t t t t t t 2 1 i.S.S.c.6.>.3.>.y.S.z.z.B.S.S.VXdX9X*XS.I.I.I.(.6X6X6X6X6X6X6X6X6X6X6X6X9X>XI.H.I.I.I.I.I.I.5X6X6X6X6X6X6X6X6XrX>XK.I.K.Y.K.`.I.K.I.I.I.K.Q.6X6XI.H.Q.6X6X6X6X6X6X6X6X6X6X9X*XD.I.K.I.I.9X6X6X6X6XwX5XY.I.>X6X6X6X6X6X6X6X6X6X(.I.I.>X6XwX|.D.I.I.I.I.I.sX0.& i t ; m H.r.>.>.t.S.c.c.c.H.r.fXFXFX}.S.5X9X6X6X5XI.I.I.I.I.I.I.I.I.>X9X6X6X9X9X9X6X9X9X9X",
"6X6X6X6X6X6X6X6X6X6X6X6X6XwX,XQ.I.I.K.I.I.I.I.K.H.`.6X X6X6XrX).D.I.I.I.I.I.I.I.|.6X6X6X6X6X6X`.D.I.K.K.I.I.D.'.9X6X6X6X6X6X6X6XI.I.I.K.6XXX6 w t t t 2 t 4 5.C.z.c.x.x.S.t.1.>.1.1.1.1.p.D.z.G.jX6X6X6X6XwX>XI.I.H.(.6X6X6X6X6XwX6X6X6X6X6X6XI.K.I.I.I.I.I.I.I.I.K.Q.6X6X6X6X6X6X6X6X|.K.I.K.K.I.I.I.I.I.I.I.K.D.(.>X5X>X*X(.I.S.I.I.I.I.I.I.I.I.I.I.I.(.6X6X6X6X6X6X6X6X6X6X6X6X6X6XY.I.Y.I.K.Q.,X6X6X6X6X6X6X6X6X(.I.I.T.&.# t t t t t t t t t < T ..] 1.1.t.S.c.S.S.S.c.(.DXAX(.I.Y.Y.I.I.I.I.I.I.I.I.I.I.I.I.I.I.(.>X9X9X9X9X5XQ.D.I.K.`.rX*XI.I.I.I.K.K.Q.9X6X'.K.Y.I.I.>X6X6X6X6X6XI.I.I.I.I.Q.6X6X(.K.K.K.K.K.I.I.I.I.D.>X9X6X9X6X6X6X6X6X`.D.I.I.I.K.`.rX9X6X6X6X6X6X6X6XsXK % t t t t t t 2 1 i.S.S.r.>.3.,.>.s.B.z.B.B.B.S.VXcX9XQ.I.I.I.I.>XrX6X6X6X6X6X6X6X6X6X6X6X9X*XH.K.I.I.I.I.H.(.rX6X6X6X6X6X6X6X6XrX`.K.I.I.Y.I.*XK.I.I.I.I.K.(.6X|.I.S.`.6X6X6X6X6X6X6X6X6X6X9X>XD.I.K.I.Q.9X6X6X6X6XwX>XY.I.5X6X6X6X6X6X6X6X6X6X(.I.I.|.6XwX}.D.I.I.I.I.Q.sX0.& i t ; m H.r.>.>.r.S.S.c.c.H.r.sXFXFX>XB.`.9X6X6X6X(.D.I.I.I.I.I.I.I.(.9X6X6X6X9X9X6X9X6X9X",
"6X6X6X6X6X6X6X6X6X6X6X6X6X6X}.K.I.I.I.I.I.I.I.I.K.|.6XoX6X6X>XQ.I.I.I.I.I.I.I.K.|.6X6X6X6X6X6X`.D.I.I.I.I.I.D.|.9X6X6X6X6X6X6X>XI.I.I.K.oXXX6 w t t t t t > 5.D.z.c.x.B.S.r.1.1.1.1.1.1.p.x.z.C.dX6X6X6X6XwX`.I.I.I.(.6X6X6X6X6X6X6X6X6X6X6X6XQ.K.I.I.I.I.I.I.I.I.K.Q.6X6X6X6X6X6X6XwX|.K.I.K.K.I.I.I.I.I.I.I.I.Q.5X9X6X6X6X6X>X(.S.I.I.I.I.I.I.I.I.I.I.D.|.6X6X6X6X6X6X6X6X6X6X6X6XwX(.K.Y.Y.I.K.|.wX,X6X6X6X6X6X6X>XQ.H.T.%.# t t t t t t t t t < Y ..] 1.>.p.S.p.c.S.S.c.(.DXDX(.I.I.Y.*X5X8X5X'.(.I.I.H.I.I.I.I.I.I.(.>X9X6X6X9X6XQ.K.I.K.`.9XQ.K.I.I.K.K.K.'.wX>XK.I.I.H.>XwX6X6X6X6XI.I.I.I.I.Q.6X6X`.K.K.K.K.K.I.I.I.I.D.`.9X9X9X6X6X6X6X6X`.D.I.I.I.I.I.6XrX6X6X9X9X6X6X6XsXK % t t t t t t 2 3 i.A.p.>.>.3.,.y.S.B.c.S.S.S.S.VXdX(.I.I.I.I.(.9X6X6X6X6X6X6X6X6X6X6X6X6X>XQ.K.I.I.I.I.I.I.>XrX6X6X6X6X6X6X6X9X9XQ.K.I.I.K.`.*XH.I.I.I.I.K.`.6X`.S.D.>X6X6X6X6X6X6X6X6X6X6X9X>XD.I.K.K.Q.9X6X6X6X6X6X'.I.Q.6X6X6X6X6X6X6X6XrX>XH.Y.K.>X6XwX`.D.I.I.I.I.(.dX7.& i t ; m S.r.>.>.r.c.S.S.c.S.t.sXFXFX>XS.I.9X6X6X9X>XI.K.I.I.I.I.I.I.I.*X9X6X9X6X6X6X6X9X6X",
"6X6X6X6X6X6X6X6X6X6X6X6X6X6X).K.I.I.I.I.I.I.I.I.I.,X6XoX6X6X`.I.I.I.I.I.I.I.I.K.|.6X6X6X6X6X,XQ.K.I.I.I.I.I.D.|.9X6X6X6X6X6X6X>XI.I.I.K.oXXX6 w t t t t t > ^ D.z.c.c.B.c.r.>.1.1.1.1.r.S.c.z.x.dXwX6X6X6XoXQ.I.I.I.`.6X6X6X6X6X6X6X6X6X6X6X6X(.K.I.I.I.I.I.I.I.I.K.Q.6X6X6X6X6X6X6X9X`.K.I.K.K.I.I.I.I.I.I.I.I.>X6X6X6X6X6X6X6X6X`.A.I.I.I.I.I.I.I.I.I.I.I.>X6X6X6X6X6X6X6X6X6X6X6XwX>XI.I.Y.Y.K.Q.6X6X6X6X6X6X6X6X9X'.D.(.%.# t t t t t t t t t < Y ..] 1.>.p.S.p.S.S.S.c.(.DXDX(.I.H.>X9X6X9X6X6X6X6X`.H.H.I.I.I.I.I.I.`.6X6X6X,XrX,XI.I.I.K.>X`.K.I.I.I.K.K.`.wX>XI.I.I.H.>XwX6X6X6X6XI.I.I.I.I.I.6XwX>XK.K.K.K.K.I.I.I.I.D.`.9X9X9X6X6X6X6X6X|.K.K.I.I.I.K.`.rX6X6X9X9X6X6X6XsXK $ t t t t t t < 3 y.S.r.>.3.3.,.p.S.S.S.S.S.S.S.VXrXS.I.I.I.I.5XwX6X6X6X6X6X6X6X6X6X6X6X6X|.I.K.I.I.I.I.I.I.9X6X6X6X6X6X6X6X6X9X>XK.I.I.I.H.>X(.H.I.I.I.I.I.>X,XI.S.I.6X6X6X6X6X6X6X6X6X6X6X9X>XD.I.K.K.Q.0X6X6X6X6X6X`.I.(.6X6X6X6X6X6X6X6XrX|.H.I.K.5X6XwX).D.I.I.I.I.(.dX7.# i t ; m S.z.>.>.r.p.c.S.c.S.t.sXFXFX<XS.I.'.9X6X9X6X`.K.I.I.I.I.I.I.I.I.5X9X6X6X6X6X6X9X9X",
"6X6X6X6X6X6X6X6X6X6X6X6XrX|.I.I.I.I.I.I.I.I.K.K.(.6X6X X6X6XI.I.I.I.I.I.I.I.I.I.>X6X6X6X6X6X,XI.I.I.I.I.I.I.D.>XrX6X6X6X6X6X6X>XD.I.I.D.oX:X6 w t t t t t > ^ D.z.c.c.B.p.r.1.1.1.1.1.p.S.z.z.x.dXrX6X6X6X XI.I.I.I.'.6X6X6X6X6X6X6X6X6X6X6X6X(.K.I.I.I.I.I.I.I.I.K.Q.6X6X6X6X6X6X6X9X`.K.I.K.K.I.I.I.I.I.I.K.&X9X6X6X6X6X6X6X6X6X6X'.D.I.I.I.I.I.I.I.I.I.I.Q.6X6X6X6X6X6X6X6X6X6X6X6X6X(.K.Y.Y.K.K.>X6X6X6X6X6X6X6X6X6X(.T.:.+ t t t t t t t t t < Y X.] 1.>.p.S.c.c.S.S.c.(.DXDXQ.H.Q.6X9X6X6X6X6XwXrXrX>XI.I.I.I.I.I.I.I.|.6X6X6XwXrX`.K.K.I.Q.,XQ.K.I.I.K.I.Q.6X>XI.I.I.H.>XwX6X6X6X6XT.I.I.I.I.I.6XwX>XK.K.K.K.K.I.I.I.I.D.Q.9X9X6X6X6X6X6X6X6XI.H.I.I.K.K.Q.9X9X6X6X6X6X6X6XsXK $ t w t t t t < 1 d.t.>.>.,.>.r.c.B.c.S.S.S.S.z.vXrXS.I.I.I.`.0X6X6X6X6X6X6X6X6X6X6X6X6X9X`.D.I.I.I.I.I.I.`.6X6X6X6X6X6X6X6X6X9X`.K.I.I.I.I.>XQ.K.I.I.I.I.Q.6X|.K.H.`.6X6X6X6X6X6X6X6X6X6X6X6X>XD.I.I.D.(.9X6X6X6X6X6X(.I.`.6X6X6X6X6X6X6X6XrX`.H.K.I.6X6XwX`.K.I.I.I.I.(.rX7.# i t ; j c.B.r.>.>.p.c.S.S.S.t.iXFXFX1XS.I.I.9X6X6X9X>XI.K.I.I.I.I.I.I.I.Q.6X6X6X6X6X6X6X9X",
"6X6X6X6X6X6X6X6X6X6X6X6X6XQ.I.I.I.I.I.I.I.I.K.K.`.6X6X6X6X>XI.I.K.I.I.I.I.I.I.I.6X6X6XwX6X6X|.I.I.I.I.I.I.I.D.>XrX6X6X6X6X6X6X>XD.I.I.D.|.:X6 w t t t t t + ~ D.z.B.S.c.p.1.1.1.1.1.1.p.S.z.z.z.dXrX6X6X6X|.K.I.I.I.>X6X6X6X6X6X6X6X6X6X6X6X6X`.K.I.I.I.I.I.I.I.I.K.Q.6X6X6X6X6X6X6X9X`.K.I.I.I.I.I.I.I.I.H.Q.6X9XrX6X6X6X6X7X7X6X6X6X>XI.I.I.I.I.I.I.I.I.I.D.'.6X6X6X6X6X6X6X6X6X6X6XrX>XK.Y.Y.I.K.`.wX6X6X6X6X6X6X6X6X>XT.8.@ t t t t t t t t t < ~ X.>.1.>.p.S.c.c.S.S.c.(.DXDXQ.H.(.5X9XrX9X9X9X9X6XrXrX5XI.I.I.I.I.I.D.Q.6XrXwXwX6XwXQ.K.Y.K.(.`.I.I.I.I.Y.K.>X,XK.I.I.I.'.wX6X6X6X6X(.I.I.I.Y.I.>XwX>XI.I.I.I.I.I.I.I.I.K.I.9X9X9X6X6X6X6X6XrXQ.H.K.I.I.I.K.>XrX6X6X6X6X6X6XsXK $ t e e e t t < 1 a.r.>.,.,.>.t.S.B.B.S.S.S.S.t.kXaXI.I.I.I.6XwX6X6X6X6X6X6X6X6X6X6X6XwX*XI.K.I.I.I.I.I.D.6X6X6X6X6X6X6X6X6X6X9XQ.K.I.I.K.(.>XK.I.I.I.I.K.`.6X`.K.K.>X6X6X6X6X6X6X6X6X6X6X6X6X6XD.I.I.D.`.9X6X6X6X6X6XQ.I.|.6X6X6X6X6X6X6X9X9XQ.K.K.Q.6X6X6X`.K.I.I.I.I.).rX7.# i t ; g c.B.p.>.>.y.c.c.S.S.t.9XFXFX9XS.I.I.*XrX6X9X9X`.K.I.I.I.I.I.I.I.I.'.6X6X6X6X6X6X6X",
"6X6X6X6X6X6X6X6X6X6X6X9X`.D.I.I.I.I.I.I.I.I.K.K.>X6X X6X6X(.I.I.I.I.I.I.I.I.I.I.6X6X6X6X6X6X|.K.I.I.I.I.I.I.D.|.9X6X6X6X6X6X6X>XD.I.I.D.|.2Xh w t t t t t + ! D.z.B.S.S.p.1.1.>.1.1.r.S.c.z.z.z.dXrX,X6XwX`.K.I.I.I.6X6X6X6X6X6X6X6X6X6X6X6X6X*XK.I.I.I.I.I.I.I.I.K.Q.6X6X6X6X6X6X6X9XQ.K.I.I.I.I.I.I.I.K.K.>XrX9X9X6X6X6X6X6X6X7X6X6X6X5X(.D.I.I.I.I.I.I.I.I.D.|.6X6X6X6X6X6X6X6X6X6X6X6XQ.I.Y.Y.K.I.6X6X6X6X6X6X6X6X6X6XxX5.4 t t t t t t t t t < $.X.] 1.>.p.S.c.S.S.S.c.(.DXDX(.H.(.6X9XrX6X6X6X6X6X6X6XrX>XI.I.I.I.I.I.I.6XrX6X6X,XwX>XI.K.S.K.>XY.K.I.I.I.H.(.6XI.I.I.H.'.wX6X6X6X6X(.I.I.I.I.I.|.wX6XI.I.I.I.I.I.I.I.I.I.I.>X9X6X9X9X6X6X6XrX&XK.K.I.I.K.K.(.9X9X6X6X6X6X6XsXK $ t e t t t t < < :.r.>.,.>.>.z.B.B.S.S.S.S.S.t.kXdXK.I.D.'.rX6X6X6X6X6X6X6X6X6X6X6X6X6X(.K.I.I.I.I.I.K.Q.6X6X6X6X6X6X6X6X6X9X9XI.I.I.I.K.`.*XS.I.I.I.I.I.|.6XQ.I.I.>X6X6X6X6X6X6X6X6X6X6X6X6X6XK.K.I.D.`.9X6X6X6X6X5XI.Y.|.6X6X6X6X6X6X6XwX9XY.I.K.(.9X6X6X`.K.I.I.I.I.`.rX7.# i t 0 g c.z.S.1.>.r.p.c.S.S.t.9XFXFXaXS.I.I.Y.9X6X6X9X5XI.D.I.I.I.I.I.I.I.I.>X6X6X6X9X6X6X",
"6X6X6X6X6X6X6X6X6X6X6X6XI.K.I.I.I.I.I.I.I.I.H.I.9X6X X6X>XI.I.I.I.I.I.I.I.I.I.I.6X6X6X6X6X6X`.K.I.I.I.I.I.I.D.|.9X6X6X6X6X6X6X>XI.I.I.D.`.2Xh w t t t t t # Q D.z.B.S.c.r.>.1.1.1.1.u.S.z.z.c.z.dXrX,XwXoXQ.K.I.I.I.6XoX6X6X6X6X6X6X6X6X6X6X6X*XI.I.I.I.I.I.I.I.I.K.Q.6X6X6X6X6X6X6X9XQ.K.I.I.I.I.I.I.I.D.`.9X6X9X6X6X6X6X6X6X6X6X6X6X6X6X6X(.I.I.I.I.I.I.I.I.D.Q.6X6X6X6X6X6X6X6X6X6X6X9X`.K.Y.I.I.K.}.6X6X6X,X6X6X6X6X6X0Xm., t t t t 2 t t t t < $.e.] 1.>.e.S.c.c.S.S.c.(.DXDX).I.Q.9X9XrX6X,X,X6X6X6X6X6X6X>XI.I.I.I.I.I.|.6X6X6X,X6X6XQ.K.I.K.`.`.K.I.I.I.K.I. XQ.H.I.I.`.6X6X6X6X6X(.H.I.I.I.I.|.wX6XI.I.I.I.I.I.I.I.I.I.K.>X9X6X6X6X6X6X6XwX>XK.K.K.I.I.I.I.>XrX6X6X6X6X6XsXK $ t e t t t t 1 < %.r.>.>.>.r.z.B.B.c.S.c.S.S...gXcXS.I.I.6X6X6X6X6X6X6X6X6X6X6X6X6X9X>XI.I.I.I.I.I.I.D.|.6X6X6X6X6X6X6X6X6X9X>XK.I.I.I.I. X`.H.I.I.I.I.Q.6X|.K.I.Q.6X6X6X6X6X6X6X6X6X6X6X6X6X6XI.K.I.D.`.9X6X6X6X6X5XI.Y.OX6X6X6X6X6X6X6XrX,XI.I.K.`.rX6X6X(.K.I.I.I.I.'.uX6.# i t 0 g c.z.S.r.>.>.t.c.S.S.t.9XFXFXaXH.I.I.H.*X9X6X9X6X'.D.K.I.I.I.I.I.I.I.(.5X6X6X6X6X6X",
"6X6X6X6X6X6X6XoX6X6X9X`.K.I.H.I.I.I.I.I.I.I.H.(.9XoX6XrX`.I.I.I.I.I.I.I.I.I.I.I.6X6X6X6X6XrX`.K.I.I.I.I.I.I.D.`.9X6X6X6X6X6X6X5XI.I.I.D.).2Xg ; t t t t t $ D D.z.B.B.p.r.1.1.1.1.r.p.D.z.c.x.z.dXdX,XwX|.I.I.I.I.Q.9XoX6X6X6X6X6X6X6X6X6X6X6X>XI.I.I.I.I.I.I.I.I.K.Q.9X6X6X6X6X6X6X6XQ.K.I.I.I.I.I.I.K.I.>X6X6X6X6X6X6X6X6X6X6X6X6X6X6X6X6X6X(.I.I.I.I.I.I.I.I.D.`.9X6X6X6X6X6X6X6X6X6X6X>XI.H.K.I.K.Q.6X6X6X6X6X6X6X6X6X6X/.4 t 2 2 2 2 t t t t * &.t.>.>.>.>.p.c.c.S.S.p.(.DXDX`.I.I.*XrXrX6X,X,X6X6X6X6X6X6X0XQ.S.I.I.I.D.|.6X6XwX,XwX6XQ.K.K.K.Y.6XQ.H.I.I.I.H.|.`.H.I.H.`.6X6X6X6X6X&XH.I.I.I.I.|.wX6XQ.K.I.I.I.I.I.I.I.I.I.*X9X6X6X6X9X6X6XwX,XQ.K.K.I.I.I.I.`.0X9X6X6X6X6XsXK $ t w t t e t 1 e %.r.>.>.>.t.B.S.S.z.c.z.S.p._ pXbXH.D.`.9X6X6X9X6X6X9X6X6X6X6X6X6X6XQ.K.I.I.I.I.I.K.Q.6X6X6X6X6X6X6X6X6X6X9X(.K.I.I.K.(.wXQ.H.I.I.I.K.`.9XQ.D.H.).wX6X6X6X6X6X6X6X6X6X6X6X9X9XI.K.I.K.*X9X6X6X6X6X*XH.Y.6X6X6X6X6X6X6X6XrX`.K.Y.D.>XrX6X6X(.K.I.I.I.I.'.uX6.# i t 0 5 c.B.S.p.1.>.r.c.c.S.t.9XFXFXaXH.I.Y.H.I.6X6X9X6X9X(.D.I.I.I.I.I.I.I.I.(.>X6X6X6X6X",
"6X6X6X6X6X6X6X6X6X6X|.D.I.I.I.I.I.I.I.I.I.I.D.'.wX X6X9XQ.I.I.I.I.I.I.I.I.I.I.I.6X6X6X6X6XrX`.K.I.I.I.I.I.I.D.(.6X6X6X6X6X6X6X6XI.I.I.D.(.2Xg 9 t t t t t ; F C.z.z.S.t.>.1.1.1.1.r.c.x.z.x.x.z.dXdX,XrX`.H.I.Y.I.Q.6XoX6X6X6X6X6X6X6X6X6X6X6X>XI.I.I.I.I.I.I.I.I.K.(.9X6X6X6X6X6X6X>XK.K.I.I.I.I.I.I.K.Q.6X6X6X6X6X6X6X6X6X6X6X6X6X6X6X6X6X6X5XQ.I.I.I.I.I.I.I.I.I.>X9X6X6X6X6X6X6X6X6X6X6X(.H.K.K.K.K.>XwX6X6X6X6X6X6X6XwX$X6 < 3 2 2 t t t t t < %.g.>.>.1.>.t.S.c.S.S.p.(.DXDX`.I.I.I.6X9X6X6X,X6X6X6X6X6X6X6X>XI.I.I.I.D.|.9X6XwX6X6XwX`.K.I.I.K.|.>XI.I.K.I.H.).*XS.I.I.(.6X6X6X6XrX*XH.I.I.I.A.'.6X6XQ.K.I.I.I.I.I.I.I.I.I.`.6X6X6X6X9X6X6X6X9XQ.K.K.I.I.I.I.I.5XrX6X6X6X6XsXK $ t w t t e e w e %.r.>.>.r.z.B.S.S.c.c.t.c.y.` pXbXK.D.,X9X6X6X6X6X6X6X6X6X6X6X6X6X`.K.I.K.I.I.I.I.K.'.6X6X6X6X6X6X6X6X6X6X9XQ.K.I.I.K.`.6XD.I.I.I.I.D.'.9XD.K.K.>X6X6X6X6X6X6X6X6X6X6X6X6X9X9XI.K.I.D.>X9X6X6X6X6X*XH.(.6X6X6X6X6X6X6X6X9XQ.U.Y.D.>XwX6X6X(.K.I.I.I.I.|.uX5.# i t 0 6 c.C.B.g.r.>.1.t.z.S.t.8XFXFXsXH.I.I.Y.H.'.wX6X9X9X5XQ.I.I.I.I.I.I.I.I.I.(.>X6X6X6X",
"9X9X9X9X6X6X6X6XeX>XD.S.I.I.I.I.I.I.I.I.I.I.I.5X6X XwX5XI.I.K.I.I.I.I.I.I.I.I.I.>X6X6X6X6XrX`.K.I.I.I.I.I.I.K.Q.6X6X6X6X6X6X6X6XI.I.I.D.G.2Xj 9 t t t t t ; F C.B.B.S.r.>.>.>.>.>.r.S.z.z.c.x.z.dXdX,XrX(.H.I.I.K.`.6XoX6X6X6X6X6X6X6X6X6X6X6X>XI.I.I.I.I.I.I.I.I.K.`.9X6X6X6X6X6X9X>XK.K.I.I.I.I.I.I.K.>X9X6X6X6X6X6X6X6X6X6X6X6X6X6X6X6X6X6X6X|.Q.I.I.I.I.I.I.I.H.Q.5X6X6X6X6X6X6X6X6X6X6X|.I.H.K.K.H.`.6X6XwX6X6X6X6X6XwX:Xg < t 2 2 t t t t t * %.A.r.>.3.>.r.S.c.S.S.p.(.DXZX`.H.Y.K.Q.9X9X6X6X6X6X6X6X6X6X6X9XQ.I.I.I.D.|.9X6XwX6X6XwX|.K.K.K.K.Q.0X(.H.K.I.K.I.*XH.I.H.Q.6X6X6X6XrX*XH.I.I.I.I.`.oX6X).H.I.I.I.I.I.I.I.I.I.(.6X6X6X6X6X6X6X6XrX`.D.K.I.I.I.I.D.`.0X9X6X6X6XsXK $ t t t t w t < 1 %.r.>.>.r.B.S.S.S.S.c.c.p.3.;.pXSXK.`.9X6X6X9X6X9X9X6X6X6X6X6X6X6XI.I.I.I.I.I.I.I.I.9X6X6X6X6X6X6X6X6X6X6X>XK.I.I.K.I.>X>XS.I.I.I.I.I.|.>XK.K.I.6X6X6X6X6X6X6X6X6X6X6X6X6X9X9XQ.K.I.K.>X9X6X6X6X6X(.H.(.6X6X6X6X6X6X6X6X6XQ.K.Y.K.6X6X6X6XQ.K.I.I.I.I.|.uX5.# i t 0 6 p.D.B.H.u.>.>.r.z.S.t.8XFXFXgXK.I.I.Y.H.Q.9X6X6X6X6X'.I.I.I.I.I.I.I.I.I.I.Q.5X6X6X",
"9X9X9X9X6X6X6XeX|.D.I.I.S.I.I.I.I.I.I.I.I.I.Q.9X6XoXrX'.I.I.I.I.I.I.I.I.I.I.I.K.|.6X6X6X6XrX`.K.I.I.I.I.I.I.I.D.6XwX6X6X6X6X6X6XQ.K.I.D.G.2Xj $ t t t t t ; Z B.B.B.B.r.>.>.1.>.>.p.D.z.S.z.x.z.sXdX,X6XQ.K.I.I.K.|.6X6X6X6X6X6X6X6X6X6X6X6X6X>XI.I.I.I.I.I.I.I.I.K.`.9X6X6X6X6X6X9X*XK.K.I.I.I.I.I.K.Q.,X6X6X6X6X6X6X6X6X6X6X6X6X6X6X6X6X6X6X6X6X|.Q.I.I.I.I.I.I.I.K.(.6X6X6X6X6X6X6X6X6X6X6XQ.H.K.K.I.I.>XwXwX6X6X6X6X6XwX:Xg < t 2 2 t t t t t < %.I.y.>.3.1.>.p.S.S.S.p.(.ZXAX^.H.Y.I.D.>X9X9X6X6X6X6X6X6X6X6X6X(.I.I.D.Q.>X9X6XwX6X6XwX,XQ.K.K.K.Q.rX|.I.I.I.I.I.*XI.I.H.Q.6X6X6X6XrX<XI.I.I.I.I.(.oX6X).I.I.I.I.I.I.I.I.I.I.(.6X6X6X6X6X6X6X6XwX|.D.K.K.I.I.I.I.I.5X9X6X6X6XsXK $ t t t t w t < 1 %.r.>.6.c.B.S.S.S.S.c.p.r.3.;.8XSXQ.,X9X6X6X6X9X9X9X9X9X6X6X6X6X(.I.Y.I.I.I.I.I.K.(.0X6X6X6X6X6X6X6X6X6X6X`.K.I.I.K.Q.9X`.K.I.I.I.K.Q.oX(.I.K.`.6X6X6X6X6X6X6X6X6X6X6X6X6X9X9XQ.K.I.K.>X9X6X6X6XoXY.I.*X0X6X6X6X6X6X6X9X>XI.I.K.Q.6X6X6X6XQ.I.I.I.I.I.|.uX5.# i t 0 6 i.D.B.H.p.1.>.r.z.S.t.>XFXFXvXQ.K.I.I.I.K.*X6X6X6X6X6X`.I.I.I.I.I.I.I.I.I.I.I.*X9X",
"9X9X9X9X6X0X9X|.Q.I.I.I.D.I.I.I.I.I.I.I.I.I.`.9X6X6X9X(.I.I.I.I.I.I.I.I.I.I.I.D.|.6X6XwX6XrX`.K.I.I.I.I.I.I.I.D.>XwX6X6X6X6X6X6XQ.K.I.D.D.2Xj 9 t t t t t w b z.B.B.B.1.>.>.1.1.r.c.S.z.S.z.D.z.aXdX,X>XD.I.I.I.D.>X6X6X6X6X6X6X6X6X6X6X6X6X6X>XI.I.I.I.I.I.I.I.I.K.>X9X6X6X6X6X6XrX`.H.I.I.I.I.I.I.D.`.6X6X6X6X6X6X6X6X6X6X6X6X6X6X6X6X6X6X6X6X6X6X*XI.I.I.I.I.I.I.I.I.*X6X6X6X6X6X6X6X6X6X6X`.K.H.K.I.K.`.rX6X6X6X6X6X6XwX:Xg ; t 3 2 t t t t t * %.I.s.>.1.1.>.r.S.S.S.c.`.DXFX^.H.Y.K.D.Q.9X9X9X6X6XwX6X6X6X6XrXQ.I.I.D.(.6X6X6X6X6X6X,X,XQ.K.K.K.I.6X6XI.I.I.I.I.`.I.K.I.D. X6X6X6XrX8XI.I.I.I.I.(.oXwX|.I.I.I.I.I.I.I.I.I.I.(.6X6X6X6X6X6X6X6XwX,XK.H.K.I.I.K.I.D.`.rXwX6X6XsXK $ t e t t t t 1 1 %.r.>.r.S.B.S.S.B.c.D.p.>.3.;.3XSXQ.9XrX6X6X6X6X6X6X6X6X6X6X9X>XK.I.Y.I.I.I.I.I.D.>XrX6X6X6X6X6X6X6X6X6X9XQ.K.I.I.H.`.6XQ.K.I.I.I.K.`.wXQ.I.K.|.wXwX6X6X6X6X6X6X6X6X6X6X6X6X9XQ.K.I.D.>X6X6X6X6X5XY.Y.>X0X6X6X6X6X6X6X0X`.K.I.H.`.wX6XwX6XQ.I.I.I.I.I.OXuX5.# i t 0 6 i.D.S.S.g.1.>.1.t.c.z.>XFXFXVX(.K.I.I.I.K.I.>XwX6X6X6X5XQ.I.I.I.I.I.I.I.I.I.Y.Y.(.",
"I.(.*X>X>X>X(.D.I.I.I.I.I.I.I.I.I.I.I.I.I.I.5X9X6X6X6XI.I.I.I.I.I.I.I.I.I.I.I.K.'.6X6X6X6XrX}.K.I.I.I.I.I.I.I.D.`.wX6X6X6X6X6X6XQ.K.I.D.D.2Xm $ t t t t t w u z.S.B.z.>.>.>.1.] r.S.B.S.S.z.D.z.9XcX,X`.K.I.I.K.D.6X6X6X6X6X6X6X6X6X6X6X6X6X6X>XI.I.I.I.I.I.I.I.I.I.>X9X6X6X6X6X6X6X(.H.I.I.I.I.I.K.I.,X6X6X6X6X6X6X6X6X6X6X6X6X6X6X6X6X6X6X6X6X6X6X9X*XI.I.I.I.I.I.I.K.I.>X6X6X6X6X6X6X6X6X6X>XI.H.I.I.K.I.6XwX6X6X6X6X6XwX,Xg w t e t t t t t t * %.I.H.u.1.1.>.1.t.S.S.c.&XDXFX^.H.Y.K.I.K.`.9XwX6X6XwXwX6X6XrX|.I.Y.I.I.>X6X6X6X6X6X6X6X,XQ.K.K.K.Q.6XeX*XI.Y.I.I.(.Q.D.I.I.5X6X6X6X6X5XI.I.I.I.I.Q.6X6X>XI.I.I.I.I.I.I.I.I.I.I.6X6X6X6X6X6X6X6X6X6XQ.H.K.I.I.K.I.I.Q.>XrX6X6XsXK $ t e t t t t 1 1 %.r.| c.S.B.S.B.z.z.z.r.y.y.;.3XFX<X9XrXwX6X6X6X6X6X6X6X6X9X9XK.K.K.I.K.K.I.I.K.Q.6X6X6X6X6X6X6X6X6X6X6X>XK.I.I.Y.K.>XoXY.I.I.I.I.D.>XoXI.K.I.6X6XwX6X6X6X6X6X6X6X6X6X6X6X6X6XQ.K.K.I.6X6X6X6X6X|.Y.Y.6X6X6X6X6X6X6X6X9X(.K.I.I.>X6X6X6X6XI.I.I.I.I.I.5XdX5.# i t t 3 i.D.S.S.g.r.>.>.y.S.z.*XFXFXZX8XI.I.I.I.I.K.(.6X6X6X6X6X5X(.S.I.I.I.I.I.I.I.I.I.K.",
"S.D.D.D.D.D.D.K.I.I.I.I.I.I.I.I.I.I.I.I.K.`.9X6X6XwX>XI.I.I.I.I.I.I.I.I.I.I.I.K.`.6X6X6X6XrX|.K.I.I.I.I.I.I.I.D.).wX6X6X6X6X6X6XQ.K.I.K.D.:Xm 9 t w t t t t t r.S.B.t.>.>.>.1.] t.S.B.S.c.z.S.t.9XvX>XQ.I.I.I.K.Q.6X6X6X6X6X6X6X6X6X6X6X6X6X6X>XD.I.I.I.I.I.I.I.I.I.9X9X6X6X6X6X6X6XQ.K.I.I.I.I.I.K.(.6X,XwX6X6X6X6X6X6X6X6X6X6X6X6X6X6X6X6X6X6X6X6X6X9X`.I.I.I.I.I.I.I.I.Q.>X6X6X6X6X6X6X6X6X6X`.K.Y.K.I.K.`.rX6X6X6X6X6X6X1Xm w t t t t t t t t < %.I.H.p.>.>.>.1.t.H.S.c.&XFXDX:XS.Y.I.I.I.I.>XrXrX6X6X,X6X6X,XQ.I.I.I.(.6X6X6X6X6X6X6X6X,XQ.K.I.H.I.9X6X5XI.Y.K.H.(.`.D.I.I.>X6X6XoX6X6XQ.I.I.I.I.I.6X6X6XI.I.I.I.I.I.I.I.I.I.I.>X7X6X6X6X6X6X6X6X6X).H.K.I.I.K.K.I.D.`.6X6X6XsXK $ t e e t t t e < &.r.6.c.c.B.B.z.z.z.r.>.y.r.>.-XFX9X9XwXwX6X6X6X6X6X6X6X6X9X>XK.K.K.K.K.I.I.I.K.|.rX6X6X6X6X6X6X6X6X6X9X`.K.I.I.H.Q.rX|.I.I.I.I.I.D.0X`.H.I.`.6X6XwX6X6X6X6X6X6X6X6X6X6X6X6X6XQ.K.K.I.6X6X6X6X6X'.I.Y.6X6X6X6X6X6X6X6X5XI.I.I.I.6X6X6XwX6XI.I.I.I.I.I.|.dX5.# i t t 4 i.D.S.S.S.y.1.1.y.c.z.*XFXFXZX9X(.I.I.I.I.K.I.|.6X6X6X6X9X6X(.K.I.I.I.I.I.I.I.I.I.",
"K.K.K.D.I.H.D.I.I.I.I.I.I.I.I.I.I.I.I.I.I.5XrX6X6XwX'.D.I.I.I.I.I.I.I.I.I.I.I.K.Q.6X6X6X6XrX|.K.I.I.I.I.I.I.I.K.Q.6X6X6X6X6X6X6XQ.K.I.K.D.:XM 9 t w t t t t w X.D.c.r.] >.>.1.] t.S.S.S.c.c.S.t.>XvX}.D.I.I.Y.H.(.6X6X6X6X6X6X6X6X6X6X6X6X6X6X|.D.I.I.I.I.I.I.I.K.Q.9X6X6X6X6X6X6X6XI.K.I.I.I.I.I.D.>X9X6XwX6X6X6X6X6X6X6X6X6X6X6X6X6X6X6X6X6X6X6X6X6X6X6X(.I.I.I.I.I.I.I.K.(.6X6X6X6X6X6X6X6X6X>XI.I.H.I.I.Q.,XwX6X6X6X6X6X1Xm w t t t e t t t t < %.I.H.p.r.>.>.>.y.H.S.c.*XFXDX1XS.Y.Y.I.I.I.Q.6XrX6X6X6X6X,XQ.K.I.I.I.|.6X6X6X6X6X6X6X9X,XI.I.I.H.I.9X6X0X`.K.I.H.(.).K.I.I.>X6X6X6X6X6XQ.H.I.I.I.I.6X6X9X(.I.I.I.I.I.I.I.I.I.I.|.0X6X6X6X6X6X6X6XwX|.K.K.K.I.I.K.I.I.G.|.6X5XsXK $ t e e t t t 1 < &.r.r.c.c.B.B.z.x.z.>.>.>.r.>.&XFX9X6XwX6X6X6X6X6X6X6X6X6X9XQ.K.K.K.K.K.I.I.H.Q.6X6X6X6X6X6X6X6X6X6X6X6XQ.K.I.I.I.|.wX|.I.I.I.I.I.Q.rXY.H.I.5X6X6X6X6X6X6XwX6X6X6X6X6X6X6X6X6XQ.K.K.Q.6X6X6X6X6X`.H.(.6X6X6X6X6X6X6X6X'.K.I.I.Q.6X6X6XwX6XI.I.I.I.I.I.|.dX5.# i t t 4 0.D.S.S.S.p.>.3.3.p.c.&XAXFXZX9X>XI.I.I.I.I.K.Q.6X6X6X6X6X0X9X(.S.I.I.I.I.I.I.I.I.",
"I.I.I.I.I.I.I.I.I.I.I.I.I.I.I.I.I.I.I.D.`.6X6X6X6XwX(.H.I.I.I.I.I.I.I.I.I.I.I.I.I.9X6X6X6X9X>XI.I.I.I.I.I.I.I.K.Q.6X6X6X6X6X6X6X(.D.I.K.D.&XN 9 t w t t t t < ..D.z...>.1.1.>.| t.S.S.S.S.c.S.t.>XbX).D.I.I.Y.H.`.9X6X6X6X6X6X6X6X6X6X6X6X6X6X'.D.I.I.I.I.I.I.I.K.(.9X6X6X6X6X6XwX5XI.K.I.I.I.I.I.I.9X6X6X6X6X6X6X6X6X6X6X6X6X6X6X6X6X6X6X6X6X6X6X6X6X6X6X5XQ.I.I.I.I.I.I.I.I.>X6X6X6X6X6X6X6X6X6XQ.K.H.I.I.D.`.9X6X6X6X6X6X9Xm ; t e t t t t w t < %.D.S.S.r.1.>.>.r.p.H.c.*XFXFXaXK.P.Y.I.I.I.I.`.9XwXwXrX>XI.H.I.Y.I.Q.9X6X6X6X6X6X6X6X9X>XI.I.I.S.(.6X6X6X>XK.Y.H.I.`.D.I.I.>X6X6X6X6XwX`.S.I.I.I.I.6X6XrX(.A.I.I.I.I.I.I.I.I.I.`.7X6X6X6X6X6X6X6X6X|.I.K.K.I.I.K.K.I.D.).rX6XsXK $ t e t t e t < < / ..r.c.c.B.B.z.D.t.>.3.>.8.] %XFX9X6XwXwX6X6X6X6X6X6X6XrX`.S.K.K.K.K.K.I.I.K.`.9X6X6X6X6X6X6X6X6X6X6X}.K.I.Y.H.(.6X6X`.I.I.I.I.I.|.oXI.H.Q.9X6X6X6X6X6X6XrX9X6X,X6X6X6X6X6X6XQ.U.U.Q.6X6X6X6X6X(.H.*XeX6X6X6X6X6X6X6X(.K.I.I.(.9X6X6XwX|.I.I.I.I.I.I.5XdX5.# i t t 4 5.K.S.S.S.p.1.3.>.i.p.`.FXFXZX9XoX`.K.I.I.I.I.K.`.6X6X6X6X6X6X5X(.D.I.I.I.I.I.I.I.",
"I.I.I.I.I.I.I.I.I.I.I.I.I.I.I.I.I.I.I.I.>X6X6X6XwX6XQ.K.I.I.I.I.I.I.I.I.I.I.I.I.I.5X6X6X6XrX>XI.I.I.I.I.I.I.I.I.I.,XwX6X6X6X6X6X`.D.I.K.D.`.N 9 t w t t t t < [ K.p.| >.1.1.>...z.S.S.S.S.S.S.t.>XbXG.D.I.I.I.H.|.6X6X6X6X6X6X6X6X6X6X6X6X6X6X'.D.I.I.I.I.I.I.I.K.`.9X6X6X6X6X6XwX>XK.I.I.I.I.I.K.Q.9X6X6X6X6X6X6X6X6X6X6X6X6X6X6X6X6X6X6X6X6X6X6X6X6X6X6X6X>XI.I.I.I.I.I.I.I.Q.5X6X6X6X6X6X6X6X6X|.D.K.K.I.I.Q.6XwX6X6X6X6X9XC $ t e t t t t w t < %.D.H.S.t.1.1.>.1.s.H.z.*XFXAXdX&XI.I.I.I.I.I.I.>XrX9X`.K.K.I.I.I.I.'.9X6X6X6X6X6X6X6X9X>XK.I.H.H.|.6X6X6X6XQ.K.K.I.'.D.I.I.>X6X6X6X6XwX'.S.I.I.I.I. X6XrX`.I.I.I.I.I.I.I.I.I.I.(.6X6X6X6X6X6X6X6X6X6XQ.K.K.I.I.K.K.K.I.D.}.6XsXK $ t e t t e t < < / ..r.c.z.z.z.B.c.r.>.>.1.y._ Q.FXrX,XwX6X6X6X6X6X6X6X6X6XI.K.K.K.K.K.K.I.H.Q.9X6X6X6X6X6X6X6X6X6X6X6XQ.K.I.Y.H.'.9X6X`.I.I.I.I.I.6X).I.S.`.6X6X6X6X6X6X,X,X6X6X6X6X6X6X6X6X6XQ.U.P.Q.6X6X6X6X6X(.H.5XeX6X6X6X6X6X6X6XI.I.I.I.`.rX6X6XwX|.I.I.I.I.I.Q.6XdX5.# i t t > :.H.S.S.S.c.y.>.1.r.p.(.FXFXZX9X X>XI.I.I.I.I.K.D.|.6X6X6X6X6X6X9X(.I.I.I.I.I.I.I.",
"I.I.I.I.I.I.I.I.I.I.I.I.I.I.I.I.I.I.D.).6X6X6X6X6X6XD.I.I.I.I.I.I.I.I.I.I.I.I.I.I.>X6X6X6XwX>XI.I.I.I.I.I.I.I.I.D.>XwX6X6X6X6X6X`.I.I.K.D.(.V 9 t t t t t t < [ K.r.] >.1.1.>.r.c.B.S.S.S.S.S.t.>XvXD.I.I.I.I.I.>X6X6X6X6X6X6X6X6X6X6X6X6X6XwX'.D.I.I.I.I.I.I.I.I.>X9X6X6X6X6X6XwX'.D.I.I.I.I.I.I.*XrX6X6X6X6X6X6X6X6X6X6X6X6X6X6X6X6X6X6X6X6X6X6X6X6X6X6X6X9X*XI.I.I.I.I.I.I.I.`.6X6X6X6X6X6X6X6X,XI.K.K.K.I.I.`.9X6X6X6X6XrXC $ t t t t t t w t > %.D.S.S.z.r.1.>.>.p.H.t.*XFXFXdX1XQ.I.Y.I.I.I.I.Q.&XQ.K.K.I.I.I.H.Q.6X9X6X6X6X6X6X6X6X9X&XK.I.S.I.6X6X6X,X6X'.K.I.I.`.I.I.I.>XrX6X6X6X6X>XI.I.I.I.I.|.6XwX|.I.I.I.I.I.I.I.I.I.I.(.6X6X6X6X6X6X6X6X6X6X`.K.K.K.I.I.K.K.D.D.D.5XsXK $ t w t t e t < < / r.z.z.z.z.z.S.p.>.1.>.1.3._ Q.FXrX,XwX6X6X6X6X6X6X6XrX`.S.I.K.K.I.K.K.I.S.'.9X6X6X6X6X6X6X6X6X6X6X|.D.K.I.K.I.|.9X5XQ.I.I.I.I.(.9XI.I.D.>X6X6X6X6X6X6X6X`.(.|.wX6X6X6X6X6X6XQ.U.U.`.6X6X6X6X>XY.D.6XwX6X6X6X6X6XwX|.I.I.I.I.|.wX6X6XeX|.I.I.I.I.I.Q.6XdX5.# i t t 4 ^ H.S.S.S.c.p.>.3.1.r.(.FXFXZXrX X6X`.I.I.I.I.I.D.Q.6X6X6X6X6X6X6X6X`.D.D.I.I.I.I.",
"I.I.I.I.I.I.I.I.I.I.I.I.I.I.I.I.I.D.D.|.6X6X6X6X6X>XD.I.I.I.I.I.I.I.I.I.I.I.I.I.I.*X6X6X6X6X6XI.K.I.I.I.I.I.I.I.D.|.wX6X6X6X6X6X`.I.I.K.D.Q.V 8 t t t t t t * ( K.| >.1.1.1.1.t.S.B.S.B.S.S.S.t.`.vXD.I.I.I.K.I.6X6X6X6X6X6X6X6X6X6X6X6X6X6X6X`.D.I.I.I.I.I.I.I.I.>X6X6X6X6X6X6XwX`.D.I.I.I.I.K.I.,XrX6X6X6X6X6X6X6X6X6X6X6X6X6XwX6X6X0X7X6X6X9X6X6X6X6X6X6X6X6X|.I.I.I.I.I.I.I.I.|.6X6X6X6X6X6X6X6X`.K.K.K.I.I.Q.,X6X6X6X,XrXL $ t t t t t e w t > %.D.S.S.S.r.1.1.>.y.K.t.*XKXFXaX9X`.K.U.I.I.I.I.K.K.K.I.I.I.I.K.I.>X9XwX6X6X6X6X6X6X6X9X(.K.I.K.(.6X6X9X6X6X>XI.I.K.(.Q.K.K.`.rX6X6X6X6X>XI.I.I.I.I.'.6XwX6XI.I.I.I.I.I.I.I.I.I.Q.5X0X6X6X6X6X6X6X6X9X'.K.K.I.I.I.K.I.K.D.D.(.fXT $ t w t t t t < w &.t.z.z.z.B.B.S.r.>.1.1.1.1.] Q.FXsX,XwX6X6X6X6X6X6X6X6X`.S.I.I.I.I.I.I.K.K.>X6X6X6X6X6X6X6X6X6X6X6X`.D.I.I.K.(.6X9X>XI.I.I.I.D.`.>XK.K.`.9X6X6X6X6X6XwX,XK.H.Q.6X6X6X6X6X6X6XI.U.U.`.6X6X6X6X|.H.Q.6X6X6X6X6X6X6X6X).I.I.I.I.,X6X6X6XeX`.I.I.I.I.I.Q.6XdX5.# i t t 1 ~ p.S.S.z.S.c.>.3.1.>.Q.AXAXAXrX6X6X6X(.I.I.I.I.I.K.`.6X6X6X6X6X9X6X6X>X(.I.I.I.I.",
"I.I.I.I.I.I.I.I.I.I.I.I.I.I.I.I.I.D.|.6X,X6X6X6X6X'.S.I.I.I.I.I.I.I.I.I.I.I.I.I.I.'.6X6X6X6X6XQ.K.I.I.I.I.I.I.I.K.|.wX6X6X6X6X6X|.I.I.K.D.Q.V 9 t w t t t t < E H.6.>.1.1.>...p.c.B.S.S.S.S.S.t.`.bXD.I.I.Y.K.Q.6X6X6X6X6X6X6X6X6X6X6X6X6X6X6X(.D.I.I.I.I.I.I.I.Q.6X6X6X6X6X6X6X6X(.H.I.I.I.I.K.Q.9X6X6X6X6X6X6X6X6X6X6X6XwX6X6X6X6X7X6X6X6X6X6X6X6X6X6X6X6X6X6X6X`.I.I.I.I.I.I.I.Q.,X6X6X6X6X6X6X6X>XI.K.H.I.I.I.&X9X6X6X6XrXL $ t t e t t t w t # %.D.S.S.S.t.1.1.>.r.H.t.*XKXAXsX6X|.I.P.I.I.I.I.I.I.I.I.I.I.I.H.(.6XwX6X6X6X6X6X6X6X9X9XI.K.I.I.'.6X6X9X6X6X>XI.I.K.(.Q.K.K.(.wX6X6X6X6X6XQ.I.I.I.I.`.9X9X6XQ.I.I.I.I.I.I.I.I.I.I.|.7X6X6X6X6X6X6X6X9X>XI.K.I.I.I.I.K.K.K.D.D.<XT $ t w t t t t < e &.t.c.z.z.B.B.c.6.>.1.1.1.1.>.Q.FXsX,X6X6X6X6X6X6X6X9X9XQ.H.I.I.I.I.I.I.S.I.9X6X6X6X6X6X6X6X6X6X6X6XQ.K.I.K.I.|.6X6X*XI.I.I.I.K.|.`.H.Y.6XwX6X6X6X6X6X>XK.I.Y.D.>XwX6X6X6X6X,XK.U.U.>X6X6X6X6X`.H.Q.6X6X6X6X6X6X6X6X(.I.I.I.(.6X6X6X6XwX).I.I.I.I.I.(.6XdX5.# i t t 1 ~ r.g.S.z.x.c.r.1.3.] U.AXAXZXrX6X6X6X>XI.H.I.I.I.I.I.>X6X6X6X6X6X6X6X9X9X`.K.I.I.",
"H.I.I.I.I.I.I.I.I.I.I.I.I.I.I.I.D.`.6X6X6X6X6X6X6X(.S.I.I.I.I.I.I.I.I.I.I.I.I.I.I.`.6X6X6X6X6X`.K.I.Y.I.I.I.I.I.K.'.wX6X6X6X6X6X|.I.I.K.D.Q.V 9 t t t t t t < T n.>.>.>.>.>.r.c.c.B.S.S.S.S.S.t.(.bXD.I.Y.Y.K.(.6X6X6X6X6X6X6X6X6X6X6X6X6X6X6X(.I.I.I.I.I.I.I.D.`.6X6X6X6X6X6X6X6XQ.I.I.I.I.K.K.`.rX6X6X6X6X6X6X6X6X6X6X>X`.(.>X6X6XrX6X6X6X9X6X6X6X6X6X6X6X6X6X6X,XQ.I.I.I.I.I.I.K.`.oX6X6X6X6X6X6X6X`.K.K.K.I.I.Q.>X6X6X6XrXK $ t t e t t t w t # %.D.S.S.c.z.r.>.>.r.p.t.<XKXAXdX,X6X'.P.I.I.I.I.I.I.I.I.I.I.I.I.>XwXwXwX6X6X6X6X6X6XrX*XK.K.H.K.>X6X6X6X6X6X6XI.I.K.Q.Q.K.K.(.6X6X6X6X6X6X(.K.I.I.H.(.9X6X6X(.I.I.I.I.I.I.I.I.I.I.'.7X6X6X6X6X6X6X6X9X6XQ.H.K.I.I.I.K.K.I.K.S.%XT $ t w t t t t 1 w &.c.z.z.z.B.B.p.>.1.1.1.1.1.6.Q.FXsX,X6X6X6X6X6X6X6X9X6XI.K.I.I.I.I.I.I.D.`.9X6X6X6X6X6X6X6X6X6X6X>XI.K.Y.K.Q.6X6X6X`.K.I.I.K.I.6XQ.H.`.6X6X6X6X6X9X>XI.K.Y.I.D.`.rX6X6X6X6X6XI.U.Y.>X6X6X6X6X(.H.`.wX6X6X6X6X6XwX5XI.I.I.I.`.6X6X6X6XwX).I.I.I.I.I.(.6XdX5.# i t t 3 Y 1.t.B.z.x.c.r.1.3.] H.AXAXZXrX6X6X6X6X'.I.I.I.I.I.I.Q.>X6X6X6X6X6X6X6X6X9X>X(.I.",
"(.I.I.I.I.I.I.I.I.I.I.I.I.I.I.I.Q.6X6X6X6X6X6X6X6XQ.S.I.I.I.I.I.I.I.I.I.I.I.I.I.I.(.6X6X6X6XwX>XK.I.Y.I.I.I.I.I.K.`.6X6X6X6X6X6X|.D.I.K.D.I.V 9 t t t t t t < P n.] 3.>.>.>.t.S.c.S.S.S.B.z.S.t.D.bXI.K.Y.Y.K.`.9X6X6X6X6X6X6X6X6X6X6X6X6X6X6XQ.I.I.I.I.I.I.I.D.|.6X6X6X6X6X6X6XoXI.I.I.I.I.K.K.>XrX6X6X6X6X6X6X6X6X6X>XQ.I.I.D.`.6X6X6X6X6X6X6X9X9X6X6X6X6X6X6X6X6X>XQ.I.I.I.I.I.I.I.}.6X6X6X6X6X6X6X>XK.K.K.K.I.I.&X6X6X,XrX) $ t t t t t t w t > %.D.S.S.z.z.r.>.>.>.t.p.<XKXFXsX6X6X9XQ.K.I.I.I.I.I.I.I.I.I.I.'.6XwX6XwX6X6X6X6X6X6X9XQ.K.I.H.I.9X6X6X6XwX6X9XI.I.K.I.(.K.I.I.6X6X6X6X6X9X`.D.I.I.H.I.9X6X6X'.I.I.I.I.I.I.I.I.I.I.'.7X6X6X6X6X6X6X6X9X6X(.K.K.I.I.I.I.K.I.K.H.Q.L 9 t w t t 3 3 3 w %.S.z.z.z.S.B.r.>.1.1.1.1.1.r.Q.FXdX,X6X6X6X6X6X6X6X9X>XK.K.I.I.I.I.I.I.K.>X6X6X6X6X6X6X6X6X6X6X9X'.K.Y.I.I.'.6X6X6X(.I.K.I.K.(.,XK.I.>X6X6X6X6X9X'.I.Y.Y.I.I.I.Q.9X6X6X6X6X6XK.I.Y.>X6X6X6X6XQ.H.|.rX6X6X6X6X6XwX'.I.I.I.I.>X6X6X6X6X6X(.I.I.I.I.I.).6XdX5.# i t t < Y 1...z.B.z.c.c.r.>.] c.AXAXZXrX6X6X6X6X6X`.D.I.I.I.I.I.Q.,X6X6X6X6X6X6X6X6X9X9X5X",
"wX>X`.I.K.S.I.I.I.I.I.I.I.I.D.Q.>X6X6X6X6X6X6X6X6XI.I.I.I.I.I.I.I.I.I.I.I.I.I.I.I.(.6X6X6X6XwX>XK.I.I.I.I.I.I.I.K.`.9X6X6X6X6X6X|.I.I.K.K.I.V 9 t t t t t t < P s.] 3.>.>.>.p.S.c.S.S.S.S.B.S.g.t.bXQ.H.Y.Y.K.>X6X6X6X6X6X6X6X6X6X6X6X6X6X6X6XI.I.I.I.I.I.I.I.D.>XwX6X6X6X6X6X6X|.I.I.I.I.I.I.I.9X9X6X6X6X6X6X6X6X6X6X'.K.K.I.I.K.Q..X6X6X6X6X6X9X9X9X9X6X6X6X6X6X6X6X`.I.I.I.I.I.I.K.Q.6X6X6X6X6X6X6X6X`.K.K.H.K.I.Q.>X6X,XrX^ $ t t t t t t w t < %.D.S.S.z.z.c.r.>.>.r.p.<XFXAXsX6XwX9X>XK.I.I.I.I.I.I.I.I.I.D.,XwXwX6XwX6X9X6X6X6X9X>XD.K.K.D.'.9X6X6X6XrX6X9XQ.I.K.K.(.I.I.I.,X6X6X6X6X9X`.D.I.I.I.I.9X9X6X>XD.I.I.I.I.I.I.I.I.I.(.6XeX6X6X6X6X6X6X6X6X&XK.K.I.I.I.I.K.K.K.H.Y.L 9 t t t t 3 1 3 w %.S.z.z.z.S.z.] 1.1.1.1.1.1.r.Q.FXdX X6X6X6X6X6X6X6XrX>XK.I.I.I.I.K.I.I.I.9X6X6X6X6X6X6X6X6X6X6X9X(.K.I.I.I.6X6X6X9X(.K.I.I.K.`.`.S.`.wX X6X6X9X*XH.H.I.I.I.I.I.I.6X6X6X6X6X5XK.Y.Y.6X6X6X6X6XD.K.5X9X6X6X6X6X6X6X(.I.I.K.Q.6X6X6X6X6X6X(.I.I.I.I.I.).6XdX5.# i t t < Y 3.[ t.D.c.x.x.r.>.>.p.AXFXFXrX6X6X6X6X6X>XQ.H.I.I.I.I.I.`.6X6X6X6X6X6X6X6X6X6X6X",
"6XrX9X5X>X`.Q.I.K.H.H.S.D.Q.`.5X9X6X6X6X6X6X6XrX,XI.I.K.I.I.I.I.I.I.I.I.I.I.I.I.I.Q.6X6X6X6XwX6XQ.K.I.I.I.I.I.I.K.`.9X6X6X6X6X6X|.D.I.K.K.Y.N 9 t t t t w t < M d.>.1.>.1.r.c.S.c.S.S.S.c.S.S.p.t.bXQ.H.Y.Y.Q.>X6X6X6X6X6X6X6X6X6X6X6X6X6X6X|.I.I.I.I.I.I.I.K.*X9X6X6X6X6X6X6X9X|.I.I.I.I.Y.I.(.9X6X6X6X6X6X6X6X6XwX6XI.I.K.I.I.I.K.Q.|.6X6X6X6X9X9X6X6X6X6X9X6X6X6X6X6X`.K.H.I.I.I.I.I.`.0X6X6X6X6X6X6X>XI.K.K.K.I.I.`.6X6XrX^ $ t t t e t t t t < %.D.S.S.c.z.S.r.1.1.1.p.<XHXAXdX6XrX9X9XQ.K.I.I.I.I.I.K.H.I.>X6X6X6X6X6X6X6X6X6X9X9XQ.S.I.H.Q.6X9X6X6X6X6X6X9XQ.Y.K.K.(.I.I.I.>X6X6X6X6X6X5XD.I.I.I.K.8X9X6X6XI.I.I.I.I.I.I.I.I.I.I.6XeX6X6X6X6X6X6X6X6X>XI.K.K.I.I.I.K.K.K.H.Y.L 9 t w t t 3 3 3 w <.H.z.z.B.S.c.>.3.1.1.1.1.r.r.Q.FXkX X6X6X6X6X6X6X6XrX`.H.I.I.I.I.I.I.I.Q.9X6X6X6X6X6X6X6X6X6XwX,XQ.K.I.K.(.6X6X6X6XI.I.I.K.K.>XQ.Q.6XwX6XrX>XQ.K.K.I.I.I.I.I.I.D.>XwX6X6X6X>XK.K.I.6XwX6X6X>XH.I.9X9X6X6X6X6X6X5XQ.I.I.K.`.6X6X6X6X6X6XQ.I.I.I.I.I.).6XdX5.# i t t < Y y.] t.S.c.c.x.i.r.] p.AXFXZXrX6X6X6X6X6X9X|.I.I.I.I.I.I.I.`.6X6X6X6X6X6X6X6X6X6X",
"6X6X6X6X6X6X6X>X`.(.Q.`.>X>X6X9X6X6X6X6X6X6X6XrX>XI.I.K.I.I.I.I.I.I.I.I.I.I.I.I.I.Q.6X9X6X6X6XrXQ.K.I.I.I.I.I.I.K.`.9X6X6X6X6X6X|.D.I.I.K.Y.V 9 t t t t t t < n 8.>.1.1.>.r.c.c.c.S.c.S.c.c.S.e.r.SX(.H.I.K.`.6X6X6X6X6X6X6X6X6X6X6X6X6X6X6X'.I.I.I.I.I.I.I.I.>X9X6X6X6X6X6X6XrX`.I.I.I.I.Y.K.|.6X6X6X6X6X6X6X6X6XrX'.D.I.I.I.I.I.I.I.Q.}.6X6X6X9X9X6X6X6X6X9X9X6X6X6X6X>XQ.H.I.I.I.I.I.K.>X6X6X6X6X6X6X6X`.K.I.I.I.I.I.|.6XrX*.$ t e t e t t t t < %.D.S.S.c.z.S.r.1.1.1.u.<XFXAXrX6X6X6X9X>XK.I.I.I.I.I.I.H.(.9X6X6X6X6X6X6X6X6X6X9X'.S.I.I.S.|.6X6X6X6X6X6X6X9XI.U.K.K.(.I.I.K.>X9X6X6X6X6X6XI.I.I.I.S.>X9X6X6X(.A.I.I.I.I.I.I.I.I.I.6XeX6X6X6X6X6X6X6X6X6XI.K.I.I.I.I.K.K.K.H.Y.L 9 t w e e t 3 < w 8.D.z.B.B.S.p.>.3.1.1.1.1.r.p.Q.FXkX,X6X6X6X6X6X6X6X9XQ.H.I.I.K.I.I.I.I.`.9X6X6X6X6X6X6X6X6X6X6X`.K.I.I.K.`.6X6X6X>XK.I.I.K.Q.6XD.}.wX X6X>XI.D.I.I.I.I.K.I.I.I.D.`.wX6X6X6X>XK.K.I.6XwXwX6X>XH.Q.9X9X6X6X6X6X7X|.I.I.I.I.>X6X6X6X6X6X6XQ.I.I.I.I.I.'.6XdX5.# i t t < $.r.] r.p.S.c.x.c.y.] r.SXFXAXsX6X6X6X6X6X6X9X`.I.I.I.I.I.I.I.`.6X6X6X6X6X6X6X6X6X",
"6X6X6X6X6X6X6XwXwX6X,X6XrX9X6X6X6X6X6X6X6X6X6XwX|.I.I.K.I.I.I.I.I.I.I.I.I.I.I.I.I.I.6X6X6X6XwXwX`.K.I.I.I.I.I.I.K.`.rX6X6X6X6X6X|.D.I.I.K.Y.V q t t t t t t < b ,.1.>.1.>.u.c.c.c.c.S.c.c.S.S.1.r.SX&XH.I.I.`.wX6X6X6X6X6X6X6X6X6X6X6X6X6X6X(.H.I.I.I.I.I.I.Q.6X6X6X6X6X6X9X6X9X(.I.I.I.I.Y.I.6X6X6X6X6X6X6X6X6X6X6XI.I.I.I.I.I.I.I.I.I.Q.`.6X6X9X6X6X6X6X9X9X9X6X9X6X6X6X>XI.K.I.I.I.I.Y.I.6XwX6X6X6X6X6X>XI.K.I.K.I.D.Q.6XrX5.$ e t t e e t w t < %.D.S.S.S.B.S.u.1.1.3.r.-XFXZXrX6X6X6X6X6XQ.K.I.I.I.I.K.I.5X6X6X6X6X6X6X6X6X6X6X>XK.H.I.K.(.6X6X6X6X6X6X6X6X9XI.Y.I.D.(.(.I.K.`.9X6X6X6X6X6X(.I.I.I.S.`.6X6X6X`.A.I.I.I.I.I.I.I.I.I.>XeX6X6X6X6X6X6X6X6X6X(.K.I.I.I.I.K.K.K.K.Y.L 9 t w e e t 3 1 w 8.D.z.B.B.S.p.>.3.1.1.1.1.r.p.Q.AXvX,X6X6X6X6X6X6X6X9XQ.H.I.I.K.I.I.I.K.*X6X6X6X6X6X6X6X6X6X6X6XQ.K.I.I.I.>X6X6X6X*XK.Y.I.K.*X|.G.,XwX,X!.I.K.K.K.K.K.I.I.K.K.K.D.`.wX6X6X6X*XK.K.Q.6X6X6X6X`.H.(.9X6X6X6X6X6X6X`.I.I.I.Q.6X6X6X6X6XwX>XI.I.I.I.I.I.>X6XdX5.# i 2 t > $.t.>.r.i.S.c.c.c.p.>.r.SXFXAXjX6X9X9X6X9X6X6X9X(.K.I.I.I.I.I.K.`.9X6X6X6X6X6X6X6X",
"6X6X6X6X6X6X6X6X6X6X6X6X6X6X6X6X6X6X6X6X6X6X6XwX}.K.I.I.I.I.I.I.I.I.I.I.I.I.I.I.I.I.6X6X6XwX6XwX|.K.I.I.I.I.I.I.K.`.rX6X6X6X6X6X|.D.I.I.K.(.P q t t t t t t < a ,.1.1.1.1.p.c.c.c.c.S.S.c.S.p.{ 1.SX<XH.Y.Y.>XwX6X6X6X6X6X6X6X6X6X6X6X6XoX6XI.H.I.I.I.I.I.I.`.9X6X6X6X6X6X6X6X9X(.I.I.I.I.I.Q.rX6X6X6X6X6X6X6X6XwX|.K.I.I.I.I.I.I.I.I.I.I.I.}.6X6X9X6X6X6X9X9X9X6X6X9X9X6X6X`.K.K.I.I.I.Y.H.*XeX6X6X6X6X6X6X(.D.K.I.I.I.D.(.rX0.9 e t t t t t w t < %.D.S.S.S.B.S.p.1.1.3.1.-XKXZXdX6X6X6X6X6X:XK.I.I.I.I.H.`.9X5X6X6X6X6X6X6X6X6X9XQ.S.I.I.I.>XwX6X6X6X6X6X6X6X6XI.Y.I.S.(.(.K.K.(.9X6X6X6X6X6X).D.I.I.S.(.6XoX6X|.D.I.I.I.I.I.I.I.I.I.`.6X6X6X6X6X6X6X6X6X6X`.H.I.I.I.I.K.K.K.K.Y.L 9 t w e e t 3 1 w 5.D.c.S.S.S.u.>.3.1.3.3.3.r.p.W.ZXvX,X6X6X6X6X6X6X6X6XI.K.I.I.I.I.I.I.K.>X6X6X6X6X6X6X6X6X6XwX>XD.I.I.K.(.wX6X6XwX(.K.I.I.K.>X(.!.rX XI.D.I.K.K.K.I.K.H.H.Q.`.I.H.`.wX6X6X9X`.K.I.(.9X6X,X6X(.H.`.9X6X6X6X6X6X6X(.I.I.K.(.6X6X6X6X6XrX>XI.I.I.I.I.I.5X6XdX .# i 2 t & $.S.>.,.y.c.c.c.x.c.r.r.BXFXAXjX6X9X9X6X6X6X6XrX6XQ.I.I.I.I.I.I.I.&X6X6X6X6X6X6X6X",
"6X6X6X6X6X6X6X6X6X6X6X6X6X6X6X6X6X6X6X6X6X6X6XrX`.H.I.I.I.I.I.I.I.I.I.I.I.I.I.I.I.D.6X9X6X6X6XwX>XI.I.I.I.I.I.I.K.`.rX6X6X6X6X6X|.D.I.I.K.(.I q t t t t t t w t :.1.>.1.1.p.S.S.S.S.S.S.S.S.p.] { vX8XH.K.I.6XwX6X6X6X6X6X6X6X6X6X6X6X6XoX6XI.H.I.I.I.I.I.I.>X6X6X6X6X6X6X6X6X9XI.I.I.I.I.K.`.rX6X6X6X6X6X6X6X6X6X(.D.I.I.I.I.I.I.I.I.I.I.I.Q.|.6X6X6X9X9X9X6X6X6X9X9X9X6X6X>XQ.K.I.I.I.I.I.I.>X0X6X6X6X6X9X>XK.H.I.I.I.D.D.7Xm.< 1 t t t t t w t < %.D.S.S.c.B.S.p.1.1.3.>.-XKXAXrX6X6X6X6X6X9XQ.K.I.I.I.I.5X6X6X6X6X6X6X6X6X6XwX>XS.H.I.I.(.wXwX6X6X6X6X6X6X6X6XI.K.I.S.(.`.H.K.(.9X6X6X6X6X6X|.K.I.I.K.I.6XoX6X6XD.I.I.I.I.I.I.I.I.I.(.6X6X6X6X6X6X6X6X6X6X|.K.I.I.I.I.K.K.K.H.Y.L 9 t e t t t < 1 w 5.D.c.S.S.S.u.>.3.3.3.3.1.r.c.K.ZXvX,X6X6X6X6X6X6XwX>XI.K.I.I.I.I.Y.I.I.6X6X6X6X6X6X6X6X6X6X9X`.D.I.K.D.`.wX6X6X6XQ.K.I.I.K.5X`.6X|.D.D.D.D.I.K.K.K.D.Q.|.6X6XQ.H.(.wX6X6X6X`.K.I.`.6X6X6X6XQ.H.`.9X6X6X6X6X6X>XI.I.I.K.*X9X6X6X6X6XrX*XI.I.I.I.I.Y.9X6XdX5.# i 2 t > $.D.y.,.y.p.S.z.x.c.i.r.BXFXAXjX6X9X9X6X6X6X9X6X9X>XI.I.I.I.I.I.I.I.`.6X6X6X6X6X6X",
"6X6X6X6X6X6X6X6X6X6X6X6X6X6X6X6X6X6X6X6X6X6X6XrX`.K.I.I.I.I.I.I.I.I.I.I.I.I.I.I.I.D.6X9X6X6X6X6X6XI.I.I.I.I.I.I.D.`.rX6X6X6X6X6X|.D.I.I.K.(.T q t t t t t t t t -.1.>.1.r.g.S.S.S.c.S.S.S.S.r.] { vXiXH.I.(.9X6X6X6X6X6X6X6X6X6X6X6X6X6XoX|.I.I.I.I.I.I.K.(.6X6X6X6X6X6X6X6X6X5XI.I.I.Y.I.I.>XrX6X6X6X6X6X6X6XwX|.D.D.I.I.I.I.I.I.I.I.I.I.I.I.(.>X6X6X9X9X6X6X6X6X9X9X9X6X6X6X`.K.I.I.I.I.I.I.(.6X6X6X6X6X6X9X(.S.I.I.K.I.D.'.m.< t t t t t t w t < %.D.S.S.c.z.S.p.r.1.3.` -XKXZXrX6X6X6X6X6X9X&XK.K.I.H.(.9X6X6X6X6X6X6X6X6X9X6XI.H.I.H.I.5X6XwXwX6X6X6X6X6X6X,XI.K.I.D.(.*XK.I.Q.9X9X6X6X6X6X,XI.I.I.I.D.5X6X6X6XI.D.I.I.I.I.I.I.I.Y.I.6X6X6X6X6X6X6X6X6X6X>XI.I.I.K.I.K.K.K.H.Y.L 9 t t t t t < 1 w 5.D.c.c.S.S.y.>.3.3.3.3.1.r.c.K.SXSX,X6X6X6X6X6X6XrX>XK.K.I.I.I.I.I.I.Q.9X6X6X6X6X6X6X6X6X6X0XQ.D.I.K.D.,XwX6X6X6XY.Y.I.I.Q.>X|.>XD.I.I.K.K.D.D.K.`.>X6X6X6X6XQ.H.(.wX6X6X9X(.K.I.`.6X6X6X,XQ.H.|.9X6X6X6X6X6X'.D.I.I.Q.5X9X6X6X6X6X9X`.I.I.I.I.I.(.9X6XrX5.# i 2 t - +.D.y.,.3.y.S.B.x.c.c.b.BXFXFXdX6X9X9X6X6X9X6X6X6XrX>XI.I.I.I.I.I.I.I.'.6X6X6X6X6X",
"6X6X6X6X6X6X6X6X6X6X6X6X6X6X6X6X6X6X6X6X6X6X6XrXQ.H.I.I.I.I.I.I.I.I.I.I.I.I.I.I.I.D.6X9X6X6X6X6X6XI.I.I.I.I.I.I.D.`.wX6X6X6X6XwX|.D.I.I.H.(.Q q t t t t t t t t &.3.>.1.y.S.S.S.S.c.c.c.S.p.] 1.` gXiXS.K.`.rX6X6X6X6X6X6X6X6X6X6X6X6X6X6X'.I.I.I.I.I.I.S.*X9X6X6X6X6X6X6X6X6X>XI.I.I.Y.Y.Q.9XrX6X6X6X6X6X6X6X6X`.D.I.I.I.I.I.I.I.I.I.I.I.I.I.K.I.6X6X6X9X9X6X6X6X6X9X9X9X6X6X9X(.I.I.I.I.I.I.I.>X6X6X6X6X6X6X>XK.H.I.I.D.D.[.0.< t t t t t t w t < %.D.S.S.z.z.S.p.r.1.3.` %XKXAXrX6X6X6X6X6X9X>XK.K.I.K.'.9X6X6X6X6X6X6X6X6X9X*XH.Y.I.I.'.6X6XwXwX6X6X6X6X6X6X>XI.I.I.S.(.>XD.Y.K.>X9X6X6X6X6X6XQ.K.I.I.D.>XeX6XrX).A.I.I.I.I.I.I.I.Y.I.|.6X6X6X6X6X6X6X6X6X6XQ.A.I.K.I.K.K.K.H.Y.L 9 t w t t 3 3 3 w 5.D.c.c.c.S.y.>.1.1.1.1.1.r.c.D.SXZX6X6X6X6X6X6X6XrX>XK.K.I.I.K.I.I.K.(.9X6X6X6X6X6X6X6X6X6X5XD.I.I.K.(.wXwX6XwX,XI.I.I.I.`.6X|.I.I.I.I.I.S.D.).>X6X6X6X6X6X,XQ.H.(.wX6X6X9X(.I.I.|.wX6X6X>XK.U.>XwX6X6X6X6X9X(.S.I.K.(.9X6X6X6X6X6X6X`.I.I.I.I.K.(.0X6XrX5.# i 2 t - Y D.p.>.,.y.p.B.c.x.x.b.BXAXFXsX,X9X6X6X6X6X6X6X6X6X9X'.I.I.I.I.I.I.I.I.`.,X6X6X6X",
"6X6X6X6X6X6X6X6X6X6X6X6X6X6X6X6X6X6X6X6X6X6X6X9XQ.K.I.I.I.I.I.I.I.I.I.I.I.I.I.I.I.D.6X9X6XwX6XwX6XI.I.I.I.I.I.I.D.`.wX6X6X6X6XwX'.D.I.I.H.(.~ ; t t t t t t t w / 3.>.1.p.S.S.S.c.c.c.c.S.p.>.1.` gX0XS.Y.|.wX6X6X6X6X6X6X6X6X6X6X6X6X6X6X(.I.I.I.I.I.I.K.,XwX6X6X6X6X6X6X6X9X*XI.I.I.Y.K.`.9X6X6X6X6X6X6X6X6X6XQ.D.I.I.I.I.I.I.I.I.I.I.I.I.I.I.H.(.9X6X6X9X6X6X6X6X6X9X9X6X6XrX,XI.I.I.I.I.I.K.(.6X6X6X6X6X6X6XQ.H.I.I.D.D.(.i.< t t t t t t w t < %.D.S.S.B.z.S.p.r.1.3.` %XKXAXrX6X6X6X6X6X6X6XQ.K.I.I.>XrX6X6X6X6X6X6X6X6X6XI.K.Y.I.(.6X6X6XwX6X6X6X6X6X6X6X>XI.I.I.S.`.>XD.I.K.*X9X6X6X6X6X6X`.K.I.I.I.'.eX6X7X|.D.I.I.I.I.I.I.I.Y.I.).9X6X6X6X6X6X6X6X6X6X'.D.K.K.I.K.K.K.H.Y.L $ t e t t t 3 3 w 5.D.c.c.z.S.y.>.1.1.1.1.1.r.p.x.BXZX6X6X6X6X6X6X6XwX>XI.K.I.I.I.I.I.K.`.9X6X6X6X6X6X6X6X6X9X&XK.I.I.D.`.wXwX6XwX>XK.Y.I.H.|.6X(.K.I.I.I.I.Q.>X6X6X6X6X6X6X6X6XQ.H.(.wX6X9X9XQ.I.I.|.6X6X6X>XK.Y.6X6X6X6X6X6X9XQ.S.I.I.`.6X6X6X6X6X6X6X(.D.I.I.I.I.*X9X6XrX5.# i 2 t - Y D.S.>.,.3.y.S.c.x.x.x.BXAXFXaX>X9X6X9X6X6X6X6X6X6X6X6X`.I.I.I.I.I.I.I.I.Q.>X6X6X",
"6X6X6X6X6X6X6X6X6X6X6X6X6X6X6X6X6X6X6X6X6X6X6X9XI.K.I.I.I.I.I.I.I.I.I.I.I.I.I.I.I.I.6X9X6XwX6XwX6XI.I.I.I.I.I.I.I.'.6X6X6X6X6XwX`.D.I.I.H.(.~ ; t t t t t t t < E 3.>.1.p.S.S.S.S.c.c.c.S.e.1.1.` aXfXS.Q.,X6X6X6X6X6X6X6X6X6X6X6X6X6X6X6X(.I.I.I.I.I.I.Q.6XwX6X6X6X6X6X6X6X6X`.I.I.I.I.I.>XrX6X6X6X6X6X6X6X6X>XD.K.I.I.I.I.I.I.I.I.I.I.I.I.I.K.Y.S.(.6X6X6X6X6X6X6X6X6X9X9X6X6XrX`.H.I.I.I.I.I.I.*X6X6X6X6X6X9X>XK.I.I.I.I.T.i.< t t t t t t t t < %.D.S.S.S.z.S.S.u.1.3.` %XKXZXrX6X6X6X6X6X6X9X`.K.I.I.>XrX6X6X6X6X6X6X6X6X`.H.Y.I.I.>X6X6X6X6X6X6X6X6X6X6X6X>XK.K.Y.S.(.6XK.Y.K.`.9X6X6X6X6X6X>XK.Y.Y.I.(.eX6X6X6XD.D.I.I.I.I.I.I.Y.I.I.6X6X6X6X6X6X6X6X6X6X5XI.K.K.K.K.K.K.H.Y.L 9 t w t t t 3 1 w 5.D.c.c.c.S.y.>.1.1.1.1.1.6.p.c.BXZX6X6X6X6X6X6X6XrX>XI.K.I.K.I.Y.I.K.`.9X6X6X6X6X6X6X6X6X9XQ.K.I.K.K.,XwXwX6X6X|.K.Y.I.I.6X|.K.H.H.S.D.`.6X6X6X6X6X6X6X6X6X6X(.H.(.wX6X6X6XQ.I.I.|.6X6XwX*XH.Q.6X6X6X6X6X9X>XK.K.K.I.>X6X6X6X6X6X6X,XQ.I.I.I.I.I.>XrX6XrX5.# i 2 t # T D.S.r.,.3.y.p.B.c.x.x.BXFXKXaXQ.9X6X6X9X6X6X6X6X6X6X6X6X`.I.I.I.I.I.I.I.D.Q.>X6X",
"6X6X6X6X6X6X6X6X6X6X6X6X6X6X6X6X6X6X6X6X6X6X6X9XI.I.I.I.I.I.I.I.I.I.I.I.I.I.I.I.I.Q.6X9X6XwX6XwX6XQ.I.I.I.I.I.I.I.>XwX6X6X6X6X6X`.D.I.I.H.(.&.; t t t t t t t ; R 3.>.1.p.S.S.S.S.S.c.c.S.1.{ 1.` aXfXS.&X6X6X6X6X6X6X6X6X6X6X6X6X6X6X6X6XQ.I.I.I.I.I.I.|.wXwX6X6X6X6X6X6X6X6X(.I.I.I.I.I.,XrX6X6X6X6X6X6X6XrX'.D.I.I.I.I.I.I.I.I.I.I.I.I.I.I.I.I.Y.D.`.9X6X6X6X6X6X6X6X6X9X6X6XwX6XI.I.I.I.I.I.I.Q.6X6X6X6X6X6X6XQ.A.I.I.I.I.i.< 2 t t t t t t t < %.D.S.S.S.z.S.S.u.1.3.` %XKXZXrX6X6X6X6X6X6X6X>XI.K.Q.6X6X6X6X6X6X6X6X6X6XK.Y.I.I.Q.6X6X6X6X6X6X6X6X6X6X6X6X>XK.I.Y.S.(.6XK.Y.P.(.6X6X6X6X6X6X>XI.Y.Y.I.I.6X6X6XeX(.D.I.I.I.I.I.I.I.I.I.|.6X6X6X6X6X6X6X6X6X6X(.K.K.K.K.K.K.H.Y.L 9 t w t t t 3 3 w 5.D.c.c.c.S.y.>.1.1.1.1.1.6.p.c.BXAX6X6X9X6X6X6X6X9X>XI.I.I.K.I.Y.I.K.>X9X6X6X6X6X6X6X6X6X,XI.I.I.K.Q.9X6XwX6X6X`.K.Y.I.Q.6X`.H.I.H.I.>X6X,X6X6X6X6X6X6X6X6XwX`.H.`.wX6X6X5XI.I.I. X6X6X6X&XH.%X6X6X6X6X9X9X>XS.I.D.(.9X6X6X6X6X6X6X>XI.I.I.I.I.Q.9X6XoXrX5.# i 2 t < T D.D.t.,.3.3.p.B.c.c.c.BXFXKXfXD.>X6X6X9X6X6X6X6X6X6X6X6X6X'.I.I.I.I.I.I.I.I.Q.>X",
"9X9X6X6X6X6X6X6X6X6X6X6X6X6X6X6X6X6X6X6X6X6X6X5XK.K.I.I.I.I.I.I.I.I.I.I.I.I.I.I.I.Q.6X9X6X6X6XwX6XI.I.I.I.I.I.I.I.>XwX6X6X6X6X6X(.D.I.K.K.(.%.; t t t t t t t ; W u.>.y.S.S.S.S.S.S.S.S.p.1.1.1.` iXMXS.*X6X,X6X6X6X6X6X6X6X6X6X6X6X6X6X5XI.I.I.I.I.I.I.6XwXwX6X6X6X6X6X6X6X6XQ.I.I.I.I.(.9X6X6X6X6X6X6X6X6XwX(.D.I.I.I.I.I.I.I.I.I.I.I.I.I.I.I.I.I.I.D.>X6X6X6X9X9X6X9X6X6X6X6X6X6X|.I.I.I.I.I.I.I.'.6X6X6X6X6X6X>XI.I.I.I.I.d.< < t t t t t t t < %.D.S.S.S.B.S.S.u.1.3.` &XKXZXrX6X6X6X6X6X6X6X6XQ.S.'.wX6X6X6X6X6X6X6XwX>XD.Y.I.I.>X6X6XwX6X6X6X6X6X6X6X6XrX>XK.I.Y.H.(.6XI.Y.P.I.6X6X6X6X6X6X,XQ.U.Y.I.I.>X6X6XeX'.D.I.I.I.I.I.I.I.I.A.'.6X6X6X6X6X6X6X6X6X6X'.I.I.K.K.K.K.H.Y.L 9 t e t t t w t w 5.D.c.c.c.B.r.>.1.1.1.1.1.>.y.c.vXFX6X6X9X6X6X6X6X6X>XI.I.I.K.I.Y.I.I.>X9X6X6X6X6X6X6X6X6X`.K.K.I.H.`.rX6XwX6X6X(.H.Y.H.(.rX).I.I.(.6XrX6X6X6X6X6X6X6X6X6X6XwX*XH.(.wX6X6X>XI.K.I.6X6X6X6X(.K.&XwX6X6X6X6X9X5XS.I.S.`.rX6X6X6X6X6X6X|.I.I.I.I.I.(.9X6XoXrX5.# i 2 t < T D.C.z.>.3.3.y.c.S.c.c.BXFXFXfXH.(.rX6X6X6X6X6X6X6X6X6X6X6X6X'.I.I.I.I.I.I.I.S.I.",
"Q.|.9X6X6X6X6X6X6X6X6X6X6X6X6X6X6X6X6X6X6X6X6X>XK.K.I.I.I.I.I.I.I.I.I.I.I.I.I.I.I.(.6X9X6X6X6XwX>XI.I.I.I.I.I.I.I.6X6X6X6X6X6X6XQ.K.I.K.H.`.%.; t t t t t t t ; W y.>.u.S.c.S.S.S.S.S.S.t.1.1.1.` 1XBXS.9X6X,X6X6X6X6X6X6X6X6X6X6X6X6X6X(.I.I.I.I.I.I.(.6XwX6X6X6X6X6X6X6XwX>XK.I.I.I.K.`.rX6X6X6X6X6X6X6X6X,XQ.D.I.I.I.I.I.I.I.I.I.I.I.I.I.I.I.I.I.I.I.K.>X6X6X6X9X6X6X6X6X6X6X6X6X9X(.I.I.I.I.I.S.I.6X6X6X6X6X6X6X(.S.I.I.D.m.< 2 t t 2 2 t t t < %.D.S.S.S.B.S.S.u.1.3.` -XKXZXrX6X6X6X6X6XoX6X,X`.`.0X6X9X6X6X6X6X6X6X9X`.I.Y.I.(.9X6X6X6X6X6X6X6X6X6X6X6XrX`.H.I.Y.S.(.6XQ.Y.H.I.,X6X6X6X6X6X6X`.U.Y.I.I.'.6X6X6X,XI.I.I.I.I.I.I.I.I.I.(.6X6X6X6X6X6X6X6X6X6X5X(.H.I.K.K.K.H.Y.L 9 t t t t t w e w ^ C.c.c.c.B.t.>.1.1.1.1.1.1.y.p.gXFX9X6X9X6X6X6X6X9X>XI.I.I.K.I.Y.I.I.>X9X6X6X6X6X6X6X6X6X(.H.K.I.I.>XwX6XwX6X6XQ.H.Y.H.`.rX`.K.I.6X6X6X6X6X6X6X6X6X6X6X6X6XwX>XS.(.wX6X6X>XI.H.(.6X6X6X6XQ.K.>XwX6X6X6X6X9X(.S.I.K.>XrX6X6X6X6X6X9X`.D.I.I.I.K.'.7X6XoXrX5.# i 2 t < T D.B.B.1.3.,.,.p.S.c.z.BXKXFXkXH.I.6X6X6X6X6X6X6X6X6X6X6X6X6X9X'.K.I.I.I.I.I.I.I.",
"I.I.'.6X6X6X6X6X6X6X6X6X6X6X6X6X6X6X6X6X6X6X6X>XK.I.I.I.I.I.I.I.I.I.I.I.I.I.I.I.I.`.6X6X6X6X6XwX|.I.I.I.I.I.I.I.Q.6X6X6X6X6X6X5XD.I.I.I.n.5X*.$ t t t t t t t ; H y.>.p.S.S.S.S.S.c.c.c.r.1.1.2.` 1XSXK.9X6X6X6X6X6X6X6X6X6X6X6X6X6X6X6XI.I.I.I.I.I.I.`.9X6X6X6X6X6X6X6X6X6X>XH.Y.Y.K.I.>XrX6X6X6X6X6X6X6X6X>XI.D.I.I.I.I.I.I.I.I.I.I.I.I.I.I.I.I.I.I.I.S.Q.6X6X6X6X6X6X6X6X6X6X6X6X9X>XI.I.I.I.I.K.H.'.0X6X6X6X6X6X>XI.I.I.A.n.3 2 t t 2 2 t t t $ %.D.S.S.B.z.S.S.e.1.3.` -XKXAXdX6X6X6X6XwXoXwXwX9X5X5X0X0X6X6X6X6X6X6X6XQ.I.Y.I.*X6X6X6X6X6X6X6X6X6X6X6X6X9X`.H.I.I.S.`.wX(.I.H.K.>XwX6X6X6X6X6X>XY.Y.Y.K.(.6X6X6X9X(.H.I.I.I.I.I.I.I.I.I.5X7X6X6X6X6X6X6X6X6X6X>XI.I.K.K.K.H.Y.L 9 t w t t t t t w ^ B.c.c.c.S.t.1.1.1.1.1.1.1.r.i.gXFXrX6X9X6X6X6X,X9X1XI.K.I.K.I.I.I.I.>X9X6X6X6X6X6X6X6X|.Q.H.I.I.I.9X6X6X6X6X,XI.K.Y.H.|.wX|.K.I.6X6X6X6X6X6X6X6X6X6X6X6X6XwX>XD.Q.wX6X6X*XI.H.`.6X6X6X,XI.K.>XwX6X6X6X6X9XQ.D.H.Q.9X9X6X6X9X6X6X6X(.D.I.I.I.K.*X6X6X6XrX5.# i t t < P D.B.S.r.,.,.,.y.S.S.z.mXKXFXkXI.D.(.6X6X6X6X6X6X6X6X6X6X6X6X6X6XQ.K.I.I.I.I.I.I.",
"I.I.K.`.6X6X6X6X6X6X6X6X6X6X6X6X6X6X6X6X6X6XwX`.K.I.I.I.I.I.I.I.I.I.I.I.I.I.I.I.I.'.6X6X6X6X6X9X`.I.I.I.I.I.I.I.(.6X6X6X6X6X6X|.D.I.I.Y.K.0X5.$ t t t t t t t ; H y.1.p.S.B.S.S.S.c.c.p.r.1.1.2.` >XSX`.9X6X6X6X6X6X6X6X6X6X6X6X6X6X6X6XI.I.I.I.I.I.I.>XrX6X6X6X6X6X6X6X6X6X`.K.Y.I.K.Q.,XrX6X6X6X6X6X6X6X9X'.K.I.I.I.I.I.I.I.I.I.I.I.I.I.I.I.I.I.I.I.I.I.H.(.6X6X6X6X6X6X6X6X6X6X6X6X9X(.I.I.I.I.I.I.I.6X6X6X6X6X6X9X(.H.I.A.n.3 2 t t 2 2 t t t # %.D.S.S.B.z.S.S.r.1.3.` -XKXAXdX6X6X6X6X6X6XoXwX5XI.(.0X0XrX6X6X6X6X6X>XK.Y.I.I.5X6X6X6X6X6X6X6X6X6X6X6X6X9X(.H.I.I.S.'.wX`.H.I.H.*XwX6X6X6X6X6X>XY.I.Y.K.Y.6X6X6XrX*XK.I.I.I.I.I.I.I.I.I.'.7X6X6X6X6X6X6X6X6X6X6X`.I.K.K.K.H.Y.L 9 t w e e t t t w ~ S.c.S.S.S.c.1.>.1.1.1.1.1.1.r.gXFXrX,X9X6X6X6X,X6X9XY.K.I.I.I.I.I.I.,X6X6X6X6X6X6X6XwX|.I.H.I.I.(.rX6XwX6X6X|.K.I.Y.K.,XwX6XQ.K.6X6X6X6X6X6X6X6X6X6X6X6X6X6X6XD.Q.6X6X6X*XK.K.*XwX6X6X XI.I.,XwX6X6X6X6X6XI.I.K.`.rX6X6X9X9X6X6X6XQ.K.I.I.I.I.>X6X6X6XrX5.# i t t < A D.B.S.r.>.,.,.r.t.S.z.gXKXFXBXI.I.H.'.rX6X6X6X6X6X6X6X6X6X6X6X6XoXQ.I.I.I.I.I.I.",
"I.S.I.I.(.5X6X6X6X6X6X6X6X6X6X6X6X6X6X6X6X6XwX`.D.I.I.I.I.I.I.I.I.I.I.I.I.I.I.I.I.>X6X6X6X6X6X6X).I.I.I.I.I.I.K.`.9X6X6X6X6X9X`.D.I.K.K.W.rX5.$ t t t t t t t ; N y.3.S.S.B.S.S.S.z.z.p...1.1.u.` &XAX>X6X6X6X6X6X6X6X6X6X6X6X6X6X6X6X>XI.I.I.I.I.I.Q.6X6X6X6X6X6X6X6X6X6X6X(.K.Y.K.K.Q.6X6X6X6X6X6X6X6X6X9X(.H.I.I.I.I.I.I.I.I.I.I.I.I.I.I.I.I.I.I.I.I.I.I.S.'.9X6X6X6X6X6X6X6X9X6X6X9X>XI.I.I.I.K.I.K.`.0X6X6X6X6X6X>XI.I.A.n.5 < t 2 2 2 2 t t ; %.D.S.S.S.z.B.S.r.1.3.` -XKXAXsX6X6X6X6XoXoX6X6XI.I.I.>X0X6X6X6X6X6X6X`.S.Y.I.`.6X6XwX6X6X6X6X6X6X6X6X6X6X6X(.H.I.I.S.'.wX>XK.Y.H.`.wX6X6X6X6X6X6X(.K.I.K.I.>X6X6X6X9XQ.K.I.I.I.I.I.I.I.I.(.6X6X6X6X6X6X6X6X6X6X6X5XQ.K.K.K.K.Y.L 9 t w t e t t t 9 ~ S.S.S.S.S.z.r.>.1.1.1.1.1.1.1.fXFXrX,X9X6X9X9X,X9X9X(.K.I.I.I.I.I.I.,X9X6X6X9X6X6X6X6X`.K.I.I.I.>X0X6XwX6X6X|.D.Y.K.Q.wXwXwXQ.K.6X6X6X6X6X6X6X6X6X6X6X6X6X6X6XQ.Y.,X6X6X`.H.K.>XwX6X6X>XK.I.6XwX6X6X6X6X>XK.I.K.,XwX6X6X9X9X6X6X>XI.K.I.I.K.Q.5X6X6X6XrX .# i 2 t < A S.B.S.r.>.,.,.3.t.S.z.gXKXFXBXI.I.I.I.>X6X6X6X6X6X6X6X6X6X6X6X6X6XoXQ.I.I.I.I.I.",
"I.I.I.I.I.(.5X6X6X6X6X6X6X6X6X6X6X6X6X6X6X6X6X(.K.I.I.I.I.I.I.I.I.I.I.I.I.I.I.I.I.5X6X6X6X6XwX6XQ.D.I.I.I.I.I.I.>X6X6X6X6X6X9XQ.D.I.K.K.`.rX5.$ t t t t t t t ; M y.u.S.B.B.S.S.B.z.z.t.{ 1.1.2.` &XAX9X6X6X6X6X6X6X6X6X6X6X6X6X6X6X6X`.K.I.I.I.I.K.`.rX6X6X6X6X6X6X6X6X6X6XI.Y.I.K.K.`.wX6X6X6X6X6X6X6X6X9XQ.K.I.I.I.I.I.I.I.I.I.I.I.I.I.I.I.I.I.I.I.I.I.I.I.D.>X9X6X6X6X6X6X6X6X6X6X6X9XQ.I.K.I.I.I.I.I.6X6X6XwX6X6X9X`.I.D.m.x < t 2 2 2 2 t t ; %.D.S.S.S.z.B.p.r.1.3.` -XKXAXdX6X6X6X6X6XoXeX'.I.Y.I.(.5X6X6X6X6X6X6X`.K.I.I.5X6X6XwX6X6X6X6X6X6X6X6X6X6X6XQ.H.I.I.S.*XwX>XI.Y.H.(.6X6X6X6X6X6X6X`.K.I.I.H.'.6X6X6X9X`.H.I.I.I.I.I.I.I.I.Q.6X6X6X6X6X6X6X6X6X6X6X6X*XI.K.K.H.Y.L 9 t w t e t t t 9 ~ S.S.S.S.B.B.r.>.1.1.1.1.1.1.] iXFXrX,X9X9X9X9X,X6X9X(.K.I.I.K.K.I.I.6X9X6X6X9X6X6X6X6X).I.I.I.I.6X7X6X6X6X6X).D.Y.H.`.wX X,XK.D.6X6X6X6X6X6X6X6X6X6X6X6X6X6X9X(.I.|.6X6X(.H.I.6XwX6X6X|.K.Q.wX6X6X6X6XwX>XS.K.Q.9X6X6X6X9XrX6X9X>XD.K.K.I.D.(.9X6X6X6XrX .# i 2 t < F B.B.S.r.] >.,.,.r.S.z.fXKXFXVXI.H.I.I.D.5X9X6X6X6X6X6X6X6X6X6X6X6XwX6XQ.I.I.I.I.",
"I.I.I.I.I.S.(.>X6X6X6X6X6X6X6X6X6X6X6X6X6X6X6XQ.K.I.I.I.I.I.I.I.I.I.I.I.I.I.I.I.T.5X6X6X6X6X6X,XQ.I.I.I.I.I.I.I.>XwX6X6X6X6X5XI.I.I.K.I.>XrX5.$ t t t t t t t ; B ,.u.B.B.B.B.B.B.S.S.t.1.1.1.u.` Q.HXrX6X6X6X6X6X6X6X6X6X6X6X6X6X6X6XQ.K.I.I.I.I.I.>XwX6X6X6X6X6X6X6X6X6X XK.Y.K.K.I.>XrX6X6X6X6X6X6X6X9X>XI.K.I.I.I.I.I.I.I.I.I.I.I.I.I.I.I.I.I.I.I.I.I.I.I.I.I.5X9X6X6X6X6X6X6X6X6X6XrX*XI.I.K.I.I.I.K.`.0X6X6X9X6X9X>XD.D.U.c < t 2 2 2 t t t < %.D.S.S.S.B.S.p.1.1.1.` -XKXAXdX6X6X6X6X6X6XoXI.I.I.I.I.`.0X6X6X6X6X9XQ.I.I.(.6XoX6X6X6X6X6X6X6X6X6X6X6X6X6XI.I.I.I.D.>XwX6XI.Y.K.Q.6X6X6X6X6X6X6X>XY.I.I.I.(.9X6X6X9X>XI.K.I.I.I.I.I.I.I.I.>X6X6X6X6X6X6X6X6X6X6X6X6X(.K.K.K.Y.L ; t e t t t w 2 9 E S.S.S.B.B.B.t.1.1.1.1.1.1.3.` iXFXdX,X9X6X6X9X6X6X9X`.K.I.I.H.I.I.Y.6X9X6X9X9X6X6X6X6XQ.I.I.H.Q.6X6X6X6X6X6X!.D.Y.H.`.6X6X|.H.I.6X6X6X6X6X6X6X6X6X6X6X6X6X6X9X`.I.'.6X6X(.I.I.6X6X6X6X}.S.Q.wX6X6X6X6XwX'.S.K.`.rX6X6X6X6X6X6X9X>XD.I.K.I.D.|.0X6X6X6XrX .# i t t w F B.B.S.r.] >.,.,.1.p.c.aXKXFXVXI.I.I.I.I.I.5X9X6X6X6X6X6X6X6X6X6X6XwXwXoXI.S.I.I.",
"I.I.I.I.I.I.S.(.5X6X6X6X6X6X6X6X6X6X6X6X,X6X,XQ.K.I.I.I.I.I.I.I.I.I.I.I.I.I.I.I.(.9X6X6X6X6X9X>XD.I.I.I.I.I.I.(.9X6X6X6X6X0X'.I.I.I.K.Q.5XrX0.$ t t t t t t t 9 5 :.g.S.B.B.B.B.B.S.S.r.1.1.1.3.` Q.KXrX6X6X6X6X6X6X6X6X6X6X6X6X6X6X>XI.I.Y.I.I.K.Q.6X6X6X6X6X6X6X6X6X6XrX|.D.Y.K.K.Q.,XrX6X6X6X6X6X6X6X9X(.K.I.I.I.I.I.I.I.I.I.I.I.I.K.I.I.I.I.I.I.I.I.I.I.I.I.I.(.6X6X6X6X6X6X6X6X6X6X6X9XQ.I.K.I.I.I.K.Q.9X6X6X0X6X6X9X(.I.U.c 2 t 2 2 2 t t t < %.D.S.S.S.B.S.p.1.1.1.` -XKXAXdX6X6X6X6X6X6X`.I.I.I.I.I.I.5X6X6X6X6X6XQ.I.I.`.0X6X6X6X6X6X6X6X6X6X6X6X6X6X6XI.I.I.I.D.>XwX6XQ.I.K.I.,XwX6X6X6X6X6X,XY.I.I.I.I.6X6X6X6X9XQ.K.I.I.I.I.I.I.I.I.(.6X6X6X6X6X6X6X6X6X6X6X6X>XQ.K.K.Y.L ; t e t t t t t 9 T X.S.S.B.B.B.p.r.1.1.1.1.1.3._ 8XGXdX,X6X6X6X6X6X6X6X`.K.I.I.K.K.I.Y.6X9X6X9X9X6X6X6X>XI.I.I.H.(.6X6X6X6X6X6XQ.K.Y.K.>X6X6XQ.H.`.9X6X6X6X6X6XwX6X6X6X6X6X6X6X9X`.D.(.6X6XY.I.Q.6X6X6X6X}.S.`.wX6X6X6X6XwX>XK.I.>XrX6X6X6X6X6X6XrXQ.K.I.I.I.D.5X0X6X6X6XrX' # i 2 t w M B.B.D.r.>.>.>.1.>.r.p.aXKXFXAXI.I.I.I.I.I.I.'.5X6X6X6X6X6X6X6X6X6X6X6X6X|.I.H.I.",
"I.I.I.I.I.I.I.H.I.9X6X6X6X6X6X6X6X6X6X6X6X9X|.D.K.I.I.I.I.I.I.I.I.I.I.I.I.I.I.S.`.9X6X9X6X6X6X'.S.I.I.I.I.I.K.'.0X6X6X6X6X6XQ.I.I.I.I.*X6XrXb.$ t t t t t t t w 5 :.h.S.B.B.B.B.B.S.p.r.1.1.1.3.` Q.KXrX6X6X6X6X6X6X6X6X6X6X6X6X6X6X|.I.I.I.I.Y.K.Q.9X6X6X6X6X6X6X6X6X6XrX}.D.I.K.K.`.9XwX6X6X6X6X6X6X6X6XQ.K.K.I.I.I.I.I.I.I.I.(.>X|.|.Q.D.I.I.I.I.I.I.I.I.I.I.I.Y.(.6X6X6X6X6X6X6X6X6X6XrX&XI.I.K.I.I.I.K.>X6X6X6X6X6X9X8X(.U.c < t 2 2 2 2 t t < %.D.S.S.B.z.S.t.1.1.3.` -XKXAXdX6X6X6X6XoX6XQ.I.I.I.I.I.I.(.6X6X6X6X6XQ.I.I.`.wX6X6X6X6X6X6X6X6X6X6X6X6X6X5XI.I.I.I.I.>XwX6X(.K.K.I.|.wX6X6X6X6X6X6XQ.H.I.I.I.>X6X6X6X9X*XK.I.I.I.I.I.I.I.I.I.5X7X6X6X6X6X6X6X6X6X6X6X6X`.D.K.Y.L ; t w t t t t w 9 T ..p.S.B.z.B.c.r.>.1.1.1.1.y._ <XGXdX6X6X6X6X6X6X6X6X}.I.I.I.K.K.I.Y.6X9X6X6X6X6X6XoX'.I.I.I.K.`.6X6X6X6X6X,XQ.K.K.I.>X6X6XI.K.5X9X6X6X6X9X,X*X6XwX6X6X6X6X6X9X*XK.I.6X6XY.H.(.6X6X6X6X`.H.`.6X6X6X6X6X6X&XK.I.,XrX6X6X6X6X6XwX6XK.K.K.I.I.Q.6X7X6X6X6XdX5.# i 2 t w n B.B.D.r.>.>.>.1.>.r.t.iXKXAXAXI.I.I.I.I.I.S.A.I.'.5X6X6X6X6X6X6X6X6X6X6X6X|.I.H.",
"I.I.I.I.I.I.I.I.I.I.6X6X6X6X6X6X6X6XwX6X6X9X`.D.I.I.I.I.I.I.I.I.I.I.I.I.I.I.I.D.>X9X6X6X6X6X9XQ.K.I.I.I.I.I.K.>X6X6X6X6X9X*XD.I.I.H.I.8X6XrXM.$ t t t t t t t w 5 :.h.B.B.B.B.B.B.S.p.1.1.1.1.3.` Y.KXsX6X6X6X6X6X6X6X6X6X6X6X6X6X6X`.I.I.I.I.I.S.>X6X6X6X6X6X6X6X6X6X6X9X).K.I.I.D.`.rX6X6X6X6X6X6X6X6X5XQ.K.I.I.I.I.I.I.I.I.(.6X6X6X6X6X`.I.K.I.I.I.I.I.I.I.I.I.Y.I.*X6X6X6X6X6X6X6X6X6X9X9XQ.I.K.I.I.I.K.(.9X6X6X9X9X9X0X'.U.m ; t 2 2 2 2 t t ; %.D.S.S.B.z.S.t.{ 1.3.` -XKXAXdX6X6X6X6XwX>XH.I.I.I.I.I.Y.I.>X6X6X6X6XQ.K.I.'.wX6X6X6X6X6X6X6X6X6X6X6X6X6X>XI.I.I.I.I.5XwX6X`.H.I.K.'.6X6X6X6X6X6X6X%XS.I.I.I.`.6X6X6X9X6XI.I.I.I.I.I.I.I.I.I.`.9X6X6X6X6X6X6X6X6X6X6X6X6XQ.S.I.L ; t w t t t t t 9 T ..t.S.S.z.B.S.t.1.1.1.1.1.3._ -XGXdX6X6X6X6X6X6X6X6X|.I.I.I.K.K.I.Y.6X9X6X6X6X6X6X6X(.H.I.I.I.'.6X6X6X6X6X,XQ.K.K.Q.6X6X>XD.I.9X9X6X6X6X>XI.H.Q.,XwX6X6X6X6X9X>XI.I.6X6XY.H.(.wX6X6X6X).H.>X6X6X6X6X6X6X`.K.Q.9X6X6X6X6X6X6XwX>XY.I.K.K.K.Q.rX6X6X6XoXdX5.# i 2 t w n z.B.D.r.>.>.1.1.>.r.t.iXKXAXAXQ.I.I.I.Q.`.'.*X>X>X5X6X6X6X6X6X6X6X6X6X6X6X6X>XI.",
"I.I.I.I.I.I.S.I.I.D.(.6X6X6X6X6X6XwX6XwXwX>XI.K.I.I.I.I.I.I.I.I.I.I.I.I.I.I.I.Q.9X6X6X6XwX6X>XI.I.I.I.I.I.K.Q.6X6X6X6X6X9X(.K.I.I.H.(.0X6XrXm.$ t t t t 2 2 t i 1 %.B.B.B.B.B.B.B.S.e.1.1.1.1.3.;.Y.KXaX6X6X6X6X6X6X6X6X6X6X6X6X6X6X(.I.Y.Y.I.Y.I.6X6X6X6X6X6X6X6X6X6X6X6XQ.K.I.K.D.>XrX6X6X6X6X6X6X6XrX>XI.I.I.I.I.I.I.I.I.I.|.6X6X6X6X6X0X`.I.K.I.I.I.I.I.I.I.I.I.I.I.|.6X6X6X6X6X6X6X6X6X9X`.I.I.K.I.I.K.I.>X9X6X9X9X9X9X5X%Xm > t 2 2 2 t t t < %.D.S.S.B.z.S.t.1.1.3.` -XKXAXdX6X6X6X6X6X(.H.I.I.I.I.I.I.I.(.6X6X6X6X(.K.D.|.wX6X6X6X6X6X6X6X6X6X6X6X6X6X>XD.I.I.K.I.5X6X6X}.H.I.D.`.6X6X6X6X6X6X6X>XK.I.I.I.(.6X6X6X6X9X`.K.I.I.I.I.I.I.I.I.Q.6X6X6X6X6X6X6X6X6X6X6X6X6X9XI.I.L ; t e e e t t t 9 Y ....S.S.B.B.S.p.1.1.1.1.1.3._ -XFXdX6X9X6X6X6X6X6X6X|.I.I.I.K.K.I.Y.6X6X6X6X6X6X6XoXQ.H.I.I.I.5X6X6XwX6X6X>XI.I.U.(.6X6X&XS.Q.9X6X6X6X6X`.U.P.H.>X,X6X6X6X6X9X5XI.K.6X|.I.H.`.wX6X6X6X(.K.>X6X6X6X6X6X9X(.H.(.9X6X6X6X6X6X6XwX`.I.I.I.K.K.`.6X6X6X6XOXdX^ # i t t w n z.C.D.r.>.>.1.1.1.r.r.aXHXAXAX(.K.I.(.oX6X6X6X6X6X6X6X6X6X6X6X6X6X6X6X6X6X6X6X|.",
"|.D.I.I.H.I.I.I.I.I.D.`.6XoX6X6X6XwX6X6X6X(.D.I.I.I.I.I.I.I.I.I.I.I.I.I.I.I.K.'.rX6X6X6X6XrX`.K.I.I.I.I.I.K.`.wX6X6X6X6X>XI.I.I.I.D.5X0X6XrXm.$ t t t t 2 t t t 1 %.B.B.B.B.B.B.S.c.r.1.1.1.1.3.` P.KXdX6X6X6X6X6X6X6X6X6X6X6X6X6X5XQ.I.I.I.I.K.Q.6X6X6X6X6X6X6X6X6X6X6X6XI.I.I.K.Q.6XwX6X6X6X6X6X6X6XrX>XK.I.I.I.I.I.I.I.K.(.6X6X6X6X6X6X6X6X`.D.K.I.I.I.I.I.I.I.I.I.I.Q.6XwX6X6X6X6X6X6X6XrX6XQ.I.K.I.I.I.D.`.0X6X6X9X6X6X6X2Xm > t 2 2 2 t t t < %.D.S.S.B.B.B.r.{ 1.3.` -XKXAXdX6X6X6X6X|.I.I.I.I.I.I.I.I.I.I.|.6X6X6X`.K.D.5X6X6X6X6X6X6X6X6X6X6X6X6X6X9X'.D.I.I.K.I.5X6X6X|.H.I.K.(.6X6X6X6X6X6X6X5XI.K.I.I.I.6X6X6X6X9X>XI.I.I.I.I.I.I.I.I.I.'.6X6X6X6X6X6X6X6X6X6X6X6X9X8XQ.L ; t e t t t t t 9 Y { ..c.S.S.B.B.S.r.1.1.1.1.3._ -XKXdX9X9X9X6X6X6X6X6X XI.I.I.K.I.I.Y.6X6X6X6X6X6X9X|.I.K.I.I.I.6X6X6X6X6X6X|.D.I.U.`.6X6XQ.S.(.9X6X6X6X6X,X`.I.>XwX,X6X6X6X6X9X9XI.H.6X|.I.H.`.wX6X6X6XQ.K.1X6X6X6X6X6X6XQ.K.`.rX6X6X6X6X6X6X6XQ.H.I.I.H.H.|.6X6X6X6XOXdX^ # i t t w a z.C.D.t.>.>.>.1.1.1.r.iXHXAXAX`.H.Y.|.6X6X6X6X6X6X6X6X6X6X6X6X6X6X6X6X6X6X6X6X6X",
"wX'.S.Q.K.K.I.I.I.I.I.D.'.6X6X6XwX6X6X6X|.I.K.K.I.I.I.I.I.I.I.I.I.I.I.I.I.I.I.6XrX6X6X6X6X6XQ.I.I.I.I.I.K.I.,XwX6X6X6X9X(.I.I.I.H.(.7X0X6XrXm.$ 2 t t t 2 2 t t > 5.F.z.B.B.B.B.S.t.r.1.1.1.1.1.1.Y.KXdX6X6X6X6X6X6X6X6X6X6X6X6X6X'.I.I.I.I.I.H.`.6X6X6X6X6X6X6X6X6X6X6X>XD.I.K.K.).wX6X6X6X6X6X6X6X6XrX`.K.I.I.I.I.I.I.I.I.*X6X6X6X6X6X6X6X6X6X`.I.I.I.I.I.I.I.I.I.I.I.I.G.|.9X6X6X6X6X6X6X6X9X`.D.K.I.I.I.K.Q.6X6X6XwX6X6X6XiXL - t t t t t t t < %.D.S.S.c.B.S.r.1.1.3.` -XKXAXdX6X6X6X6XQ.I.I.I.I.I.I.I.I.I.I.).6X6X6X*XI.D.|.6X6X6X6X6X6X6X6X6X6X6X6X6X6X`.K.I.I.K.Q.9X6X6X|.H.I.K.Q.6X6X6X6X6X6X6X9X(.H.I.I.D.>X9X6X6X9X9XQ.K.I.I.I.I.I.I.I.I.(.6X6X6X6X6X6X6X6X6X6X6X9X6X9X9XK $ t 2 t t t t t ; Y 1.] t.S.B.B.B.S.t.1.1.1.1.1._ -XLXdX>X9X6X6X6X6X6X6X6XQ.K.I.K.I.I.Y.6X9X6X6X6X6X9X|.I.I.I.I.Q.9X6X6X6X6X6X>XK.I.K.`.wX6XQ.S.'.9X6X6X6X6X6X6X6XrX6X6X6X6X6X6X6X5XI.K.9X|.H.I.>XwX6X6X6XI.K.9X6X6X6X6XrX,XQ.K.'.9X6X6X6X6X6XwX5XD.K.I.I.K.K.,X6X6X6X6X6XdX^ # i t t w a z.C.D.p.>.>.1.1.1.>.r.iXHXAXAX&XK.(.6X,X6X6X6X6X6X6X6X6X6X6X6X6XwXwXwXwX6X6X6X6X",
"+X6X`.D.I.I.I.I.K.I.I.S.D.'.6X6X6X6X6X`.K.K.K.K.K.K.K.I.I.I.I.I.I.I.K.I.I.D.(.rX9X6X6X6XrX`.D.I.I.I.I.I.D.`.wX6X6X6XwX|.D.I.I.I.I.|.7X7X6XrXm.; 2 t t t 2 2 t t < *.F.z.B.B.B.B.z.t.r.1.1.1.1.1.u.;XHXgX6X6X6X6X6X6X6X6X6X6X6X6X6X(.I.I.I.I.I.K.>X6X6X6X6X6X6X6X6X6X6X6X`.D.I.K.K.}.wX6X6X6X6X6X6X6X9X6XQ.K.I.I.I.I.I.K.K.I.>X6X6X6X6X6X6X6X6X6X5X(.I.I.I.I.I.I.I.I.I.I.I.D.D.6X9X6X6X6X6X6X6XrX6XQ.I.I.I.I.I.D.|.6X6X6X6X6X6XaX! # t t t t t t t < %.D.S.S.c.B.t.r.1.1.3.` -XKXAXdX6X6X6X>XI.I.I.I.I.I.I.I.I.I.I.D.6X6X6X6XQ.D.'.6X6X6X6X6X6X6X6X6X6X6X6X6X6X(.K.I.I.K.Q.9X6X6X6XI.I.I.Y.>X6X6X6X6X6X6X9X`.D.I.I.S.'.0X6X6X9X9X*XS.K.I.I.I.I.I.I.I.I.>X6X6X6X6X6X6X6X6X6X6X6X6X9XsXT % t 2 t t t t t ; T 1.] e.c.B.B.z.S.p.r.>.1.1.1._ %XLXsXQ.9X6X6X6X6X6X6X6X`.K.I.K.K.I.I.,X6X6X6X6X6X9X>XK.I.I.K.(.9X6X6X6X6X6X*XK.I.K.|.wX6XQ.S.`.6X6X6X6X6X6X6X6X6X6X6X6X6X6X6X6X>XK.I.rX).H.I.5XwX6X6X9XY.I.9X6X6X6X6XrX>XI.K.|.9X6X6X6X6X6XwX|.S.I.I.I.K.I.6X6X6X6X6X6XdX^ # i t t t a z.D.S.r.>.,.3.3.>.>.r.9XHXAXHX&XD.<XwX6X6X6X6X6X6X6X6X6X9X6X>X|.|.|.|.,X6X9X6X6X",
"wX X6XQ.S.I.I.I.I.I.I.I.S.I.>XeX6X,X`.I.K.K.K.K.K.K.K.I.I.I.I.I.I.I.K.I.I.I.5XrX6X6X6X6X6XQ.I.I.I.I.I.K.Q.6X6X6X6X6X6XQ.D.I.I.D.(.7X7X7X6XrXm.; 2 t t t 2 2 t t < %.F.z.B.B.B.B.z.r.1.1.1.1.1.1.u.Y.AXkX6X6X6X6X6X6X6X6X6X6X6X6X6XQ.I.I.I.I.K.I.6X6X6X6X6X6X6X6X6X6X6X9X`.K.K.K.I.,XwX6X6X6X6X6X6X6XrX,XQ.I.I.I.I.I.I.K.K.Q.,X6X6X6X6X6X6X6X9X6X6X>X(.I.I.I.I.I.I.I.I.I.I.I.K.(.6X6X6X6X6X6X6X6XrX`.K.I.I.K.I.I.(.6X6X6X6X6X XaX! % t t t t t t t < %.D.c.c.c.S.t.1.1.1.3.` -XKXAXdX6X6X9X`.I.I.I.I.I.I.I.I.I.I.I.H.`.6X6X9X`.D.(.9X6X6X6X6X6X6X6X6X6X6X6X6X9X(.D.I.I.K.Q.9X6X6X6XI.I.I.I.>X9X6X6X6X6X6X9X|.D.I.I.S.(.9X6X6X9X9X9XQ.S.I.I.I.I.I.I.I.I.(.6X6X6X6X6X6X6X6X6X6X6X6X6XsXK % t t t t t t t ; E 2.1.r.c.B.B.B.S.c.r.>.1.1.1._ %XLXgXH.>X6X6X6X6X6X6X6X'.D.I.K.K.I.I.>X9X6X6X6X6X9X>XK.I.I.K.(.9X6X6X6X6X+X'.H.I.I.>X6X6XQ.H.(.6X6X6X6X6X6X6X6X6X6X6X6X6X6X6X6X*XD.(.rX).H.I.6XwX6X6X6XU.Q.9X6X6X6X6XwX*XI.I.|.6X6X6X6X6X6XwX`.D.I.I.I.K.I.9X6X6X6X6X6XdX^ # i 2 t t a nXD.c.r.>.,.,.,.>.>.r.1XHXAXHX&Xx.9X6X6X6X6X6X6X6X6XwXrX`.I.H.I.I.K.K.I.Q.`.,X6X",
",X X6X,XI.K.I.I.I.I.I.I.I.I.(.`.|.`.K.K.K.K.K.K.K.K.K.I.I.I.I.I.I.I.I.I.H.`.9X6X6X6X9X6X`.I.I.I.I.I.I.D.|.wX6X6X6X6X`.D.I.I.I.D.|.0X7X7X6XrXm.< < t t t 2 2 2 t ; ~ F.z.B.B.B.B.z.r.1.1.1.1.1.1.p.H.AXvX6X6X6X6X6X6X6X6X6X6X6X6X>XI.I.I.I.I.D.Q.9X6X6X6X6X6X6X6X6X6X6X6XQ.I.I.K.Q.6XwX6X6X6X6X6X6X6XrX>XK.I.I.I.I.I.I.I.K.Q.6X6X6X6X6X6X6X6X6X6X6X6X>X(.I.I.I.I.I.I.I.I.I.I.I.D.'.6X6X6X6X6X6X6XrX>XQ.I.K.I.I.I.I.>X6X6X6X6X XaX/ % t t t t t t t ; %.D.c.S.S.c.e.1.1.1.3.` -XKXAXdX,X6X5XI.I.I.I.I.I.I.I.I.I.I.I.I.I.6X6X9X>XK.Q.6X6X6X6X6X6X6X6X6X6X6X6X9X6XQ.D.K.I.K.(.9X6X6X6XI.H.I.I.'.9X6X6X6X6X6X6X6XI.I.I.K.I.5X9X6X9X9X9X>XK.I.I.I.I.I.I.Y.I.I.*X6X6X6X6X6X6X6X6X6X6X6X6XsXK $ t t t t t t t < W 2.1.1.p.z.B.B.B.S.t.] 1.1.1._ ;XKXMXK.`.6X6X6X6X6X6X6X>XD.I.K.K.I.I.>X9X6X6X6X6X9X'.H.I.I.I.(.0X6X6X6X6X+X`.I.I.I.6X6X6XQ.H.Q.6X6X6X6X6X6X6X6X6X6X6X6X6X6X6X6X(.K.`.rX!.H.I.6XwX6X6X6XU.Q.9X6X6X6X6XwX%XU.K.|.wX6X6X6X6X6XwX(.D.I.I.I.K.Q.6X6X6X6X6X6XdX^ # i 2 t t t nXD.c.r.>.,.,.,.>.>...<XKXAXHX>XD.9X9X6X6X6X6X6X6XwX6XQ.H.I.I.I.I.I.I.I.K.K.I.(.",
"Q.>X6X X>XI.D.K.I.I.I.I.I.I.D.S.I.I.K.K.K.K.K.K.K.K.K.K.I.I.I.I.I.I.I.K.I.8X6X6X9X6X9X>XI.I.I.I.I.I.D.Q.6X6X6X6XwX>XD.I.I.I.I.(.6X7X7X7X6XrXN.w < t t t 2 2 2 t ; Q F.z.B.B.B.B.c.r.1.1.1.3.>.r.g.S.AXvX6X9X6X6X6X9X6X6X6X6X6X6X|.D.I.I.I.I.A.`.9X6X6X6X6X6X6X6X6X6X6X,XI.I.I.K.(.wXwX6X6X6X6X6X6X6XrX}.K.I.I.I.I.I.I.K.K.(.wX6X6X6X6X6X6X6X6X6X6X6X6X|.Q.I.I.I.I.I.I.I.I.I.I.I.I.5X6X6X6X6X6X6X6X9X`.K.K.I.I.I.I.`.6X6X6X6XoXrX/ % t t t t t t t - %.D.c.S.S.p.r.1.1.1.3.` -XKXZXdX,X9X(.K.I.I.I.I.I.I.I.I.I.I.I.Y.H.`.6X9X5XI.I.>X6X6X6X6X6X6X6X6X6X6X6X9X5XQ.D.K.I.K.(.9X6X6X6X(.H.I.I.`.9X9X6X9X6X6X6X9XQ.H.I.I.K.>X9X6X6X6X6X9X`.K.I.I.I.I.I.I.I.I.(.6X6X6X6X6X6X6X6X6X6X6X6XsXK $ t t t t t t t < W 2.1.1.t.c.B.B.B.S.t.r.1.1.1._ Y.KXBXK.I.6X6X6X6X6X6X6X>XD.I.I.K.I.I.>X9X6X6X6X6X9X`.H.I.I.I.`.9X6X6X6X6X+X`.I.I.I.6X6X6XQ.H.I.,X6X6X6X6X6X6X6X6X6X6X6X6X6X6X5XI.K.|.6XQ.H.I.6XwX6X6X>XU.`.9X6X6X6X6XwX(.U.K.|.wX6X6X6X6X6XwXQ.D.I.I.I.K.(.9X6X6X6X6X6XrX' # i 2 t t 1 X.D.c.6.>.,.,.,.>.>.r.<XKXAXKX1XQ.rX6X6X6X6X6X6X6X,XQ.S.K.I.I.I.I.I.I.I.I.I.I.I.",
"H.Q.6XoX6X`.D.K.I.I.I.K.K.I.I.I.I.I.K.K.K.K.K.K.K.K.K.I.I.I.I.I.I.I.I.I.`.9X>X6X6X9X8XQ.I.I.I.I.I.I.D.|.wX6X6X6X6XQ.D.I.I.I.S.|.eX6X7X7X6XrXN.w < t t t 2 2 2 t ; I F.z.B.B.B.B.p.r.1.1.1.3.>.y.S.S.AXvX6X6X6X6X6X6X6X6X6X6X6X6X`.D.I.I.I.I.I.|.6X6X6X6X6X6X6X6X6X6X6X>XK.I.K.D.`.rXwX6X6X6X6X6X6X6XrX`.D.I.I.I.I.I.I.I.K.`.wXwX6X6X6X6X6X6X6X6X6X6X6X6X`.I.I.I.I.I.I.I.I.I.I.I.I.Q.6X6X6X6X6X6X6XrX>XI.I.I.I.I.I.I.6X6X6X6XoXrX5.% t t t t t t t - %.D.c.S.S.t.1.1.1.1.3.` -XKXZXjX,X8XK.I.I.I.I.I.I.I.I.I.I.I.I.I.I.I.6X9X9X(.D.|.9X,X6X6X6X6X6X6X6X6X6X9X6XI.D.K.K.K.(.9X6X6X9X(.H.Y.I.(.9X9X9X9X6X6X6X9X`.H.I.I.S.`.6X6X6X9X9X9X>XI.I.I.I.I.I.I.I.I.I.>X6X6X6X6X6X6X7X6X6X6X6XsXK $ t t t t t t t < W 2.1.1.r.c.B.B.B.B.c.r.1.1.1.` Y.KXVXK.H.`.6X6X6X6X6X6X6XI.I.I.K.I.I.>X9X6X6X6X6X9X(.H.I.I.I.`.9X6X6X6X6X6X(.K.I.I.9X6X6XQ.K.I.>X9X6X6X6X6X6X6X6X6X6X6XoXwXwX`.I.I. X6XQ.K.Q.9XwX6X6X>XU.`.9X6X6X6X6X,XY.U.K.|.wX6X6X6X6X6XoXI.I.I.I.I.H.`.9X6X6X6X6X6XrX' # i 2 t t 1 X.D.p.>.>.,.,.,.>.>.r.<XKXAXHX1X^.rX6X6X6X6X6X6X9X`.K.I.I.I.I.I.I.K.I.I.I.I.I.I.",
"K.D.>X6X,X6XD.S.I.I.I.I.I.I.I.I.I.I.I.I.I.I.I.I.I.I.I.I.Y.Y.Y.I.I.I.I.`.6X6X6X6X6X6X(.S.I.I.I.I.S.K.'.6X6X X6XwX).K.I.I.I.S.(.rX6X6X7X7X6XrXN.w < t t t 2 2 2 t ; S F.z.B.B.B.S.t.r.1.1.3.3.>.p.S.S.BXvX6X6X6X6X6X6X6X6X6X6X6X6XI.I.I.I.I.I.I. X6X6X6X6X6X6X6X6X6XwX6X`.K.I.K.I.>XrXwX6X6X6X6X6X6X6X6XQ.H.I.I.I.I.I.I.I.H.&XwX6X6X6X6X6X6X6X6X6X6X6X6X6X9X`.K.I.I.I.K.I.I.I.I.I.I.D.`.6X6X6X6X6X6XwX6XQ.K.I.I.I.I.I.|.6X6X6X6XsX5.% t 2 t t t t t ; %.D.S.S.S.t.1.1.1.1.1.` <XKXZXAXvX(.H.Y.Y.Y.Y.Y.Y.Y.Y.Y.Y.Y.Y.I.I.I.>X9X9X>XD.`.rX,X9X6X6X6X6X6X9X6X6X9X6XI.S.K.K.K.Q.9X6X6X9X*XI.Y.I.Q.>X6X9X9X9X9X9X9X>XI.I.I.D.Q.6X6X9X9X9X6X6X&XI.I.I.I.I.I.Y.Y.I.I.9X9X6X9X6X6X6X6X6X6X6XsXK $ t t t t t t t < E 2.1.1.r.p.S.B.z.B.S.t.1.1.1.` I.KXSXK.H.Q.6X6X6X6X6X6X6XQ.K.I.K.I.I.`.rX6X6X6X6X9X(.H.I.I.I.`.9X6X6X6X6X6X(.I.K.Q.9X6X6XI.Y.I.Q.6XwX6X6X6X6X6X6X6X6X6XoXrX|.D.I.`.wX6XQ.H.Q.9XwX6X6X>XH.`.9X6X6X6X6X,XI.U.K.`.9X6X6X6X6X6X6XI.I.I.I.I.H.`.9X6X6X6X6X6XrX^ # i 2 t t 1 X.K.p.>.>.>.>.>.>.] r.&XKXAXFX9X`.9X9X9X6X6X6X6X6XQ.I.I.I.I.I.I.(.'.(.Y.I.I.I.I.",
"I.K.>X6X6XrX|.I.I.I.I.I.I.I.I.I.I.I.I.I.I.I.I.I.I.I.I.I.Y.Y.I.I.I.I.`.6XrX6X6XwX9X(.I.I.I.I.I.I.D.).6X6X6X6X6X`.D.K.I.I.H.I.6XwX6X6X7X7X7X7XN.w < t t t 2 2 2 t 9 M B.z.B.B.B.S.t...1.1.1.1.>.p.S.S.BXZX6X6X6X6X6X6X6X6X6X6X6X|.I.I.I.I.I.K.Q.6X6X6X6X6X6X6X6X6X6XwXrX(.H.I.K.Q.,XwX6X6X6X6X6X6X6X6X,XI.K.I.I.I.I.I.I.K.K.>XrX6X6X6X6X6X6X6X6X6X6X6X6X9XrX6XQ.I.I.I.I.I.I.I.K.I.I.I.I.|.6X6X6X6X6X6XrX*XK.I.I.I.I.I.`.6X6X6X6XsXb.% t 2 t t t t t ; %.D.S.S.S.r.1.1.1.1.1.` iXKXZXZXFXsXI.H.I.I.P.P.P.I.I.Y.Y.Y.Y.Y.Y.I.*X9X9X9X!.D.1XrX6X6X6X6X6X6X9X6X9X9X>XI.D.K.I.K.(.9X6X6XrX<XI.I.I.Q.6X6X6X6X6X6X6X9X9XI.I.I.I.I.>X6X6X9X9X9XrX9XI.S.I.I.I.I.Y.Y.Y.K.`.9X9X6X6X6X6X6X6X6X6XrXK $ t t t t t t t ; E 2.1.1.1.p.S.B.z.z.S.p.r.1.1.` P.KXSXY.H.H.>X6X6X6X6X6X6X`.K.I.K.I.I.`.rX6X6X6X6X9X(.H.I.I.K.`.9X6X6X6X6X6XQ.I.K.Q.rX6X6XQ.I.I.D.(.rXwX6X6X6X6X6X6XoX X6X>XI.K.Q.|.wX6XQ.H.(.9XwX6X6X>XH.`.9X6X6X6X6X|.K.U.K.`.9X6X6X6X6X6X6XY.I.I.I.I.K.`.rX6X6X6X6X6XdX^ # i 2 t t < X.K.t.>.>.>.>.>.>.>.r.>XKXAXFXsX:X9X9X9X6X6X6X9X>XI.I.I.I.K.I.'.6X6X6X6XQ.K.I.I.",
"I.D.,XwX6XwX6XI.K.I.I.I.I.I.I.I.I.I.I.I.I.I.I.I.I.I.I.I.Y.Y.Y.Y.K.Q.6XwX6X6X6X9X(.D.Y.I.I.I.K.S.`.wX6X,XwXwX(.S.K.I.I.K.D.>XeXoX6X6X7X7X7X7X#Xw < t t t 2 2 2 t 9 M B.z.B.B.B.B.t.1.1.1.3.1.1.g.S.S.BXZX6X6X6X6X6X6X6X6X6X6X6X`.I.I.I.I.I.H.(.6X6X6X6X6X6X6X6X6X6XrX9XQ.H.K.K.Q.6XwX6X6X6X6X6X6X6X6X>XK.I.I.I.I.I.I.I.K.I.>XwX6X6X6X6X9X9X9X6X6X6X6X6X6X6X6X9XQ.K.I.I.I.I.I.I.I.I.I.I.I.>X6X6X6X6X6XwX6XI.K.I.I.I.I.Q.6X6X6X6XsXb.% t 2 t t t t t ; %.D.S.S.c.r.1.1.1.1.1.` iXKXZXZXZXFXBX<XY.Y.Y.Y.Y.U.K.K.H.H.S.H.H.S.Y.8X1X,X`.x.}.,X,X,X,X6X6X6X6X,X6X9X}.D.S.S.S.c.Q.9X6X6X9X>XS.H.H.Q.6X6X,X6X6X6X6X6X9X(.D.I.I.D.`.6X6X9X9X9X9X9X`.D.H.H.I.I.I.I.Y.K.K.8X9X6X6X6X6X6X6X6XoXrXK $ t t t t t t t ; E 2.1.1.1.r.z.B.z.z.S.S.e.1.1.` H.FXSXQ.H.H.(.6X6X6X6X6XwX|.K.I.K.I.H.).9X6X6X6X6X9XQ.H.I.I.K.`.9X6X6X6X6X6XQ.I.K.Q.9X6XoX(.I.I.I.D.`.6XrX6X6X6X6XwXwX6X`.D.I.I.`.6XwX6XI.K.(.rX6X6X6X>XH.`.9X6X6X6X6X|.K.Y.K.`.9X6X6X6X9X9X6XY.I.I.I.I.D.`.0X6X6X6X6X6XdX^ # i 2 t t <  .K.t.>.>.>.>.>.>.6.r.*XKXAXAXBX>X9X9X9X9X9X6XrX>XI.Y.Y.I.I.>X9X6X6XoXeX>XI.I.I.",
"H.`.6X6X6XwX6XQ.D.I.K.I.I.I.I.I.I.I.I.I.I.I.I.I.I.I.I.I.Y.Y.Y.K.I.>X6X6X5X6X6X(.I.I.H.I.I.H.K.|.wX6X6XwX6X!.I.K.K.I.I.S.`.rX6X6X6X6X7X7X6XeX#Xw < t t t 2 2 2 t 9 c z.S.B.B.B.B.t.1.3.3.3.3.y.S.c.c.gXAX0X6X6X6X6X6X6X6X6X6X6X(.I.I.I.I.I.K.'.6X6X6X6X6X6X6X6X6X6XwX6XI.H.K.K.`.wXwX6X6X6X6X6X6X6X6X|.D.Y.Y.I.I.I.I.I.K.I.9XwX6X6X6X6X6X9X9X6X6X6X6X6X6X6X9X6X,XI.K.I.I.I.I.I.I.I.I.I.I.`.6X6X6X6X6X6XwX`.H.I.I.I.I.I.|.6X6X6XrXv.% t 2 t t t t t ; %.D.S.S.p.1.1.1.1.1.1.] gXKXZXDXZXZXFXFXBXBXBXBXBXBXBXMXkXgXgXgXkXgXsXBXBXkXkXaXdXvXkXjXjXjXjXjXjXjXjXjXrX>X>X>X*X&X>X9X9X6XrXiX&XQ.Q.^.>X6XrX9XrX9X9X9X9X*XI.I.I.D.`.6X6X6XrX9X9X9X8XQ.K.K.I.I.I.I.Y.U.D.`.0X0X0X0X0X7X6X6X6XdXK $ t t t t t t t ; W 2.1.1.1.r.z.z.z.z.z.S.p.1.1.;.j.AXAXQ.H.H.I.>X6X6X6X6XwX,XI.K.K.I.H.Q.9X6X6X6X6X9XQ.K.I.I.K.(.9X6X6X6X6X6XQ.I.K.).9X6XoX(.(.I.I.I.I.Q.'.5X6X6X6X|.'.(.I.Y.H.Q.wX6X+X>XI.K.`.rX6X6X6X>XH.&X9X6X6X6XwX|.K.Y.K.`.9X6X6X6X6X6X6X(.I.Y.I.I.D.`.0X6X6X6X6X6XdX^ # i 2 t t <  .K.r.>.1.>.>.>.>.r.p.<XKXAXAXAXVX9X1X9X1X1X,X6X>XI.I.I.H.Q.8X6X6X6X6XeX'.I.I.I.",
"Q.9XwX6X6X6XrX`.D.I.I.I.I.I.I.I.I.I.I.I.I.I.I.I.I.I.I.I.I.Y.K.Q.oXrX6X6X9X5XQ.H.I.I.I.H.S.D.>XrX6X6X6X6XQ.S.I.I.K.I.H.Q.6X6X6X6X6X6X7X7X6X7Xm.w < t t t t 2 t t 9 x z.B.z.B.z.B.t.1.3.3.3.3.y.S.S.z.gXAX9X6X6X6X6X6X6X6X6X6X9XQ.I.I.I.I.I.I.|.6X6X6X6X6X6X6X6X6X6X6X>XK.K.K.K.>XwXwXwX6X6X6X6X6XwXrX`.H.I.I.I.I.I.I.I.I.Q.9XwX6X6X6X6X6X6X6X6X6X6X6X6X6X6X6X6X6X>XK.I.I.K.K.I.I.I.I.I.I.I.|.6X6X6X6X6XwX>XI.K.I.I.I.I.`.6X6X6XrXm.% t 2 t t t t t ; %.D.S.S.p.1.1.1.1.3.] K.FXAXAXZXZXZXZXZXFXFXFXFXFXFXFXFXFXKXFXKXKXKXKXFXFXFXKXKXKXFXFXFXFXFXFXFXFXFXFXFXFXKXFXFXFXAXFXFXFXFXFXAXKXHXHXFXAXFXFXFXAXAXDXZXAXDXbXbXZXVXVXZXZXZXZXvXvXZXZXkXdXlXlXfXfXfXpXiX<X>X0X9X9X6X X|.|.>X`.*.a < t t t t t t t < W 2.1.1.1.>.t.c.B.B.B.S.S.r.1.;.s.AXAX&XI.I.H.(.9X6X6X6X6X6XQ.K.K.K.H.Q.9X6X6X6X6X9XQ.K.I.I.S.(.9X6X6X6X6X6XQ.K.K.`.6X6XoXQ.*XI.I.I.I.S.S.I.T.T.I.I.H.K.I.I.Q.6XwX,XwX|.I.H.`.rX6X6X6X>XH.:X9X6X6X6X6X|.K.Y.U.(.9X6X6X9X6X6X6X(.I.I.I.K.D.`.rX6X6X6X6X6XdX^ # i 2 t t <  .K.t.>.3.1.>.>.>.r.p.kXHXAXAXAXFXZXgXsXrXrXyXyXrXQ.Q.Q.Q.`.1X,X6X6X,X`.H.H.K.K.",
"9X6X6X6XwXrX,X`.D.S.S.S.H.H.H.H.K.K.K.K.K.K.I.I.I.I.I.I.K.K.^.rXrX9XrX9X`.I.D.K.I.I.I.K.`.9X6X6X6X9X5XQ.K.Y.I.K.I.I.I.>X6X6X6X6X6X6X6X5X6X|.0.w < t t t t 2 t t 9 a z.S.z.B.B.B.r.1.3.3.3.3.s.H.S.z.dXAX9X6X6X6X6X6X6X6X6X9X5XI.I.I.I.I.K.Q.6X6X6X6X6X6X6X6X6X6X,X6X`.K.K.K.I.,XwXwXwX6X6X6X6X6XwXrXQ.K.I.I.I.I.I.I.I.K.Q.9X6X6X6X6X6X6X6X9X9X6X6X6X6X9X6X6X9X6X9X`.D.I.I.I.I.I.I.I.I.I.I.Q.6X6X6X6X6XwX9X(.D.I.I.I.I.(.6X6X6XrXm.% t 2 t t t t t < %.D.S.c.p.1.>.3.1.;.p.BXFXAXFXFXFXKXFXFXKXKXFXFXKXKXAXAXAXAXAXAXBXZXAXVXAXSXSXBXSXAXVXVXBXBXBXkXvXvXsXfXgXgXfXaXaXdXvXdXgXkXgX1X<X3X3X1XhXaXrXrXrXrXrXrX>XQ.Q.I.Q.Q.>X,X>X>X>X}.`.`.H.r.r.r.r.r.r.r.6.:.| c.Q.I.I.I.T.(./.*.c o 2 t t t t t t t t < W 2.1.1.1.>.r.c.B.B.B.B.S.p.1.>.p.ZXAX`.K.I.H.I.6X6X6X6X6X9X`.K.K.K.K.Q.9X9X6X6X6X9X(.K.I.K.K.Q.6X6X6X6X6X6XI.K.K.).6X6X6XD.>X(.I.I.I.I.I.I.I.I.I.I.I.I.K.I.6X6X6X6XwX>XK.K.`.rX6X6X6X|.K.:X9X6X6X6X6X|.H.Y.K.Q.9X6X6X9X6X6X6X(.I.I.I.I.D.`.rX6X6X6X6X6XdX^ # i 2 t t <  .K.r.>.1.1.1.1.>.r.%XAXAXAXAXZXZXAXAXZXSXSXSXSXZXBXBXBXBXvXBXvXkXdXsX>X<X<X:X2X",
"VXVXVXVXZXZXvXgXsXaXiX1X<X<X&X&X(.Q.Q.Q.Y.I.I.K.S.S.c.D.Q.&X1X1X1X,X}.K.D.D.S.I.I.I.&X9XrX9X6X9X9X*XK.K.K.I.K.I.I.K.>X6X X,X6X6X6X6X9X9X`.D.m.t < t t t t 2 2 t w 5 r.S.z.B.B.B.r.1.3.3.3.3.n.H.S.b.aXAX9X6X6X6X6X6X6X6X6X9X*XH.I.I.I.I.K.Q.6X6X6X6X6X6X6X6X6X6X,XrXQ.S.I.K.Q.9XwXwX6X6X6X6X6X6XwX6XQ.I.I.I.I.I.I.I.I.K.`.rX6X6X6X6X6X6X6X,X9X6X6X6X6X9X9X9X6X6X6X9X(.D.I.I.I.I.I.I.I.I.I.S.`.wX6X6X6X6XrX>XK.K.I.I.I.Q.|.6XoXrXW.; t t t t t t t ; %.D.S.S.u.1.>.1.` p.MXAXFXAXIX3X:X$XQ.Q././.&X1X1X$Xm.n.c.n.n.i.K.&X`.Q.K.p.r.r.K.`.Q.Q.Q.Q.Q.Q.(.c.[ ] ....[ ' z.Q.Q.Q.^.Q.X.[ ] ' ' c.W.W.W.W.W.^.^.c.| :.` 1.` z.Q.Q.I.I.Q.Q.c.6.] :.>.] ] >.>.>.:.:.K.`.(.(.(.%X*Xi.N < 9 l t 2 t t t t t t t < W 2.1.1.1.>.r.c.B.B.B.B.S.p.r.>.p.ZXFX`.S.I.I.H.'.9X6X6X6XrX>XK.K.K.K.D.>X9X6X6X6X6X`.K.I.K.H.I.5X6X6X6X6X6XK.K.K.!.wX6X6XD.>X>XD.I.I.I.I.I.I.I.I.I.I.D.Q.9X6X6X6X6XwX>XK.K.`.9X6X6X6X|.K.:X9X6X6X6X6X|.K.Y.I.I.6X6X6X6X6X6X6X`.K.I.I.K.S.Q.rX6X6X6X6X6XdX^ # i 2 t t < [ K.] >.>.1.1.1.] p.SXAXAXKXFXAXKXKXKXKXKXKXKXKXKXLXKXKXKXKXKXFXFXFXFXFXAXAXAXAX",
"FXKXFXFXGXFXFXFXFXFXFXKXFXFXFXAXZXZXZXBXBXBXgXfXsXrX9X9XaXaXaXaX9X:XQ.Y.Y.I.H.H.Q.<X9X1X9X9X9X>X(.H.U.I.I.I.K.Q.D.`.wXwX6X6X6X6X6X6XrX8XD.D.m.e < t t t t 2 2 t i 3 r.S.z.B.B.B...1.3.3.3.1.s.H.S.b.aXAXrX6X6X6X6X6X6X6X9X9X(.I.I.I.I.I.D.).6X6X6X6X6X6X6X6X6X6X6X9XQ.K.I.K.`.rXwXwX6X6X6X6X6X6X6X,XD.I.I.I.I.I.I.I.I.I.>XrX6X6X6X6X6X6X9XQ.}.rX6X9X9X6X6X6X9X6X6X6X9XQ.I.I.I.I.I.I.I.I.I.I.I.,XrX6X6X6XwX6XQ.K.I.I.I.I.'.6XoXwXW.; t t t t t t t < %.D.S.p.y.1.r._ y.BXFXKXcXH.1.;.` ` ;.` >.s.%XU.i.,.;.;.3.3.;.y.Y.Q.U.d.3.;.y.Y.(.(.(.(.(.Q.(.Y.y.1.y.1.1.1.u.I.(.Q.Q.`.(.r.] y.y.>.H.Q.Q.Q.Q.Q.Q.(.H.1.1.>.r.r.S.*X(.Q.(.(.I.p.y.>.r.r.r.1.1.1.1.>.6.K.(.(.(.].].H.P < ; t t t 2 2 t t t t t t t ; W 2.1.1.1.>.1.t.z.B.B.z.S.c.u.1.p.ZXFX&XS.I.I.H.Q.6X6X6X6X6X9XI.K.K.K.D.>X9X6X6X6X6X`.K.I.K.H.I.>X6X6X6X6X6XK.K.K.!.6XwX6XK.>X,X>XK.I.I.I.I.I.I.I.I.D.`.9XwX6X6X6X6XwX>XK.I.(.6X6X6X6X>XH.:X9X6X6X6X6X,XI.U.Y.I.>X6X6X6X6X6XwX`.K.I.I.K.H.I.6X6X6X6X6X6XdX^ # i 2 t t <  .K.{ >.>.1.2.1...kXFXAXAXAXZXBXaXaXaXaXaXaXaXaXhXhXhXmXIXBXBXBXSXSXZXDXDXDXDXDX",
"M.M.N.#X#X3XMXMXBXBXSXAXAXAXFXFXFXFXKXKXLXLXLXFXKXFXFXFXFXFXAXAXZXZXBXvXvXcXdXdXgXvXgXdXdXsX9X:XQ.Y.K.K.K.H.H.K.`.6X>X6X,X,X,X>X>X6X'.S.S.I.m.1 < t t t 2 2 2 t i 3 | D.z.c.S.z.r.3.3.3.3.r.s.S.S.b.9XFXrX6X6X6X6X6X6X6X6X9XQ.K.I.I.I.I.S.`.6X6X6X6X6X6X6X6X6X6X6X,XI.K.I.K.|.rXwXwX6X6X6X6X6X6X6X>XD.I.I.I.I.I.I.I.K.Q.6XwX6X6X6X6X6X6X6XI.D.|.rX6X6X6X9X9X9X9X6X6X9X6XI.I.I.I.I.I.I.I.I.I.S.Q.rX6X6X6X6XwX`.D.I.I.I.I.(.6X6X6X!.; t t t t t t t < %.D.S.p.1.r.;.p.BXKXAX&Xr.>.1.1.3.3.>.p.%X%XP.y.>.1.3.3.3.3.H.`.%XP.y.>.>.p.Q.(.`.(.Q.Q.Q.(.H.1.1.1.1.3.1.p.(.`.Q.Q.(.Q.r.] 1.3.>.p.^.Q.Q.`.Q.Q.Q.u.>.1.>.1.>.p.(.Q.Q.(.(.g.1.>.>.>.>.>.>.>.1.1.>.>.H.`.Q.(.*XU.$.t < t t t t 2 2 2 t t t t t t t 9 W 2.>.1.1.1.>.r.S.B.B.B.B.z.p.1.u.BXKX:Xx.I.I.H.D.>X6X6X6X9X9XI.K.K.K.D.`.9X6X6X6X6X|.K.I.K.H.K.*X6X6X6X6X6XK.K.K.!.6XwX6XI.*XwXwX>XQ.I.I.I.I.K.I.(.>X9X6X,X6X6X6X6XwX>XK.I.(.6X6X6X6X|.H.:X9X6X6X6X6X,XQ.K.Y.I.>XrX6X6X6X6XwX*XK.K.I.K.K.I.6X6X6X6X6X6XrX^ # i t t t <  .K.] ] 1.1.1.` iXFXAXMX%Xc.i.S f O # O O O O O # O 7 1.3.y.y.u.d.s.m.#.#.=.=.=.",
"        & ) ] 6.r.r.i.c.c.n.U.U.Q.%X2X3X3X3X3XhXmXmXIXSXAXAXAXAXAXKXKXLXPXLXPXPXPXLXLXKXKXKXKXKXKXHXSXSXVXBXBXVXZXbXvXvXvXkXvXkXsXlX8X(.(.(.m.1 < t t t 2 2 2 t t 1  .D.z.c.S.z.{ 3.3.3.3.r.p.S.S.b.1XFXrX6X6X6X6X6X6X6X6X9XI.I.K.I.I.I.D.|.6X6X6X6X6X6X6X6X6X6X9X>XK.I.I.I.,XwXwX6X6X6X6X6X6X6X6X`.K.I.I.I.I.I.I.I.K.`.rX6X6X6X6X6X6XwX|.I.I.I.|.wX6X6X6X9X9X9X6X9X6X9X>XH.I.I.I.I.I.I.I.I.I.K.*X9X6X6X6XwX,XQ.D.I.I.I.I.>X6X6X^.2 2 t t t t t t < %.D.S.e.r.` p.SXLXgXn._ >.1.1.1.>.1.P.%XU.y.>.1.3.1.3.1.>.j.Q.Q.n.>.` y.H.(.(.(.(.(.Q.Q.(.S.1.;.1.1.1.1.H.(.`.(.Q.Q.Q.r.>.1.1.` s.(.Q.^.Q.Q.`.Q.r.1.1.1.1.>.g.(.Q.(.(.I.e.] 1.1.>.>.>.r.r.r.1.1.u.Y.%X(.%X;X%.5 $ t t t t t t 2 2 2 t t t t t 2 t 9 T 1.>.1.1.1.>.r.c.z.B.B.B.B.j.1.r.vXKX<Xc.I.I.H.S.`.9X6X6X6X9XQ.K.K.K.S.`.9X6X6X6X6X|.K.I.K.H.S.`.6X6X6X6X6XK.K.K.).6XwX,XK.(.wX6X6X6X>X'.`.'.>X5X6X6X6X6X6X6X6X6X6XwX>XK.I.Q.6X6X6X6X>XH.:X9X6X6X6X6X6XQ.H.Y.K.`.9X6X6X6X6XwX>XK.K.I.I.K.K.|.wX6X6X6X6XrX^ # i t t t -  .K.] >.1.1.` *XAXKXsXr._ 8./ t t t t e e e e e e t f.u.>.1.3.3.3.,.P # # $ % O ",
"x x 3 M *.8.1.1.1.1.>.` ;.;.;.,.,.f.,.-.s = + & $ * 1 5 7 ^ K.H.K.U.U.n.n.n.m./././.2XiXiXfXsXfXgXgXgXgXgXcXgXaXaXaXaX1X4X&X/.:X<X*X(.(.I.p.W 1 t t t t 2 2 2 t t > ' K.z.c.S.t.] 3.3.3.1.y.c.S.S.b.,XFXsX6X6X6X6X6X6X6X6X>XI.I.I.I.I.I.D.6XwX6X6X6X6X6X6X6X6X6XrX`.H.I.I.Q.,XwXwX6X6X6X6X6X6X6X6XQ.I.K.I.I.I.I.I.I.K.'.rX6X6X6X6X6X6X6X`.D.I.I.I.>XrX6X6X6X6X6X6X6X6X6X9X`.H.I.I.I.I.K.I.I.I.K.I.6X6X6X6X6X9X`.D.I.I.I.I.`.eX6X}.t < t t t t t t < %.D.S.p._ p.AXFX:Xr.>.1.>.3.] 6.H.%XY.p.>.>.y.y.1.1.>.>.I.%XY.u.>.>.e.I.`.(.Q.^.Q.(.`.I.u.>.1.u.1.1.u.Y.`.(.(.(.(.I.r.;.3.1.] H.(.(.^.Q.`.Q.S.1.>.>.1.1.>.H.(.Q.Q.Y.u.1.1.1.1.1.1.>.>.>.>.>.>.{ I.%X&X&X0.c * t t w w t t t t 2 2 2 t t t t t t t 9 T 1.>.1.1.1.1.r.p.B.B.S.c.S.H.1.1.cXKX1XD.I.I.I.H.I.6X6X6X6X9X`.K.K.K.K.Q.6X6X6X6X6X,XK.I.K.H.S.(.6X6X6XwX6XK.K.H.Q.6X6X>XH.Q.6X6X6X6X6X6XwXwX6X6X6X6X6X6X6X6X6X6X6XwX>XD.I.G.6X6X6X6X>XK.:X9X6X6X6X6X6XQ.H.Y.K.`.9X6X6X6X6X6X>XI.K.I.I.I.K.|.wX6X6X6X6XrX^ # i 2 t t - / K.] >.3.] (.FXAX<X| ' y.>.s < w w w w w w w w < D 3.3.;.` ;.>.y.R 1 i a u u u ",
"9 < T ,.,.3.1.1.3.1.1.1.1.1.r.r.y.y.Y x ; 9 t < w < ; & H 1.r.` 1.%.a . % .       * E ] ] ] ] ] r.>.>.1.3.-.t % $ < $ % %   # E ;.` _ ] | S < 1 t t t t t t 2 t t > ~ K.S.S.S.t.] 3.1.3.1.p.c.S.S.b.>XFXdX6X6X6X6X6X6X6XwX'.I.I.I.I.I.K.I.6XwX6X6X6X6X6X6X6X6X6X9X`.H.I.K.`.wXwXwX6X6X6X6X6X6X6X,XI.I.K.I.I.I.I.I.K.D.6XrX6X6X6X6X6X6X6XQ.K.I.I.K.Q.>X9X6X6X6X6X6X6X6X6X6X9XQ.K.K.K.I.I.I.I.I.I.K.(.9X6X6X6XwX>XD.I.I.I.I.Q.6X6X}.l < t t t t t t < %.D.S.] H.GXmXp.` 1.1.1.1.>.y.K.(.S.>.>.r.y.1.1.>.>.u.(.(.p.r.3.1.H.(.Q.Q.Q.(.Q.`.Q.H.r.1.3.1.1.1.p.Q.(.Q.(.(.`.H.>.>.3.;.1.I.`.Q.Q.(.(.Q.p.1.1.>.1.>.>.H.^.Q.I.H.r.] 1.1.>.1.1.1.r.>.>.>.:.>.I.{.%Xa.F < ; t t t t t t t t 2 t t t t t t t t t t 9 E e.>.1.1.1.1.1.p.S.B.S.S.S.H.j.1.gXKXiXK.I.I.I.K.K.>X6X6X6X6X>XK.K.K.H.Q.6X6X6X6X6X,XQ.I.I.H.H.(.6X6X6XwX6XI.K.K.Q.6X6X>XH.Y.6X6X6X6X6X6X6X6X6X6X6X6X6X6X6X6X6X6X6X6X>XD.I.Q.6X6X6X6X>XU.&X9X6X6X6X6XwX`.H.Y.K.(.6X6X6X6X6X6X,XQ.K.I.I.I.K.`.6X6X6X6X6XrX^ # i 2 t t - / K...>.` U.KXSXU.] >.1.,.m ; t < w w w t t t w n >.1.1.1.1.{ y.$.1 < w u t w t ",
"a @.d.,.,.3.1.1.1.1.1.>.1.1.1.r.<.F < < t w t t t t 1 R u.1.1.u.&.x < t l l t s $.d.y.1.r.1.r.1.>.1.1.3.$.1 w t u u u u w N d.3.u.u.r.8.S < 2 t t t t t t 2 2 2 t > Q K.S.S.S.t.] 3.1.1.1.p.c.S.S.b.:XFXdX6X6X6X6X6X6X6X6X(.I.I.I.I.I.K.Q.9XwX6X6X6X6X6X6X6X6X6X9XQ.K.I.I.}.wXwXwX6X6X6X6X6X6X9X>XK.I.K.I.I.I.I.I.S.Q.9X6X6X6X6X6X6X6X6XG.I.I.I.I.K.Q.,X9X6X6X6X6X6X6X6X6X6X>XD.K.I.I.I.I.I.I.I.I.I.>X6X6X6XwX6XQ.K.I.I.I.K.OXwX}.x < t t t t t t < %.D.X.I.HX<X] >.y.1.>.1.r.H.Q.H.r.] 1.1.y.y.r.>.| c.%XI.u.1.1.p.Y.(.(.(.Q.Q.Q.(.Y.p.1.1.>.3.1.] H.(.(.Q.Q.(.Q.p.1.3.1.>.p.(.(.(.(.`.(.I.r.` >.3.1.1.] H.(.Q.Y.p.r.1.1.1.] r.g.r.>.r.>.r.6...T.*Xm.P 4 < t t t t t t t t 2 2 2 t t t t t t t t 2 t 9 R e.>.1.1.1.1.1.p.S.B.B.S.S.S.j.r.gXKXaXD.K.K.K.K.K.(.6X6X6X6X>XI.K.K.K.I.>X6X6X6X6X6XQ.K.I.K.H.I.5X6X6XwX6XI.K.K.D.6X6X,XH.I.6X6X6X6X6X6X6X6X6X6X6X6X6X6X6X6X6X6X6X6X>XD.I.I.,X6X6X6X>XU.`.9X6X6X6X6XwX`.K.Y.K.Q.6X6X6X6X6X6X9X`.K.I.I.I.H.(.6X6X6X6X6XdX^ # i 2 t t - ) K.r._ n.PXMXi.` 1.>.y.P < t < t t t w t t w s -.>.>.` 1.1.1.:.a < w t t t t t ",
"&.y.3.,.3.3.1.1.1.1.1.>.>.r.y./ a ; t t t w t t t 3 R u.1.1.y.&.3 ; t t t < B -.1.{ 1.1.1.1.1.1.{ 1.3.W < 9 t t w t e * M >.1.;.1.1.,.N < 2 t t t t t t t 2 2 2 t - T K.S.S.S.p.] 1.1.1.1.p.c.S.S.b.}.FXdX6X6X6X6X6X6X9X6XQ.I.I.I.I.I.K.(.9X6X6X6X6X6X6X6X6X6X6X9XI.K.I.I.>XrXwX6X6X6X6X6X6X6X9X`.K.I.K.I.I.I.I.I.D.`.rX6X6X6X6X6X6X6X>XD.I.I.I.I.I.D.(.,X6X6X6X6X6X6X6X6X6X6X`.I.I.I.I.I.I.I.I.I.K.(.6X6X6X6X6X`.K.I.I.I.D.`.wX Xn ; t t t t t t < %.B.*XfXp.` y.1.1.>.1.s.-XY.r.] 1.1.1.>.>.>.] r.I.Q.p.3.;.3.H.(.`.(.(.`.(.Q.Q.H.y.>.3.3.1.>.u.H.(.(.(.`.Q.S.1.1.u.1.1.H.`.(.Q.(.(.Y.p.1.>.1.1.1.>.>.K.`.(.I.r.>.y.1.] ] S.H.r.] >.1.>.] i.%XY.T 4 < t i t t t t t 2 2 2 2 2 2 t t t t t t t t 2 2 9 R e.>.1.1.1.1.1.r.B.B.B.B.S.S.j.u.gXKXaXD.K.K.K.K.K.I.5X6X6X6X6XI.K.I.I.I.>X6X6X6X6X6X`.K.I.K.H.I.|.6X6XwX6XQ.K.K.D.,XwX6XK.I.6X6X6X6X6X6X6X6X6X6X6X6X6X6X6X6X6X6X6X6X,XD.I.I.>X6X6X6X6XK.`.9X6X6X6X6XwX}.K.Y.I.I.>X9X6X6X6X6X6X`.D.I.I.K.H.Q.>X6X6X6X6XdX%.# i 2 t i - ) K.[ r.HX3X>.>.1.1.y.E < ; < t t t t w t t e &.u.;.>.1.] 1.>.c < < t t t t w a ",
"3.,.,.,.3.3.1.3.3.1.1.1.1.>.W < 9 t t t t t t t t / u.1.1.h.~ 1 t t t < < P >.>.r.1.1.1.1.1.1.1.e.1.N ; 9 t t t t t w T 3.1.1.1.3.>.A < 2 t t t t t t t t 2 2 2 t - S H.p.S.S.p.>.1.1.1.r.p.c.S.S.b.`.FXgX6X6X6X6X9X6XrX5XI.I.I.I.I.I.D.`.9X6X6X6X6X6X6X6X6X6X9X,XK.K.I.Q.,XwXwX6X6X6X6X6X6X6X9XQ.K.I.K.I.I.I.I.I.I.>X6X6X6X6X6X6X6X,X|.D.I.I.I.I.I.I.I.`.,X6X6X9X9X6X6X6X9X6X6X).D.I.I.I.I.I.I.I.I.K.>X6X6X6XwX|.I.I.I.I.D.Q.6X,Xn - t t t t t t < *.5X%X] ` y.y.1.;.y.Y.%Xs.1.>.1.1.>.;.>.;.>.H.!.S.y.,.;.s.Q.).(.Q.(.(.`.`.Q.p.1.;.1.3.1.1.s.Q.(.Q.(.(.H.y.1.1.1.;.e.I.`.(.Q.`.(.S.r.;.1.1.1.1.>.>.H.`.`.I.y.1.3.1.1.r.I.S.1.] >.>.>.1.j.I.~ 3 ; t t t t t t t t t 2 2 2 2 2 2 t t t t t t t t 2 2 9 ~ p.>.1.1.1.1.1.r.B.B.B.S.S.S.H.p.gXKXsXD.K.K.K.K.K.D.*X9X6X6X6X(.I.Y.I.D.`.6X6X6X6X6X`.K.I.K.H.K.'.6X6X6X6XQ.K.K.D.>XrX6XI.K.|.6X6X6X6X6X6X6X6X6X6X6X6X6X6X6X6X6X6X6X6XQ.K.I.>X6X6X6X6XK.`.9X6X6X6X6XrX|.K.U.Y.I.>X9X6X6X6X6XwX|.D.I.I.K.K.D.|.9X6X6X6XdX%.# i 2 t t ; ) c.r.NXP._ 3.y.>.1._ t < < 2 2 t t t 2 t w W 3.1.1.1.;.>.2.A - 2 2 t t t 9 a -.",
",.,.3.,.3.1.1.3.3.1.1.1.:.M ; t t t t t t t 9 3 E y.>.1.u.+.1 < t t < t ~ y.>.>.>.1.1.1.] { 1.2.&.x < t t t t t < t / 3.1.1.1.1.3.F < 2 t t t t t t t t t 2 2 2 t - F H.p.S.S.p.>.1.1.1.r.p.c.S.S.b.^.FXkX6X6X6X6X6X6X9X>XK.I.I.I.I.I.K.|.wX6X6X6X6X6X6X6X6X6XrX>XD.I.I.Q.6XwXwX6X6X6X6X6X6X6X6XI.I.K.I.I.I.I.I.I.Q.6X6X6X6X6X6X6X6X,X).S.I.I.I.I.I.I.K.I.`.6X6X9X9X6X6X6X6X6X6X XQ.K.I.I.I.I.I.I.I.I.Q.6X6X6XwX6XQ.K.I.I.K.W.6X6XM - t t t t t t $ ~ X.o.` ;.;.1.u.Y.%XT.u.1.2.u.1.1.1.1.{ t.Q.(.g.>.` r.S.(.(.(.(.(.Q.I.Q.Y.r.>.>.1.1.>.1.H.Q.(.(.Y.I.p.1.1.3.1.1.p.Q.Q.Q.(.(.Y.u.;.>.1.1.3.3.>.r.I.`.Q.I.r.>.1.1.r.c.Y.p.>.1.>.>.>.2.g.5.b # < t t t t t t t t t t 3 3 3 3 2 t t t t t t t t t 2 2 9 ~ g.>.>.1.1.1.>.1.c.B.B.B.S.S.H.g.kXKXsXD.K.K.K.K.K.K.(.6X6X6X6X(.I.I.I.H.`.6X6X6X6X9X>XK.I.I.K.K.`.6X6X6X6XQ.H.I.D.>XrX6XI.K.|.6X6X6X6X6X6X6X6X6X6X6X6X6X6X6X6X6X6X6X6XQ.K.K.*XwX6X6X6XK.Q.9X6X6X6X6XrX,XK.U.Y.K.`.6X6X6X6X6XwX6XQ.K.I.I.K.S.'.0X6X6X6XdX%.# i 2 t t < ) K.-Xs._ ,.,.>.u.-.5 < < t 2 2 t t t t < A 3.1.1.1.>.` 3.P > 2 2 t t t ; 5 -.3.",
"3.3.3.3.1.1.1.>.>.1.,.R a < t t t t t t t 0 < $.y.1.1.y.R < t t 9 < c &.y.6.>.>.1.1.1.>.>.>.y.R 1 < t t t t t < x &.y.1.1.1.1.<.M < t t t t t t t t t t t t 2 2 t - F K.S.S.S.p.] 1.1.{ e.c.c.S.S.z.Q.FXvX6X6X6X6X6X6X6X'.K.I.I.I.I.I.D.>XwX6X6X6X6X6X6X6X6X6XrX`.K.I.K.`.9X9X6X6X6X6X6X6X6X9X>XK.I.K.I.I.I.I.I.K.`.wX6X6X6X6X6X6X6X,XQ.S.I.I.I.I.I.I.I.I.I.`.6X9X6X6X9X9X6X6X6X6X>XI.K.I.I.I.I.I.I.I.I.|.wX6X6XwX`.D.K.K.K.D.|.7XF # t t t t t t < 1 , 6 6 d d c N P Y N P Y T Y $.$.$.8.m.#Xm.5.<.<.m.-X-X&X&X&X&X&X&X&Xc.r.1.3.y.3.u.p.Y.*X`.Q.H.r.] ] 1.1.` 1.I.(.(.(.].(.S.{ { 1.1.{ 1.{ ` t.(.(.(.I.1.1.1.` u.H.I.p.>.y.y.>.y.d.&.N & w i t t t t t t t t t t t t < < < ; < - # # o # t t t 2 2 9 ~ S.>.1.1.1.1.1.>.c.S.B.B.B.S.H.g.gXKXgXD.K.K.K.K.I.K.I.,X6X6X6X'.I.I.I.K.Q.6X6X6X6X6X>XI.I.I.K.I.Q.6X6X6X9XQ.K.K.D.|.rX6XI.K.`.6X6X6X6X6X6X6X6X6X6X6X6X6X6X6X6X6X6X6X6XQ.D.I.`.6X6X6X6XK.Q.9X6X6X6X6XrX6XI.H.Y.I.(.9X6X6X6X6X6X9X`.D.I.I.I.S.(.0X6X6X6XrX&.# i 2 t t ; ) -Xe.` u.1.1.y.@.5 2 < 2 2 2 t 2 2 t < B ,.1.1.1.1.1.3.R < < t t t t < 5 &.y.1.",
"1.3.1.1.1.1.1.1.1.>.N t w w e t t t t t t ; Y 8.1.1.1.E t t t t < M :.r.>.>.>.1.1.1.1.>.1.,.P < < t t t t t w n %.1.>.1.1.1.,.B ; t t t t t t t t t t t t t 2 2 t < n S.S.S.S.t.] 1.1.{ t.S.c.S.S.z.Q.AXBX6X6X6X6X6X6X6X'.D.I.I.I.I.K.K.,XwX6X6X6X6X6X6X6X6X6X9XQ.I.I.K.>X9X9X9X9X9X6X6X6X6X9X&XK.I.K.I.I.I.I.I.I.>XwX6X6X6X6X6X6X6X>XD.K.I.I.I.I.I.I.I.I.I.Q.`.6X6X6X9X6X6X6X6X9X9X'.I.I.I.I.I.I.I.I.K.Q.6XwX6XwX,XQ.K.K.K.D.].0XF # t t t t t t t t i w w w ; ; $ $ ; w ; # - & < < < < 3 3 1 3 a x m V V L T T ) ^ ^ ) K T R E _ _ >.p.c.H.H.8.:.>.8.8.8.8.s.Y.*X].(.*X(.u.1.y.y.y.y.y.y.p.Y.*X'.(.g.r.r.>.y.P.%X%Xr.' >.>.>._ W g O # < > # # - ; ; ; ; ; ; < 2 2 t t l n F S D Q #.&.&.3 < t 2 t 9 ~ I.>.1.1.1.>.3.>.z.S.B.B.B.c.H.p.sXKXkXD.K.K.K.I.I.K.I.|.6X6X6X6XI.I.I.H.I.>X6X6X6X6X6XQ.K.I.K.I.I.,X6X6X9XQ.H.K.S.`.rX6XQ.I.).6X6X6X6X6X6X6X6X6X6X6X6X6X6X6X6X6X6X6X6X`.D.I.Q.6X6X6X6XI.Q.6X6X6X6X6X6X6X(.H.Y.I.I.6X6X6X6X6X6X9X>XD.I.I.K.H.I.9X6X6X6XsX&.# i 2 t t < N E E -.>.1.y.E t ; t t 2 2 2 2 2 3 < c ,.2.1.1.1.1.3.-.5 < t t t t < < R y.1.1.",
"3.1.3.1.3.>.>.2./ x ; < < w w t t t u 0 < R y.>.>.1.:.a w t 9 ; W 8.6.>.>.1.1.1.1.1.1.1.<.M ; t t t t t t w P ,.1.>.3.1.1.1.n ; t 2 t t t t t t t t t t t t 2 2 t < b S.S.B.S.t.] 1.1.{ t.S.c.c.S.z.W.AXBX6X6X6X6X6X6X6X`.K.I.I.I.I.K.I.,X6X6X6X6X6X6X6X6X6X6X6XQ.I.I.I.>X9X6X6X6X6X6X6X6X6XrX^.K.I.I.I.I.I.I.K.(.9X6X6X6X6X6X6X6X6X`.D.I.I.I.I.I.I.I.I.D.I.I.D.`.6X6X9X6X6X6X6X6X6X6X(.I.I.I.I.I.I.I.I.I.|.+X6X6X6X`.D.I.K.K.(.0XD # t t t t t t t t t t t t t t t t t < b n b a a t t t e e e w w w $ % % % : : % X X X X X X : % : : : : : : : 9 9 ; w w w l b b b b b l u Z Z Z Z F F F G +.Q Q T P I Y I Q &.&.~ ~ R &.:.5.%.P P Q ~ ~ ^ ^ ) ^ ^ 5.5.6.7.7.i.c.c.n.K.n.^.wX6XwXwXwXeX3X5 < t 2 t 9 ~ I.>.1.1.>.>.3.1.z.S.B.B.B.S.H.p.aXKXkXK.K.I.I.I.I.K.K.'.6X6X6X6XQ.I.I.I.I.>X6X6X6X6X9X`.K.I.I.I.H.|.wX6X6X`.H.K.H.`.wX6XQ.D.Q.9X9X6X6X6X6X6X6X6X6X6X6X6X6X6X6X6X6X6X6X`.D.I.Q.6X6X6X6XQ.I.,X6X6X6X6X6X6X`.H.Y.I.I.>XrX6X6X6X6X6X6XQ.K.I.K.H.S.>XeX6X6XsX^ # i 2 t t t 3 < t 2 t b b t < t t 2 2 2 2 2 t 1 B 1.e.1.1.1.1.1.<.c < t t t t t < T 3.1.r.1.",
"1.1.1.1.1.1.>.S 1 < t < w w t t t t 0 < Y y.>.1.u.,.a < t ; s &.d.y.>.>.1.1.1.1.1.1.u.$.5 < t t t t t t 1 W 3.1.1.1.>.>.,.n < t < 2 t t t t t t t t t t t t 2 2 t < x z.B.B.B.t.] 1.1.1.t.S.c.c.S.z.K.AXBX6X6X6X6X6X6X6X(.K.I.I.I.I.K.Q.6X6X6X6X6X6X6X6X6X6X6X>XK.I.K.Q.6X6X6X6X6X6X6X6X6X6X9XQ.K.I.I.I.I.I.I.K.|.9X6X6X6X6X6X6X6X6XQ.D.I.I.I.I.I.I.I.I.I.I.I.I.Q.>X6X6X9X6X6X6X6X6X9X6X(.I.I.I.I.I.I.I.K.Q.oXwX6XwX|.D.K.K.K.D.0XD # t w t t t t t t t t t w w w w w t 5 N.1X2X<X<X:X&X$X$X^.^././.K./.n.8.0.6.5.5.b.x.x.x.c.i.5.^ 5.^ ^ ^ ^ ^ 6.r.r.r.r.r.r. . . . . . .r.n.i.6.6.6.6.6.| c.K.D.D.Q.(.`.(.S.p.p.c.c.H.K.*X8X9X9XsXsXsXsXsXsX8XQ.Q.Y.Q.Q.Y.Q.Y.Y.Y.I.K.K.K.Q.,X,X,X,X,XoX2X3 < t 2 t 9 R I.>.1.1.>.>.3.1.t.S.B.B.S.c.H.p.rXKXMXK.K.K.I.I.I.I.K.`.6X6X6X6X(.I.I.I.K.`.6X6X6X6X6X}.K.I.I.K.H.).6X6X6X`.H.K.H.Q.9XwX(.D.I.9X6X6X6X6X6X6X6X6X6X6X6X6X6X6X6X6X6X6X6X|.K.I.I.5X6X6X9XQ.K.>X6X6X6X6X6X6X>XH.Y.Y.K.'.rX6X6X6X6X6X6X`.K.I.I.I.H.(.eX6X6XdX^ # i 2 t t t t t t t t < < t t 2 t 2 2 2 2 2 2 3 D $.R %.,.,.3.3.N & t t t t t < P 3.1.>.1.>.",
"3.3.3.1.,.-.c < < t t < t t t t t t < Y ,.1.1.1.>.B < w < M -.3.1.1.1.1.1.1.>.>.1.8.W 1 < w t t t t w t @.3.1.1.1.>.>.<.M < t t < t t t t t t t t t t t t 2 2 2 t < t t.B.B.B.t.] 1.1.1.t.S.z.c.S.z.K.AXVX6X6X6X6X6X6X6XQ.K.I.I.I.I.K.Q.6X6X6X6X6X6X6X6X6X6X9X'.D.I.K.^.rX6X6X6X6X6X6X6X6XwX>XI.K.I.I.I.I.I.H.I.6X6X6X6X6X6X6X6XrX>XD.I.I.I.I.I.I.I.I.I.I.K.I.I.K.Q.>X6X6X6X6X6X6X6X9X0X>XI.I.I.I.I.I.I.I.I.|.6X6X6X6XQ.D.K.K.S.5XQ O u w t t t w w t t t t t t t t t < ~ :XeXwXeXeXeXeXeXrXrXrXrXrXrX0X(.K.Y.I.I.Q.0XuXuXzXuX5XI.I.Q.(.(.(.(.I.0XzXuXuXuXuXuXuXuXuXuXuXuXsXlX8XI.(.(.(.(.(.6XuXrXrXeX7X7X5XI.I.I.I.K.K.Q.5X7X6X6X6X6X6X,X,XzX].S.D.S.I.I.I.I.I.I.I.I.I.I.I.Q.,X6X6X6X6XwX3Xg t t 2 t 9 R I.>.1.1.1.>.1.1.t.S.B.S.S.S.S.c.4XKXBXW.K.K.I.I.I.I.H.(.6X6X6X6X`.I.I.I.I.(.6X6X6X6X6X>XI.K.I.K.H.I.6X6X9X>XH.K.H.Q.6XwX(.H.I.>X9X6X6X6X6X6X6X6X6X6X6X6X6X6X6X6X6X6X6X>XK.Y.K.>X6X6X9X(.K.>X6X6X6X6X6X6X>XI.H.Y.K.(.9X6X6X6X6X6XwX|.D.I.I.K.K.I.6X6X6XjX^ # i 2 t t t t t t t t t t t t t 2 2 2 2 2 2 2 < 1 > 4 3 5 s N B > 2 t t t t < F a.y.y.y.y.y.",
"_ -.;.1.R a 2 t t < t t t t t t < ; Y d.1.>.1.,.B > ; < T >.3.1.>.>.1.1.1.` >.y.>.N ; 2 t t w w t < b -.3.1.1.1.>.3.>.B ; t t t t 2 < t t t t t t t t t t 2 2 2 2 2 3 t.B.B.B.t...1.1.1.t.B.z.c.S.z.D.VXZX6X6X6X6X6X6X6XQ.K.I.I.I.I.K.).6X6X6X6X6X6X6X6X6X6X9X`.D.I.K.`.rX,X6X6X6X9X6X6X6XwX:XK.I.I.I.I.Y.I.S.&X9X6X6X6X6X6X6X6X9X`.D.I.I.I.I.I.I.I.I.I.I.I.I.I.I.I.`.,X6X6X6X6X6X6X9X9X9X(.I.I.I.I.I.I.I.K.Q.6X6X6XwX|.D.K.K.S.*XQ o u w t t t w w t t t t t w t t < M m.`.6X6X6X6X6X6X6X6X6X6X6X9X9X`.S.K.K.K.S.'.6XoXOXoXOXI.H.I.I.I.H.H.S.'.7X6X6X6X6X6X6X6X6X6X6X6X6X6X9XQ.S.K.S.D.S.I.5X6X6X6X6X6X6X>XK.H.K.I.K.S.I.>X6X6X6X9X9X9X6X6XzX'.S.K.H.I.I.I.I.I.I.I.I.I.I.K.D.>X6X6X6X6XoX1Xh < 2 < t 9 R I.>.1.1.1.>.1.1.t.S.B.B.S.c.S.b.1XKXBXQ.K.K.I.I.I.I.K.Q.6X6X6X6X|.I.I.I.I.I.,X6X6X6X6X6XQ.K.I.K.K.D.>X,X9X>XK.K.H.I.>XwX(.I.D.'.9X6X6X6X6X6X6X6X6X6X6X6X6X6X6X6X6X6X6X>XK.I.H.*X6X6X6X).H.`.6X6X6X6X6X6X9XQ.H.I.I.(.9X6X6X6X6X6XwX,XI.I.I.I.I.I.|.6X6XjX^ # i 2 t t t t t t t t t t t t t 2 2 2 2 2 2 2 2 t 2 t t t t 9 0 t 2 2 2 t t t n B N P W W W ",
"t t t t w w t t t 2 t t t t t t 1 T >.] r.1.r.N < w c -.u.2.2.2.2.2.2.2.1.2.1.R n < w t t t t w ; n 1.1.1.1.1.1.1.>.x # t t t t t t 2 t t t t t t t t t t t t t t t < X.S.B.B.t.| 1.1.1.e.z.z.c.S.c.D.VXZX6X6X6X6X6X6X XI.I.I.I.I.I.K.`.9X6X6X6X6X6X6X6X6X6X9X(.D.I.K.:XrX,X6X6X6X9X6X6X,X9X`.K.I.I.I.I.I.K.I.>X9X6X6X6X6X6X6X6X6XQ.I.I.I.I.I.I.I.I.I.I.I.I.I.I.I.I.S.`.9X6X6X6X6X9X9X6X9X5X(.I.I.I.I.I.I.I.D.'.9X6X6X,XQ.D.I.D.`.Q # t t t t t w w t t t t t w t < t 3.y.(.6X6XwX6X6X6X6X6X6X6X6X6X*XI.K.K.K.K.(.5X6XoXoX6X(.I.Y.I.I.I.I.S.I.6X6X6X6X6X6X6X6X6X6X6X6X6X6XrX>XD.S.K.K.K.H.`.6X6X6X6X6XwXwX>XI.K.K.I.K.K.Q.9X9X6X6X6X6X6X6X6X6X`.S.K.K.I.I.I.I.I.K.I.K.K.K.K.D.'.6X,X6X6XoX3Xg < 2 2 t 9 R S.>.1.1.1.1.1.1.t.S.B.B.B.c.S.b.1XKXAXQ.D.K.K.I.I.I.H.I.>X6X6X6X>XI.I.I.I.I.>X9X6X6X6X6X`.K.Y.I.I.H.*X6XrX<XK.K.K.D.>XwX`.K.D.(.9X6X6X6X6X6X6X6X6X6X6X6X6X6X6X6X6X6X6X,XI.K.K.(.6X6X9X`.S.`.wX6X6X6X6X6X9X(.H.Y.K.I.>X6X6X6X6X6X6X6X`.D.I.I.K.K.(.6X6XdX^ # i 2 t t t t t t t t t t t t t 2 2 2 2 2 2 2 2 2 2 3 t t t t t t t 2 2 2 2 t 1 < < < < ; ; ",
"t t t t t t t t t t t t t t t t 2 a 5 5 g c c < t t F T T T R &.&.&.&.&.&.&.P 5 < t t t t t t ; F a.u.y.u.y.y.3.-.c < t t t t t t t t t t t t t t t t t t t t t t t < | D.B.S.c.>.1.1.1.r.z.z.c.S.c.D.VXAX9X6X6X6X6X6X XI.I.I.I.I.I.K.`.rX6X6X6X6X6X6X6X6X6X9XQ.D.I.K.>XrX,X6X6X6X9X6X6X,X1XQ.K.I.I.I.I.I.K.Q.6X6X6X6X6X6X6X6X6X|.D.I.I.I.I.I.I.I.I.I.I.I.I.I.I.I.K.K.I.`.6X6X6X6X6X9X6X6X9X*XI.I.I.I.I.I.I.K.(.6X6X6X6X`.D.I.I.(.Q # t t t t t w t t t t t t t t > Y y.>.%XrX,X6X6X6X6X6X6X6X,XrX>XY.Y.K.K.K.Q.5X6X6X6X+X5XI.I.I.I.I.I.I.S.`.6X6X6X6X6X6X6X6X6X6X6X6X6XwXwXQ.D.K.K.K.K.K.>X6X9X6X6X6X6XwX'.H.H.I.I.I.I.(.9X9X9X6X6X6X6X6X6X6X(.H.K.K.I.I.I.I.I.K.I.I.I.I.K.D.`.6X X6X6XoX3Xg < 2 2 t 9 T g.>.1.1.1.1.3.r.z.B.B.B.B.c.S.z.9XHXAX(.D.K.K.I.I.I.K.I.>XwX6X6X6XI.I.I.I.K.`.9X6X6X6X6X`.I.I.I.K.H.(.6X9X9XI.K.K.D.>XwX|.D.D.I.6X6X6X6X6X6X6X6X6X6X6X6X6X6X6X6X6X6X6X6XQ.K.K.Q.6X6X9X}.K.Q.wX6X6X6X6X6X9X`.K.I.I.K.`.9X6X6X6X6X6X6X>XI.I.I.I.K.Q.6XoXrX^ # i t t t t t t t t t t t t t t 2 2 2 2 2 2 2 2 2 2 2 2 2 2 2 2 2 2 2 2 2 2 2 3 t t t t t t ",
"t t t t t t t t t t t t t t t t 2 2 ; ; ; ; ; 2 2 2 < < < < < 1 1 1 1 1 1 1 < < t t w t t t t t F H H H H H H W 6 w t t < t t t t t t t t t t t t t t t t t t t w t < [ S.S.S.c.>.3.1.1.r.z.c.c.S.S.D.BXAX0X6X6X6X6X6X6XI.I.I.I.I.I.K.|.wX6X6X6X6X6X6X6X6X6X6XI.K.Y.I.9XrX,X6X6X6X6X6X6X6X<XK.K.I.I.I.I.I.K.`.wX6X6X6X6X6X6X6X6X(.D.I.I.I.I.I.I.I.I.I.I.I.I.I.I.I.I.I.K.D.>X6X6X9X9X6X9X6X9X9X`.I.I.I.I.I.I.I.D.|.wX6XwX>XD.I.D.(.Q # t t t t t w w t t t t 2 t ; M u.3.>.U.,X9X6X6X6X6X6X6X6XrX>XY.Y.Y.K.K.I.'.6X6X6XoXeX'.H.Y.I.I.I.I.I.I.6X6X6X6X6X6X6X6X6X6X6X6X6X6XwX XI.K.I.K.I.H.Q.6X9X9X6X6X6X6XwX`.I.I.I.I.I.I.`.rX6X6X6X6X6X6X9X9X6XQ.H.I.H.I.I.I.I.I.I.I.I.I.I.I.K.(.6X6X6X6XoX1Xg < 2 2 t 9 T g.>.1.1.1.>.3.y.c.S.B.B.z.z.c.r.<XHXAX&XS.K.I.I.I.I.K.I.>XwX6X6X6X(.I.I.I.K.(.9X6X6X6X6X|.Y.I.I.K.K.Q.6XwX9XQ.K.K.K.`.+X|.D.I.I.5X6X6X6X6X6X6X6X6X6X6X6X6X6X6X6X6X6X6X6X`.K.K.I.6X6X6X|.K.Q.,X6X6X6X6X6X9X>XK.I.I.S.Q.9X6X6X6X6X6X6X9X(.K.I.I.I.I.|.6XrX^ % i 2 t t t t t t t t t t t t t 2 2 2 2 2 2 2 2 2 2 2 2 2 2 2 2 2 2 2 2 2 2 2 2 t t t t t t ",
"t t t t t t t t t t t t t t t t t t 2 2 2 2 2 2 2 2 t t t t t w t t w w w w t t t t t t t t t t 9 9 ; ; ; ; ; t < t t t t t t t t t t t t t t t t t t t t t t t t t - ( H.S.S.c.>.3.3.1.r.z.c.c.S.S.c.BXAX0X6X6X6X6X6X6XI.I.I.I.I.I.I.|.wX6X6X6X6X6X6X6X6X6X>XD.K.I.Q.9X6X,X6X6X6X6X6X6XwX>XK.K.I.I.I.I.I.I.>X6X6X6X6X6X6X6X6X>XD.I.I.I.I.I.I.I.I.I.I.I.I.I.I.I.I.I.I.I.K.Q.6X6X6X9X6X6X6X6X9X6X(.I.I.I.I.I.I.D.).wX6X6X6XQ.K.D.Q.Q # t t t t t t t t t t t t < 3 :.1.3.>.H.(.>XrX6X6X6XwXwX,X*XI.P.Y.K.K.K.`.6XoXoX6XoXoXI.I.I.I.I.I.I.H.`.6X6X6X6X6X6X6X6X6X6X6X6X6X6X6X`.K.K.K.I.I.K.&X9X9X9X6X6X6X6XwX(.I.I.I.I.I.I.|.rX6X6X6X6X6X6X9X9X,XQ.H.I.K.I.I.I.I.K.I.I.I.I.I.I.H.I.6X6X6X6XoX1Xj < 2 2 t 9 T e.1.1.1.1.>.3.y.c.S.S.S.S.z.c.t.<XHXHX&XS.I.I.I.I.I.K.I.>XwX6X6X6X(.I.I.I.I.Q.8X6X6X6XwX,XQ.K.I.I.I.I.,X6XrX`.H.I.K.(.wX6XI.I.I.>X6X6X6X6X6X6X6X6X6X6X6X6X6X6X6X6X6X6X6X`.K.I.K. X6X6X>XK.K.>X6X6X6X6X6X6X5XI.K.I.H.I.6X6X6X6X6X6X6X9X*XI.K.I.I.K.`.6XrX^ % i 2 t t t t t t t t t t t t t 2 2 2 2 2 2 2 2 2 2 2 2 2 2 2 2 2 2 2 2 2 2 2 2 t t t t t t ",
"t t t t t t t t t t t t t t t t t t t t t t 2 2 t t w t t t t w t t t t t t t t t t t t t t t t w w t t t t t t t t t t t t t t t t 2 t t 2 t t t t t t t t t t w t $ ( H.S.S.c.>.1.3.1.r.z.c.c.S.S.c.kXAXrX6X6X6X6X6X6XI.I.I.K.I.K.I. XwX6X6X6X6X6X6X6X6X6X|.D.I.K.Q.9X6X6X6X6X9X6X6X6XwX`.K.K.I.I.I.I.K.Q.9X9X6X6X6X6X6X6X6X`.D.I.I.I.I.I.I.I.I.I.I.I.I.I.I.I.I.I.I.I.I.D.(.6X6X6X9X6X6X6X6X9X>XI.D.I.I.I.I.D.G.6XwX6X6X).D.D.Q.#.# t t t t t t w w w t t 2 < E 3.1.,.>.H.U.Q.9XrXwX9X6X>X&XI.K.Y.Y.I.K.Q.5X6XoXoXoX6X].I.I.I.I.I.I.I.I.6X6X6X6X6X6X6X6X6X6X6X6X6X6X6X6XQ.K.K.K.I.K.I.>X9X9X9X6X6X6X6X6XQ.I.I.I.I.I.I.>XrX6X6X6X6X6X6X9X9X>XI.I.I.K.Y.I.I.I.K.I.I.I.I.I.I.I.I.>X6X6X6XoX1Xj < 3 2 t 9 W e.>.>.1.1.1.3.y.S.S.S.S.S.z.S.t.>XHXHX*XS.I.I.I.I.I.I.I.>X6X6X6X6X`.I.I.I.I.I.>X9X6X6X6X6X(.K.I.I.I.I.|.6XrX|.H.I.K.Q.wX6XQ.I.I.'.6X6X6X6X6X6X6X6X6X6X6X6X6X6X6X6X6X6X6X>XK.I.D.|.6X6X,XI.H.&X6X6X6X6X6X6X9X(.S.I.I.D.>X9X6X6X6X6X6X9X9XQ.K.I.I.I.Q.6XrX^ % i 2 t t t t t t t t t t t t t 2 2 2 2 2 2 2 2 t t t t 3 3 3 2 3 3 2 3 2 2 2 3 t t t t t t ",
"t t t t t t t t t t t t t t t t t t t t t t t t t t t t t t t t t t t t t t t t t t t t t t t t t t t t t t t t t t t t t t t t t t t t t t t t t t t t t t t t t t $ ) H.S.S.S.r.1.3.1.r.z.c.z.S.S.c.kXAXrX6X6X6X6X6X6XI.I.I.K.I.K.I.oXwX6X6X6X6X6X6X6X6XrX`.D.I.K.`.9X6X6X6X6X6X6X6X6X6XQ.K.I.I.I.I.I.D.`.9X6X6X6X6X6X6X6X,XI.I.I.I.I.I.I.I.I.I.I.I.I.I.I.I.I.I.I.I.I.I.I.D.'.6X6X6X6X6X6X9X6X6X'.D.K.I.I.I.I.D.).6X6X6X`.D.D.Q.$.& t t t t t t t t t t t < S p.{ >.;.>.P.Y.K.Q.Q.`.(.Q.K.H.I.Y.K.Y.I.I.|.6X6XoXoXoX6XI.I.I.I.I.I.I.K.|.6X6X6X6X6X6X6X6X6X6X6X6X6X6X6X>XK.K.K.K.I.K.(.6X9X9X9X6X6X6XrX6XI.I.I.I.I.I.I.>XeX6X6X6X6X6X9X6X9X>XI.I.H.I.K.Q.Q.K.I.I.I.I.I.I.I.I.K.'.6X6X6XoX9Xj < 3 t t 9 L e.>.1.1.1.1.1.u.S.S.S.S.c.z.S.z.>XHXHX*XS.I.K.K.I.I.I.I.>X6X6X6X6X|.I.I.I.I.K.`.9X6X6X6X6X`.I.I.I.I.I.`.6XwX>XK.I.I.I.6X6X(.I.I.(.6X6X6X6X6X6X6X6X6X6X6X6X6X6X6X6X6X6X6X>XK.I.D.).wX6X,XI.H.(.6X6X6X6X6X6X9X`.S.I.I.S.*X0X6X6X6X6X6X6X9X`.K.K.I.I.I.|.rX^ % i 2 t t t t t t t t t t t t t 2 2 2 2 2 2 t t t t t t t t t t t t t 2 2 2 t t t t t t t t ",
"t t t t 2 2 2 2 < < < < < < < < > > > > > > > > > < 1 1 1 1 1 1 1 < > < < > < & * < < & & < 1 < < < & # - ; ; - - - - - - # % % # # # # # # < 2 t t t t t t t t t t < K K.S.S.S.r.>.3.1.r.z.c.c.c.c.c.gXFXrX6X6X6X6X6X XI.I.I.I.I.I.I.oX6X6X6X6X6X6X6X6X6XrX`.D.I.H.`.6X6X6X6X6X6X6X6X6X6XQ.I.I.I.I.I.K.G.,X9X6X6X6X6X6X6XrX`.S.I.I.I.I.I.I.I.I.I.I.I.I.I.I.I.I.I.I.I.I.I.I.I.I.>X6X6X6X6X6X9X6X6X6XQ.K.I.I.I.I.I.Q.6X6X6X6XI.D.Q.-.= t w t w t t t t t t 9 t r.D.t.>.,.>.U.Y.H.K.K.H.K.K.I.I.Y.I.H.K.K.(.6X6X6X6XoXwX|.I.I.I.I.I.I.I.I.6X6X6X6X6X6X6X6X6X6X6X6X6X6X6X9X`.K.K.K.I.I.I.&X,X6X6XwX6X6X6XrX5XI.I.I.I.I.I.I.6X6X6X9X9X9X9X9X6X9X>XK.K.K.I.S.&X8XK.I.I.K.I.I.I.I.I.S.Q.6X6X6X6X3Xm < t t t 9 H e.1.1.1.1.3.1.p.c.z.z.c.c.c.S.z.&XHXHX>XS.I.K.K.K.I.K.I.>X6X6X6X6X>XI.I.I.I.I.Q.6X6X6X6X6X>XI.K.I.I.I.(.6X6X>XI.I.I.I. X6X`.I.I.I.5X6X6X6X6X6X6X6X6X6X6X6X6X6X6X6X6X6X6X>XK.I.K.).wX6X,XI.Y.I.6X6X6X6X6X6X6X>XK.I.I.H.(.9X6X6X6X6X6X6X9X>XI.K.I.I.K.).sX&.# i 2 t t t t t t t t t t t t t 2 2 t t t t t t t t t t t t t t t t 2 2 2 2 2 2 2 2 t t t t ",
"t t t t t t t t 2 3 t 3 3 3 3 3 3 5 5 5 a x x x a a a c n n n n n c c M V V V M V S V m N V V V P Q ! ! ~ ^ ^ ^ ^ ^ / *.*.*.*.a.a.a.5.5.5.7.*.< < t t t t t t t t t < L K.S.S.S.r.>.3.3.1.t.c.c.c.c.z.sXFXdX6X6X6X6X6X XI.I.I.I.I.I.I.oX6X6X6X6X6X6X6X6X6XwX(.I.I.K.|.6X6X6X6X6X6X6X6X6X,XI.I.I.I.I.I.K.(.6X6X6X6X6X6X6X6X6XQ.K.I.K.I.I.I.I.I.I.I.I.I.I.I.I.I.I.I.I.I.I.I.I.I.K.Q.6XwX6X6X9X9X9X6X6X*XK.I.I.I.I.I.K.`.6X6XeX`.K.Q.>.1 t t t w t t t t t t < &.D.B.B.t.3.>.P.Q.U.K.K.K.I.I.I.I.I.I.I.I.I.>XwXwX6XwX+X6XQ.H.I.I.I.I.I.I.`.6X6X6X6X6X6X6X6X6X6X6X6X6X6X6X>XI.K.I.I.I.I.I.>X6X9X6X9X6X6X6XrX>XI.I.I.I.I.K.(.9X6X6X9X9X6X9X9X6X9X|.H.K.H.I.K.*XrX`.H.I.I.I.I.I.I.I.S.I.6X6X6X6X3XC < t t t 9 H e.>.1.1.1.3.r.S.c.z.z.c.c.z.S.z.`.AXAX<XS.K.K.K.K.I.I.I.6X6X6X6X6X>XI.I.I.I.I.I.>X9X6X6X6X6XQ.K.I.I.I.Q.6X6X6XQ.I.I.I.|.wX>XI.I.I.`.6X6X6X6X6X6X6X6X6X6X6X6X6X6X6X6X6X6X,XI.I.K.).wX6X6XQ.Y.I.|.6X6X6X6X6X6X,XI.K.I.K.I.9X6X6X6X6X6X6X6X6X(.I.I.I.K.Q.rX&.# i 2 t t t t t t t t t t t t t 2 2 % % % % $ $ $ w 9 9 9 9 9 9 ; ; - ; ; ; ; ; ; ; ; 0 0 t ",
"i.i.i.i.i.d.d.i.i.K.$X2X2X:X:X2X2X,X1X1X1X1X1X1X1X$XK.m.U.U.U.U.U.U.Q.1XaXsXsXaX9X9X:X/.Q.%XQ.Q.&XsXsXsXsXsXsXsXsXaXaXaXaXsXsXsXsXsXsXsXaXdX$X< < t t t t t t t t t < C K.S.S.S.r.>.3.3.>.r.c.c.z.S.z.aXFXjX6X6X6X6X6X XI.I.I.I.I.I.I.6X6X6X6X6X6X6X6X6X6X6XQ.I.I.I.>X6X6X6X6X6X6X6X6X9X|.I.I.I.I.I.I.K.|.9X6X6X6X6X6X6X9X>XD.I.I.I.I.I.I.I.I.I.I.I.I.I.I.I.I.I.I.I.I.I.I.I.I.I.I.`.9X6X6X6X6X6X6X6X9X(.K.I.I.I.I.K.Q.6XwX6X6XD.Q.>.1 t t t t t t t t t 9 L K.z.B.z.z.y.>.P.Q.K.K.I.K.K.I.I.I.S.I.Y.Q.>X6XwXwX6X6XwX>XI.I.I.I.I.I.I.I.5X6X6X6X6X6X6X6X6X6X6X6X6X6X6X6X`.K.I.I.I.I.K.(.6X6X6X6XwX6X6X6X9X(.K.I.I.I.I.I.`.9X6X6X9X9X6X6X6X6X9X`.H.K.H.I.I.>XwXrXQ.H.I.I.I.I.I.I.I.I.>X6X6X6XaXC * t w t 9 H e.>.1.1.1.3.p.S.S.c.c.c.c.c.S.z.`.AXKX9XS.K.K.K.K.I.I.Q.6X6X6X6X6X,XQ.I.I.I.I.K.*X9X6X6X6X9X`.D.I.K.I.I.5X6X6X(.S.I.I.'.wX6XQ.I.I.I.6X6X6X6X6X6X6X6X6X6X6X6X6X6X6X6X6X6X,XI.K.K.G.6X6X6X(.I.I.'.wX6X6X6X6X6X9XQ.K.I.I.K.8X6X6X6X6X6X6X6X9X`.I.I.I.I.D.9X&.# i 2 t t t t t t t t t t t t t ; h / / /  . .5.^ ) ^ ^ ^ ^ ^ ^ ^ / 7.b.b.c.m.m.b.7.7.0.0.0.",
"I.I.T.I.T.I.I.(.5X0XrXeXeXwXwXwXwXwXwXwXwXwXeXoX6XeX'.D.D.D.D.D.D.D.D.`.6X7X7X6X6X6X|.D.D.I.D.S.(.7X6X6XoX6XoXoXoXoXoXoXoXoXoXoX6X6X6X6X,XeX/.< < t t t t t t t t t < j m.S.S.S.t.>.1.3.>.r.c.S.z.S.b.aXFXjX6X6X6X6X6X XI.I.I.I.I.I.I.6X6X6X6X6X6X6X6X6XwX,XI.I.I.I.>X6X6X6X6X6X6X6X6X9X'.K.I.I.K.I.K.Q.,X6X6X6X9X6X6X6X9X`.H.I.K.I.I.I.I.I.I.I.I.I.I.I.I.I.I.I.I.I.I.I.I.I.I.I.I.I.'.rX6X6X6X6X6X6X9X>XI.I.I.I.I.I.K.`.6X6X6XQ.Y.y.1 t t t w t t t t w e 0.B.z.B.z.z.s.>.P.Q.K.K.I.I.I.I.I.I.I.I.I.>X6X6XwX,X6X6XwX`.K.I.I.I.I.I.I.`.6X6X6X6X6X6X6X6X6X6X6X6X6X6X6X6XQ.K.I.I.I.I.K.`.rX9X,X6X6X6X6X6X6XQ.K.I.I.I.I.I.>X9X6X6X9X6X6X6X6X6X9X`.H.I.H.I.I.>XwX6X>XI.K.I.I.I.I.I.I.S.`.wX6X6XrXL * t w t 9 H e.>.1.1.1.y.S.S.S.c.c.S.c.S.S.z.Q.AXKX9XS.K.K.K.K.I.I.`.6X6X6X6X6X6XQ.S.I.I.I.K.`.9X6X6X6X9X`.D.D.K.I.I.>X6X6X`.S.I.S.`.6XrX(.I.I.I.|.6X6X6X6X6X6X6X6X6X6X6X6X6X6X6X6X6X6XQ.K.K.Q.6X6X6X`.I.I.(.9X6X6X6X6X6XrX`.K.I.I.H.*X6X6X6X6X6X6X6X6X>XI.K.I.I.D.>X&.# i 2 t t t t t t t t t t t t < 5 M.yXdXrXrXrX7X`.Q.(.(.(.(.(.(.I.(.0XuXuX7XuXuX(.D.(.I.I.I.",
"I.I.I.I.I.I.(.>X9X9X6X6X6X6X,X,X,X,X,X,X,X6X6X6X6X9X9X`.D.K.K.K.K.K.K.^.,X6X6XwXrXwX6XQ.I.I.I.S.I.5X6X6X6X6X6X6X6X6X6X6X6X6X6X6X6X6X6X6X,XwX#X< < t t t t t t t t t < g m.S.S.S.p.6.>.3.>.r.c.S.z.S.t.aXKXkX6X6X6X6X6X,XI.I.I.I.I.K.I.6X6X6X6X6X6X6X6X6XwX>XH.I.I.T.6X6X6X6X6X6X6X6X6X9X`.K.I.I.I.I.K.%X6X6X9X6X6X6X6X,X9XQ.I.I.K.I.I.I.I.I.I.I.I.I.I.I.I.I.I.I.I.I.I.I.I.I.I.I.I.I.I.6XrX6X6X6X6X6X6X9X(.K.I.I.I.I.K.Q.6X6X6X'.K.y.1 w t t t t t t t w R p.D.S.z.B.S.s.] H.Q.K.I.I.I.I.I.I.I.S.K.|.rX6X6X6X6X6X6X,XK.K.Y.K.K.I.I.I.>X6X6X6X6X6X6X6X6X6X6X6X6X6X6X6X>XK.K.I.I.I.I.K.>XrXwX6X9X9X6X6XwX6XI.I.I.I.I.I.I.6X6X6X6X6X6X6X9X6X6X9X(.H.I.K.I.I.5X9X,X>X`.K.I.I.I.I.I.I.H.(.6X6X6XrXL * t w t 9 H 2.>.1.1.3.p.S.S.z.c.c.c.c.c.c.z.Q.AXKXrXS.I.K.K.K.I.I.6X6X6X6X6X6X6X(.I.I.I.I.D.`.6X6X6X6X6X>XD.K.K.K.I.'.6X6X|.S.I.S.(.6X9X`.H.I.S.'.9X6X6X6X6X6X6X6X6X6X6X6X6X6X6X6X6X6XQ.K.K.I.6X6X6X&XI.I.Q.6X6X6X6X6X6XrX*XS.I.I.H.(.0X6X6X6X6X6X6X6X6X(.K.I.I.D.`.~ # t 2 t t t t t t t t t t t < x M.W.,X6X,X,X6X).C.D.S.S.S.S.H.S.I.>X6X6X6X5X5X).C.D.D.D.D.K.",
"I.I.I.Y.I.`.9X9X6X6X6X6X6X6X6X6X6X6X6X6X6X6X6X6X6X6X6X9XQ.I.I.I.K.K.I.I.>X6X6XwXwXwX6X`.I.I.I.H.S.'.6X6X6X6X6X6X6X6X6X6X6X6X6X6X6X6X6X6X,XwX/.< < t t t t t t t t t < g n.S.S.S.p.r.>.3.>.r.c.S.z.S.t.9XKXkX6X6X6X6X6X6XI.I.I.K.I.K.I.6X6X6X6X6X6X6X6X6XwX|.S.I.I.(.6X6X6X6X6X6X6X6X6X9X(.K.I.I.I.I.K.*X9X6X6X6X9X6X6X6X>XI.I.I.I.I.I.I.I.I.I.I.I.I.I.I.I.I.I.I.I.I.I.I.I.I.I.I.I.K.K.(.9X6X6X6X6X6X6X6X>XI.I.I.I.I.I.D.|.eX6X6XQ.y.5 w t t t t w t e M 3.e.D.S.z.S.S.c.r.c.Q.H.I.I.I.I.I.I.S.D.`.6X6X6X6X6XwX6X6X`.D.I.I.K.I.I.H.(.9X6X6X6X6X6X6X6X6X6X6X6X6X6X6X6XQ.K.I.I.K.Y.K.Q.6XwX6X6X6X6X6X6XwX|.D.I.I.I.I.D.Q.9X6X6X6X6X6X6X6X6X6X9X(.H.I.K.K.Q.6X6X6X6X6XQ.K.K.I.I.I.I.I.I.6X6XoXrXL * t w t 9 H u.1.1.1.r.c.S.S.S.c.c.S.c.c.c.z.Q.AXKXaXS.K.K.K.K.D.`.6X6X6X6X6X6X6X(.I.I.I.I.D.(.6X6X6X6X6X6XD.H.I.K.I.(.6X6X5XD.I.H.(.9X6X>XI.I.I.(.9X6X6X6X6X6X6X6X6X6X6X6X6X6X6X6X6X6XQ.K.K.I.6X6X6X*XI.Y.Y.|.6X6X6X6X6X9X>XD.I.I.H.Q.6X6X6X6X6X6X6X6X6X>XD.I.I.K.Q.T # t 2 t t t t t t t t t t q g b.c.x.>X6X6X6X XG.D.I.D.I.I.I.S.I.*X0X6X6X6X6X|.D.D.D.D.I.I.I.",
"K.I.I.I.`.9X6X6X6X6X6X6X6X6X6X6X6X6X6X6X6X6X6X6X6X6X6XrX>XI.I.I.K.K.I.K.|.rX6X6XwX6X6X>XK.I.I.I.H.(.6X6X6X6X6X6X6X6X6X6X6X6X6X6X6X6X6X6X,XwX/.< < t t t t t t t t t < h b.S.S.S.c.r.>.1.>.>.p.S.z.S.z.1XKXvX6X6X6X6X6X6XY.I.I.K.I.K.I.6X6X6X6X6X6X6X6X6X6X`.S.I.I.(.6X6X6X6X6X6X6X6X6X6XQ.K.I.I.I.I.I.>X9X6X6X6X9X6X6X9X|.K.I.I.I.I.I.I.I.I.I.I.I.I.I.I.I.I.I.I.I.I.I.I.I.I.I.I.I.I.D.D.>XrX6X6X6X6X6X6X9X`.I.I.I.I.I.D.(.0X6X6X`.u.5 w t t t t t w a >.3.1.H.S.S.S.c.c.t.H.(.H.I.I.I.I.I.I.D.`.6X6X6X6X6X6XwX6X9XQ.K.I.I.I.I.K.I.>X6X6X6X6X6X6X6X6X6X6X6X6X6X6X6X|.K.K.K.I.I.I.H.:XrX6X6X6X9X6X6X6X6X(.D.I.S.I.I.S.`.9X6X6X6X6X6X6X6X6X0X5XQ.K.I.I.H.(.6X6X6X6X6X|.I.K.I.I.I.I.I.D.5X6X6XaX) * t < t 9 H u.1.1.1.p.S.S.c.S.c.c.S.c.S.S.z.I.AXKXaXS.K.K.K.K.Q.6X6X6X6X6X6X6X9X(.I.I.I.I.I.Q.6X6X6X6X6X6XQ.H.I.K.K.(.6X6X6XI.I.H.(.6X6X6XI.I.I.(.9X6X6X6X6X6X6X6X6X6X6X6X6X6X6X6X6X6XQ.I.K.I.6X6X6X>XI.Y.K.`.9X6X6X6X6X6X9XI.K.I.I.D.|.6X6X6X6X6X6X6X6X6XI.I.I.S.Q.I # t 2 2 t t t t t t t u $ c r.D.z.D.6X9X6X6X(.I.I.H.H.I.I.I.I.>X9X9X6X6X6X5X(.D.D.D.I.I.I.I.",
"K.K.I.>XrX6X6X6X6X6X6X6X6X6X6X6X6X6X6X6X6X6X6X6X6X6X6XwXwXQ.K.I.K.H.I.I.(.rX6X6XrX6X9X5XI.I.I.I.I.I.5X6X6X6X6X6X6X6X6X6X6X6X6X6X6X6X6X6X,XwX/.< < t t t t t t t t t < 3 i.S.S.S.S.r.>.1.>.] p.S.z.S.z.>XKXvX6X6X6X6X6X6XY.K.I.K.I.K.I.6X6X6X6X6X6X6X6X6X9X`.S.I.I.'.wX6X6X6X6X6X6X6X6X>XI.I.I.I.I.K.Q.6X6X6X6X6X9X6X6X9X`.K.I.I.I.I.I.I.I.I.I.I.I.I.I.I.I.I.I.K.I.I.I.I.I.I.I.I.I.I.D.D.Q.9X6X6X6X6X6X6X9X5XY.I.I.I.I.D.I.5XeX6X6Xp.5 w t t t t t < Y u.1.1.j.S.S.S.c.S.c.I.(.K.I.I.I.I.I.I.}.6X6X6X6X6X6XwX6X6X>XK.K.Y.I.I.I.K.(.6X6X6X6X6X6X6X6X6X6X6X6X6X6X6X6XQ.K.K.K.I.I.H.I.6XrX6X6X6X6X6X6XwX6XI.I.I.S.I.I.S.|.6X6X6X6X6X6X6X6X6X0X5XI.K.I.I.H.`.6X6X6X6X6X6X(.K.I.I.I.K.I.D.'.wX6XaX) * t < t 9 H u.1.1.r.S.S.S.c.c.c.c.S.c.S.S.z.K.AXKXdXS.K.K.K.I.5X6X6X6X6X6X6X6X9X(.I.I.I.Y.I.Q.6X6X6X6X6X6X).H.I.K.I.Q.9X6X9X(.H.I.Q.6X6X6XI.I.I.(.9X6X6X6X6X6X6X6X6X6X6X6X6X6X6X6X6X6XQ.I.K.I.6X6X6X5XI.Y.H.Q.9X6X6X6X6X6X9X(.H.I.I.D.'.6X6X6X6X6X6X6X6X9X`.D.I.H.Q.P # t 2 2 t t t t t t t < n b.B.B.z.D.9X0X9X'.I.Y.I.I.I.H.I.I.*X0X6X6X6X6X9X*XD.D.I.I.I.I.I.I.",
"I.Q.6XrX6X6X6X6X6X6X6X6X6X6X6X6X6X6X6X6X6X6X6X6X6X6X6X6XrX>XI.I.I.H.I.I.I.6X6X6XwXwX9X9X(.D.I.I.I.I.'.6X6X6X6X6X6X6X6X6X6X6X6X6X6X6X6X6X,XwX#X< < t t t t t t t t t < 3 0.S.S.z.S.r.>.3.>.] t.c.z.S.z.:XKXvX6X6X6X6X6X6XY.K.I.I.I.I.I.6X6X6X6X6X6X6X6X6X6XQ.K.I.I.*XwX6X6X6X6X6X6X6XwX|.I.I.I.I.I.K.(.6X9X6X6X6X6X6X6XwX`.K.I.I.I.I.I.I.I.I.I.I.I.I.I.I.I.I.I.I.I.I.I.I.I.I.I.I.I.I.I.I.K.>XrX6X6X9X9X9X6X9X&XI.I.K.I.I.D.`.6X6X0XH.5 w t t w t 9 N 3.1.1.1.u.S.S.c.c.S.c.I.(.D.I.I.I.I.I.'.6X6X6X6X6X,X6XwX6X9X'.K.I.I.I.Y.I.I.'.6X6X6X6X6X6X6X6X6X6X6X6X6X6X6X>XI.K.K.K.I.I.K.:XrX6X6X6X6X6X6X6XrX`.D.I.I.I.I.I.I.5X6X6X6X6X6X6X6X6X6X0X>XD.K.I.I.K.|.6X6X6X6X6X6X>XI.K.I.I.I.I.H.(.6X6XaX! $ t < t ; H 2.>.1.p.S.S.c.c.S.S.S.c.c.c.S.z.D.AXKXgXK.K.K.D.`.9X6X6X6X6X6X6X6X9X(.H.I.I.I.I.`.6X6X6X6X6XwX.XH.I.K.K.Q.0X6X9X(.S.I.Q.6X6X6XQ.I.I.(.9X6X6X6X6X6X6X6X6X6X6X6X6X6X6X6X6X6XQ.K.K.I.6X6X6X6XI.I.I.I.>X6X6X6X6X6XrX`.D.I.I.A.(.6X6X6X6X6X6X6X6X6X>XD.K.I.Q.P # t 2 2 t t t t t t 9 m z.C.l.C.z.C.9X0X<XI.I.I.K.I.I.H.H.`.6X0X6X6X6X6X5X(.D.I.I.I.I.I.I.Y.",
"`.9X9X6X6X6X6X,X6X6X6X6X6X6X6X6X6X6X6X6X6X6X6X6X6X6X6X6XwX6X(.K.I.I.I.I.I.>X6X6X6X6X6X0X'.D.I.I.I.I.`.6X6X6X6X6X6X6X6X6X6X6X6X6X6X6X6X6X,XwX#X< < t t t t t t t t t < < 6.S.S.t.S.t.>.1.1.] r.c.z.S.z.&XKXvX6X6X6X6X6X6XQ.K.I.I.I.I.I.6X6X6X6X6X6X6X6X6X9XQ.K.I.I.>XwX6X6X6X6X6X6X6X6X`.I.I.I.I.K.K.`.wX6X6X9X6X6X6X6XwXQ.K.I.I.I.I.I.I.I.I.I.I.I.I.I.I.Q.K.D.Q.D.I.I.I.I.I.I.I.I.I.I.I.I.Q.6X9X6X6X9X9X6X6X8XQ.K.I.I.I.D.I.6X6XrX(.a w t w t w a <.1.>.1.;.y.D.c.c.c.S.p.Q.8XI.S.H.I.Q.>X6X6X6X6X6X6X6XwX6X6X6X(.I.I.I.I.I.I.Q.6X6X6X6X6X6X6X6X6X6X6X6X6X6X6X6XQ.K.K.K.K.K.K.Q.,X6X6X6X6X6X6X6X6X6XQ.H.I.I.I.I.I.(.6X6X6X6X6X6X6X6X6X6X0X'.D.D.I.I.I.>X6X6X6X6X6X6X6X`.K.I.I.I.I.I.Q.6X6XaX! $ t 2 t 9 H 1.] r.S.S.c.c.S.S.S.S.c.c.c.S.z.D.VXKXgXK.K.K.I.6X6X6X6X6X6X6X6X6XrX%XS.I.I.H.I.*X6X6X6X6X6XwX|.K.K.I.H.I.9X6X9X*XS.A.(.6X6X6X(.I.I.(.9X6X6X6X6X6X6X6X6X6X6X6X6X6X6X6X6X6XQ.I.K.I.6X6X6X6XI.I.I.H.'.6X6X6X6X6XwX>XD.I.I.I.I.6X6X6X6X6X6X6X6X6X9XI.S.I.Y.I # t 2 2 t t t t t ; m r.B.z.B.B.z.C.6X9X*XI.I.K.K.I.I.D.I.5X0X6X6X6X6X6X>XI.K.I.I.I.I.Y.Y.K.",
"9X,X6X6X6X6X6X,X6XwXwX6X6X6X6X6X6X6X6X6X6X6X6X6X6X6X6X6X6XwX>XI.K.I.I.I.I.`.9X6X6X6X6X6X5XI.I.I.I.I.I.6X6X6X6X6X6X6X6X6X6X6X6X6X6X6X6X6X,XwX$X< < t t t t t t t t t < < 5.D.S.z.S.t.>.>.1.] r.c.z.c.z.^.KXVX6X6X6X6X6X6X(.H.Y.I.I.K.I.9X6X6X6X6X6X6X6X6X9XI.K.I.D.5XrX6X6X6X6X6X6X6X6X).K.I.I.I.K.I.>XwX6X6X6X6X6X6X6X6XQ.K.I.I.I.I.I.I.I.I.I.I.I.I.I.I.(.I.(.6X|.I.I.I.I.I.I.I.I.I.I.I.I.K.`.9X9X6X9X9X6X6X9X'.I.I.I.I.K.K.|.6X6X*X5 9 t t t 1 ~ 3.1.1.1.,.>.S.c.c.S.S.z.Q.sX>X`.Q.`.>X9X6X6X6X6X6X6X6XwX6X6X>XI.I.I.I.I.I.I.`.6X6X6X6X6X6X6X6X6X6X6X6X6X6X6X>XK.K.K.K.I.K.K.`.6X,X6X6X6X6X6X6XrX>XI.I.I.I.I.I.I.`.6X6X6X6X6X6X6X6X6X6X0X`.D.I.I.I.I.>X6X,X6X6X6X6X6X>XI.K.I.I.I.I.I.5X6XrX! $ t 2 t 9 N r.1.p.S.S.c.c.c.c.S.S.c.c.c.c.c.D.VXFXgXK.S.I.`.9X6X6X6X6X6X6X6X6X9X(.H.I.I.I.I.>X6X6X6X6X6XwXoXI.K.I.H.I.9X6X9X*XI.I.Q.6X6X6X`.I.I.(.9X6X6X6X6X6X6X6X6X6X6X6X6X6X6X6X6X6XQ.I.K.I.6X6X6X6XQ.I.H.H.(.6X6X6X6X6X6X6XI.I.I.I.I.|.6X6X6X6X6X6X6X6XrX`.S.I.Q.I # t 2 2 t t t t > m c.z.z.B.z.z.z.D.6X>XQ.I.K.K.K.I.D.D.|.6X6X6X6X6X6X6X(.I.I.I.I.I.I.P.Y.Q.",
"6X6X6X6X6X6X6XwX|.!..X6X6X6X6X6X6X6X6X6X6X6X6X6X6X6X6X6X6XwX6XQ.H.I.I.Y.I.Q.9X6X6X6X6X6X6X(.I.I.I.I.I.|.6X6X6X6X6X6X6X6X6X6X6X6X6X6X6X6X,XwX$X< < t t t t t t t t t t < ^ D.S.z.S.z.>.>.>.>.r.S.z.z.z.^.FXZX6X6X6X6X6XwX&XH.Y.Y.I.K.Y.9X6X6X6X6X6X6X6X6X6XK.I.I.I.5XwX6X6X6X6X6X6X6X6XQ.I.I.I.I.H.Q.6XwX6X6X6X6X6X6XwX|.D.I.K.I.I.I.I.I.I.I.I.I.I.I.I.I.I.H.`.rXwXI.K.I.K.I.K.I.I.I.I.I.I.K.Q.6X9X6X9X9X6X6X6X6XQ.K.I.I.I.H.).6X6X5X5 9 t t > S p.>.3.3.1.3.>.c.S.c.S.S.z.Q.sX1X9X9X9X6X6X6X6X6X6X6X6X6XwX6X6X}.I.I.I.I.I.I.Q.>X6X6X6X6X6X6X6X6X6X6X6X6X6X6X6X`.K.K.K.I.I.K.K.>XwX6X6X6X6X6X6X6X9X`.D.I.I.I.I.K.I.>X6X6X6X6X6X6X6X6X6X6X0X(.D.I.I.I.D.6X6X6X6X6X6X6X6X6X`.K.I.I.I.I.I.'.6XrX/ % t 2 t 9 N 6.t.S.S.S.c.c.c.c.S.S.c.c.c.S.c.p.BXFXBXI.D.'.6X6X6X6X6X6X6X6X6X6X5XI.I.I.I.I.(.9X6X6X6X6X6XwX6XI.K.I.H.I.9X6X9X*XI.I.Q.6X6X6X`.I.I.(.6X6X6X6X6X6X6X6X6X6X6X6X6X6X6X6X6X5XI.K.K.(.6X6X6X6X(.K.K.H.Q.6X6X6X6X6X6X9XQ.K.I.I.I.`.9X6X6X6X6X6X6X6X6X>XI.I.Q.I # t t t t t t $ V z.S.S.S.B.S.S.B.D.6X`.H.I.K.K.K.I.S.Q.6X6X6X6X6X6XwX5XI.I.Y.Y.Y.Y.I.Y.%X9X",
"6X6X6X6X,XwX6X(.K.K.K.|.wX6X6X6X6X6X6X6X6X6X6X6X6X6X6X6X6XwX9X`.H.I.I.I.I.I.>X6X6X6X6X6X9X*XI.I.I.I.I.`.6X6XwX6X6X6X6X6X6X6X6X6X6X6X6X6X6XeX$X< < t t t t t t t t t t ; ^ D.S.z.S.z.1.>.>.>.1.c.B.S.z.!.FXZXrX,X6X6X6X6X&XH.Y.Y.I.K.I.5X6X6X6X6X6X6X6XwX>XD.I.I.I.6X6X6X6X6X6X6X6X6X6XQ.K.I.I.I.S.Q.6X6X6X6X6X6X6X6XwX>XK.I.K.I.I.K.I.I.I.I.I.I.I.I.I.I.I.K.>X6X,X|.K.Y.I.K.K.I.I.I.I.I.I.I.I.}.rX6X6X6X6X6X9X6X`.I.I.I.I.H.I.>X6X6X5 9 t w g z.c.>.1.1.3.3.>.p.S.c.c.S.t.Q.rX1X9X6X6X6X6X6X6X6X6X6X6X9X6X6X9XQ.I.I.I.I.I.I.(.6X6X6X6X6X6X6X6X6X6X6X6X6X6X6X>XI.K.I.K.I.I.K.(.6X6X6X6X6X6X6X6X9X6XQ.K.I.I.I.D.S.Q.6X6X6X6X6X6X6X6X6X6X6X6X(.D.I.I.I.I.6X6X6X6X6X6X6X6X6X>XY.I.I.I.I.D.(.6XrX/ % t 2 t 9 V r.p.S.c.c.c.c.S.S.c.S.c.c.S.H.r.r.BXFXBXI.).6X6X6X6X6X6X6X6X6X6XrX*XS.I.I.K.I.>X6X6X6X6X6X6X6X6XK.K.I.H.(.9X6X9X>XI.I.Q.6XoX6X`.I.I.`.6X6X6X6X6X6X6X6X6X6X6X6X6X6X6X6X6X>XI.I.S.`.6X6X6X6X`.H.K.H.I.>X6X6X6X6X6XrX).S.I.I.I.(.9X6X6X6X6X6X6X6X6X6XQ.H.Q.I # t t t t t q L x.B.B.S.S.S.S.S.z.D.6XQ.U.K.H.K.K.D.D.>XrX6X6X6X6X6X6X`.I.I.Y.Y.Y.Y.H.*X9X9X",
"6X6X6X6X9X>XI.H.I.I.I.).6XwX6X6X6X6X6X6X6X6X6X6X6X6X6X6X6X6XwX>XI.K.I.I.I.D.'.6X6X6X6X6X6X>XI.I.I.I.I.Q.6X6XwX6X6X6X6X6X6X6X6X6X6X6X6X6X6XwX$X< < t t t t t t t t t t ; ) K.S.z.B.S.r.>.>.>.>.t.B.S.z.Q.FXZXrX,X6X6X6XwX:XK.Y.I.I.K.I.>X6X6X6X6X6X6X6XwX>XD.I.I.I.9X6X6X6X6X6X6X6X6X6XQ.K.I.I.I.S.).6X6X6X6X6X6X6X6X9X`.K.I.K.I.I.K.I.I.I.I.I.I.I.I.I.I.K.I.6X X,XwX`.K.I.K.K.I.I.I.I.I.I.I.K.Q.6XwX6X6X6X6X6X6X,XQ.K.I.I.I.H.`.6X7Xn 9 t < T D.z.r.1.1.3.3.>.y.S.z.c.S.t.Q.rX,X9X6X6X6X6X6X6X6X6X6X6X9X6X6X>XQ.I.I.I.I.I.I.'.6X6X6X6X6X6X6X6X6X6X6X6X6X6X6X'.K.I.I.I.I.K.K.>X9X6X6X6X6X6X6X6X9X>XI.I.I.I.I.I.K.).wX6X6X6X6X6X6X6X6X6XoX6XQ.I.I.I.A.Q.6X6X6X6X6X6X6X6X6X6X`.I.I.I.I.I.I.oXrX/ % t 2 t 9 V c.c.S.S.c.c.c.S.S.S.S.c.c.H.p.] >.BXFXBX'.|.eX6X6X6X6X6X6X6X6X6X9XI.K.I.I.K.Q.9X6X6X6X6X6X6X6X5XH.K.I.H.(.9X6X9X>XK.I.(.6X X6X).I.I.'.6X6X6X6X6X6X6X6X6X6X6X6X6X6X6X6X6X>XK.I.S.'.6X6X6XwX`.H.K.H.K.>X9X6X6X6X6XwX`.D.I.I.I.Q.6X6X6X6X6X6X6X6X6X6X`.S.Q.I # t t t t # C c.B.z.B.B.B.S.S.S.t.D.>XD.Y.I.H.K.I.D.(.9X6X6X6X6X6X6X>XI.I.Y.Y.I.Y.I.).6X9X6X",
"6X6X6XrX>XK.K.I.I.I.I.D.|.wX6X6X6X6X6X6X6X6X6X6X6X6X6X6X6X6XwX6XQ.K.I.I.H.I.(.6X6X6X6X6X6X9X(.I.I.I.I.I.>X6X6X6X6X6X6X6X6X6X6X6X6X6X6X6X6XwX$X< < t t t t t t t t t t - T K.S.z.z.S.r.>.1.>.>.r.S.S.z.Q.AXAXrX6X6X6X6XwX>XK.Y.I.I.I.K.|.6X6X6X6X6X6X6XwX}.D.I.I.(.9X6X6X6X6X6X6X6X6X6XD.I.I.I.I.S.`.wX6X6X6X6X6X6X6X9X`.H.Y.K.I.I.I.I.I.I.I.I.I.I.I.I.I.I.Q.6X X6XwX,XQ.K.I.I.I.I.I.I.I.I.I.I.I.|.rX6X6X9X6X6X6X6X`.I.I.I.I.H.Q.,X7XM 9 t < K F.z.t.r.1.1.y.>.3.S.c.c.S.p.I.rX,X9X6X6X6X6X6X6X6X6X6X6X6X6X6X>XK.I.I.I.I.I.Q.>X6X6X6X6X6X6X6X6X6X6X6X6X6X6X6XQ.K.I.I.I.I.K.Q.9X6X6X6X6X6X6X6X6X9X`.K.I.I.I.I.I.I.|.6X6X6X6X6X6X6X6X6X6X6X|.I.I.I.I.A.).6X6X6X6X6X6X6X6X6X6X5XQ.I.I.I.I.I.|.sX/ % t t t 9 V D.S.S.S.c.c.c.c.S.S.c.c.c.p.r.] r.BXFXVX9X6X6X6X6X6X6X6X6X6X6XwX|.K.I.I.I.I.'.6X6X6X6X6X6X6X6X'.H.I.I.S.`.0X6X6X>XH.K.`.6X X6X(.I.I.|.6X6X6X6X6X6X6X6X6X6X6X6X6X6X6X6X6X`.K.I.D.>X6X6X6XwX>XH.K.K.K.(.9X6X6X6X6XwX|.D.I.I.I.I.6X6X6X6X6X6X6X6X6X6X>XS.Q.I # t t t t S z.C.B.B.B.B.B.S.S.S.c.K.(.K.Y.I.K.I.I.I.*X9X6X6X6X6X6X9X`.I.Y.Y.I.I.I.`.eXrX6X6X",
"6X6X9X>XK.K.I.K.I.I.I.I.Q.6X6X6X6X6X6X6X6X6X6X6X6X6X6X6X6X6X6X6X`.K.I.I.H.I.(.9X6X6X6X6X6X9X`.I.I.I.I.I.`.6X6X6X6X6X6X6X6X6X6X6X6X6X6X6X6XwX$X< < t t t t t t t t t t # L K.c.z.z.D.r.>.>.>.>.r.S.D.z.W.AXAXrX,X6X6X6X6X>XK.Y.I.I.I.K.'.6X6X6X6X6X6X6XwX`.D.I.I.(.0X6X6X6X6X6X6X6X6X>XD.I.I.I.I.D.|.wX6X6X6X6X6X6X6X9X`.H.Y.K.Y.I.I.I.I.I.I.I.I.I.I.I.I.I.(.6XoX XwX,X|.I.K.Y.I.I.I.I.I.I.I.I.I.Q.6XwX6X9X6X6X6X6X XQ.K.I.I.H.S.>XeXM 9 t < ) F.z.c.r.1.3.y.1.,.c.S.c.c.p.I.rX,X6X6X6X6X6X6X6X6X6X6X6X6X6X6X`.K.I.I.I.I.I.(.6X6X6X6X6X6X6X6X6X6X6X6X6X6X6X>XI.I.I.I.I.K.D.(.9X6X6X6X6X6X6X6X9X9XQ.K.I.I.I.D.I.(.6X6X6X6X6X6X6X6X6X6X6X6X'.I.I.I.I.I.`.6X6X6X6X6X6X6X6X6X6X9X`.H.I.I.I.D.`.sX .% t 2 t 9 L D.S.c.c.c.c.S.S.z.S.c.z.S.r.] ] r.gXFXAXrX6X6X6X6X6X6X6X6X6X6X9XQ.H.I.I.S.Q.6X6X6X6X6X6X6X6X9XQ.H.I.I.D.'.0X6X6X>XH.I.'.6X6X6XQ.I.I.|.6X6X6X6X6X6X6X6X6X6X6X6X6X6X6X6X6X(.K.K.I.6X6X6X6XwX>XH.I.K.I.I.6X6X6X6X6XwX,XI.I.I.I.I.5X6X6X6X6X6X6X6X6X6X5XD.Q.I # t t w c b.B.l.C.B.B.B.S.S.S.S.S.S.Q.K.K.I.K.K.I.Q.>X6X6X6X6X6X6X9XQ.I.Y.I.I.I.(.6X6X6X6X6X",
"6X9X,XK.H.I.I.I.I.I.I.I.I.|.wX6X6X6X6X6X6X6X6X6X6X6X6X6X6X6X6X6X9XQ.I.I.I.I.I.>X6X6X6X6X6X9X>XI.I.I.I.I.Q.6X6X6X6X6X6X6X6X6X6X6X6X6X6X6X,XwX$X< < t t t t t t t t t t # V K.c.z.z.D.t.>.>.>.>.6.c.D.z.W.AXAXrX,X6X6X6X6X,XI.Y.I.I.I.K.`.wX6X6X6X6X6X6XwX`.D.I.I.(.0X6X6X6X6X6X6X6X6X>XD.I.I.I.I.H.|.wX6X6X6X6X6X6X6X9X`.H.Y.K.Y.I.I.I.I.I.I.I.I.I.I.I.I.S.(.6X6X6XwX6X,X`.K.I.I.I.I.I.I.I.I.I.I.I.>X9X6X6X6X6X6X6X6X`.I.I.I.I.H.(.eXM 9 t w ) F.z.c.r.>.3.3.3.>.t.S.c.S.p.K.yX,X9X6X6X6X6X6X6X6X6X6X6X6X9X,XQ.K.I.I.Y.I.I.5X9X6X6X6X6X6X6X6X6X6X6X6X6X6X6XQ.I.I.I.I.I.S.Q.9X6X6X6X6X6X6X6X6X9X&XD.K.K.K.I.K.D.(.6X6X6X6X6X6X6X6X6X6X6XwX`.I.I.I.I.I.|.7X6X6X6X6X6X6X6X6X6X6X>XI.I.I.I.D.Q.rX .% t 2 t 9 L D.S.B.B.S.c.S.S.S.B.z.S.p.r.1.] >.gXGXFXrX6X6X6X6X6X6X6X6X6X6X>XI.K.I.K.I.>X6X6X6X6X6X6X6X6X5XD.K.I.D.I.>X0X6X6X*XH.I.|.oXwX>XD.I.I.oX6X6X6X6X6X6X6X6X6X6X6X6X6X6X6X6X6XQ.I.D.(.6X6X6X6XwX>XI.I.K.I.I.>X6X6X6X6XwX6XI.I.I.I.I.'.wX6X6X6X6X6X6X6X6X6XQ.Y.I # i t w 5 r.B.l.C.nXz.B.S.S.S.S.p.p.(.K.U.Y.I.I.I.`.6X6X6X6X6X6XwX|.I.I.I.I.I.I.>XwX6X6X6X6X",
"9X9XQ.x.I.K.I.I.I.I.I.I.I.Q. X6X6X6X6X6X6X6X6X6X6X6X6X6X6X6X6X6X9X(.K.I.I.I.D.`.6X6X6X6X6X6X6XT.I.I.I.I.I.,X6X6X6X6X6X6X6X6X6X6X6X6X6X6X,XwX$X< < t t t t t t t t t t - m K.S.z.z.x.z.>.>.>.>.] c.D.z.D.AXFXrX6X6X6X6X6X6XY.U.I.I.I.K.).6X6X6X6X6X6X6XwX).D.I.I.(.0X6X6X6X6X6X6X6X6X>XD.I.I.I.I.K.|.wX6X6X6X6X6X6X6X9X(.H.Y.I.Y.I.I.I.I.I.I.I.I.I.I.I.I.S.(.6X6X6X6XwX,X,X`.K.Y.I.I.I.I.I.I.I.I.K.(.9X9X6X6X6X6X6X6X>XQ.K.I.I.H.K.7XS 9 t w ) F.z.c.p.>.1.3.3.1.r.S.c.S.p.K.yX,X9X6X6X6X6X6X6X6X6X6X6X6X9X>XK.H.I.I.Y.I.I.9X9X6X6X6X6X6X6X6X6X6X6X6X6X6X|.S.I.I.I.I.I.D.`.0X6X6X6X6X6X6X6X6X9XQ.K.K.K.K.K.K.K.|.6X6X6X6X6X6X6X6X6X6X6XwXQ.K.I.I.I.I.5X7X6X6X6X6X6X6X6X6X6X6X6X(.I.I.I.I.D.9X .% t < t 9 L D.z.B.S.c.S.S.S.S.B.S.p.1.>.r.>.r.gXFXAXrX6X6X6X6X6X6X6X6X6X6XK.H.I.I.I.'.6X6X7X6X6X6X6X6XrX'.S.I.I.S.Q.6X6X6X6XT.I.I.oX+XwX`.D.I.I.6X6X6X6X6X6X6X6X6X6X6X6X6X6X6X6X6X|.I.I.D.'.6X6X6X6XwX6XI.K.K.I.I.>X9X6X6X6X6X6XQ.K.I.I.H.`.wX6X6X6X6X6X6X6X6X6X`.Y.I - i t w 5 i.B.l.B.B.z.S.S.S.S.S.r.p.%XK.U.I.I.I.I.>X6X6X6X6X6X6X6XQ.K.I.I.I.I.Q.6X6X6X6X9X6X",
"rX^.c.K.K.K.K.I.I.I.I.I.I.I.`.6X6X6X6X6X6X6X6X6X6X6X6X6X6X6X6X6X6X>XI.I.I.I.D.(.6X6X6X6X6X6X6X(.I.I.K.I.K.>X6X6X6X6X6X6X6X6X6X6X6X6X6X6X,XwX$X< < t t t t t t t t t t ; m n.S.c.z.c.c.r.>.,.>.>.p.S.z.D.SXFXsX6X6X6X6X6X6XQ.U.I.I.I.K.).6X6X6X6X6X6X6XwX).S.I.I.'.0X6X6X6X6X6X6X6X6X>XD.I.I.I.K.I.>XwX6X6X6X6X6X6X6X9XQ.K.U.K.Y.I.I.K.I.I.I.I.I.I.I.I.I.I.`.6X6X6X6XwXwX X,XQ.I.I.I.I.I.I.I.I.I.I.I.>X9X6X6X6X6X6X6X6X`.I.I.I.K.H.OXQ 9 t w K F.z.z.c.r.>.1.3.1.>.c.c.S.c.D.yX1X9X6X6X6X6X6X6X6X6X6X6X6X9X&XH.I.I.I.I.I.`.0X9X6X6X6X6X6X6X6X6X6X6X6X6X6XD.S.I.I.I.I.I.D.>X6X6X6X6X6X6X6X6XwX6XI.K.K.K.K.K.K.Q.,X6X6X6X6X6X6X6X6X6X6X6X6XG.D.I.I.I.I.6X6X6X6X6X6X6X6X6X6X6X6X6X|.I.I.I.I.c.>X .% t < t 9 L S.z.S.c.c.S.B.B.B.S.c.1.>.1.>.r.p.cXFXAXrX6X6X6X6X6X6X6X6X>XQ.H.I.I.K.(.9X6X6X6X6X6X6X6X6X6XI.S.I.I.D.`.0X6X6X5XY.I.(.6X+X6X(.I.I.(.6X6X6X6X6X6X6X6X6X6X6X6X6X6X6X6X6X`.K.K.I.6X6X6X6X6X6X6XQ.K.K.I.I.`.9X6X6X6X6XrX`.K.I.I.H.(.6X6X6X6X6X6X6X6X6X6X>XQ.S - t t w 5 i.S.B.B.B.z.S.S.S.S.S...p.%XK.P.I.I.I.(.9X6X6X6X6X6X6X>XI.I.I.I.I.I.}.6X6X6X6X6X6X",
":XK.K.I.K.K.I.I.I.I.I.I.I.I.I.|.6X6X6X6X6X6X6X6X6X6X6X6X6X6X6X6X6X9XQ.I.Y.I.I.I.6X6X6X6X6X6X6X*XI.I.K.I.K.`.9X6X6X6X6X6X6X6X6X6X6X6X6X6X,XwX$X< < t t t t t t t t t t ; n n.S.c.z.c.z.r.>.>.>.>.p.z.z.D.SXFXdX,X,X6X6X6X6X(.K.I.I.I.K.Q.6X6X6X6X6X6X6X6XQ.S.I.I.'.0X6X6X6X6X6X6X6X9X>XD.I.I.I.K.I.,X6X6X6X6X6X6X6X6X9XQ.K.U.K.I.I.I.K.I.I.I.I.`.6X6X6X6X6X6X6X6X6X6X6XwXwX,X|.D.I.I.I.I.I.I.I.I.I.K.`.9X6X6X6X6X6X6X6X>XQ.K.I.I.H.(.$.9 t w K F.B.z.c.r.>.3.3.3.>.p.S.S.p.D.dX1X9X6X6X6X6X6X6X6X6X6X6X9X9XQ.H.I.I.I.I.I.5X0X6X9X6X6X6X6X6X6X6X6X6X6X7X'.S.I.I.I.I.I.H.Q.6X6X6X6X6X6X6X6X6XwX`.P.I.K.K.K.K.D.`.6X6X6X6X6X6X6X6X6X6X6X6X>XD.D.I.I.I.T.9X6X6X6X6X6X6X6X6X6X6X6X6X6XQ.I.Y.I.S.`. .% t 2 t 9 L D.z.B.z.c.c.z.B.S.g.1.1.1.1.>.p.c.gXFXAXrX6X6X6X6X6X6X6X5X(.K.I.I.K.Q.5X6X6X6X6X6X6X6X6X6X'.S.K.I.I.D.>XeX6X6X'.I.I.'.6XwX|.I.I.I.(.6X6X6X6X6X6X6X6X6X6X6X6X6X6X6X6X6XQ.K.K.(.6X6X6X6X6X6X6X(.S.K.I.I.(.9X6X6X6X6XrX`.D.I.I.I.Q.6X6X6X6X6X6X6X6X6X6X6XQ.S - t t w 5 i.S.B.S.B.z.S.S.S.S.S.] c.(.K.H.I.I.I.'.rX6X6X6X6X,X6X).D.I.I.I.I.Q.,X6X6X6X6X6X6X",
"K.K.Y.K.I.I.I.I.I.I.I.I.I.I.K.).6X6X6X6X6X6X6X6X6X6X6X6X6X6X6X6X6X9X(.H.I.I.I.D.>X6X6X6X6X6X6X5XI.I.I.I.K.Q.6X6X6X6X6X6X6X6X6X6X6X6X6X6X,XwX$X< < t t t t t t t t t t ; g b.S.c.z.c.B.r.>.1.>.>.r.z.z.x.BXKXdX,X,X6X6X6X6X`.H.I.I.I.K.Q.6X6X6X6X6X6X6X9XQ.K.I.I.*X9X6X6X6X6X6X6X6XwX|.D.I.I.I.K.I.,X6X6X6X6X6X6X6X6X9XQ.K.K.I.I.I.I.I.I.I.K.`.0X6X6X6X6X6X6X6X6X6X6X6X6XwX6X X).K.I.I.I.I.I.I.I.I.K.I.,X9X6X6X6X6X6X6X6X`.I.I.I.H.(.+.9 t < ! F.B.z.z.p.1.1.3.3.,.y.S.S.p.S.dX1X6X6X6X6X6X6X6X6X6X6X6X9X,XQ.I.I.I.I.I.(.9X0X6X9X6X6X6X6X6X6X6X6X6X6X6XT.D.I.I.I.I.I.I.|.6X6X6X6X6X6X6X6X6X6XQ.K.K.K.K.K.K.D.>XwX6X6X6X6X6X6X6X6X6X6X6X'.S.I.I.I.D.(.0X6X6X6X6X6X6X6X6X6X6X6X6X6X`.D.I.I.K.Q. .% t t t 9 L D.c.B.c.c.z.c.S.p.1.1.1.1.1.p.n.p.hXFXAXrX6X6X6X6X6X6X6X`.I.I.I.K.K.>X6X6X6X6X6X6X6X6X6X5XD.K.I.I.I.Q.6X6X6X6X(.P.I.5X6X6X).H.I.D.`.6X6X6X6X6X6X6X6X6X6X6X6X6X6X6X6X>XI.I.D.|.wX6X6X6X6X6X9X`.H.K.I.I.Q.9X6X6X6X6XrX>XD.I.I.I.I.6X6X6X6X6X6X6X6X6X6X9X`.V # t t w 5 i.S.B.S.S.B.S.S.S.S.p.] c.%XH.Y.I.Y.I.5X6X6X6X6X6X6X,XQ.K.I.K.I.K.`.6X6X6X6X6X6X6X",
"K.Y.I.I.I.I.I.I.I.I.I.I.I.I.I.D.|.6X6X6X6X6X6X6X6X6X6X6X6X6X6X6X6XrX>XK.I.I.I.D.'.0X6X6X6X6X6X9X(.K.I.I.K.I.>X6X6X6X6X6X6X6X6X6X6X6X6X6X,XwX$X< < t t t t t t t t t t 9 5 b.S.c.z.c.S.p.>.1.1.1.r.z.z.c.BXKXdX,X,X6X6X6XwX&XK.I.I.I.K.Q.6X6X6X6X6X6X6X9XQ.K.I.I.*X6X6X6X6X6X6X6X6XwX|.D.I.I.I.K.Q.6X6X6X6X6X6X6X6X6X9XI.K.K.K.K.I.I.I.I.I.I.9X6X6X6X6X6X6X6X6X6X6X6X6X6X6X6X,X,X(.K.I.I.I.I.I.I.I.I.I.`.9X6X6X6X6X6X6X6X>XI.I.I.K.T.+.; t < ) F.B.B.z.c.r.1.3.3.,.r.S.S.p.S.dX1X6X6X6X6X6X6X6X6X6X6X6X9X>XI.I.I.I.I.I.'.0X0X6X9X6X6X6X6X6X6X6X6X6X6X>XI.I.I.I.I.I.I.(.9X6X6X6X6X6X6X6X6XwX>XI.Y.K.K.K.K.D.Q.6X6X6X6X6X6X6X6X6X6X6X6X6X`.S.I.I.I.D.'.0X6X6X6X6X6X6X6X6X6X6X6X6X6X XI.I.I.K.Q. .$ t 2 t 9 V I.S.S.c.c.z.c.p.r.>.1.1.r.r.n.K.y.aXFXAXdX6X6X6X6X6X6X`.I.I.I.I.K.>X9X6X6X6X6X6X6X6X6X6XQ.I.I.I.I.D.`.6X6X6X6XY.H.I.6X6X6XQ.H.I.I.'.wX6X6X6X6X6X6X6X6X6X6X6X6X6X6X6X`.K.K.Q.6XwX6X6X6X6X6X6X}.H.K.K.I.I.,X6X6X6X6XrX>XI.K.I.I.D.>XrX6X6X6X6X6X6X6X6X6X>XV - t t w 5 0.S.B.S.S.B.S.S.S.S.e.] c.%XH.Y.I.I.Q.9X6X6X6X6X6XrX}.D.K.I.I.K.I.>X6X6X6X6X6X6X|.",
"I.I.I.I.I.I.I.I.I.I.I.I.I.I.I.I.Q.6X6X6X6X6X6X6X6X6X6X6X9X6X9X6X6XrX9XI.K.I.I.K.(.9X6X6X6X6X6X6X'.I.I.I.K.I.`.6X6X6X6X6X6X6X6X6X6X6X6X6X,XwX2X< < t t t t t t t t t t w 4 i.S.z.c.c.S.p.1.>.1.1.r.z.z.z.BXKXkX,X,X6X6X6XwX>XK.I.I.I.K.I.5X9X6X6X6X6XwX,XD.K.I.I.*X6X6X6X6X6X6X6X6X6X`.D.I.I.I.D.Q.6X6X6X6X6X6X6X6X6X9XI.K.K.Y.I.I.I.I.I.H.'.9X6X6X6X6X6X6X6X6X6X6X6X6X6X6X6X6XrX6XD.K.I.I.I.I.I.I.I.I.I.6X6X6X6X6X6X6X6X6X(.K.I.K.T.$.; t ; ) F.B.B.z.S.u.1.1.1.3.>.c.S.p.S.dX9X,X6X9X9X9X9X6X6X9X9X6XrX`.K.I.I.I.I.I.>XrX6X6X6X6X6X6X6X6X6X6X6X6X6X(.I.I.I.I.I.I.D.'.9X6X6X6X6X6X6X6X6X6X(.I.I.I.I.I.I.D.>X9X6X6X6X6X6X6X6X6X6X6X6X6XI.A.I.I.I.I.'.6X6X6X6X6X6X6X6X6X6X6X6X6X6X6X`.I.I.K.Q. .; t 2 t 9 V I.c.c.c.c.c.p.r.>.3.y.>.r.p.c.K.p.rXFXAXdX6X6X6X6XrX|.K.I.I.I.K.`.9X6X6X6X6X6X6X6X6X9X`.I.I.I.I.I.Q.6X6X6X9X`.I.I.(.6X6X6XI.I.K.I.|.wX6XwXwX6X6X6X6X6X6X6X6X6X6X6X5XI.K.D.'.6X6X6X6X6X6X6X6X>XK.K.K.I.I.>XrX6X6X6XwX,XI.K.I.I.D.*XrX6X6X6X6X6X6X6X6X6X,XV - t t w 3 0.S.B.S.S.B.S.B.B.p.1.>.c.&XH.Y.K.D.`.wX6X6X6X6XwX9X!.D.I.I.I.D.(.6X6X6X6X6XoX6XI.",
"I.I.I.I.I.I.I.I.I.I.I.I.I.I.I.I.I.'.6X6X6X6X6X6X6X6X6X6X9X6X6X6X6X6XrXQ.H.I.I.I.I.5X6X6X6X6X6X6X5XQ.S.I.I.I.Q.6X6X6X6X6X6X6X6X6X6X6X6X6X6XwX2X< < t t t t t t t t t t t 4 0.A.B.S.S.S.p.1.1.1.1.1.t.c.z.kXKXvX,X,X6X6X6X6X>XI.I.I.I.K.K.>X9X6X6X6X6XwX,XK.K.I.I.'.wX6X6X6X6X6X6X6X6X).D.I.I.I.D.Q.6X6X6X6X6X6X6X6X6X9XI.K.K.Y.I.I.I.I.I.K.>X6X6X6X6X6X6X6X6X6X6X6X6X6X6X6X6X6X6XwX'.D.I.I.I.I.I.I.I.I.I.>X9X6X6X6X6X6X6X6X'.I.I.K.T.$.; t ; ) F.B.B.z.S.p.>.1.1.3.>.p.S.p.S.dX9X6X6X9X9X9X9X6X6X9X6X9X9X!.H.I.I.I.H.Q.9XrX6X6X6X6X6X6X6X6X6X6X9X0X>XD.D.I.I.I.I.I.I.6X6X6X6X6X6X6X6X6X6X6XK.I.I.K.I.I.I.I.>X9X6X6X6X6X6X6X6X6X6X6X6X6XI.I.I.I.I.I.OX6X6X6X6X6X6X6X6X6X6X6X6X6X6X6X|.I.I.K.Q. .; t < t 9 V I.S.c.c.c.p.r.>.>.1.r.r.t.S.S.D.z.4XFXAXrX6X6X6XrX>XQ.K.I.I.H.Q.9X6X6X6X6X6X6X6X6X6X>XI.I.I.I.I.I.'.6X6XwX9XI.I.I.|.6X+X>XI.I.I.D.>X6X X6X9XwXwX6X6X6X6X6X6X6X6XwX).D.I.D.>XwX6X6X6X6X6X6X6X>XK.H.K.I.I.|.wX,X6X6X6X6XQ.K.I.I.K.'.rX6X6X6X6X6X6X6X6X6X,XS - t t w 5 0.S.B.B.S.S.S.B.B.p.1.] c.&XH.I.I.D.>X6X6X6X6X6XrX,XI.K.I.I.Y.D.'.6X6X6X6X6XwX|.I.",
"I.I.I.I.I.I.I.I.I.I.I.I.I.I.I.I.I.Q.6X6X6X6X6X6X6X6X6X6X9X6X9X6X6X6XrX}.K.I.I.I.I.*X9X6X6X6X6X6X6X(.S.I.I.I.I.>X6X6X6X6X6X6X6X6X6X6X6X6X6XwX2X< < t t t t t t t t t t t 4 8.A.B.c.S.S.S.r.1.1.1.>.t.S.z.gXKXvX,X,X6X6X6X6X6XQ.K.I.I.I.K.>X9X6X6X6X6XwX6XI.D.I.I.'.6X6X6X6X6X6X6X6X9XQ.D.I.I.I.S.Q.6X6X6X6X6X6X6X6X6X9XI.K.K.Y.I.I.I.I.K.I.6X6X6X6X6X6X6X6X6X6X6X6X6X6X6X6X6X6X6X6X6XQ.S.I.I.I.I.I.I.I.I.Q.6X6X6X6X6X6X6X6X>XQ.K.K.Y.$.; t ; ~ D.B.S.B.S.p.r.>.1.3.>.r.c.c.S.dXrX,X9X9X9X6X6X6X6X9X6X9X>XI.I.I.I.I.H.`.wX6X6X6X6X6X6X6X6X6X6X6X6X9X(.D.I.I.I.I.I.D.`.6X6X6X6X6X6X6X6X6XwX`.S.I.I.K.I.I.K.(.9X9X6X6X6X6X6X6X6X6X6X6X6X>XH.I.I.I.I.I.6X6X6X6X6X6X6X6X6X6X6X6X6X6X6X6X6X(.K.I.Q. .$ t < t 9 L I.S.c.S.p.r.1.1.1.>.>.t.z.B.B.D.z.4XFXAXjX6XoXrX>XK.K.Y.Y.I.I.9X6X6X6X6X6X6X6X6X6X>XI.I.I.I.I.I.I.9X6X9XrX*XI.I.Q.6X6X+X'.K.I.I.I.>XwX6XwX6X6X6X6X6X6X6X6X6X6X6X|.D.I.K.Q.6X6X6X6X6X6X6X6X6X,XI.H.K.I.I.`.6X6X6X6X6X6XQ.K.I.I.K.`.rX6X6X6X6X6X6X6X6X6X6XI - t w w 5 0.S.B.B.S.S.B.S.c.u.1.>.c.&XK.I.I.D.6X6X6X6X6X6XrX`.D.I.I.I.I.Q.>X6X6X6X6X6X6XQ.I.",
"I.I.I.I.I.I.I.I.I.I.I.I.I.I.I.I.I.I.`.6X6X6X6X6X6X6X6X6X9X9X6X6X6X6XwX,XI.I.I.I.I.(.9X6X6X6X6X6X6X'.D.K.I.K.D.'.9X6X6X6X6X6X6X6X6X6X6X6X6XwX2X< < t t t t t t t t t t t > 8.A.B.z.c.S.S.r.1.1.1.>.r.S.z.sXKXvX,X,X6X6X6X6X9XQ.K.I.I.I.K.*X9X6X6X6X6XwX6XI.D.I.I.'.6X6X6X6X6X6X6X6X9XQ.D.I.I.I.D.Q.6X6X6X6X6X6X6X6X6X9XI.K.K.Y.I.I.I.I.K.(.6X6X6X6X6X6X6X6X6X6X6X6X6X6X6X6X6X6X6X6XwX>XI.I.I.I.I.I.I.I.I.I.>X6X6X6X6X6X6X6X6X(.K.K.Y.&.; t ; ~ D.B.S.S.B.S.r.>.>.1.>.>.p.c.S.gXrX,X6X6X6X6X6X6X6X6X6X9X>XI.I.I.I.I.I.>XwX6X6X6X6X6X6X6X6X6X6X6X6X5XD.I.I.I.I.I.I.I.5X6X6X6X6X6X6X6X6X6X6XQ.H.I.K.I.I.I.I.>X9X6X6X6X6X6X6X6X6X6X6X6X6X`.H.I.I.I.A.(.6X6X6X6X6X6X6X6X6X6X6X6X6X6X6X6X6X'.I.K.Q. .; t 2 t 9 L I.c.S.p.r.1.1.>.r.>.r.z.z.S.B.B.z.1XFXAXvX6XeX>XD.D.I.I.I.I.>X6X6X6X6X6X6X6X6X6X6X(.I.I.I.K.I.I.`.rX,X9X9X(.I.I.'.6X XwX(.H.I.I.I.`.6X6X6XrXrXrX6X6X6X6X6X6X6X6X(.K.I.S.|.wX6X6X6X6X6X6X6X6X6XY.H.K.I.K.Q.6X6X6X6X6X6X(.K.I.I.K.(.0X6X6X6X6X6X6X6X6X6X9XI # t t w 5 0.S.B.B.S.S.B.S.p.y.1.>.c.*XH.I.I.Q.6X6X6X6X6X6X9XQ.K.I.I.I.K.).6X6X6X6X6X6X|.D.I.",
"I.I.I.I.I.I.I.I.I.I.I.I.I.I.I.I.I.I.Q.>X6X6X6X6X6X6X6X6X6X6X6X9X6X6XwXwXQ.D.I.I.I.I.6X6X6X6X6X6X6X5XD.K.I.K.S.(.9XwX6X6X6X6X6X6X6X6X6X6X,XwX2X< < t t t t t t t t t t t & %.A.B.z.c.S.S.e.1.1.1.;.r.S.z.aXKXvX,X,X6X6X6X6X9X`.K.I.I.I.K.`.9X6X6X6X6XwX6XQ.K.I.I.'.6X6X6X6X6X6X6X9X9XQ.K.I.I.I.I.Q.6X6X6X6X6X6X6X6X6X9XI.K.K.I.I.I.I.I.K.`.6X6X6X6X6X6X6X6X6X6X6X6X6X6X6X6X6X6X6X6X,X6X>XI.I.I.I.I.I.I.I.D.`.6X6X6X6X6X6X6X6X'.I.K.Y.&.< t ; ~ D.B.B.S.B.S.t.] >.1.>.>.t.c.S.gXrX,X6X6X6X6X6X6X6X6X6X9X*XS.I.I.I.I.Q.6X6X6X6X6X6X6X6X6X6X6X6X6X6X(.D.I.I.I.I.I.I.(.6XoX6X6X6X6X6X6X6X6X>XD.K.I.K.I.I.K.Q.6X6X6X9X6X6X6X6X6X6X6X6X6X6X(.I.I.I.I.D.(.6X6X6X6X6X6X6X6X6X6X6X6X6X6X6X6X6X5XQ.D.Q. .< t < t 9 L I.S.p.r.1.1.1.1.>.r.c.B.z.z.z.B.z.1XFXAXvX6X|.D.D.K.H.K.D.>X9X6X6X6X6X6X6X6X6X9X'.I.I.I.I.I.I.I.6X9X6X6X5XI.I.I.>X6X6XwXQ.H.I.I.H.I.Q.(.(.'.>X6X6X6X6X6X6X6XrX>XD.I.S.I.6X6X6X6X6X6X6X6X6X6X6XQ.K.K.I.K.I.6X6X6X6X6XwX`.K.I.I.I.Q.9X6X6X6X6X6X6X6X6X6X9XI # t t w 5 0.S.B.B.S.S.S.S.t.1.3.] S.*XK.Y.I.`.9X6X6X6X6X6X>XD.K.K.I.I.I.|.6X6X6X6X6X9X`.D.I.",
"I.I.I.I.I.I.I.I.I.I.I.I.I.I.I.I.I.I.I.(.6X6X6X6X6X6X6X6X6X6X6X6X6X6X6XwX'.D.I.I.I.I.>X9X6X6X6X6X6X6XQ.H.Y.I.S.I.9XwX6X6X6X6X6X6X6X6X6X6X,XwX2X< < t t t t t t t t t t t & $.D.B.z.c.B.S.p.1.1.1.>.r.S.z.aXKXBX,X,X6X6X6X6X9X`.K.I.I.I.K.`.9X6X6X6X6XwX6XQ.D.I.I.*X6X6X6X6X6X6X6X9X9XQ.K.I.I.I.I.Q.6X6X6X6X6X6X6X6X6X9XI.K.K.I.I.I.I.I.D.>X6X6X6X6X6X6X6X6X6X6X6X6X6X6X6X6X6X6X6X6X6X6X9X(.D.I.I.I.I.I.I.K.I.6X6X6X6X6X6X6X6X6XQ.H.T.=.< t ; ~ D.z.c.S.S.S.p.] >.1.,.>.r.S.S.kXrX,X6X6X6X6X6X6X6X6X6X9XQ.H.I.I.I.I.`.9X6X6X6X6X6X6X6X6X6X6X6X6X5XI.I.I.I.I.I.I.D.>X6X6X6X6X6X6X6X6X6X9X`.D.K.I.I.I.I.K.`.rX6X6X9X6X6X6X6X6X6X6X6XwX6XI.I.I.I.I.I.'.6X6X6X6X6X6X6X6X6X6X6X6X6X6X6X6X6X6X`.D.Q.| < t 2 t 9 L I.p.r.1.1.1.1.1.] t.S.B.z.z.z.B.X.1XFXAXvX6XG.D.I.S.H.K.Q.9X6X6X6X6X6X6X6X6XwX>XI.K.I.I.H.I.S.`.9X6XrX9X(.I.I.(.6X6X6X6XI.H.K.I.S.S.I.I.K.I.K.}.6X6X6X6X6X6X9XQ.I.I.S.|.6X6X6X6X6X6X6X6X6X6X6XQ.K.K.I.I.D.6XwX6X6X6XwX`.K.I.I.I.Q.9X6X6X6X6X6X6X6X6X6XrXI # t t w 5 0.S.B.B.S.S.B.S.t.>.3.] S.*XH.I.I.>X6X6X6X6X6X9X`.K.I.I.I.K.Q.,X6X6X6X6X9X9XQ.K.I.",
"I.I.I.I.I.I.I.I.I.I.I.I.I.I.I.I.I.I.I.I.'.6X6X6X6X6X6X6X6X6X6X6X6X9X6XwX>XK.K.I.I.D.`.9X6X6X6X6X6X9X`.S.Y.I.H.I.>XwX6X6X6X6X6X6X6X6X6X6X,XwX2X< < t t t t t t t t t t t # Q D.B.z.c.c.S.t.1.1.1.1.r.S.z.aXKXSXwX,X6X6X6X6X9X:XK.I.I.I.K.Q.9X6X6X6X6X6X9XQ.K.I.I.'.6X6X6X6X6X6X6X6X9XQ.K.I.I.I.I.Q.6X6X6X6X6X6X6X6X6X9XI.K.K.I.I.I.I.I.D.6X6X6X6X6X6X6X6X6X6XrX9X6X6X6X6X6X6X6X6X6X6X6X6X>XQ.I.I.I.I.I.I.I.D.'.6X6X6X6X6X6X6X6X'.H.I.a.< t ; ~ D.c.c.c.S.S.p...>.3.3.>.r.p.S.lX9X,X6X6X6X6X6X6X6X6X6X6XD.H.I.I.I.I.>X9X6X6X6X6X9X6X6X6X6X6X6X6X`.I.I.I.I.I.I.I.(.9X6X6X6X6X6X6X6X6X6X9XQ.K.K.I.I.I.I.I.>XwX6X6X6X6X6X6X6X6X6X6X6X6X|.I.I.I.I.I.I.>X6X6X6X6X6X6X6X6X6X6X6X6X6X6X6X6X6X6X>XD.Q.| < t 2 t 9 P H.r.1.1.1.1.y.>.r.S.S.B.z.z.z.B.z.,XFXFXBXQ.D.D.K.H.K.Q.6X6X6X6X6X6X6X6X6XwX6XQ.K.K.I.K.H.I.K.5X6X6X9X6XI.I.I.'.6X X6X XI.H.I.I.I.I.K.K.I.I.K.`.9X6XwX6X6X9X(.D.I.K.Q.9X6X6X6X6X6X6X6X6X6X6X,XI.K.K.I.I.D.>X6X6X6X6XwX(.K.I.I.I.Q.9X6X6X6X6X6X6X6X6X6XrXI # t t w 5 0.S.B.B.S.S.S.S.e.>.3.;.H.-XH.I.Q.6X6X6X6X6X6X6XQ.K.I.I.I.K.(.6X6X6X6X6X9X6XI.I.I.",
"I.I.I.I.I.I.I.I.I.I.I.I.I.I.I.I.I.I.I.I.I.>X6X6X6X6X6X6X6X6X6X6X6X9X6XwX6XQ.K.I.I.I.Q.6X6X6X6X6X6XrX|.K.I.I.I.K.`.6X6X6X6X6X6X6X6X6X6X6X,XwX2X< < t t t t t t t t t t t < T D.S.S.S.c.S.p.1.1.1.1.1.z.z.1XKXZXrX,X6X6X6X6X9X>XK.K.I.I.K.Q.9X6X6X6X6X6X9XQ.K.I.I.*X6X6X6X6X6X6X6X6X9XQ.K.I.I.I.I.Q.6X6X6X6X6X6X6X6X9X9XQ.K.K.I.I.I.I.I.Q.6X6X6X6X6X6X6X6X9X,X`.>X9X6X6X6X6X6X6X6X6X6X6X6X6X'.I.K.I.I.I.I.I.K.Q.6X6X6X6X6X6X6X6X6XK.I.a.< t ; ^ D.c.c.c.c.S.c...>.3.3.>.r.t.z.lX9X,X6X6X6X6X6X6X6X6X6X5XD.K.I.I.I.Q.6X6X6X6X6X6X6X6X6X6X6X6X6X,XI.I.I.I.I.I.I.D.>X6X6X6X6X6X6X6X6X6X9X>XK.I.K.I.I.I.H.I.6XwX6X6X6X6X6X6X6X6X6X6X6X6X'.S.I.I.I.I.Q.>X6X6X6X6X6X6X6X6X6X6X6X6X6X6X6X6X6X6X5XQ.Q.6.w t 2 t 9 N p.] >.1.1.1.1.>.c.S.C.z.z.B.z.B.z.>XFXFXBXz.D.K.K.K.K.>X9X6X6X6X6X6X6X6X6X6X`.K.I.I.K.K.K.K.`.9X6X6X9X*XI.I.I.>X6X,XwX XI.H.I.I.H.S.K.K.I.Y.U.K.1XrX6X6X9X'.S.I.I.S.5X6X6X6X6X6X6X6X6X6X6X9X>XI.I.K.I.I.D.>XwX6X6X6XwX(.K.I.I.I.Q.9X6X6X6X6X6X6X6X6X6XrXI # t t w 5 0.S.B.B.S.S.S.S.r.1.3.;.H.-XH.K.(.9X6X6X6X6X6X>XK.K.I.I.I.I.'.9X6X6X6X6XrX>XK.I.I.",
"I.I.I.I.I.I.I.I.I.I.I.I.I.I.I.I.I.I.I.I.I.(.6X6X6X6X6X6X9X6X6X6X9X9X6X6XwX`.D.I.I.I.I.>X9X6X6X6X6X6X XI.I.I.I.I.Q.6X6X6X6X6X6X6X6X6X6X6X,XwX2X< < t t t t t t t t t t t < S D.S.S.c.S.S.S.r.>.1.1.1.t.z.1XKXZXrX,X,X6X6X6X9X6XI.K.I.I.I.I.6X6X6X6X6X6X9XQ.K.I.I.*X6X6X6X6X6X6X6X9X9XQ.K.I.I.I.I.Q.6X6X6X6X6X6X6X6X9X9XQ.K.K.I.I.I.I.K.).rX6X6X6X6X6X6X6XrX(.S.I.>X9X6X6X6X6X6X6X6X6X6X6X6X6X(.H.K.I.I.I.I.I.D.>X6X6X6X6X6X6X6X9XQ.I.a.< t < ^ D.c.S.S.S.c.S.r.>.1.3.1.1.r.t.lX9X,XwX6X6X6X6X6X6X6XwX'.S.I.I.I.I.(.9X6X6X6X6X6X6X6X6X6X6X6X9X}.K.I.I.I.I.I.I.Q.6X6X6X6X6X6X6X6X6X6X9X`.H.K.I.I.I.I.H.`.6XwX6X6X6X9X9X6X6X6X6X6X6X6X(.H.I.I.I.K.Q.,X6X6X6X6X6X6X6X6X6X6X6X6X6X6X6X6X6X6X6X`.I.6.w t < t i N r.] >.1.1.3.] r.S.S.B.z.B.B.B.B.z.:XFXKXBXK.D.K.K.D.`.6X6X6X6X6X6X6X6X6X9X>XI.I.I.I.K.K.I.Q.5X6X6XwX6XQ.I.I.(.6X6X6XwX,XI.H.H.I.Q.Q.I.K.K.I.Y.H.*XwX6X6X>XI.I.I.I.(.9X6X6X6X6X6X6X6X6X6X6X9X`.K.I.K.I.I.D.>XwX6X6X6X6X(.I.I.I.I.Q.6X6X6X6X6X6X6X6X6X6XrXI # t t w 3 0.S.B.S.S.S.S.S.1.1.3.` K.-XH.I.*X9X6X6X6X6X9X`.K.I.I.I.K.I.>X6X6X6X6X6X9X`.K.I.I.",
"I.I.I.I.I.I.I.I.I.I.I.I.I.I.I.I.I.I.I.I.I.I.`.6X6X6X6X6X9X6X6X6X9X9X6X6XwX>XD.I.I.I.I.'.9X6X6X6X6X6X6XQ.I.I.K.I.I.>X6X6X6X6X6X6X6X6X6X6X6XwX2X1 < t t t t t t t t t t t < F D.S.S.z.S.S.S.r.>.1.r.1.r.r.>XKXAXrX,X,X6X6X6X6X9XQ.K.I.I.I.I.5X6X6X6X6X6X9XQ.K.I.I.*XwX6X6X6X6X6X6X9X9XQ.K.I.I.I.I.Q.6X6X6X6X6X6X6X6X9X9XQ.K.K.I.I.I.I.I.|.wX6X6X6X6X6X6X6X6XQ.K.K.I.>X9X6X6X6X6X6X6X6X6X6X6X6X>XI.D.K.K.I.I.I.S.`.6X6X6X6X6X6X6X9X|.T.a.< t < ^ D.c.c.c.S.c.S.r.>.1.3.3.1.{ t.fXrX6X6X6X6X6X6X6X6X6XwXQ.S.I.I.I.I.'.6X6X6X6X6X6X9X6X9X6X6X6X9XQ.K.I.I.I.I.I.I.`.6X6X6X6X6X6X6X6X6X6X9XI.K.K.I.I.I.K.I.>X6XwX6X6X6X9X9X6X6X6X6X6X6X5XI.I.I.I.I.K.Q.6X6X6X6X6X6X6X6X6X6X6X6X6X6X6X6X6X6X6X9X'.I.6.w t < t 9 c r.>.>.1.1.1.] c.S.B.z.B.B.B.B.D.t.}.FXAXBXQ.K.K.K.Q.9X6X6X6X6X6X6X6X6X6X,XQ.I.I.I.K.I.I.K.`.9X6X6XrX>XI.I.I.>XrX6X6X6XoXI.K.`.>X6X9X6XQ.S.I.Y.K.(.6X9X9XI.H.T.I.I.6X6X6X6X6X6X6X6X6X6X6X6X9X`.H.I.K.I.I.D.>XwX6X6X6X6X(.I.I.I.I.Q.9X6X6X6X6X6X6X6X6X6XrXI # t t w 3 0.S.B.B.S.S.B.c.1.1.3.` K.<XH.K.5X6X6X6X6X6X9XQ.K.I.I.I.K.Q.6X6X6X6X6X6X6XQ.K.I.I.",
"I.I.I.I.I.I.I.I.I.I.I.I.I.K.H.K.I.I.I.I.I.I.I.|.6X6X6X6X9X6X9X9X6X6X6X6XwX6XQ.K.I.I.D.(.6X6X6X6X6X6X6X`.I.I.I.Y.I.`.6X6X6X6X6X6X6X6X6X6X6XwX2X1 < t t t t t t t t t t t w M F.S.B.B.B.S.S.t.>.1.r.1.r.r.:XKXFXrX,X6X6X6X6X6X9XQ.K.I.I.I.I.>X6X6X6X6XwX6XQ.D.I.I.'.wX6X6X6X6X6X6X9X9XQ.K.I.I.I.H.Q.6X6X6X6X6X6X6X6X9X9XI.K.K.I.K.I.I.I.>XwX6X6X6X6X6X6X6X6XQ.H.Y.S.(.9X6X6X6X6X6X6X6X6X6X6X6X6X'.D.S.K.I.I.I.K.Q.9X6X6X6X6X6X6X6X6X(.a.< t < ^ D.z.c.c.S.c.S.t.1.1.3.3.1.] t.sXrX6X6X6X6X6X6X6X6X6X6XI.H.I.I.I.I.5X6X6X6X6X6X6X9X6X9X6X6XwX>XI.I.I.I.I.I.I.I.OX6X6X6X6X6X6X6X6X6X9X>XK.K.K.I.I.K.I.`.6X6XwX6X6X9X9X9X6X6X6X6X6X9X|.D.I.I.I.I.K.`.6X6X6X6X6X6X6X6X6X6X6X6X6X6X6X6X6X6X6X9X5XQ.6.w t < t 9 c r.>.1.1.r.>.r.S.B.z.z.B.B.B.B.D.t.`.FXAXBXK.H.K.K.>X6X6X6X6X6X6X6X6X6X6X`.K.I.I.K.K.Q.I.I.,X6X6XwX6X(.I.I.I.6XwX6X6X6X X(.Q.6X6X6X|.wX6XI.K.Y.I.I.6X5X(.I.I.I.D.'.rX6X6X6X6X6X6X6X6X6X6XwX9XQ.K.I.K.K.Y.D.>XwX6X6X6X6XQ.I.I.I.I.Q.9X6X6X6X6X6X6X6X6X6XrXI # t t w 3 0.S.B.S.S.S.S.p.>.1.3.` K.<XH.K.6X6X6X6X6X9X>XI.K.I.I.I.K.`.6X6X6X6X6X6X,XI.I.I.I.",
"I.I.I.I.I.I.I.I.I.I.I.I.I.Q.(.Y.I.I.I.I.I.I.S.).6X6X6X6X6X6X6X9X6X6X9X9X6X9X`.D.I.I.I.D.|.wX6X6X6X6X6X>XI.I.I.I.I.(.6X6X6X6X6X6X6X6X6X6X6XwX4X1 < t t t t t t t t t t t w x t.S.B.B.S.B.S.t.>.1.1.>.>.r.:XKXFXrX,X6X6X6X6X6X9X`.K.I.K.I.I.|.wX6X6X6X6XwX`.D.I.I.(.wX6X6X6X6X6X6X9X9XI.D.K.I.I.K.Q.6X6X6X6X6X6X6X6X9X9XI.K.K.I.K.I.S.K.6X6X6X6X6X6X6X6X6X6XQ.K.Y.Y.K.*X9X6X6X6X6X6X6X6X9X6X6X6X6X(.D.I.I.I.I.I.I.>X6X6X6X6X6X6X6X9X'.a.t t < ^ D.z.c.c.S.c.S.p.1.1.1.3.3.1.] rXsX6X6X6X6X6X6X6X6XrX,XI.I.I.I.H.Q.6X6X6X6X6X6X6X9X9X9X6X6X6X(.K.I.I.I.I.I.I.`.6X6X6X6X6X6X6X6X6X6X9X(.K.K.K.K.K.K.I.>X6X6X6X6X9X9X6X9X6X6X6X6X6X9X(.K.I.I.I.I.D.>XwX6X6X6X6X6X6X6X6X6X6X6X6X6X6X6X6X6X6X6X0X>X6.w t w t 9 c r.>.1.1.1.>.t.S.B.z.z.z.B.B.B.D.t.!.FXAXZXQ.H.K.Q.9X6X6X6X6X6X6X6X6X6X>XQ.K.I.I.I.D.I.D.`.rX6X6XwX6XI.I.I.`.0X6X6X6X6X6X6X6X6X6X6X6X6X9X*XK.I.I.I.Q.D.I.I.I.D.'.0X6X6X6X6X6X6X6X6X6X6X6XwX>XK.I.I.K.K.Y.D.>X9X6X6X9X,XQ.I.I.I.I.(.6X6X6X6X6X6X6X6X6X6XrXV # t t w 3 0.S.B.B.S.S.S.t.>.1.3.` K.<XS.Q.6X6X6X6X6X6X|.I.K.I.I.I.D.>X6X6X6X6X6X6X|.I.I.I.I.",
"I.I.I.I.I.I.I.I.I.I.K.I.>X6XrX6X(.I.I.I.I.I.I.D.>X6X6X6X6X6X9X9X6X6X6X6X6XrX>XD.I.I.I.D.).6X6X6X6X6X6X6X(.I.I.I.I.I.>X6X6X6X6X6X6X6X6X6X,XwX4X3 < t t t t t t t t t t t w a r.S.B.B.B.B.S.t.>.>.1.1.>.r.&XFXFXdX,X6X6X6X6X6X6X}.I.I.I.I.K.`.wX6X6X6X6X6X'.I.I.I.Q.6X6X6X6X6X6X6X9X9XI.D.K.I.I.K.Q.6X6X6X6X6X6X6X6X9X9XI.K.K.I.Y.I.D.I.6X6X6X6X6X6X6X6X6X6XQ.K.Y.Y.K.I.6X6X6X9X6X6X6X6X6X6X6X6X6X|.I.D.I.I.I.I.H.`.6X6X6X6X6X6X6X9X5Xm.t i ; %.D.z.c.c.c.S.S.S.r.1.3.3.3.1.] rXrX6X6X6X6X6X6X6X6XrX>XK.I.I.I.H.`.wX6X6X6X6X6X6X6X6X6X9X9X>XI.I.K.I.I.I.I.I.|.6X6X6X6X6X6X6X6X6X6X6XI.K.K.K.K.K.K.(.6X6X6X6X6X9X9X6X6X6X6X6X6X6X9XQ.I.I.I.I.I.I.6X6X6X6X6X6X6X6X6X6X6X6X6X6X6X6X6X6X6X6X6X9X>Xr.w t t t 9 B 3.>.1.1.>.r.S.z.B.z.z.z.z.S.S.S.t.Q.AXAXAXQ.H.K.&X9X6X6X6X6X6X6X6X6X0X}.D.D.I.I.I.I.K.K.,XrX6X6XrX>XI.I.I.5XrX6X6X6X6X6X6X6X6X6X6X6X6X9X>XI.I.I.I.S.K.H.I.S.I.6X6X6X6X6X6X6X6X6X6X6X6X6XwX>XK.I.I.K.I.I.K.>X9X6X6X9X>XI.I.I.Y.I.(.6X6X6X6X6X6X6X6X6X6X9XS # t t t 3 0.S.B.B.S.S.S.t.>.1.3.>.H.<Xc.`.6X6X6X6X6X6X`.K.I.I.I.I.Q.6X6X6X6X6X6X6X`.K.I.I.I.",
"I.I.I.I.I.I.I.I.I.I.(.,X9XwXwXrX,XQ.I.I.I.K.I.I.I.6X6X,X6X6X6X6X6X6X6X6X6X6X6XQ.I.I.I.D.D.6X6X6X6X6X6X6X`.I.I.I.I.I.|.6X6X6X6X6X6X6X6X6X,XwX4X3 < t t t t t t t t t t t w t 6.S.B.B.B.B.S.z.1.>.3.3.>.r.^.AXFXdX,X6X6X6X6X,X6X XI.K.I.I.K.).6X6X6X6X6X6X'.I.I.I.Q.6X6X6X6X6X6X6X9X9XI.D.K.I.I.K.Q.6X6X6X6X6X6X6X6X9X9XI.K.K.I.Y.I.D.(.6X6X6X6X6X6X6X6X6X6XQ.K.Y.Y.I.S.>X6X6X0X9X6X6X6X6X6X6X6X6X6X`.I.I.I.I.K.K.Q.6X6X6X6X6X6X6X6X6Xm.3 i ; %.D.z.c.c.S.S.S.S.t.1.1.3.3.3.] rXrX6X6X6X6X6X6X6X6XrX`.K.I.I.I.S.>XwX6X6X6X6X6X6X6X6X6X6X9X`.D.I.K.K.I.I.I.).6X6X6X6X6X6X6X6X6X6X9X}.K.K.K.K.K.K.D.>X6X6X6X6X6X9X9X6X6X6X6X6X6X6X>XI.I.I.I.I.K.Q.6X6X6X6X6X6X6X6X6X6X6X6X6X6X6X6X6X6X6X6X6X9X6Xc.w t t t 9 B 3.1.1.1.>.r.S.z.B.z.z.z.z.S.S.D.r.D.AXAXAXQ.H.K.<X9X6X6X6X6X6X6X6X6X5XQ.D.K.I.K.I.Q.D.Q.9X6X6X6X9X`.K.I.(.9X6X6X6X6X6X6XwX6X6X6X6X6X6X6X9XQ.H.Y.I.I.K.I.S.D.5X6X6X6X6X6X6X6X6X6X6X6X6X6XwX`.H.I.I.K.I.I.K.>X9X6X6X9X*XI.I.I.Y.I.`.6X6X6X6X6X6X6X6X6X6X9XV - t t t 4 0.S.B.B.S.S.S.r.>.1.3.;.K.<Xc.`.6X6X6X6X6X6XQ.I.I.I.I.K.`.6X6X6X6X6X6X6XQ.K.I.I.I.",
"I.I.I.I.I.I.I.I.I.(.6X6X6X6X6X6X6X`.I.K.K.K.K.I.I.(.6X,X6X6X6X6X6X6X6X6X9X6X9X`.D.I.I.K.D.|.wX6X6X6X6X6X>XI.I.I.Y.I.`.6X6X6X6X6X6X6X6X6X6XwX4X3 < t t t t t t t t t t t t t 5.S.B.z.B.B.S.z.y.>.3.,.,.r.^.AXFXdX,X6X6X6X6X,X6X XI.K.I.I.I.Q.6X6X6X6X6X6X>XI.I.I.I.6X6X6X6X6X6X6X9X9XQ.D.K.I.I.K.Q.6X6X6X6X6X6X6X9X9X9XI.K.K.I.I.I.D.`.wX6X6X6X6X6X6X6X6X6XQ.K.Y.Y.I.S.Q.9X6XrX6X6X6X6X6X6X6X6X6X6X>XI.I.I.I.K.I.D.>X6X6X6X6X6X6X6XrX$X5 t ; ^ D.c.S.S.c.c.z.S.t.1.1.3.1.3.] 9XsX,X6X6X6X6X6X6X6X9XQ.K.I.I.K.D.6X6X6X6X6X6X6X6X6X6X6X9X9XI.K.K.K.K.I.I.I.>X6X6X6X6X6X6X6X6X6X6X9XQ.K.I.I.K.K.K.I.1X6X6X6X6X6X9X9X6X6X6X6X6X6XwX`.K.I.I.I.I.K.`.6X6X6X6X6X6X6X6X6X6X6X6X6X6X6X6X6X6X6X6X6X6XrXG.w t t t 9 B 3.1.1.1.>.p.D.z.z.z.z.c.c.S.S.D...z.AXAXAXQ.H.Q.9X9X6X6X6X6X6X6X6X6X`.S.I.I.K.K.I.I.D.>X9X6X6X6X6XQ.I.K.*XrX6X6X6X6X,X|.|.|.6X6X6X6X6X6X9X`.H.I.Y.I.I.I.I.5X6X6X6X6X6X6X6X6X6X6X6X6X6X6X6X(.H.I.I.K.I.I.I.>X6X6X6X9X&XI.I.I.I.I.'.6X6X6X6X6X6X6X6X6X6X9XV # t t t 4 0.S.B.B.S.S.S.r.>.1.1.` K.<Xc.>X6X6X6X6X6X,XI.K.I.Y.I.I.>X6X6X6X6X6X6X,XQ.K.I.I.I.",
"I.I.I.I.I.I.I.I.(.6X6X6X6X6X6X6X6X,X(.I.I.K.I.I.I.H.`.wX,X6X6X6X6X6X6X6X9X6XrX}.K.I.I.I.S.(.wX6X6X6X6X6X5XQ.I.I.I.I.Q.6X6X6X6X6X6X6X6X6X6XwX4X3 < t t t t t t t t t t t t 1 ^ S.B.B.B.B.S.B.y.>.3.,.,.6.^.AXFXdX,X6X6X6X6X,X,XoXQ.K.I.Y.I.Q.,X6X6X6X6XwX5XI.I.I.I.>X6X6X6X6X6X6X9X9XQ.D.K.I.I.K.Q.6X6X6X6X6X6X6X9X9X9XI.K.K.I.I.I.I.|.wX6X6X6X6X6X6X6X6X6XQ.K.Y.I.K.I.K.>XrX6X6X6X6X6X6X6X6X6X6X6X6X`.I.I.I.I.I.D.`.6X6X6X6X6X6X6XwX2X5 w < ^ D.c.S.S.S.c.z.S.c.r.1.3.1.3.] 9XsX6X6X6X6X6X6X6X6X6XI.K.I.I.H.Q.9X6X6X6X6X6X6X6X6X9X6X9X>XI.I.K.K.K.I.I.(.6X6X6X6X6X6X6X6X6X6X6X>XI.K.K.K.K.K.K.I.9X6XwX6X6X6X9X9X6X6X6X6X6X6X6XQ.H.I.I.I.I.I.|.6X6X6X6X6X6X6X6X6X6X6X6X7X9X6X6X6X6X6X6X6X6XwX!.t 2 2 t 9 B 3.1.>.1.1.p.D.B.z.z.z.c.z.S.S.D...r.AXAXAX^.H.Q.9X9X6X6X6X6X6X6X6X6XI.K.I.K.K.K.I.D.Q.9X6X6X6X6X>XI.I.D.8X9X6X6X9X>XK.K.H.K.Q.9X6X6X6X6X6X>XK.K.Y.I.H.I.5XrX6X6X6X6X6X6X6X6X6X6X6X6X6X6X6XQ.H.I.I.K.I.I.I.6X6X6X6X6X(.K.I.I.I.K.|.6X6X6X6X6X6X6X6X6X6X9XV # t t t 4 0.S.B.B.S.S.S.r.>.3.1.` I.<XS.6X6X6X6X6X6X>XD.K.Y.Y.I.I.9X6X6X6X6X6X6X|.I.K.I.I.I.",
"I.I.I.I.I.I.I.Q.>X6X6X6X6X6X6X6X6X6X>XD.I.K.I.I.I.H.D.>X6X6X6X6X6X6X6X9X9X6X9X,XI.I.I.I.K.Q.,X6X6X6X6X6X6XQ.I.I.I.I.I.>XwX6X6X6X6X6X6X6X6XwX1X3 < t t t t t t t t t 2 t t e ~ t.B.B.B.B.S.S.i.>.3.y.>.6.Q.AXFXdX,X6X6X6X6X,X,XwX`.K.I.I.I.D.>XrX6X6X6XwX6XD.I.I.D.>X6X6X6X6X6X6X9X9XQ.D.K.I.I.K.Q.6X6X6X6X6X6X6X9X9X1XK.K.K.I.I.I.I.,XwX6X6X6X6X6X6X6X6X>XI.K.Y.I.K.I.K.(.rX6X6X9X6X6X6X6X6X9X6X6X6X>XI.I.I.I.I.D.Q.6X6X6X6X6X6X6X6X<Xc w < ^ D.c.S.S.S.S.c.c.S.r.1.1.1.3.` <XsX,X9X6X6X6X6X6X9X>XH.K.I.I.H.).wX6X6X6X6X6X6X6X6X6X6X9X(.I.I.K.I.I.H.I.>X6X6X6X6X6X6X6X6X6X6X9X`.K.K.K.I.I.K.D.>X9X6X6X6X6X6X6X9X6X9X6X6X6X6X>XI.K.I.I.I.I.Q.6X6X6X6X6X6X6X6X6X6X6X6X6X'.(.`.6X6X6X6X6X6X6XwX!.u < 2 t 9 B 3.1.1.1.>.p.S.B.z.z.z.c.z.c.S.D...r.AXAXAX&XH.Q.>X9X6X6X6X6X6X6X6X|.K.I.I.I.K.I.I.D.`.9X6X6X6X6X|.I.I.Q.9X6X6X9X>XQ.D.K.I.K.D.`.9X6X6X6X6X6X(.I.I.I.I.>X6XoX6X6X6X6X6X6X6X6X6X6X6X6X6X6X6XQ.H.I.I.K.I.I.(.6X6X6XwX,XI.I.I.I.I.I.6X6X6X6X6X6X6X6X6X6X6X>XV # t t w 4 0.S.B.B.S.S.S.r.>.3.1.` I.<XK.6X6X6X6X6X6X|.D.K.I.I.K.(.9X6X6X6X6X6X6X`.K.K.I.I.I.",
"I.I.I.I.I.I.Q.>X6X6X6X6X6X6X6X6X6XwX,XQ.K.I.I.I.I.K.S.Q.6X6X6X6X6X6X6X9X9X9X6X6X`.K.I.I.I.D.|.wX6X6X6X6X9X(.I.I.I.I.I.'.wX6X6X6X6X6X6X6X6XwX1X3 < t t t t t t t t t 2 t w e ~ t.B.B.B.B.S.S.p.>.3.3.>.>.Q.AXFXgX,X6X6X6X6X,X,XwX`.D.I.I.I.D.>XrX6X6X6XwX6XI.I.I.D.'.6X6X6X6X6X6X9X9XQ.D.K.I.I.K.I.6X6X6X6X6X6X6X9X9X1XK.K.K.I.I.I.Q.,XwX6X6X6XwX6X6XwX>XQ.K.Y.I.Y.K.K.I.K.>XrX6X6X6X6X6X9X9X9X6X6X6X6X`.D.I.I.I.K.I.|.6X6X6X6X6X6X6X3Xm 9 < ^ D.c.S.S.S.S.c.S.S.e.1.1.1.3.` <X9X`.rX6X6X6X6X6X9X`.S.I.I.I.H.|.6X6X6X6X6X6X6X6X6X6X9X>XI.I.I.I.I.I.S.(.6X6X6X6X6X6X6X6X6X6X6X9XQ.K.K.I.I.I.K.I.9X9X6X6X9X6X6X6X6X6X9X6X6X6X6X`.K.I.I.I.I.I.(.6X6X6X6X6X6X6X6X6X6X6XoX(.S.D.D.Q.6X5X6X6X6X6XwX}.u < 2 t ; B 3.>.1.1.>.e.S.B.B.B.B.S.z.c.c.S...r.AXAXFX&XH.K.:X9X6X6X6X6X6X6X6X|.I.I.I.I.I.I.I.K.}.9X6X,X6X6X>XI.K.(.9X6X6X9X,XI.D.K.K.D.D.Q.9X6X6X6X9X9X`.H.H.Q.5X9X6X6X6X6X6X6X6X6X6X6X6X6X6X6X6X6X6XI.H.I.I.K.I.K.'.9X6X6XrX|.K.I.I.I.I.I.9X6X6X6X6X6X6X6X6X6X9X&XV # t t t 4 0.S.B.B.S.S.p.1.>.3.1.` I.<XQ.wX6X6X6X6X6X`.D.K.I.I.K.'.6X6X6X6X6X6X6X(.K.K.I.I.I.",
"I.I.I.I.I.I.'.6X6X6X6X6X6X6X6X6X6X6XrX`.D.I.I.K.I.I.H.I.5X6X6X9X9X9X9X9X6X6X6X+X|.D.I.I.I.D.(.6X6X6X6X6X6X|.I.I.I.I.I.(.6X6X6X6X6X6X6X6X,XwX4X3 < t t t t t t t t t 2 2 t w ~ u.S.B.B.B.B.B.c.r.3.1.>.>.K.AXFXvX,X6X6X6X6X,X,XwX|.D.K.I.I.K.*XrX6X6X6X6X6X(.D.I.K.`.6X6X6X6X6X6X9X9XI.D.K.I.I.K.I.6X6X6X6X6X6X6X9X9X,XK.K.K.Y.Y.K.(.6XwX6X6X6XwX6X6X>XQ.K.I.Y.I.I.I.K.I.K.Q.9XwX6X9X6X6X6X6X9X6X6X6X6X6XI.I.I.K.I.K.`.6X6X6X6X6X6X6XiXN 9 < ^ D.c.S.S.c.S.c.S.S.p.1.1.1.3.] <XiXK.9X6X6X6X6X6X9X`.H.I.I.I.K.>X6X6X6X6X6X6X6X6X6X6X6X`.K.I.I.I.I.I.I.>X6X6X6X6X6X6X6X6X6X6X6X>XI.K.K.I.I.I.H.`.rX6X6X6X9X9X9X9X9X6X9X6X6X6X6XQ.K.I.I.I.Y.K.(.9X6X6X6X6X6XwX6XoXwX|.Q.I.I.I.I.D.(.5X6X6X6X6XoX}.u < 2 t 9 B y.>.1.1.>.r.S.B.B.B.z.S.S.S.S.S.r.r.AXFXFX>XH.K.`.6XwXwX6X6X6X6XwX.XI.I.I.I.I.I.K.K.>X9X6X6X6X6X>XI.I.Q.9X6X6X6X9XQ.D.K.K.D.D.Q.9X6X6X6X9X9X*XQ.(.6X6X6X6X6X6X6X6X6X6X6X6X6X6X6X6X6X6X9X>XK.K.I.I.K.I.D.>X9X6X6XrX(.H.I.Y.Y.I.(.9X6X6X6X6X6X6X6X6X6X9X`.S $ i 2 2 4 0.S.B.B.S.S.p.1.3.1.1.` Q.<X`.rX6X6X6X6X6X).D.K.K.I.K.>X6X6X6X6X6X6X6XQ.K.I.I.I.I.",
"I.I.I.I.K.(.6X6X6X6X6X6X6X6X6X6X6X6XrX,XD.I.I.I.K.I.I.D.`.6X6X6X9X6X6X9X6X6X6XwX6XQ.I.I.I.K.I.,X6X6X6X6X6X6XI.I.I.I.Y.I.5X6X6X6X6X6X6X6X,XwX4X3 < t t t t t t t t t 2 2 t < Y y.g.B.B.B.B.B.c.r.3.3.,.>.H.AXKXvX,X6X6X6X6X6X,XwX XD.K.I.I.K.&X9X6X6X6X6X6X(.I.I.K.(.6X6X6X6X6X6X9X9XI.D.K.I.I.K.I.6X6X6X6X6X6X6X9X9X,XK.K.K.Y.I.K.`.wXwX6X6X6XwX6X|.(.I.I.Y.I.I.I.I.K.K.I.K.`.9X6X6X9X6X6X6X9X9X6X6X6X6X`.I.I.I.I.K.Q.6X6X6X6X6X6X6XaXL $ < ^ D.c.S.S.c.S.S.c.S.p.1.1.1.1.] <X0Xc.>X6X6X6X6X6X9XQ.K.I.I.K.I.6X6X6X6X6X6X6X6X6X6X6X6X(.K.I.I.I.I.I.(.6X6X6X6X6X6X6X6X6X6X6X9X`.K.K.K.I.I.K.I.>X9X6X6X6X9X9X9X9X9X9X9X6X6XwX|.I.I.I.I.I.Y.K.'.6X6X6X6X6X6X6XwX6X'.I.I.I.I.I.I.I.D.`.0X6X6XoX+X}.u < t t 9 B y.>.1.1.1.1.c.B.B.B.B.S.S.S.S.S.r. .SXAXFX<XH.K.I.>X6X6X6X6X6X6XwX.XK.I.I.I.I.I.K.Q.,X9X6X6X6X6X5XI.I.I.*X9X6X6X6X,XQ.S.K.K.I.>X6X6X6X6X6X9X6X6X6X6X6X6X6XwX9X6X6X9X6X6X6X6X6X6X6X6X6X9X'.K.I.I.K.I.K.Q.6X9X6X6X9XI.K.I.Y.I.I.*X9X6X6X6X6X6X6X6X6X6X6XQ.S $ i 2 t 4 0.S.B.S.S.S.p.1.3.3.3.` Q.8X`.rX6X6X6X6X6XQ.K.K.K.K.Q.6X6X6X6X6X6XwX>XI.K.I.I.I.I.",
"I.I.I.I.D.>X6X6X6X6X6X6X6X6X6X6X6X6XwX9X`.I.I.I.I.I.I.K.Q.,X6X6X9X6X6X6X6X6X6XwXwX`.K.I.I.I.K.}.6X6X6X6X6X6X(.S.I.I.Y.D.>X6X6X6X6X6X6X6X,XwX4X3 < t t t t t t t t t 2 t t < T y.t.B.B.B.B.S.S.y.3.,.3.>.p.AXKXvX,X6X6X6X6X6X6XwX,XQ.K.I.I.K.(.6X6X6X6X6X6X).D.I.K.Q.6X6X6X6X6X6X9X9XI.D.K.I.I.K.I.,X6X6X6X6X6X6X9X9X,XK.K.K.Y.I.K.'.wX6X6X6X6XwX|.Q.K.I.I.I.I.I.I.K.I.K.I.K.I.>XrX6X6X9X6X6X6X6X6X6X6X6X6XQ.I.I.I.K.I.>X6X6X6X6X6X6XsXL $ 2 %.D.c.S.c.c.c.c.c.S.p.1.1.1.1.] <XfXp.`.wX6X6X6XwX9XI.I.I.I.K.Q.6X6X6X6X6X6X6X6X6X6X6X>XI.K.I.K.I.K.I.>X9X6X6X6X6X6X6X6X6X6X6X6XQ.K.K.K.I.I.K.(.9X9X6X6X6X6X9X9X6X6X6X6X6X6X6X`.K.I.I.I.I.I.I.5X6X6X6X6X6X6XoX6X|.D.I.I.I.I.I.I.I.D.I.5XrX6XoX+X|.p < 2 t 9 B y.>.1.1.1.1.t.B.B.B.B.c.z.c.S.S.r.| BXAXFX<XH.K.I.`.6X6X6X6X6X6XwX XI.I.I.I.I.I.D.Q.9X6X6X6X6X6X6XI.I.K.(.9X9X,X,X6X|.`.`.>X6X6X6X6X6X6X6XrX9X6X6X9X6X9X9X>X(.Q.Y.(.`.>X0X9X6X6X6X6X6X9X`.H.I.I.I.I.K.(.9X9X6X6X>XI.I.I.I.I.I.8X9X6X6X6X6X6X6X6X6X6X>XY.S $ i 2 2 4 6.S.B.S.S.S.p.>.1.3.3.` Q.8X|.wX6X6X6X6X6XI.K.K.K.K.(.6X6X6X6X6X6XwX'.D.K.K.I.I.I.",
"I.I.I.I.`.wX6X6X6X6X6X6X6X6X6X6X6X6X6XrX>XI.I.I.I.I.I.I.D.|.6X6X6X6X6X6X6X6X6X6XwX>XK.I.I.I.H.Q.6XwX6X6X6XrX`.S.I.I.I.S.'.6X6X6X6X6X6X6X,XwX4X3 < t t t t t t t t t 2 t t < P y.t.S.B.B.B.S.x.i.>.>.3.>.i.BXKXBX,X6X6X6X6X6X6XwX6XQ.K.I.I.K.Y.6X6X6X6X6XwX`.K.I.K.I.6X6X6X6X6X6X9X9XQ.D.K.I.I.K.I.,X6X6X6X6X6X6X9X9X,XK.K.K.I.I.I.>XwX6X6X6X6X6XQ.S.K.I.I.I.I.I.I.I.I.K.I.I.K.Q.>XrX6X6X6X6X6X9X6X6X6X6XrX'.I.I.I.I.I.&X9X6X6X6X6X6XsXT % 2 *.D.c.S.c.c.c.c.c.S.p.1.1.1.1.` <XfXp.K.,X6X6X6XrX,XK.I.I.I.K.`.6X6X6X6X6X6X6X6X6X6X9X`.I.K.I.K.I.S.I.5X6X6X6X6X6X6X6X6X6X6X9X>XK.K.K.K.I.K.K.'.9X6X6X6X6X6X6X9X6X6X6X6X6X6X6XQ.K.I.I.I.I.I.Q.6X6X6X6X6X6X X6X|.D.I.I.I.I.I.I.I.I.I.I.(.6X6XoX+X Xz < 2 t 9 B y.>.1.>.>.>.r.S.B.B.B.c.z.c.S.S.t. .BXFXFXiXH.Y.I.Q.>X6X6X6X6XwXwXwXQ.K.I.I.I.I.D.`.9X6X6X6X6X6X6XQ.K.K.D.`.9X,X,X,X6X6X6X6XwX6X6X6X6X6X6X9X9XrXrX6X6X6X`.H.H.I.Y.Y.P.I.|.9X6X6X6X6X6X6X(.H.I.I.I.I.K.'.9X9X6X9X(.H.Y.I.I.I.Q.9X9X6X6X6X6X6X6X6X6X6X'.Y.S $ i 2 2 4 6.S.B.S.S.S.p.>.1.1.3.` Q.9X>XwX6X6X6X6X>XK.K.K.K.K.`.9X6X6X6X6X6X6X`.D.K.I.I.I.I.",
"I.I.I.Q.6X6X6X6X6X6X6X6X6X6X6X6X6X6X6XwX9XQ.I.I.I.I.K.I.K.`.6X6X6X6X6X6X6X9X6X6X6X6XQ.K.I.I.K.Q.6XwX6X6X6X9X>XI.I.I.Y.I.(.6X6X6X6X6X6X6X,XwX4X3 < t t t t t t t t t t t t * N y.r.S.z.B.B.S.c.i.>.,.3.1.r.BXKXBX6X6X6X6X6X6X6X6XwX&XK.I.Y.I.Y.,X6X6X6X6X6X,XK.I.I.K.|.wX6X6X6X6X9X9XQ.D.K.I.I.K.D.,X6X6X6X6X6X6X6X9X>XK.I.I.K.K.Q.,XwX6X6X6XwX6XD.K.I.I.I.I.I.I.I.I.I.I.I.I.I.K.Q.6X6X6X6X6X6X6X6X6X6X6X6X>X(.I.I.I.I.(.9X6X6X6X6X6XsXK % 2 *.D.c.S.S.c.S.S.S.S.p.r.1.>.1._ -XNXc.K.^.9X6X6XrX`.D.I.I.I.K.|.6X6X6X6X6X6X6X6X6X9X6XI.I.I.K.K.I.H.(.6X6X6X6X6X6X6X6X6X6X6X9X`.K.I.I.K.I.H.K.9X9X9X9X6X6X6X6X6X6X6X9X6X6X9X>XI.I.I.I.I.Y.K.`.6X6X6X6X6X6X6X6XQ.D.I.I.K.I.I.I.I.I.I.I.I.|.6X XoX Xb ; t t 9 B y.1.1.1.>.1.r.p.c.c.c.c.c.c.S.S.S.c.BXFXFXiXH.I.Q.D.Q.6XwXwXwXwX,XwX>XD.I.I.I.I.K.(.6X6X6X6X6X6X6X>XD.D.K.K.`.,X,X X,X6X6X6X6X6X6X6X6X6X6X6X6X6XrX6X XQ.D.K.I.I.Y.Y.Y.H.I.5X6X6X6X6X6X6XI.H.I.I.I.K.Q.5X9X6XwX5XI.I.I.I.I.K.`.9X6X9X9X6X6X9X6X6X6XrX(.Y.S $ i t t 4 6.S.B.B.c.S.r.>.1.1.3.` Q.sX,X6X6X6X6X6X*XK.K.K.K.K.>X9X6X6X6X6X6X5XQ.K.K.I.I.I.I.",
"I.I.I.|.6X6X6X6X6X6X6X6X6X6X6X6X6X6X6X6XrX'.K.I.I.I.K.I.K.Q.6X6X6X6X6X6X6X9X6X6X6X9X`.K.I.I.I.D.|.wX6X6X6X6X9XI.I.I.I.I.Q.5X6X6X6X6X6X6X,XwX4X5 < t t t t t t t t t t t t * N y.1.S.B.B.B.S.S.p.>.>.3.3.r.MXKXBX6X6X6X6X6X6X6X6X6X>XI.I.Y.Y.I.|.wX6X6X6X6X6XI.K.I.D.`.rX6X6X6X6X9X9XQ.D.K.I.I.K.K.>X6X6X6X6X6X6X6X9X*XK.K.K.K.K.Q.9X6X6X6X6XwX6XD.K.I.I.I.I.I.I.I.I.I.I.I.I.I.I.K.(.6X6X6X6X6X6X6X6X6X6X6X6X'.D.I.I.I.I.9X6X6X6X6X6XsXT % 2 *.D.c.S.S.c.S.S.S.S.c.r.>.>.3.` &XNXS.I.K.>X6X6XrX`.K.I.I.I.D.oX6X6X6X6X6X6X6X6X6X9X>XK.I.I.K.I.I.K.>X6X6X6X6X6X6X6X6X6X6X6X6XI.I.I.I.I.I.D.(.rX9X9X9X9X6X9X6X6X6X6X9X6X6X9X`.K.I.I.I.I.Y.I.|.6X6X6X6X6XoX6X).D.I.I.K.I.I.I.I.I.I.I.I.I.Q.,XoX X,XZ ; t t 9 B y.1.>.>.>.>.>.r.c.c.c.c.c.c.S.S.S.c.BXFXFXaXH.K.I.K.K.`.wX,XwXwX6X6XwX`.D.I.I.I.K.Q.6X6X6X6X6X6X6X6X`.S.K.K.K.`.,XwX X,X6X6X6X6X6X6X6X6X6X6X6X6X9X6XQ.D.K.I.Q.}.`.Q.I.Y.K.`.6X6X6X6X9X>XI.K.I.I.I.D.`.6X6X6X9X'.D.I.I.I.I.I.>X9X6X9X9X6X6X6X6X6X6XrXQ.Y.S $ i 2 t 4 6.S.B.B.c.c.r.>.1.1.3.` Q.sX,X6X6X6X6X6X`.K.K.K.K.Q.9X6X6X6X6X6X9X>XI.K.K.I.I.I.I.",
"I.I.Q.6X6X6X6X6X6X6X6X6X6X6X6X6X6X6X6X6XrX9XQ.I.I.I.I.I.I.I.,X6X6X6X6X6X9X9X6X6X6X6X>XI.I.I.I.K.`.rXwX6X6X6X0X(.S.I.I.I.D.>X6X6X6X6X6X6X,XwX4X5 < t t t t t t t t t t t t < M y.{ p.B.z.S.B.B.c.6.,.3.3.>.gXKXZXwX6X6X6X6X6X6X6X6X9XI.I.Y.Y.I.|.wX6X6X6X6X6XQ.S.I.K.Q.6X6X6X6X6X9X9XQ.D.K.I.I.K.K.|.6X6X6X6X6X6X6X6X`.K.I.K.I.K.`.9X6X6X6X6XwX>XD.K.I.I.I.I.I.I.I.I.I.I.I.I.I.D.I.I.`.6X6X9X6X6X9X9X6X6X6X6X5XI.I.I.I.S.>X9X6X6X6X6XsX) % 2 *.D.c.S.S.S.S.S.c.c.S.r.>.>.3.` &XMXc.I.H.Q.9X6X9XQ.K.I.I.K.Q.6X6X6X6X6X6X6X6X6X6X9X`.H.I.I.H.I.I.Q.6X6X6X6X6X6X6X6X6X6X6X9X>XI.I.I.K.I.K.K.>XrX6X6X6X6X6X6X6X6X6X9X9X6X9X5XI.K.I.I.I.I.K.Q.6X6X6X6X6X X6X|.D.I.I.I.I.I.I.I.I.I.I.I.I.I.K.).6X+X Xb - t t 9 B y.1.>.>.>.>.>.>.p.S.c.c.c.c.S.c.S.c.BXFXFXfXH.K.Q.K.K.K.>X,X6X6X6X6X6X,XQ.K.I.I.I.I.>X6X6X6X6X6X6X6X6XQ.I.K.I.K.Q.>XrX6X,X,X6X6X6X6X6X6X6X6XrX9X0X>XD.S.K.`.6X,XwX9XK.Y.Y.D.6X6X6X6X9X`.D.I.I.I.I.D.|.6X6X6X6XI.I.I.I.I.I.(.9X9X6X9X6X6X6X9X6X6X6X6XD.Y.S $ t 2 t 4 6.S.B.B.S.c.r.>.1.3.3.;.Q.sX,X6X6X6X6X6X(.K.K.I.K.`.9X6X6X6X6X6X9X`.K.K.K.I.I.I.I.",
"I.I.|.wX6X6X6X6X6X6X6X6X6X6X6X6X6X6X6X6X6X9X`.I.I.K.I.I.I.I.>X6X6X6X6X6X9X9X6X6X6X6X6XQ.K.I.I.I.Q.6XwX6X6X6XrX`.D.I.I.I.K.`.6X6X6X6X6X6X6XwX1X5 < t t t t t t t t t t w t < n 3.{ e.S.B.S.B.z.c.r.,.,.3.>.gXKXZXrX6X6X6X6X6X6X6X6X9XQ.I.I.Y.H.`.6X6X6X6X6X6X`.S.I.K.K.,XwXwX6X6X9X9XQ.D.K.I.I.K.K.|.6X6X6X6X6X6X6X9X`.K.K.K.K.H.`.wX6X6X6X6XwX>XD.K.I.I.I.I.I.I.I.I.I.I.I.I.I.I.K.I.I.`.6X6X6X6X6X9X6X9X6X6X9X(.S.I.I.S.(.9X6X6X6X6XsX^ % t *.D.c.S.c.c.S.c.c.c.S.e.1.>.3.` %XMXc.I.K.D.>X9X6XI.I.I.I.K.(.wX6XwX6X6X6X6X6X6X6X9XQ.H.I.I.K.I.K.`.rX6X6X6X6X6X6X6X6X6X6X9X`.K.I.I.K.I.K.Q.9X9X6X6X6X6X6X6X6X6X6X9X9X9X9X*XK.I.I.I.I.I.K.(.6X6X6X6XoX6X5XI.A.I.I.I.K.K.I.I.I.I.I.I.I.K.K.I.|.6X Xn - t t 9 B y.1.>.>.>.>.>.>.r.S.S.c.c.c.S.c.S.c.BXFXFXfXH.K.I.K.K.I.I.>X,X6X6X6X6X6X>XI.I.I.I.K.Q.rX6X6X6X6X6X,X6X>XD.I.I.I.H.H.(.,XrX6X6X6X6X6X6X6X6X6XrX9X0X>XD.K.D.!.,XwX6X`.K.Y.U.D.6X6X6X6X9X(.S.I.I.I.D.(.6X6X6X6X>XD.I.I.I.I.K.'.rX6X6X9X6X6X6X9X6X6X6X|.B.Y.S $ t t t 4 6.S.B.B.S.c.r.1.3.3.3.;.Q.jX6X6X6X6X6X6XQ.K.K.I.K.>X6X6X6X6X6X6X6XQ.K.K.K.I.I.I.I.",
"K.(.6X6X6X6X6X6X6X9X9X6X6X6X6X6X6X6X6X6X6XrX6XQ.I.K.K.K.I.I.`.6X6X6X6X6X6X6X6X6X6X6XwX'.K.I.I.I.I.>XrX6X6X6XwX>XD.I.I.I.K.Q.6X6X6X6X6X6X6X6X1X5 < t t t t t t t t t t t t < n 3.1.r.S.S.B.B.z.c.r.,.3.3.] fXKXZXrX6X6X6X6X6X6X6X6XrXQ.H.Y.Y.K.(.6X6X6X6X6X6X'.S.K.I.H.|.wX,X6X6X9X9XQ.D.K.I.I.K.K.>X6X6X6X6X6X6X6X9X(.K.K.K.K.K.>XwX6X6X6X,XwX'.D.K.I.I.I.I.I.I.I.I.I.I.I.I.I.I.I.K.I.I.'.6X6X6X6X9X6X9X6X6X9X>XD.I.H.H.I.9X6X6X6X6XsX^ % 2 *.D.c.c.S.S.S.S.z.z.S.p.1.>.1._ %XMXc.U.Y.K.I.9X5XD.I.I.I.D.`.wX6X6X6X6X6X6X6X6X6X6XK.S.I.I.K.I.K.>XrX6X6X6X6X6X6X6X6X6X6X9X(.D.K.K.K.I.K.`.9X,X6X6X6X6X6X6X6X6X9X9X9X9X9X(.D.I.I.I.I.I.I.'.6X6X6X6X X6X(.A.I.I.I.I.I.I.I.D.D.I.I.K.K.K.I.D.Q.oXwXn - t t ; M 8.>.>.>.>.>.>.>.3.p.S.c.c.c.c.c.S.c.BXFXFXgXK.I.I.K.I.I.S.Q.,X,X6X6X6X6X6X`.D.I.I.I.S.'.6X6X6X6X6X6X,X6X`.K.K.K.K.I.H.Y.&X9X9X6X6X6X6X6X6X6X6X6X9X>XD.I.I.S.K.(.Y.K.Y.I.K.(.6X6X6X6X6XQ.K.I.I.I.D.`.6X6X6X6X(.K.I.I.I.I.I.5X9X6X6X6X6X6X6X6X6X6X6X).D.Y.S $ t 2 t 4 6.S.B.B.S.p.1.1.1.3.3.;.(.kX6X6X6X6X6X,XQ.K.K.I.Q.6X6X6X6X6X6X9X5XQ.K.K.K.I.I.I.I.",
"I.|.wX6X6X6X6X6X6X9X9X6X6X6X6X6X6X6X6X6X6XwX9X'.D.I.K.K.I.K.`.6X6X6X6X6X6X6X6X6X6X6X6X6XQ.D.I.I.I.`.9X6X6X6X6X6XD.I.I.I.I.I.>X6X6X6X6X6X6X6X1X5 < t t t t t t t t t t t t < x 1.1.1.c.S.z.S.z.S.r.>.,.,.' hXKXZXrX6X6X6X6X6X6X6X6XrX`.K.Y.Y.K.Q.6X6X6X6X6X6X>XD.K.I.K.`.6X6X6X6X6X9XQ.D.K.I.I.K.K.|.6X6X6X6X6X6X6X9XQ.H.K.K.K.K.>X6X6X6X6X6X6X`.D.I.I.I.I.I.I.I.I.I.I.I.I.I.I.I.I.I.K.I.I.`.9X6X6X6X6X6X6X6X6X9XQ.S.I.I.D.>X6X6X6X6XrX .% 2 *.D.z.c.S.c.S.S.z.z.S.p.r.1.1._ %XMXH.Y.Y.K.K.Q.&XK.I.I.I.D.'.wX6X6X6X6X6X6X6X6X9X|.K.H.I.K.I.K.I.6XwX6X6X6X6X6X6X6X6X6XwX>XI.K.I.I.K.K.I.>X6X,X6X6X9X9X6X6X6X6X6X6X6X9X,XI.K.I.I.I.I.I.I.>X6X6X6X X6X'.I.I.I.I.I.I.K.D.D.Q.Q.Q.I.I.K.K.K.D.D.G.`.n - t t ; M 8.:.>.>.>.>.>.>.>.r.c.c.c.c.c.c.S.c.cXFXFXgXI.K.I.K.I.K.I.K.(.>X6X6X6X6X6X6X|.I.S.I.I.D.`.9X6X,X6X6X6X6X6X`.K.I.K.Y.Y.Y.H.Y.>X,XwX6X6X6X6X6X6X6X6X6X).D.I.I.H.H.K.I.I.I.K.|.6X6X6X6X>XD.K.I.I.I.Q.>X6X6X9X>XI.I.I.I.I.K.(.6X6X6X6X6X6X6X6X6X6X6X6X(.D.Y.S $ t 2 2 4 6.S.B.B.S.p.1.1.1.3.3.;.%XkX6X6X6X6X6X>XI.K.I.K.Q.6X6X6X6X6X6X9X>XK.K.I.I.I.I.I.I.",
"`.6X6X6X6X6X6X6X6X6X6X9X9X6X6X9X6X6X6X6X6X6XwX6XQ.I.K.D.I.I.(.6X6X6X6X6X6X6X6X6X6X6X6X6X`.D.I.I.I.Q.9X6X6X6X6X6XQ.K.I.I.I.I.|.6X6X6X6X6X,X6X1X5 < t t t t t t t t t t t t < t ;.1.>.p.S.c.S.c.S.c.>.>.,._ iXKXAXrX6X6X6X6X6X6X6X6XrX>XK.Y.Y.K.I.6XwX6X6X6X6X5XD.I.K.K.Q.,X6X6X6X6X9X`.D.K.K.K.K.K.}.6X6X9X6X6X6X6X9XQ.H.K.K.H.K.>X6X6X6X6X6X6X(.H.I.I.I.I.I.I.I.I.I.I.I.I.I.I.I.I.I.I.I.I.I.|.rX6X6X6X6X6X6X6X9X|.A.I.I.S.`.9X6X6X6XrX .% 2 8.D.z.c.c.S.S.c.c.z.S.S.r.{ 1.` (.MXK.I.Y.Y.I.K.Q.K.I.I.I.I.>XwX6X6X6X6X6X6X6X6X9X(.H.K.I.K.I.K.`.wX6X6X6X6X6X6X6X6X6X6XwX`.I.K.I.I.I.K.(.9X,X6X6X6X9X9X9X9X6X6X6X6X6X6X`.K.K.K.K.K.I.K.(.6X6X6X6X6X5XI.I.I.I.I.I.S.Q.'.6X6X9X6X>XI.K.K.K.K.D.D.I.n - t t ; M 8.:.>.>.>.>.>.>.>.6.r.p.c.c.c.S.S.c.gXFXDXvXQ.K.I.I.K.K.I.I.K.(.OX6X6X6X6X6X9X>XQ.D.I.H.H.`.9X6X6X6X6XwX6X9X`.K.I.K.I.Y.Y.H.K.Q.,XrX6X6X6X6X6X6X6X6X9X|.D.K.K.S.I.I.S.I.>X6X6X6X6X9X`.S.K.K.I.D.`.9X6X6XrXQ.K.I.I.I.I.I.>XrX6X6X6X6X6X6X6X6X6X6X XD.D.Y.S $ t 2 2 4 6.S.B.B.S.p.>.1.1.3.3.;.%XkX6X6X6X6X6X>XI.K.I.I.`.6X,X6X6X6X6X9X`.K.I.I.I.I.I.I.I.",
">X6X6X6X6X6X6X6X6X6X9X6X6X6X6X6X6X6X6X6X6X6X6X6X|.I.I.D.I.I.Q.6X6X6X6X6X6X6X6X6X6X6X6X6X>XD.K.I.I.I.9X9X6X6X6X6X).H.I.I.I.D.`.6X6X6X6X6X,X6X1X5 < t t t t t t t t t t t t < t ;.3.>.y.S.c.c.c.S.c.r.>.3._ iXKXAXdX6X6X6X6X6X6X6X6X6X,XI.I.Y.I.I.>XwX6X6X6X9X9XQ.K.K.I.D.|.6X6X6X6X9X`.D.K.I.K.K.K.`.9X6X9X6X6X6X6X9XI.K.K.K.H.I.6X6X6X6X6X6X6XQ.K.I.I.I.I.I.I.I.I.I.I.I.I.I.I.I.I.I.I.I.I.I.D.|.9X6X6X6X6X9X6X6X9XI.I.I.H.I.6X6X6X6XrX7.% 2 8.D.c.c.c.S.S.S.c.z.S.S.t.{ 1._ (.VXK.K.Y.I.K.Y.Q.K.I.I.I.I.5X6X6X6X6X6X6X6X6X6X6XI.H.I.I.K.I.D.>XwX6X6X6X6X6X6X6X6X6X6X6XQ.I.I.K.K.K.K.>X9X,X6X6X6X9X9X9X9X6X6X6X6X6X9XQ.K.K.K.K.K.K.I.'.9X6X6X6X0X(.I.I.I.I.I.S.(.oXwX6X6X6X6X6X'.I.K.K.K.I.D.Y.n - t t ; m i.6.>.>.>.>.>.>.>.>.6.r.p.S.S.c.S.c.gXFXDXvX(.D.I.I.I.K.K.I.I.H.(.oXoX6XoX6X6X6X9X*XI.H.I.I.(.>XwX6X6X X,X6XrX`.D.I.K.K.Y.Y.H.I.I.`.6X6X6X6X6X6X6X6X6X6X|.(.Q.(.Q.(.`.5X0X6X6X6X6X9X(.D.I.K.K.Q.6X6X6XwX>XI.I.I.I.I.K.(.9X6X6X6X6X6X6X6X6X6X6X6X|.I.I.Y.S $ t 2 t 4 5.S.B.B.S.p.>.1.1.3.3.;.&XkX6X6X6X6X6X}.K.I.I.I.`.6X,X6X6X6X6X6XQ.K.I.I.I.I.I.I.I.",
"6X6X6X6X6X9X6X6X6X6X9X9X9X9X6X6X6X6X6X6X6X6X6XwX6XQ.D.I.I.I.D.6X6X6X6X6X6X6X6X6X6X6X6X6X6XQ.H.I.I.I.>X9X6X6X6X6X`.H.I.I.I.D.).6X6X6X6X6X6X6X1X5 < t t t t t t t t t t t t 2 w _ 3.,.y.S.c.c.c.z.D.y.>.3.' 3XKXAXdX,X6X6X6X6X6X,X6X6X6XQ.I.Y.I.K.|.wX6X6X6X6X9X`.K.K.I.D.`.6X6X6X6X9X`.D.K.I.I.I.H.`.9X6X6X6X6X6X6X6XI.K.K.K.K.Q.9X6X6X6X6X6X6XI.K.I.I.I.I.I.I.I.I.I.I.I.I.I.I.I.I.I.I.I.I.I.D.D.>X9X6X6X6X6X6X6X9X'.I.I.I.K.>X6X6X6XrX7.$ 2 8.D.c.S.S.S.z.c.c.S.S.S.p.1.1.` Q.SXK.K.Y.K.K.Y.I.K.K.K.K.Q.6X6X6X6X6X6X6X6X6X6X>XD.I.I.I.K.K.I.6XrX6X6X6X6X6X6X6X6X6XrX>XI.I.I.I.I.K.I.9X,X6X9X6X6X9X9X9X6X6X6X6X6XwX>XK.K.K.K.K.K.K.Q.5X9X6X6X0X*XD.I.H.I.I.I.'.6X6XoX6X6X6X6X6X6X'.I.I.I.I.D.I.n - t t ; m n.r.r.>.>.>.>.>.>.>.>.>.r.c.S.c.S.z.hXFXZXVX>XQ.I.I.I.I.I.I.I.I.I.(.oXoXoX6X6X6XrXrX6XQ.I.Y.H.Y.*X6X6X6X6X6X6X6X`.K.I.K.K.K.I.I.K.D.`.,X,X6X6X6X6X6X6X6X6X6X6X6X6X6X6X6X6X6X6X6X6X5XI.K.I.K.K.`.9X6X6X6XQ.I.I.I.I.I.K.'.0X6X6X6X6X6X6X6X9X6X6X9X(.I.I.Y.S $ i t t 4 5.S.B.S.S.p.>.1.3.3.3.;.-XkXoX6X6X6X6X`.K.I.I.I.>X6X,X6X6X6X6X>XI.K.I.I.I.I.I.I.Q.",
"6X6X6X6X9X9X9X6X6X6X9X9X9X9X6X6X6X6X6X6X6X6X6X6XwX`.D.I.I.I.D.>X6X6X6X6X6X6X6X6X6X6X6X6X6X`.K.I.I.I.`.9X6X6X,XwX|.H.I.I.I.D.(.6X6X6X6X6X6X6X1X6 < t t t t t t t t t t t t t w _ 3.,.1.c.S.c.S.z.D.p.>.3.] 3XKXFXdX,X6X6X6X6X6X,X9X6XrX(.K.Y.I.H.`.wX6X6X6X6X9X>XD.I.I.D.).6X6X6X6X9X`.D.I.I.I.I.H.`.9X6X6X6X6X6X6X5XI.K.K.K.K.^.9X6X9X9X6X6X6XK.I.Q.I.I.I.I.I.I.I.I.I.I.I.I.I.I.I.I.I.I.I.I.I.D.I.>X9X6X6X6X6X6X6X5XI.I.I.H.'.6X6X6XrXb.9 < 8.D.c.S.S.c.z.c.c.S.S.S.p.{ 1.` Y.SXK.K.Y.K.U.Y.I.K.K.K.D.Q.9X6X6X6X6X6X6X6X6X9X|.S.I.I.I.K.H.Q.rX6X6X6X6X6X6X6X6X6X6XwX*XK.I.I.I.I.K.(.6X,X6X6X6X6X9X9X9X6X6X6X6X6XwX`.H.I.K.K.K.K.K.`.6X6X6X6X5XQ.I.I.I.H.S.'.6XoXoX6X6X6X6X6X6X6X6X'.I.I.I.D.I.n - t t ; m H.p.r.r.>.>.>.>.>.>.>.>.6.r.p.H.S.z.aXFXZXZX9X<X(.I.I.I.I.I.I.I.I.I.).6X6X6X6X6XwX6X6X9X*XI.I.H.H.Q.>X9X6X6X6X6X6X`.K.K.K.K.K.K.I.I.S.Q.>X9X6X6X6X6X6X6X6XwXwX6X6X6X6X6X6X6X6X6XwX`.H.I.K.K.I.|.6X6X6X>XK.I.I.I.I.I.Q.8X9X6X6X6X6X6X9X6X6X6X6X6XI.I.I.Y.S $ i 2 t 4 6.S.B.S.S.u.1.1.3.3.3.;.-XkXoX6X6X6X6X`.K.I.I.I.>X6X,X6X6X6X6X`.K.I.I.I.I.I.I.I.'.",
"6X6X6X9X6X9X6X6X6X6X6X9X6X6X6X6X6X6X6X6X6X6X6X6X6X|.I.I.I.I.S.>X6X6X6X6X6X6X6X6X6X6X6X6X6X>XI.K.I.K.(.9X6X6X,X6X|.I.I.I.I.I.G.5X6X6X6X6X6X6X1Xg < t t t t t t t t t t t t t ; / y.,.>.p.S.c.S.z.D.p.>.3.>.<XKXFXdX6X6X6X6X6X6X,X6X6X9X`.I.Y.I.P.`.6X6X6X6X6X6X6XD.I.K.D.Q.6X6X6X6X9X`.D.D.K.I.I.H.`.9X6X6X6X6X6X6X5XK.K.K.K.K.`.9X6X6X9X6X6X6XD.I.Q.I.I.I.I.I.I.I.I.I.I.I.I.I.I.I.I.I.I.I.I.I.I.I.I.8X6X6X6X6X6X6X9X(.I.I.S.(.6X6X6XrXb.9 < 5.D.c.c.c.c.z.z.S.S.S.S.S.{ 1.` Y.SXK.K.Y.K.I.I.I.K.K.K.D.(.9X6X6X6X6X6X6X6X6XrX'.S.I.I.I.I.K.`.wX6X6X6X6X6X6X6X6X6X6X6X(.D.I.I.I.I.K.*X6X6X9X6X6X6X9X9X6X6X6X6X6X6X6XD.H.I.K.K.K.K.I.|.6X6X6X9X(.I.I.I.I.S.'.6X6X6XoX6X6X6X6X6X6X6X6X6X'.I.I.D.I.n ; t t ; m H.p.r.r.r.1.>.>.>.>.>.>.>.6.i.H.H.c.aXFXZXZX9XrX9XQ.I.I.I.I.I.I.I.I.D.(.5X6XoX6X6XwXwXrX6X>X(.H.I.I.I.`.>X6X6X6X6X6X>XQ.K.K.H.H.K.I.I.I.`.9X6X6X6X6X6X6X6X6X6X6X6X6X6X6X6X6X6X6X9XQ.H.I.K.K.`.6X6X6XrX(.K.I.I.I.I.I.`.9X9X6X6X6X6X9X6X6X9X6X6X5XI.I.I.Y.S $ i 2 t 4 6.S.B.S.S.y.>.1.3.1.3.;.-XkXoX6X6X6X9XQ.K.I.K.Q.6X6X,X6X6X6X6XQ.K.I.I.I.I.I.I.Q.5X",
"6X6X6X6X6X6X6X6X6X6X9X9X6X6X6X6X6X6X6X6X6X6X6X6X6X6XI.H.I.I.S.|.6X6X6X6X6X6X6X6X6X6X6X6X6X6XQ.D.I.K.Q.6X6X6X6X6X>XQ.I.I.I.K.D.>X6X6X6X6X6X6X1Xg < t t t t t t t t t t t t t ; R y.1.,.r.c.z.z.z.S.z.>.3.] &XKXAXjX6X6X6X6X6X6X6X6X6X9X>XI.Y.I.I.Q.6X6X6X6X6X6X6XQ.K.K.D.Q.>X6X6X6X9X|.D.D.K.K.I.H.`.rX6X6X6X6X6X7X>XK.K.K.K.K.|.9X6X9X9X6X9X>XS.I.Q.I.I.I.I.I.I.I.I.I.I.I.I.I.I.I.I.I.I.I.I.I.I.I.K.(.6X6X6X6X6X6X6X>XI.I.S.D.5X6X6XrXm.9 < 5.C.z.B.S.S.S.S.S.S.S.S.S...1.] Y.SXW.K.Y.K.K.I.I.K.K.K.D.`.0X6X6X6X6X6X6X6X6X6X`.I.I.I.I.I.K.|.wX6X6X6X6X6X6X6X6X6XwXoXI.K.I.I.I.I.I.5X6X6X6X6X6X6X9X9X6X6X6X6X6X6X|.S.K.Y.Y.I.I.K.(.6X6X6X6X5XI.I.I.I.D.`.0X9X6X6X6X6X6X6X6X6X6X6X6X6X6X`.D.D.T.M < t t 9 m n.c.S.S.r.>.>.1.1.>.>.>.>.>.r.y.n.c.aXFXZXAXrX,XrX5X(.I.I.I.I.I.I.I.I.H.Q.6X6X6X6X6X6X6X6X6X>X(.H.Y.Y.K.K.`.>X6X6X6X9X6XQ.D.K.K.K.K.I.I.K.I.,X6X6X6X6X6X6X6X6X6X6X6X6X6X6XwX,X6X>XD.I.I.K.I.5X9X6XrX>XK.K.I.I.K.K.I.5X9X6X6X6X6X6X9X9X9X9X6X7X'.I.I.I.Y.S < t 2 t 4 6.S.B.B.p.1.>.3.1.1.3.>.<XkXoX6X6X6X,XQ.K.I.S.`.rX6X6X6X6X6X5XQ.K.I.I.I.I.I.I.`.6X",
"6X6X6X6X6X6X6X6X6X6X6X6X6X9X9X9X9X9X9X9X6X6X6X6X6X6X(.H.I.I.D.`.6X6X6X6X6X6X6X6X6X6X6X6X6X6X`.D.I.I.I.>X9X6X6X6X6X(.I.I.I.D.D.>X6X6X6X6X6X6X1Xg < t t t t t t t t t t t t t ; W y.1.3.r.c.c.z.z.S.z.6.3.] $XKXAXkX6X6X6X6X6X6X6X6X6X6X>XI.Y.Y.Y.I.,XwX6X6X6X6X6X).K.I.K.K.`.6X6X6X9X>XD.I.K.K.I.H.`.9X6X6X6X6X6X7X>XK.K.K.K.K.>X9X6X6X6X6X9X>XS.I.Q.I.I.I.I.I.I.I.I.I.I.I.I.I.I.I.I.I.I.I.I.I.I.I.I.P.*X6X6X6X6X6X6X6XI.I.I.D.|.9X6XeXm.w < 5.B.z.S.S.S.S.S.S.S.S.S.S.r.1.>.P.AXQ.K.Y.K.K.K.K.K.I.I.D.>X9X6X6X6X6X6X6X6X6X6XQ.I.I.I.I.I.I.>XwX6X6X6X6X6X6X6X6X6XwX|.K.I.I.I.I.I.(.6X6X6X6X6X6X6X9X6X6X6X6X6X6X6XI.K.K.I.I.I.I.I.>X9X6X6XrX`.K.I.I.I.I.>X9X6X6X6X6X6X6X6X6X6X6X6X6X6X9X5X(.D.I.M - t t ; m n.c.z.S.S.r.>.1.3.>.>.>.>.>.3.y.p.r.9XFXZXZXrX6X9X9X6X`.D.I.I.I.I.I.I.I.I.(.6X6X6X6X6X6X6X6X6X9X`.H.I.Y.Y.H.I.`.6X9X6X6X6X`.K.K.I.K.K.K.I.K.Q.9X6X6X6X6X6X6X6X6X6X6X6X6X6XwX6X6X(.H.I.Y.H.(.6X6XwX9XQ.H.I.I.I.I.H.(.9X6X6X9X9X9X9X9X9X6X6X6X6XQ.I.I.I.Y.S < t 2 t 4 5.S.B.B.t.>.>.,.1.3.3.>.<XvXoX6X6XwX>XK.K.I.S.'.rX6X6X6X6XwX>XI.I.I.I.I.I.I.Q.>X6X",
"6X6X6X6X6X6X6X6X6X6X6X6X6X6X9X9X9X9X9X9X6X6X6X6X6X6X>XD.I.I.D.(.6X6X6X6X6X6X6X6X6X6X6X6X6X6X|.D.K.I.I.'.9X6X6X6X6X`.K.I.I.I.K.'.6X6X6X6X6X6X1Xg < t t t t t t t t t t t t t ; W y.1.1.r.c.c.z.z.S.z.r.3.>.Q.KXAXvX6X6X6X6X6X6X6X6X6X9X9XI.I.K.Y.K.>XwX6X6X6X6XwX}.K.I.K.K.(.6X6X6X6X>XK.I.K.K.I.H.Q.9X6X6X6X6X6X6X'.H.K.K.K.K.>X9X6X6X6X6X9X`.S.I.I.I.I.I.I.I.I.I.I.I.D.D.I.I.I.I.I.I.I.I.I.I.I.I.I.Y.I.5X6X6X6X6X6X6X'.I.I.S.(.6X6XeX/.w ; 5.B.c.S.S.S.B.B.S.S.S.S.S.e.3.>.P.AXQ.K.Y.K.K.K.K.K.I.I.D.>X9X6X6X6X6X6X6X6X6X5XD.I.I.I.I.I.I.,X6X6X6X6X6X6X6X6X6X6XwX).K.I.I.I.I.I.'.6X6X6X6X6X6X6X9X6X6X6X6X6XrX|.S.I.K.I.I.I.I.Q.6X6X6X6X>XQ.I.K.I.I.`.6X6X6X6X6X6X6X6X6X6X6X6X6X6X6X9X9X6X(.Q.M - t t ; m n.S.z.B.D.c.r.1.1.,.>.>.>.,.>.>.y.6.1XFXZXAXrX6XrX6XwX6X`.D.H.I.I.I.I.I.I.I.Q.6X9X6X6X6X6X6X6X9X9X`.K.Y.Y.Y.I.H.I.>X6X6X6X6X`.K.K.K.K.K.I.I.S.Q.9X6X6X6X6X6X6X6X6X6X6X6X6X6XrX>XK.Y.I.I.I.5X6X,XrX>XK.K.I.I.I.H.I.5X9X6X6X9X9X6X6X9X9X6X6X6X|.D.I.I.I.Y.F $ t 2 t 4 5.S.B.S.t.>.,.>.1.1.1.1.<XvXoX6X6XwX|.K.I.I.K.|.wX6X6X6X6X6X'.I.I.I.I.K.I.K.`.6X6X",
"6X6X6X6X6X6X9X9X9X9X6X6X6X6X9X9X9X9X6X6X6X6X6X6X6X6X6XI.I.I.D.(.6X6X6X6X6X6X6X6X6X6X6X6X6X6X,XQ.D.I.K.(.9X6X6X6XrX`.K.I.I.I.I.`.6X6X6X6X6X6X1Xg < t t t t t t t t t t t t t ; W y.>.1.>.p.c.z.z.S.C.y.>.>.Q.KXAXvX6X6X6X6X6X6X6X6X9X9X9XQ.K.I.Y.K.>X9X6X6X6X6X6X|.I.K.K.H.Q.,XwX6X6X>XK.I.K.I.I.H.Q.9X6X6X6X6X6X6X'.H.K.K.K.K.>X9X6X6X6X6X6X`.S.I.I.I.I.I.I.I.I.I.Y.`.|.|.(.I.I.I.I.I.I.I.I.I.I.I.I.Y.I.(.6X6X6X6X6X6X5XI.I.S.I.6X6XeX^.w < 5.B.c.S.S.S.z.B.B.S.S.S.S.t.1.;.j.AX^.K.Y.K.K.I.I.K.I.I.I.5X6X6X6X6X6X6X6X6XwX|.S.I.I.I.I.I.Q.6X6X6X6X6X6X6X6X6X6XwX6XQ.K.I.I.I.I.I.5X6X6X6X6X6X6X6X6X6X6X6X6X6X9XQ.H.K.K.I.I.I.I.|.6X6X6X6XQ.I.I.I.I.I.>XwX6X6X6X6X6X6X6X6X6X6X6X6X6X9X9X9X9X6X`.M - t t ; m n.S.S.c.t.B.S.r.1.1.3.>.>.>.>.;.,.>.2XFXAXAXrX6XrXrXwX6X6X'.I.I.I.I.I.I.H.I.I.Q.>X6X6X6X6X6X6X6X6X9X'.K.Y.Y.I.P.H.S.(.6X6X6X6X}.Q.K.K.K.K.I.I.S.`.rX6X6X6X6X6X6X6X6X6X6X,XrX9XQ.K.I.Y.H.`.9X6X6X6XQ.H.I.I.I.I.H.(.9X6X6X9X6X6X6X6X6X6X6X6X6X).S.I.I.I.Y.S # t 2 t 4 5.S.B.S.t.>.,.,.3.3.1.r.<XvXoX6X6XwX}.K.I.I.I.6X6X6X6X6X6X6X`.K.I.I.K.K.I.D.>X6X6X",
"6X6X6X6X6X6X9X9X9X9X6X6X6X9X9X9X9X6X6X6X6X6X6X6X6X6X9X(.D.I.I.I.6X6X6X6X6X6X6X6X6X6X6X6X6X6X6X(.D.K.K.Q.9X6X6X,XwX>XK.I.K.I.I.(.6X6X6X6X6X6X9Xg < t t t t t t t t t t t t t ; L y.>.1.>.y.z.z.z.x.B.p.>.>.K.KXAXvX6X6X6X6X6X6X6X6X6X6X9X(.K.Y.K.K.`.9X6X6X6X6X6X6XI.K.I.K.I.|.wX6X6X>XI.K.K.I.I.H.Q.6X6X6X6X6X6X6X'.H.K.K.K.K.>X9X6X6X6X6X9X(.S.I.I.I.I.I.I.I.I.K.|.6X6X6XoXOX(.I.I.I.I.I.I.I.I.I.I.I.I.I.*X6X6X6X6X6X9X(.H.I.D.>X6XeX$Xt > 5.B.c.S.S.S.z.z.z.S.S.S.S.p.1.;.j.AX`.H.Y.K.K.I.I.K.I.I.I.6X6X6X6X6X6X6X6X6XwX(.K.I.I.I.I.K.(.9X,X6X6X6X6X6X6X6X,XwX|.I.I.I.I.I.I.(.6X6X6X6X6X6X6X6X6X6X6X6X6XwX>XI.K.K.K.I.I.K.Q.6X6X6X6X6XD.K.I.I.D.).6X6X6X6X6X6X6X6X6X6X6X6X6X6X6X6X9X9X9X9X9XS - t t ; m n.S.S.B.B.S.S.c.r.1.1.3.>.>.>.>.y.' &XFXAXAXsX6XrX6X6X6X6X6X'.I.H.I.I.I.I.I.Y.K.I.>X6X6X6X6X6X6X6X6X9X>XD.K.H.H.Y.I.S.Q.5X9X6X6X>XQ.K.I.K.K.I.I.I.*X6X6X6X6X6X6X6X6X6X6X6XrX:XK.K.K.K.I.6X6X,XwX}.D.K.I.I.I.K.I.>X9X6X6X9X9X9X6X6X6X6X6X6X6XD.D.I.I.I.Y.I # t 2 t 4 5.S.B.S.t.>.,.,.3.3.1.r.<XcXoX6X6X6X`.D.I.K.I.6X6X6X6X6X6X6XQ.K.I.I.K.I.K.Q.9X6X6X",
"6X6X6X6X6X6X6X6X6X6X6X6X6X6X9X9X9X6X6X6X9X9X6X6X6X6X9X`.K.I.I.I.6X6X6X6X6X6X6X6X6X6X6X6X6X6X6X'.I.I.I.I.>XwX6X6X6X,XK.I.K.I.I.Q.6X6X6X6X6X6XrXj < t t t t t t t t t t t t t ; N 8.>.>.>.r.c.c.z.z.z.p.r.>.K.KXAXvX6X6X6X6X6X6X6X6X6X6X9X`.S.I.I.D.(.9X6X6X6X6X6X9XQ.K.I.K.K.`.wX6X6X,XI.K.K.I.I.H.I.5X6X6X6X6X6X6X`.H.K.K.K.K.>X9X6X6X6X6X6XQ.S.Y.I.I.I.I.I.K.K.`.6X6X6X6X6X6X5X(.I.I.I.I.I.I.I.I.I.I.I.I.I.>X6X6X6X6X9X>XI.I.S.`.9XeX:Xt > 5.B.c.S.S.z.B.B.S.S.S.S.S.S.1.` j.ZX`.H.Y.H.K.K.I.K.I.K.Q.6X6X6X6X6X6X6X6X6X6XQ.I.I.I.I.I.K.`.9X,X6X6X6X6X6X6X6X,XwX|.H.I.I.I.I.D.`.6X6X6X6X6X6X6X6X6X9X6X6X6X9X(.I.H.K.I.I.I.I.'.6X6X6X6X>XI.K.I.I.I.>X6X6X6X6X6X6X6X6X6X6X6X6X6X6X6X6X6X6X9X5XsXQ - l t ; m c.S.z.c.D.z.z.S.c.e.1.1.>.>.,.>.3._ &XFXAXAXdX,XrX6X,X6X6XwX6X*XI.H.I.I.I.I.I.I.I.I.|.9X6X6X6X6X6X6X6XrX>XI.K.Y.Y.I.I.S.I.'.9X6X6X6XQ.D.K.I.K.I.I.Q.9X9X6X6X6X6X6X6X6X,X6X>XI.H.K.Y.S.'.6XwXwXwXQ.K.K.K.I.I.K.`.9X6X6X6X6X6X6X6X6X6X6X6X6X>XD.I.I.I.D.`.T # i t t 4 5.S.B.S.t.>.>.>.1.3.1.u.8XjXoX6X6X9XQ.K.I.K.Q.6X6X6X6X6X6X>XI.K.I.I.I.I.K.`.9X6X6X",
"6X6X6X6X6X6X6X6X6X6X6X6X6X6X6X6X6X6X6X6X9X9X6X6X6X6X9X>XK.I.I.I.6X6X6X6X6X6X6X6X6X6X6X6X6X6X6X'.I.I.I.I.|.wX6X6X6X6XI.I.K.I.I.I.6X6X6X6X6X6XrXj < t t t t t t t t t t t t t 9 c ,.>.>.>.1.c.c.z.z.x.c.r.>.c.AXAXvX6X6X6X6X6X6X6X6X6X6X9X|.S.I.I.D.Q.9X9X6X6X6X6XrX`.K.I.K.I.Q.6XwX6X9XQ.K.K.I.I.K.I.5X6X6X6X6X6X6X`.H.K.K.K.I.>X9X6X6X6X6X6XQ.S.I.I.I.I.I.I.D.`.9X6X6X6X6X6X6X6X6X*XY.I.I.I.I.I.I.I.I.I.I.K.).6X6X6X6X6X9XI.H.H.(.9XeX:Xu > 5.C.c.S.S.z.S.B.S.S.S.S.c.S.y.` j.ZX&XH.Y.H.K.K.I.K.I.K.Q.6X6X6X6X6X6X6X6X6X6XI.I.I.I.I.I.K.|.9X,X6X6X6X6X6X6X6X,XwX`.H.I.I.I.I.K.>X6X6X6X6X6X6X6X6X9X9X6X6X6X5XI.I.H.I.K.K.K.Q.6X6X6X6X6XI.I.I.I.K.Q.,X6X6X6X6X6X6X6X6X6X6X6X6X6X6X6X6X6X6X6X6XsXQ - t t ; j c.B.z.c.x.B.z.z.S.S.p.r.1.>.,.>.3._ %XFXAXFXdX,XrX6X,X6X6X6XwX9X5X(.I.I.I.I.I.I.I.H.D.>X6X6X6X6X6X6X6X6X9X`.I.H.K.K.I.I.H.D.`.6X6X6X5XQ.S.I.I.K.I.I.`.9X,X,X6X6X6X6X6X6X6XQ.K.K.I.K.Q.wXwXwXwX>XK.K.K.I.I.K.I.>X6X6X6X6X6X6X6X6X6X6X6X6X6X(.I.I.I.I.D.6XT # i t t 4 5.S.z.S.r.>.>.>.1.1.1.p.9XcXoX,X6X9XI.K.I.K.`.wX6X6X6X6X9X`.I.I.I.I.I.I.Q.6X6X6X6X",
"6X6X6X6X6X6X6X6X6X6X6X6X6X6X9X9X6X6X6X6X6X6X6X6X6X6X6X5XI.I.I.I.6X6X6X6X6X6X6X6X6X6X6X6X6X6X6X>XI.K.I.I.`.6X6X6X6X6XI.H.K.I.I.I.>X6X6X6X6X6XrXj < t t t t t t t t t t t t t t c 8.1.>.1.>.p.c.z.z.x.c.r.>.c.AXAXVXwX6X6X6X6X6X6X6X6X6X9X>XD.I.I.D.I.5X9X6X6X6X6XwX|.K.I.K.K.I.6XwX6XrXQ.K.K.K.K.I.I.>X6X6X6X6X6X6X`.K.K.K.K.I.>X9X6X6X6X6X6XQ.D.I.I.I.I.I.K.Q.rX6X6X6X6X6X6X6X6X6X6X|.(.Y.I.I.I.I.I.I.I.I.I.I.>X6X6X6X6X6X`.I.I.I.5XeX<Xu > 5.C.S.S.S.S.S.S.S.S.S.S.S.S.u.;.j.ZX:XH.Y.K.K.K.I.K.I.H.!.9X6X6X6X6X6X6X6X6X5XD.I.I.I.I.I.I.>X9X,X6X6X6X6X6X6X6X6X6XQ.I.I.I.I.I.Q.6X6X6X6X6X6X6X6X6X9X9X9X9X9X`.I.H.K.Y.I.K.I.`.6X6X6XwX`.S.I.I.I.K.(.9X6X6X6X6X6X6X6X6X6X9X6X6X6X6X6X6X6X6X6X6XrXQ o t t ; g m.B.z.z.z.z.z.z.z.C.S.t.r.3.3.>.3._ %XFXZXFXrX,XrX6X6X6X6X6XwX6X6X6X&XI.I.I.I.I.K.I.I.K.>X6X6X6X6X9X6X6X6X6X`.I.H.K.I.K.I.I.H.`.6X6X6X5X(.H.K.I.I.I.K.>X6X,X,X6X6X6XwX6XQ.H.H.I.Y.I.>XwXwXwXwX`.K.I.I.K.K.K.(.6X6X6X6X6X6X6X6X6X6X6X6X6X6XI.I.I.K.K.G.6XS # i 2 t 4 5.S.B.B...>.>.>.1.>.r.p.9XcXoX,XwX9XI.K.I.D.'.wX6X6X6X6X6X(.I.I.I.I.I.K.`.rX6X6X6X",
"6X6X6X6X6X6X6X6X6X6X6X6X6X9X6X6X6X6X6X6X6X9X6X6X6X6X6X5XI.I.I.I.>X9X6X6X6X6X6X6X6X6X6X6X6X6X6X>XI.H.I.K.`.6X6X6X6XwX(.H.I.I.I.I.>X6X6X6X6X6XrXj < t t t t t t t t t t t t t t c 8.1.>.3.>.r.c.c.c.x.c.r.>.c.AXAXVXwX6X6X6X6X6X6X6X6X6X6X6XI.I.I.H.D.>X9X6X6X6X6XwX,XI.I.K.I.K.>XwX6XrXQ.H.K.K.K.I.K.>X6X6X6X6X6X6X(.K.K.K.K.Y.9X9X6X6X6X6X6XQ.D.I.I.K.K.K.K.>X6X6X6X6X6X6X6X6X6X6X6X6X5X(.I.Y.I.I.I.I.I.I.I.I.`.6X6X6X6X6X>XI.I.I.`.7X1Xu >  .C.S.S.S.S.S.S.S.S.S.S.c.c.s.;.s.AX:XH.Y.K.K.K.I.I.I.H.`.6X6X6X6X6X6X6X6X6X>XD.I.I.I.I.I.I.>X9X,X6X6X6X6X6X6X6X6X,XI.I.I.I.I.I.`.6X6X6X6X6X6X6X6X6X9X9X6X6X6XQ.I.H.I.K.K.H.Q.>X6X6X6X6XI.H.I.I.I.D.'.6X6X6X6X6X6X6X6X6X5X>X>X>X5X9X6X6X6X6X6X6XrXQ o t t ; g n.B.z.x.z.z.x.x.x.z.x.D.z.y.y.,.3._ %XFXAXFX1XW.6X6X9X6X6X6X6X6X6X6X9X'.I.K.I.I.I.I.I.K.I.>X6X6X6X6X9X6X6X6X6X`.K.H.I.I.I.I.H.S.`.rX6X6X6XQ.H.I.K.I.I.I.>XrX6X6XwX9X>XQ.S.K.K.I.K.`.rXwXwXwX6XI.K.I.I.I.K.I.>XrXwX6X6X6X6X6X6X6X6X6X6X6X`.K.I.I.K.K.G.eXD # i 2 t 4 5.S.z.z...>.>.>.1.>.y.p.9XcXoX,XwX>XI.I.I.K.>X6X6X6X6X6X>XI.K.I.I.I.I.I.5XwX6X6X6X",
"6X6X6X6X6X6X6X6X6X6X>X>X9X9X6X6X6X6X6X6X6X6X6X6X6X6X6X6XQ.I.I.H.|.9X6X6X6X6X6X6X6X6X6X6X6X6X6X>XQ.K.I.K.Q.6X6X6X6XwX`.K.I.I.I.I.>X6X6X6X6X6XrXj < t t t t t t t t t t t t t t x <.1.1.1.>.r.c.c.z.x.S.r.>.t.AXAXZXrX6X6X6X6X6X6X6X6X6X6X6XI.I.I.I.S.'.6X6X6X6X6X6XwXQ.K.I.I.H.`.wX6XrXQ.H.K.K.K.I.S.>X6X6X6X6X6X6X(.H.K.K.K.Y.9X9X6X6X6X6X6XG.I.I.K.K.K.K.Q.6X6X6X6X6X6X6X6X6X6X6X6X6X6X>X(.I.I.I.I.I.I.I.I.I.I.>X6X6X6X6X6XQ.I.I.Y.7X1Xb > ^ F.c.z.B.S.S.S.B.B.S.S.c.c.j.>.u.FX:XH.Y.K.I.K.I.I.K.H.`.6X6X6X6X6X6X6X6XwX|.D.I.I.I.I.I.K.8X6X,X6X6X6X6X6X6X6X6X>XD.I.I.I.K.I.|.6X6X6X6X6X6X6X6X6X6X6X6X6X*XI.K.K.I.I.K.K.`.6X6XoX6X`.K.I.I.I.I.Q.>X6X6X6X6X6X9X5X*XQ.I.H.H.K.I.`.5X9X9X6X6X6XrX~ # t t ; h i.B.z.x.x.z.z.z.z.x.x.z.B.p.i.r.1.] Y.FXAXFX9Xb.`.6X9X9X9X6X6X6X6X6X6X6X`.I.K.I.I.I.I.I.H.Q.>X6X6X6X6X6X6X6X6X6X(.H.I.I.I.I.I.I.I.>XrXwXrX,XQ.K.I.I.I.K.K.`.1X>X`.Q.I.K.I.I.K.K.Q.,XwX XoXwX`.H.H.H.H.H.K.I.>X6X XoXoXoXoX X6X6X6X6X6X6X(.D.I.I.Q.Y.>XjX+.# t 2 t 4 5.D.B.z.| >.>.>.1.>.u.c.9XcXoX,XwX'.I.I.I.I.5X6X6X6X6X6X'.I.I.I.I.I.I.(.6X6X6X6X6X",
"6X6X6X6X6X6X6X6X>XI.I.(.`.>X6X6X6X6X6X6X6X6X6X6X6X6X6X9X(.H.Y.H.'.9X6X6X6X6X6X6X6X6X6X6X6X6X6X6XQ.K.I.K.Q.,X6X6X6XwX*XD.I.K.I.D.`.6X6X6X6X6XrXj < t t t t t t t t t t t t t t a <.1.1.1.>.r.p.c.z.x.S.p.>.r.AXFXZXrX6X6X6X6X6X6X6X6X6X6X6X(.I.I.I.S.`.6X6X6X6X6X6XwX`.D.I.I.H.Q.wX6XrX`.H.K.K.K.I.S.>X6X6X6X6X6X6XQ.H.K.K.K.Q.9X9X6X6X6X6X6XD.I.I.K.H.Y.K.|.9X6X6X6X6X6X6X6X6X6X6X6X6X6X6X'.T.I.I.I.I.I.I.I.I.I.`.6X6X6X6X6X'.I.I.H.5XrXb > ^ C.z.z.B.S.S.S.S.z.S.S.S.c.j.] u.FX>XH.Y.K.K.K.I.I.K.H.`.6X6X6X6X6X6X6X6XrX'.D.I.I.I.I.K.K.6X6X6X6X6X6X6X6X6X6X9X`.D.I.I.I.K.Q.6X6X6X6X6X6X6X6X6X6X6X6X6X6X(.I.H.K.I.I.I.Q.|.6X6X6X6XI.K.I.I.I.D.(.6X6X6X6X6X6X5XI.H.I.I.Y.Y.Y.I.H.I.`.6X6X6X6XrX^ o t t 9 5 8.B.z.x.z.z.x.z.z.x.x.z.c.c.p.r.r.' Y.FXAXAXVXW.D.`.9X9XrXrXwX6X6X6X6X6X6X'.I.S.I.I.I.I.I.K.Q.,X6X6X6X6XwX6X6X6X>XQ.H.K.K.K.K.K.K.I.:X6X,X9X>XI.S.K.S.S.S.c.c.S.c.p.c.S.S.H.H.K.:X9X,X,XwXrXQ.U.Q.Q.%X*X<XiXbXcXcXcXcXvXvXvXvXjXdXuXuXrX(.(.`.I.i.8.p.r.n $ t 2 t 4 5.D.B.z.] >.>.>.1.>.u.c.9XcXoX6X6X`.I.I.K.I.9X6X6X6X6X6X`.I.I.I.I.I.I.>XwX6X6X6X6X",
"6X6X6X6X6X6X6X,XQ.H.I.I.D.Q.`.6XrX9X6X9X9X6X6X6X6X6X6XrX`.H.Y.H.`.9X6X6X6X6X6X6X6X6X6X6X6X6X6X6XQ.D.I.I.K.>XrX6X6XwX>XD.I.K.I.D.`.rX6X6X6XoXrXj < t t t t t t t t t t t t t t 1 %.1.1.1.1.1.p.c.z.S.S.S.r.r.AXFXZXrX6X6X6X6X6X6X6X6X6X6X6X`.H.I.I.S.Q.6X6X6X6X6X6XwX>XI.K.I.H.Q.6X6XwX`.H.K.I.I.I.S.'.6X6X6X6X6X6X(.H.I.K.K.Y.9X9X6X6X6X6X6XI.I.I.D.I.I.Q.6X6X6X6X6X6X6X6X6X6X6X6X6X6X6X6X0X>XI.I.I.I.I.I.I.I.I.I.>X6X6X6X6X>XI.I.H.{.sXn - ^ S.c.z.S.S.S.S.z.z.S.S.B.c.S...r.ZX1XH.I.K.K.K.I.Y.I.K.|.6X6X6X6X6X6X6X6XrX`.D.I.I.I.I.I.Y.9X6X6X6X6X6X6X6X6X6X9XQ.K.I.I.I.I.).6X6X6X6X6X6X6X6X6X6X6X6X9X>XI.K.H.I.K.I.I.`.6X6X6X6X|.D.I.I.I.I.D.`.6X6X6X6X6X6XQ.I.I.Y.I.I.I.I.I.I.K.I.'.+X6X6XrX^ o t t 9 6 >.1.t.x.x.x.x.z.c.c.c.c.c.c.c.p.p.] Q.FXAXAXAXkXW.D.!.,XrX,X,X,X,X,X,X,X,X9X>XD.S.S.S.A.I.A.c.W.,X,X,X6X9X6X6X6XrX&XK.U.Y.Y.K.K./.W.:XrX4XrXsX8X*X-X<X<X1X9X9XrXrXrXdXyXbXbXbXbXZXZXZXAXVXBXBXkXcXdXrXrX:X$XN.m.M.=.=.#.#.+.D S ~ p.u.r.r.u.<.b $ $ # % 1 t t t t 4 5.D.S.t.>.>.>.1.1.>.p.c.9XcXoX6X6XQ.I.I.S.(.9X6X6X6X6X9XQ.I.I.I.I.K.(.9X6X6X6X6X6X",
"6X6X6X6X6X6X6X`.K.K.I.K.K.D.D.Q.*X6X6X9X9X6X6X6X6X6X6X9X|.K.Y.K.(.9X6X6X6X6X6X6X6X6X6X6X6X6X6X6XQ.D.I.I.K.>X9X6X6XwX>XD.I.K.I.K.`.9X6X6X6X6XrXj < t t t t t t t t t t t t t t < %.1.1.1.1.1.r.S.c.S.S.H.r.r.AXFXZXrX6X6X6X6X6X6X6X6X6X6X9X`.H.I.I.K.I.,XwX6X6X6X6XwX6XQ.K.I.K.Q.,X6XwX|.H.K.I.I.I.K.`.6X6X6X6X6X6XQ.H.I.K.K.Y.6X9X6X6X6X6X>XD.I.I.K.I.I.`.6X6X6X6X6X6X6X6X6X6X6X6X6X6X6X6X6X6X|.D.I.I.I.I.I.I.I.I.`.6X6X6X6X9X(.I.I.(.aXn - %.S.c.S.S.S.S.S.B.S.S.S.B.c.S.r.r.SXiXH.I.K.I.K.I.Y.K.K.|.6X6X6X6X6X6X6X6XrX(.D.I.I.I.I.H.Q.9X6X6X6X6X6X6X6X6X6X9XQ.I.I.I.I.I.`.wX6X6X6X6X6X6X6X6X6X6X6X9X`.I.K.K.I.K.K.I.>X6X6X6X6X`.D.I.I.I.I.D.|.6X6X6X6X6XG.S.I.Y.I.S.Q.).Q.I.I.I.K.(.oX6X6XrX^ o t t 9 s ,.1.>.i.S.x.x.z.c.c.c.c.c.S.c.c.c.X.9XFXAXAXAXKXVX>X!.1XdXrXrXrXrXwXwXrXrXdXdXrX}.}.>X>X1X9XrX1XdXdXjXcXkXvXvXvXBXBXIXBXSXAXAXAXAXKXLXLXLXPXPXHXHXHXHXAXSXSXBXMXkXfXaXaX#XN.M.=.&.#.T H ' y.i.i.r.| 6.m o - o O O O         O g _ >.] 1.u.&.a t u u u t t t t t t 4 6.D.S.e.1.>.>.1.1.1.g.z.wXcXoX6X6XI.I.I.S.`.9X6X6X6X6X>XD.I.I.I.I.I.>X9X6X6X6X6X6X",
"6X6X6X6X6X6X`.I.K.K.K.K.K.I.Q.I.I.(.6X6X6X9X6X6X6X6X6X6X XI.I.K.Q.9X6X6X6X6X6X6X6X6X6X6X6X6X6X6XG.S.I.I.D.>X9X6X6X6X>XK.K.K.I.K.Q.6X6X6X6X6XrXj < t t t t t t t t t t t t t t < $.1.1.1.1.1.r.S.c.S.S.H.r.{ BXFXZXrX6X6X6X6X6X6X6X6X6X6XwX>XK.I.I.K.H.|.wX6X6X6X6X6XwXQ.H.I.K.K.>X6XwX|.H.K.I.I.I.H.(.6X6X6X6X6X9XQ.H.K.K.K.Y.>X9X6X6X6X6X>XD.I.I.K.K.Q.5X6X6X6X6X6X6X6X6X6X6X6X6X6X6X6X6X6X6XrX`.I.I.I.I.I.I.I.I.Y.>X6X6X6X6X'.I.I.D.aXM - %.p.S.S.S.S.S.S.S.S.S.B.B.z.S.r.r.SXiXH.K.K.K.K.I.I.K.I.|.6X6X6X6X6X6X6X6XrXQ.K.I.I.I.I.H.(.9X6X6X6X6X6X6X6X6X6X>XI.I.I.I.I.D.>X6X6X6X6X6X6X6X6X6X6X6X6X6X(.I.K.K.I.K.K.(.6X6X6XwX>XQ.D.I.I.I.K.I.6X6X6X6X6X6XD.A.I.I.I.>XrX6X0X'.D.I.I.Q.oX6X6XsX/ o t t 9 s ,.3.>.>.r.c.c.z.c.c.c.c.c.S.c.S.c.c.BXAXAXAXAXAXAXAXAXAXAXAXAXZXZXZXZXZXAXZXAXFXFXFXFXFXKXFXLXUXLXLXPXLXPXPXPXKXKXHXSXSXBXIXgXfXiX$XM.M.*.&.:.n.H.p.r.r.| ] ] ` _ _ 6.L f % % $ 9 9 * H :.:.-.>.>.y.E e t 0 t t t l l l l c ~ y.1.>.1.3.-.3 < w e e w w t t t t t 4 6.D.S.r.1.>.>.1.1.1.S.z.wXcX X6X>XI.I.I.D.|.6X6X6X6X6X(.K.I.I.I.I.(.6X6X6X6X6X6X6X",
"6X6X6X6XwX>XK.K.K.K.K.I.I.I.K.I.I.D.`.9X6X9X6X6X6X6X6X6X6XQ.I.K.Q.9X6X6X6X6X6X6X6X6X6X6X6X6X6X6XQ.S.I.I.S.*X9X6X6X6X,XI.K.I.I.K.Q.6X6X6X6X6XrXj ; t t t t t t t t t t t t t t < ~ 1.1.1.1.1.1.c.c.c.c.H.e.1.BXFXZXrX6X6X6X6X6X6X6X6X6X6XwX>XI.I.I.I.I.`.6X6X6X6XwX6XwX`.S.I.I.K.`.9XwX XK.K.I.I.I.K.Q.6X6X6X6X6X9XQ.H.K.K.K.Y.>X9X6X6X6X9X>XD.I.I.K.D.`.9X6X6X6X6X6X6X6X6X6X6X6X6X6X6X6X6X6X9X6X6XQ.I.I.I.I.I.I.I.I.`.6X6X6X6X6XI.Y.D.iXV > %.p.S.S.S.S.S.S.S.S.S.B.z.z.S.t.r.SXaXH.K.K.K.K.I.I.K.I.|.6X,X6X6X6X6X6X6X9XQ.K.I.I.I.I.H.(.9X6X6X6X6X6X6X6X6X6X>XI.I.I.I.K.I.6X6X6X6X6X6X6X6X6X6X6X6X6X>XI.I.K.I.K.I.I.'.6X6X6XwX'.D.D.I.I.I.D.Q.6X6X6X6X6X9XQ.I.I.I.`.7XoX6X6X`.K.I.H.(.oX6X6XrX*.o t t 9 s ,.3.>.>.>.r.c.c.z.c.c.c.c.c.c.c.r.9XKXAXAXAXAXAXAXAXAXAXAXAXAXFXKXKXKXLXLXLXLXFXAXAXAXBXvXgXhX3XXX$XN.M.*.^ Q S b Y u.r.y.y.y.,.-.s f       B >.;.` ] ] 1.1.1.1.1.r.<.s e t t a e < $.u.,.,.,.,.2.,.s t t t t t t t t ; n :.r.1.1.>.1.-.t < t t e e w t t t t t t 4 6.C.p.1.1.1.1.1.>.r.S.z.wXcX,X9X>XK.I.I.D.>X6X6X6X6X8XI.K.I.I.K.K.>XwX6X6X6X6X6X6X",
"6X6X6X6XrX'.D.K.K.K.K.I.I.I.K.K.I.K.D.`.9X6X6X6X6X6X6X6XwX`.K.I.Q.9X6X6X6X6X6X6X6X6X6X6X6X6X6X6XI.S.I.I.S.`.9X6X6X6X6XQ.K.I.K.I.I.6X6X6X,X6XrXj ; t t t t t t t t t t t t t t ; Y e.1.1.1.1.>.p.S.c.c.H.t.1.kXFXZXrX6X6X6X6X6X6X6X6X6X6X6X9XI.I.I.I.S.(.6XwX6X6X6X6X6X>XD.K.I.K.Q.wXwX XI.K.I.I.I.I.Q.6X6X6X6X6X9XQ.H.K.K.K.I.>X9X6X6X6X9X`.D.I.I.K.K.`.0X6X6X6X6X6X6X6X6X6X6X6X6X6X6X6X6X6X6X6X6X|.G.I.I.I.I.I.I.I.Q.>X6X6X6X9X(.I.D.<XI & %.t.c.S.S.S.S.S.S.B.S.B.B.z.S.c.r.BXaXH.K.K.K.K.I.Y.K.I.|.6X,X6X6X6X6X6XwX6XI.I.I.I.I.I.I.(.9X6X6X6X6X6X6X6X6X6X`.I.I.I.I.K.Q.9X6X6X6X6X6X6X6X6X6X6X6X9X`.I.K.K.K.K.I.Q.5X6X6XwX6X).D.K.I.I.I.D.`.rX6X6X6X6X9X(.I.Y.Y.Y.5X6X9X'.I.I.H.D. X X6X6XsX5.o t t 9 s ,.3.>.>.>.>.r.c.c.c.c.c.c.c.S.r.Q.AXAXAXKXKXKXFXFXFXFXFXFXAXBXgXhX2X$XN.M.a.&.M.N.m.s.d.3.u.N   o o o o o o o # % P 1.>.>.>.>.d.T 1 t t 3 L d.y.u.2.r.r.1.1.1.1.>.8.c w t t t 1 * Q 8.1.3.3.3.1.y.S : t w w t t t w t P 6.6.>.>.>.2.$.a t t w t w e t t t t t t t 4 6.D.t.1.1.1.1.1.] r.S.z.wXcX,X9X`.D.I.K.I.>X6X6X6X6X>XK.I.I.I.K.`.9X6X6X6X6X6X6X6X",
"6X6X6X6X9X(.K.I.I.I.I.I.I.I.I.I.K.K.H.D.>X6X6X6X6X6X6X6XwX>XD.I.Q.6X6X6X6X6X6X6X6X6X6X6X6X6X6X6XI.S.K.I.S.`.9X6X6X6X9XQ.K.I.K.I.I.6XwX6X6X6XrXj ; t t t t t t t t t t t t t t ; Y e.1.1.1.1.>.y.S.c.S.S.p.1.kXFXZXrX6XwX6X6X6X6X6X6X6X6X6X9XQ.K.I.I.S.I.6XwX6X6X6X6X6X6XQ.K.I.K.I.,XwX6XI.K.I.I.I.I.D.6X6X6X6X6X9XQ.H.I.I.K.I.>X9X6X6X6X9X`.D.I.I.K.I.'.9X6X6X6X6X6X6X6X6X6X6X6X6X6X6X6X6X6X6X6XoX6X|.I.I.I.I.I.I.I.I.`.6X6X6X6X|.I.D.&XT > %.r.z.S.S.S.S.S.S.B.S.B.B.z.S.S.t.BXfXH.K.I.K.K.I.Y.K.I.,X6X,X6X6X6X6X6XwX,XI.I.I.I.I.I.I.(.9X6X6X6X6X6X6X6X6X6X(.K.I.I.I.D.`.9X6X6X6X6X6X6X6X6X6X6X9X9XI.Y.K.K.K.I.K.*X6X6X6XwX,XI.K.K.I.I.I.D.'.rX6X6X6X6X6X*XI.I.I.I.K.D.D.K.I.K.K.>X6X,X6X6XsX5.o t t 9 s ,.3.>.>.>.>.>.r.c.c.c.c.c.c.z.^.VXAXAXHXmX3X&XQ.Q.I.K.m.L n g h 6 @ o O     o / >.>.>.>.1.-.a t l l t t t t l t B ,.1.1.3.3.u.$.1 < w ; c <.,.3.1.1.1.1.1.1.1.1.y.Y < w t t t 1 R 8.] 1.1.1.1.1.$.3 ; t w w t t < a Y y.1.] 1.] r.~ 3 < t t t w t e t t t t t t t 4 6.D.r.>.1.1.1.1.] e.S.z.wXvX,X9XQ.K.I.H.Q.6X6X6X6X6X`.K.I.I.I.I.9X9X6X6X6X6X6X6X6X",
"6X6X6X6X`.D.I.K.I.I.I.I.I.I.I.I.K.K.I.S.Q.6X6X6X6X6X6X6XwX>XD.I.I.>X9X6X6X6X6X6X6X6X6X6X6X6X6X6XI.S.I.I.S.`.9X6X6X6X9XQ.H.I.K.I.K.,XwX6X6X6XrXk ; t t t t t t t t t t t t t t ; T e.1.1.1.1.>.r.S.S.S.S.S.1.fXFXZXrX,XrX6X6X6X6X6X6X6X6X6X9XQ.K.I.I.K.D.>XwX6X6X6XwX6X6X`.K.I.K.K.>XwX6XQ.K.I.I.I.I.D.6X6X6X6X6X6XQ.H.I.I.I.I.>X9X6X6X6X0X`.D.I.I.I.I.5X9X6X6X6X6X6X6X6X6X6X6X6X6X6X6X6X6X6X6X6X6X6X6X`.D.I.I.I.I.I.I.Q. X6X6X6X6XQ.D.%XE > %.r.z.S.S.S.S.S.B.B.S.S.B.z.z.S.t.BXgXH.K.I.K.K.I.I.K.I.,X6X6X6X6X6X6X6XwX,XI.I.I.I.I.I.I.(.6X6X6X6X6X6X6X6X6X6XQ.I.I.I.I.S.>X6X6X6X6X6X6X6X6X6X6X6XrX>XI.Y.I.H.K.Y.I.5X6X6X6X6X>XD.K.I.I.I.I.D.>XrX6X6X6X6X6X5X*XI.S.I.I.I.K.K.K.I.5X6X,X6X6X>XsX7.o t t 9 s ,.3.>.>.>.3.1.6.r.c.c.c.c.c.<XAXKXHXaXc.>.;.;.;.;.` >.A % X : 9 0 t t t t b y.u.e.r.1.1.r.F > t 2 2 t t w t u w E 3.;.1.3.u.>.b < u w < @.u.,.1.1.1.1.1.1.1.{ r.E < t t t 3 1 T e.>.1.1.1.1.>.>.c < t 2 < t < 1 A -.1.1.1.1.1.r./ t < t t t t t 3 e t t t t t t t 4 5.B.>.>.1.1.1.>.{ p.S.t.rXvX,X9XI.I.I.H.`.6X,X6X,X9X(.H.I.I.K.>X9X6X6X6X6X6X6X6X6X",
"6X,XrX}.D.I.K.K.I.I.I.I.I.I.K.K.I.I.I.K.D.|.6X6X6X6X6X6XwX,XD.I.D.>XrX6X6X6X6X6X6X6X6X6X6X6X6X6XQ.S.I.I.S.`.9X6X6X6XwX`.K.I.K.I.K.|.6X6X6X6XrXC ; t t t t t t t t t t t t t t ; P e.1.1.1.1.1.1.p.c.S.S.S.r.sXFXAXrX|.rX6X6X6X6X6X6X6X6X6X6X`.D.I.K.I.D.|.wX6X6X6XwX6X6X'.K.I.I.K.}.wX6X(.K.I.I.I.I.K.>X6X6X6X6X6XQ.H.I.I.I.I.`.9X6X6X6X0X`.K.I.K.I.(.9X6X6X6X6X6X6X6X6X6X6X6X6X6X6X6X6X6X6X6X6X6X6X6X6XI.I.I.I.I.I.I.I.`.6X6X6X6X(.D.Q.) & %.r.t.S.S.S.S.S.z.z.S.S.B.z.z.S.p.BXgXH.K.Y.K.K.I.I.K.I.,X6X6X6X6X6X6X6XwX,XI.I.I.I.I.I.A.(.9X6X6X6X6X6X6X6X6X,XY.K.I.I.I.I.>X6X6X6X6X6X6X6X6X6X6X6X9X`.K.Y.I.H.I.I.(.6X6X6X6X6XQ.D.K.I.I.I.I.D.>XwX6X6X6X6X6X6X6X>X(.K.H.H.K.I.Q.6XrX6X6X6X6X6XjXb.o t t 9 s ,.3.>.>.>.1.1.r.>.6.i.c.c.1XFXLXBXU._ >.1.3.u.u.1.u.W < l t t t 2 2 2 ; < E 1.1.1.>.] y.E ; t t t t t t t t < n ,.3.1.1.u.y.A w t t 9 W 3.3.3.1.1.1.1.1.1.>.2.-.t < t t t 2 Y r.>.1.1.1.1.1.3.R 1 3 3 2 2 < x W 1.1.1.1.1.1.e.W t < t t e t t t t 3 2 2 t t t t t 4 5.z.] >.1.1.1.>.r.S.S.t.rXvX,X>XK.I.K.H.}.6X,X6X6X6XI.I.I.K.Q.9X6X6X6X6X6X6X6X6X6X",
",XwX>XK.K.I.I.K.I.I.I.I.I.I.I.I.I.I.I.I.D.Q.6X6X6X6X6X6X6X6XQ.I.D.`.rX6X6X6X6X6X6X6X6X6X6X6X6X6XG.S.I.I.S.`.6X6X6X9X9X`.K.K.K.I.I.|.6X6X6X6XrXC < t t t t t t t t t t t t t t ; P e.1.1.1.1.1.>.p.S.S.S.H.e.iXFXAXrX).6X6X6X6X6X6X6X6X6X6X6X`.K.I.I.I.S.`.wXwX6XwXwX6X6X>XI.I.I.K.`.wX6X`.K.I.I.I.I.D.>X6X6X6X6X6XQ.H.I.I.I.K.`.6X6X6X6X0X`.D.I.K.I.'.9X6X6X6X6X6X6X6X6X6X6X6X6X6X6X6X6X6X6X6X6X6X6X6XwX|.S.I.I.I.I.I.I.(.6X6X6X6X'.D.Q.) & <.1.t.S.z.S.S.S.S.z.S.S.B.z.z.S.p.BXkXK.K.Y.K.K.I.I.K.I. X6X6X6X6X6X6X6XwX>XI.I.I.I.I.I.I.(.9X6X6X6X6X6X6X6X6X XI.I.I.I.I.Q.6X6X6X6X6X6X6X6X6X6X6X6X9XQ.I.I.K.K.I.I.*X9X6X6X6X6XI.K.K.I.I.I.I.D.5X6X6X6X6X6X6X6X6X0X6X,X>X`.>X6XrXrX6X6X6X9X1X>X9Xb.+ t t 9 s ,.3.1.1.1.1.1.1.>.6.' c.mXKXAX#X' >.>.1.1.1.1.1.y./ 1 t t ; g x 2 t t > P 1.>.1.1.>.1.>.t ; t t 2 t t t t i < R 3.1.1.1.y.R w t t < c y.3.1.1.1.1.1.1.1.1.2.:.c < t t t ; T y.>.1.1.1.1.1.1.>.x < 3 2 t - c -.3.1.1.1.1.1.r.S > < t w w e t t t 3 3 2 2 t t t t t 4 :.r.] >.1.1.1.>.r.S.S.t.rXvX6X`.K.I.K.K.|.wX,X,X9X>XH.I.I.K.>XwX6X6X6X6X6X6X6X6X6X",
"wX6XI.K.K.K.I.I.I.I.K.K.I.I.I.I.I.I.I.K.K.D.>X6X6X6X6X6X6X6XQ.K.D.Q.6X6X6X6X6X6X6X6X6X6X6X6X6X6XQ.D.I.I.S.`.6X6X6X6XrX&XK.K.K.I.I.}.6X6X6XoXrXC < t t t t t t t t t t t t t t ; S e.1.1.1.1.1.1.r.S.c.c.H.e.iXKXFXrX!.6X6X6X6X6X6X6X6X6X6X6X>XI.I.I.I.S.(.6XwX6X6XwX6X6X6XQ.K.I.S.Q.6X6X`.K.I.I.I.I.K.|.6X6X6X6X6XQ.H.I.I.I.K.`.6X6X6X6X0X`.D.I.K.I.>X6X6X6X6X6X6X6X6X6X6X6X6X6X6X6X6X6X6X6X6X6X6X6X6X6X6X(.I.I.I.I.I.I.Q.>X6X6X6X>XD.Y.E & <.{ X.S.B.S.S.S.B.z.S.S.B.z.z.S.c.IXMXK.K.Y.K.K.I.I.K.I.oXwX6X6X6X6X6X6XwX|.I.I.I.I.I.I.I.(.9X6X6X6X6X6X6X6X6X|.K.I.I.I.I.(.9X6X6X6X6X6X6X6X6X6X6X0X5XI.I.I.K.I.K.I.5X6X6X6X9X>XK.I.I.I.I.I.D.D.6X6X6X6X6X6X5X6X6X6X6X6X6X6X6X6X6X6X6X6X9X9X`.z.`.i.@ t t 9 s ,.3.1.1.1.1.1.>.6.' n.SXPXmXL L 8.>.1.1.1.1.1.u.-.5 t t > n :.x 2 3 < N ,.1.1.>.>.] 8.m ; t t 2 2 t t t t t n 3.3.1.1.u.-.a 9 t t t -.3.;.1.1.1.1.1.1.1.1.>.c < t t t - M 3.] 1.1.1.1.r.>.y.P ; t 2 < > M :.1.1.1.1.1.1.>.m - t t t w w t t t t 3 3 2 2 t t t t t 4 :.r.] >.>.1.1.>.p.S.c.t.rXvX,X(.K.I.K.I.,XwX,X6X9X(.H.I.I.(.6X6X6X6X6X6X6X6X6X6X6X",
"wXQ.D.I.K.I.I.I.I.I.D.D.I.I.I.I.I.K.I.I.I.D.`.6X6X6X6X6X6XwX`.K.D.S.>X6X6X6X6X6X6X6X6X6X6X6X6X6XQ.K.I.I.S.'.6X6X6X6XrX>XK.I.K.I.K.`.6X6X6X6XrXC < t t t t t t t t t t t t t t ; N e.>.1.1.1.1.1.r.B.c.c.H.e.8XKXFXdXQ.9X6X6X6X6X6X6X6X6X6X6X,XI.K.I.I.I.Q.6XwX6X6X6X6X6X6X(.K.Y.K.Q.6XwX}.K.I.I.I.I.D.'.6X6X6X6X6XQ.H.I.I.I.K.).6X6X6X6X0X`.K.K.K.Q.6X6X6X6X6X6X6X6X6X6X6X6X6X6X6X6X6X6X6X6X6X6X6X6X6X6X6X>XI.I.I.I.I.I.I.|.6X6X6X6XI.Y.E = <.{ ..S.S.S.S.S.S.S.S.B.B.z.S.S.c.cXBXK.I.I.K.K.I.I.K.I.6XwX,X6X6X6X6X6XwX|.I.I.I.I.I.I.H.(.9X6X6X6X6X6X6X,X6X`.H.I.Y.I.I.(.9X6X6X6X6X6X6X6X6X6X6X0X>XH.I.I.K.Y.K.(.9X6X6X6XrX`.D.I.I.I.I.I.K.I.9X6X6X6X6X6X6X6X6X6X6X6X6X6X6X6X6X6X6X6X>XQ.D.z.Q.i.@ 2 t 9 s ,.1.1.1.1.>.1.>._ U.JXPXv.& B 0.>.1.1.1.1.1.3.} 5 t t ; N y.L > t < c 8.1.1.>.1.1.r.S ; t 2 t 2 t 2 t t t < +.1.1.1.3.3.M ; t t < T u.1.1.1.1.1.1.1.1.1.>.x < t t t ; n 2.>.>.1.1.>.1.>.3.$.t t t < < P 1.2.1.1.1.1.1.&.c ; t t t w w w w t t t 2 2 2 2 t t t t t 1 :.6.>.1.>.>.>.1.c.S.S.z.rXvX6XQ.I.I.H.I.6XwX6XwX9XI.K.I.I.>X6X6X6X6X6X6X6X6X6X6X6X",
"`.D.I.I.I.I.I.I.I.(.6X6X`.I.I.I.I.I.I.I.I.I.(.6X6X6X6X6X6XwX`.I.K.K.(.6X6X6X6X6X6X6X6X6X6X6X6X6XQ.K.I.I.I.>X9X6X6X6XwX>XK.K.K.K.K.`.rX6X6XoXrXC < t t t t t t t t t t t t t t ; c p.>.1.1.1.1.1.1.z.S.z.S.p.<XFXFXkXW.9X9X6X6X6X6X6X6X9X6X6X6XQ.K.K.I.I.I.6XrX6X6X6X6X6X6X`.K.I.K.I.6XwX|.K.I.I.I.I.I.`.9X6X6X6X6X(.H.I.I.I.I.Q.6X6X6X6X9X`.K.K.K.(.6X6X6X6X6X6X6X6X6X6X6X6X6X6X6X6X6X6X6X6X6X6X6X6X6XoX6X6X`.I.I.I.I.I.I.I.6XwX6X6X`.Y.) = <.{ r.z.B.B.B.B.B.B.B.B.B.z.c.S.p.gXBXK.I.Y.K.K.I.I.K.I.6XwX,X6X6X6X6X6XwX|.I.I.I.I.I.I.H.(.9X6X6X6X6X6X6X,X6X`.H.Y.I.Y.H.*XrX6X6X6X6X6X6X6X6X6X6X9X`.H.Y.I.K.Y.K.*X9X6X6X6X9XQ.D.I.I.I.I.I.K.`.9X6X6X6X6X6X9X9X9X9X6X6X6X6X6X6X6X6X6X5XQ.K.K.D.Q.5.> 2 t ; 6 8.r.1.1.1.1.8.' }.GX3XP % N y.1.>.1.u.1.>.3.-.x < ; ; W y.-.; t t x >.y.1.1.1.1.1.P 3 t t 2 2 t t t t t 9 N ,.;.1.1.r.V 1 < t 9 B ,.3.3.1.1.1.1.1.1.1.~ n < t t t w c 8.>.>.>.>.>.>.>.1.:.5 < t ; t R 3.1.1.1.1.1.2.R a w t t t t w t t w w t t t t t t t t t t t 4 R r.>.1.1.1.>.r.c.S.S.z.rXvX>XI.I.I.S.`.9XwX6XrX`.K.I.I.`.9X9X6X6X6X6X6X6X6X6X6X6X",
"D.I.K.K.I.I.I.I.`.6X6XrX6XD.I.K.I.I.I.I.I.I.D.>X6X6X6X6X6XwX|.I.K.I.I.>X6X6X6X6X6X6X6X6X6X6X6X6XQ.I.I.I.I.>X9X6X6X6XwX>XK.K.K.K.K.!.9X6X6XoXrXC < t t t t t t t t t t t t t t < c p.>.1.1.1.1.1.1.t.S.z.S.p.1XFXDXvXW.1X9X6X6X6X6X6X9X9X,X,X6X(.K.K.I.I.K.>XrX6X6X6X6X6X6X|.K.I.I.K.|.wX XK.K.I.I.I.I.(.9X6X6X6X6X(.H.I.I.I.K.Q.>X6X6X6X9X(.D.K.K.(.6X6X,X6X6X6X6X6X6X6X6X6X6X6X6X6X6X6X6X6X6X6X6X6X6X6X6X6X9XQ.I.I.I.I.I.H.'.eX6X6X5XQ./ = <.{ >.t.S.B.B.B.B.B.B.B.B.z.S.S.p.gXVXK.I.I.K.I.I.I.K.K.6XwX6X6X6X6X6X6XwX|.I.I.I.I.I.I.H.(.9X6X6X6X6X6X6X X9X(.H.Y.I.I.H.>XrX6X6X6X6X6X6X6X6X6X6X9XQ.H.Y.K.I.Y.I.>X9X6X6X6X9XI.K.I.I.I.I.I.K.`.9X6X9X9X6X6X6X6X9X9X6X6X6X6X6X6X6X6X<XQ.I.K.K.D.Q.5.> 2 t ; g y.u.1.>.,.>.[ kXKXa.+ O A 8.1.1.1.1.1.;.3.$.a t t < R y.8.N w t 3 &.1.>.1.1.1.8.T 3 t t t 2 t t t t t t a <.1.>.1.y.E 3 2 2 2 1 &.3.1.1.1.1.1.1.1.u.T 5 < t t t < s :.r.>.>.>.1.1.>.y.>.c < < > c <.y.1.1.2.2.2.3.Y 5 < t t t t t t t t t t t t t t t t t t t t t 4 R r.1.1.1.1.>.p.S.S.S.S.rXVX).I.I.I.K.|.wX6XrX>XI.I.I.(.9X6X9X6X6X6X6X6X6X6X6X6X9X",
"I.I.K.I.I.I.I.*X0X6X6X6XrX`.H.Y.I.I.I.I.I.I.D.`.6X6X6X6X6XwX>XQ.K.I.H.Q.6X6X6X6X6X6X6X6X6X6X6X6XQ.I.I.I.I.>X9X6X6X6X6X>XK.K.K.K.K.Q.9X6X6XoXaXC ; t t t t t t t t t t t t t t < 6 p.r.1.1.1.1.1.1.r.S.z.S.p.>XFXDXBXK.<X9X,X6X6X6X6X6X9X6X,X6X`.K.K.I.I.H.(.rX6X6X6X6X6X6X|.K.K.I.K.`.wX XI.K.I.I.I.I.(.9X6X6X6X6X(.H.I.I.I.I.I.>X9X6X6X9XQ.D.K.K.`.9X,X,X6X6X6X6X6X6X6X6X6X6X6X6X6X6X6X6X6X6X6X6X6X6X6X6X6XrX'.D.I.I.I.I.H.Q.6X6X6X6X`.^ = <.{ >.t.S.B.B.B.B.B.B.B.B.z.c.S.p.gXAXQ.I.I.K.I.I.I.H.K.,XwX6X6X6X6X6X6XwX|.I.I.I.I.I.I.H.(.9X6X6X6X6X6X6X,X9X(.H.Y.I.I.I.>XrX6X6X6X6X6X6X6X6X6X6X9XI.K.Y.K.K.K.Y.9X9X6X6XwX>XD.I.I.I.I.I.I.K.`.9X6X9X9X6X6X6X6X9X6X6X6X6X6X6X6X9X>XQ.K.Y.K.K.K.Q.5.> 2 t ; g i.p.r.>._ n.AX>Xc % w A 8.>.1.1.1.1.1.y./ 3 0 < t &.y.y.Y < t < Y r.>.1.1.>.>.Y 2 t t 2 t t t t t t t 2 R y.1.;.y.-.5 ; < 2 < W y.1.1.3.1.1.y.y.>.W 1 < t t t t a %.d.6.y.y.y.8.8.8.8.c ; t 2 S <.>.;.-.-.-.f._ H < t t t t t t t t t t t t t t t t t t t t t t t 1 @.y.1.1.3.1.1.p.z.S.S.g.yXvXQ.D.I.H.I.,X6XwXrXQ.K.I.I.5X9X6X6X6X6X6X6X6X6X6X6X,XQ.",
"I.K.K.K.S.Q.5X6X6X6X6X6X6X6XY.I.I.I.I.I.I.I.I.Q.6X6X6X6X6XwX6XQ.K.I.I.I.>X9X6X6X6X6X6X6X6X6X6X6XQ.I.I.I.I.>X9X6X6X6X6X>XK.K.K.K.K.Q.9X6X6XoXaXC ; t t t t t t t t t t t t t t w 5 r.u.1.1.1.1.1.1.r.S.B.S.p.>XFXFXSXK.&XrX1X6X6X6X6X9X9X6X,X6X:XK.K.I.I.H.Y.6X6X6X6X6X6X6X XQ.K.I.H.).wX+XQ.K.I.I.I.I.Q.6X6X6X6XwX).K.I.I.I.D.D.*X9X6X6X9XQ.D.K.D.`.rX,X,X6X6X6X6X6X6X6X6X6X6X6X6X6X6X6X6X6X6X6X6X6X6X6X6X6X6X5XI.I.I.I.I.I.D.>X6X6X7X>X .= <.1.;.r.S.B.B.B.B.B.B.B.B.B.c.S.p.hXAXQ.I.Y.I.I.I.I.K.K.>XwX6X6X6X6X6X6XwX|.I.I.I.I.I.I.I.Q.9X6X6X6X6X6X6X6X9XQ.H.Y.I.I.I.>X9X6X6X6X6X6X6X6X6X6X6X5XI.K.K.K.K.H.Q.9X9X6X6XrX>XD.I.I.I.I.I.I.D.'.9X6X9X6X6X6X6X6X6X6X6X6X9X6X9X9X>X(.I.Y.K.I.K.K.Q.5.> t 3 ; g c.S.c.] (.jX&.% $ e N 8.>.>.1.1.>.e.u.R < t t t &.>.y.<.3 0 ; L y.>.>.1.>.1.#.2 t t t t t 2 t t t t < Y u.e.u.2.:.s 2 t < ; x y.u.u.2.u.1.>.;.R a < t t t t t 3 A Y T T P P A A M F b < t < 2 x t t t t t t w w w t t t t t t t t t t t t t t t t t t t t t t t t 1 @.r.1.1.1.>.r.c.z.S.g.t.hXkXD.H.I.S.Q.6X6X9X>XK.I.I.).9X6X6X6X6X6X6X6X6X6XwX,XQ.K.",
"K.K.K.K.I.5X0X6X6X6X6X6X6X6X|.I.I.I.I.I.I.I.I.D.|.6X6X6X6X6X6XQ.K.I.I.I.Q.6X6X6X6X6X6X6X6X6X6X6XQ.I.I.I.I.>X9X6X6X6X6X5XI.K.K.K.K.Q.9X6X6XoXaXL ; t t t t t t t t t t t t t t w 4 r.g.1.1.1.1.1.1.1.z.B.S.p.>XFXDXAXK.&XrX1X6X6X6X6X9X9X6X,X,X>XK.K.I.I.H.I.6X6X6X6X6X6X6XoX(.H.I.H.Q.6XwX(.K.I.I.I.I.Y.6X6X6X6XwX).K.I.I.I.D.D.'.0X6X6X9XQ.D.K.D.`.rX,X,X6X6X6X6X6X6X6X6X6X6X6X6X6X6X6X6X6X6X6X6X6X6X6X6X6X6X9X).I.I.I.I.I.K.`.9X6X7X0X| = :.r.;.r.S.B.B.B.B.B.B.B.B.B.S.S.p.aXAXQ.I.Y.I.I.I.I.K.H.>X6X6X6X6X6X6X6XwX|.I.I.I.I.I.I.I.Q.9X6X6X6X6X6X6X6X9XI.H.Y.I.I.Q.6X6X6X6X6X6X6X6X6X6X6X6X>XK.K.K.K.I.H.&X9X6X6X6XrX`.D.I.K.I.K.K.I.D.>X9X6X6X6X6X6X6X6X6X6X6X6X9X9X6X6XQ.K.Y.K.I.K.K.K.Q.5.> t 3 ; g m.c.t.8X$Xa O t w c <.>.>.>.>.1.2.,.S 1 t < a ;.3.>.3.F ; t B y.1.1.1.e.y.T < t t t t t t 2 t t t t n &.~ $.Y +.n < t 3 t t b M n n n n b a t 1 < t t 2 2 t t t < < < < < < < < < < < t t t 2 2 < < < w w t t t t t t t t t t t t t t t t t t t t t t t t t t t t 1 @.r.1.1.1.>.r.S.z.S.S.t.dXgXS.I.K.K.`.6X,X>XI.K.I.I.5X6X6X6X6X6X6X6X6X6X9X6X(.D.K.",
"K.I.K.Q.5X9X6X6X6X6X6X6X6X6X6X'.I.I.I.I.I.I.I.D.`.6X6X6X6X6X9X`.I.I.I.I.I.`.6X6X6X6X6X6X6X6X6X6XQ.I.I.I.I.>X9X6X6X6X6X6XI.K.K.K.K.Q.9X6X6XoXaXL < t t t t t t t t t t t t t t t 4 7.g.1.1.1.1.1.1.1.t.S.S.p.&XFXDXAXK.Q.rXrX6X6X6X6X6X9X6X,X,X,XQ.K.I.I.K.K.>XrX6X6X6X6X6XoX'.K.I.K.D.6XwX`.K.I.I.I.I.I.>X6X6X6XwX`.H.I.I.I.D.D.`.9X6X6X9XQ.D.K.D.`.rX,X,X6X6X6X6X6X6X6X6X6X6X6X6X6X6X6X6X6X6X6X6X6X6X6X6X6X6X6X>XI.I.I.I.I.I.Q.6X6X6XsXr.+ <...;.1.p.B.B.B.B.B.B.B.B.B.S.S.c.aXAX^.I.I.I.I.I.I.K.H.>X9X6X6X6X6X6X6XwX|.I.I.I.I.I.I.I.I.6X6X6X6X6X6X,X6X9XI.H.Y.I.I.Q.9X6X6X6X6X6X6X6X6X6X6X9X'.K.I.K.I.I.K.>X6XwXwX6XrXQ.D.I.K.I.I.I.I.H.>X9X9X6X6X6X6X6X6X6X9X6X6X9X9X6X`.Q.I.H.I.I.I.K.K.Q.5.< w 3 ; g n.Q.&X~ O w l 1 B ,.y.u.1.1.>.8.:.B 1 t w n %.d.8.8.R w t l &.$.R ~ ~ R L t t t t t t t t t t t t t t 3 1 1 3 1 t t t 2 t t < < < w w t t t t t t t t t t t t t t t t t t t t t t t t t t t t t t t t t t t w w w t t t t t t t t t t t t t t t t t t t t t t t t 1 E r.1.1.1.1.p.S.S.S.S.t.dXsXS.I.H.D.|.6X6X`.S.I.I.'.9X6X6X6X6X6X6X6X6X9X>XI.D.I.I.",
"I.K.Q.>X6X6X6X6X6X6X6X6X6X6X6X9X'.I.I.I.I.I.I.I.I.,X6X6X6X6XrX>XI.I.I.I.I.Q.>X6X6X6X6X6X6X6X6X6XQ.I.I.I.I.>X9X6X6X6X6X6XQ.K.K.K.K.Q.6X6X6XoXaXL < t t t t t t t t t t t t t t t 4 5.I.1.1.1.1.1.1.1.t.S.S.p.`.FXFXAXQ.H.1XrX,X6X6X6X6X9X6X,X,X,XQ.K.I.I.I.K.`.9X6X6X6X6X6XoX|.K.I.I.D.,XwX'.K.I.I.I.I.Y.>X9X6X6XwX`.H.I.I.I.D.D.Q.9X6X6X0XQ.D.K.D.`.rX,X,X6X6X6X6X6X6X6X6X6X6X9X6X,X6X6X6X6X6X6X6X6X6X6X6X6X6X6X6X(.I.I.I.I.I.D.'.6X6XsXx.& <.{ ;.>.p.B.B.B.B.B.B.B.B.B.S.S.c.aXFX>XI.I.I.I.I.I.K.H.>X9X6X6X6X6X6X6XwX|.I.I.I.I.I.I.I.D.>X9X6X6X6X6X,X6X9XI.H.Y.I.I.Q.9X6X6X6X6X6X6X6X6X6X6X9X'.D.I.K.I.I.D.>XwXwX6X6XrX).D.I.K.I.I.I.I.I.5X9X6X6X6X6X6X6X6X6X9X6X9X6X9X>XI.Y.K.K.K.Q.>X`.K.Q.8.< w 3 ; g n.r.5 o t a < n >.>.` ` _ / ~ P t < t w t n N c g x 2 ; < 2 t t 2 < t ; < 2 t t 2 t t t t t t t t t t 3 t t t t t t t t t e t t t t t t t t t t t t t t t t t t t t t t t t t t t t t t t t t t t t t t t t w t w w w t t t t t t t t t t t t t t t t t t t t t t 1 E y.1.1.>.r.c.S.S.S.S.t.aXdXS.I.S.I.,X6XrXQ.H.I.Q.6X6X6X6X6X6X6X6XwX9X>XI.I.I.I.I.",
"I.(.>X6X6X6X6X6X6X6X6X6X6X6XoX6X6X`.K.I.I.I.I.I.K.`.6X6X6X6X6X>XQ.K.I.I.I.D.`.6X6X6X6X6X6X6X6X6XQ.I.I.I.I.>X6XwX6X6X6X6XQ.K.K.K.K.I.,X6X6XoXaXL < t t t t t t t t t t t t t t t > ^ A.e.{ 1.1.1.1.1.r.S.S.p.`.FXDXFX^.H.,XrX6X6X6X6X6X9X6X,X,X6X`.K.I.I.I.I.(.9X6X6X6X6X6X6X,XI.I.I.D.>XwX>XI.I.Y.I.I.I.>X9X6X6X6X`.H.I.I.I.I.D.Q.6X6X6X9XQ.D.K.D.`.rX,X,X6X6X6X6X6X6X6X6X6X9X>X6X6X9X9X9X6X6X6X6X6X6X6X6X6X6X6X9X'.I.I.I.I.I.I.Q.6X6XsXW.& <...>.>.e.S.S.B.B.B.B.B.B.B.B.S.p.aXKXaXY.I.I.I.I.I.K.H.|.9X6X6X6X6X6X6XwX|.I.I.I.I.I.I.I.D.>X6X6X6X6X6X X6X6XI.U.Y.I.I.Q.9X6X6X6X6X6X6X6X6X6X6X9X`.D.I.K.I.K.I.6XwXwX6X6XrX(.D.I.I.I.I.I.I.Q.6X6X6X6X6X6X6X6X6X9X9X6X6XwXrX(.I.I.H.K.I.6X9X>XK.Q.0.1 w 2 < x F - ; l 3 3 2 t b t t t t t t 2 w t t t t t < < 2 2 t t t t 2 t t t t t t t t t t t t t t t t t t t t t t t t t t t t t t t t t t t t t t t t t t t t t t t t t t t t t t t t t t t t t t t t t t t t t t t t t t t t t t t t t t t 9 ; ; ; w t t t t t t t t t t 1 R 3.1.1.1.t.S.c.S.S.S.t.aXsXS.I.S.`.6XwX>XK.K.I.'.6X6X6X6X6X6X6X6X6X`.I.I.I.I.I.I.",
"Q.>X6X6X6X6X6X6X6X6X6X6X6X6X6X6X6X6XQ.K.I.I.I.I.K.Q.6X6X6X6X6X6XQ.D.I.I.I.D.Q.>X6X6X6X6X6X6X6X6XQ.I.I.I.I.>XwXwX6X6X6X9XQ.K.K.K.K.I.>X6X6XoXaXL < t t t t t t t t t t t t t t t > ^ D.t.{ 1.1.1.1.1.r.S.S.p.^.FXDXFX&XH.:XrX,X6X9X9X6X9X6X,X,X9X&XK.K.I.I.I.I.6X9X6X6X6X6X6X6XQ.K.I.S.`.wX,XI.I.I.I.I.I.'.9X6X6X6X`.H.I.I.I.I.I.I.6X6X6X9XQ.D.K.D.`.9X,X,X6X6X6X6X6X6X6X6X6X9XI.|.rXrXrX9X6X6X6X6X6X6X6X6X6X6X6X6X6XI.I.I.I.I.I.I.|.6XrX^.= :...1.;.r.S.S.B.B.B.B.B.B.B.B.S.p.aXFXsX`.I.I.I.I.I.K.H.'.9X6X6X6X6X6X6XwX|.I.I.I.I.I.I.I.D.>X9X6X6X6X6X X6X6XK.Y.Y.I.I.(.9X6X6X6X6X6X6X6X6X6X6X9X`.D.K.K.I.K.Q.6XwXwX6X6XrX(.D.I.I.I.I.I.I.(.6X6X6X6X6X6X6X6X6X9X6X6XwXrX>XH.I.I.K.K.,XrX9X9XQ.Q.d.1 w 2 < < > t 2 < 2 2 2 2 < t t t t t t t w w w w w 9 9 ; ; ; ; ; ; - - - - # O O O o o # > > > > > > > > > 4 1 > & > @ > @ > > > > > @ > > > @ > > @ > > @ @ + + + + + + > > > > > > > > & > # o o # > > > > > > > & + + + + + > > > < 3 5 6 6 g g j n < t t t t t t t t t 1 R 3.1.1.r.p.S.S.S.S.S.t.aXfXS.I.I.6XwX6XQ.K.K.(.6X6X6X6X6X6X6X6X6X`.D.I.I.I.I.I.I.",
"|.6X6X6X6X6X6X6X6X6X6X6X6X6X6X6XoX6X>XI.I.I.I.I.I.I.>X9X6X6X6X6X`.D.I.I.I.I.D.`.6X6X6X6X6X6X6X6XQ.I.I.I.I.>XwXwX6X6X6X9XQ.D.K.K.K.I.>X9X6XoXaXL < t t t t t t t t t t t t t t t > Q D.B.{ 1.1.1.1.1.1.p.H.p.Q.AXDXFX:XH.`.9X6X,X6X6X6X6X6X,X,X9X>XK.K.I.I.I.D.>X9X6X6X6X6X,X6XQ.K.I.H.`.wX6XQ.I.I.I.I.I.`.9X6X6XwX`.H.I.I.I.I.I.I.5X6X6X6XQ.K.K.K.(.6X,X,X6X6X6X6X6X6X6X6X9X>XD.Q.rX9X9X6X6X6X6X6X6X6X6X6X6X6X6X6X6X'.I.I.I.I.I.H.(.7X0X}.4 :...>.;.1.c.S.B.B.B.B.B.B.B.z.S.p.aXFXrX>XI.I.I.I.I.I.H.'.6X6X6X6X6X6X6XwX|.I.I.I.I.I.I.I.D.>X9X6X6X6X6X,X6X>XI.Y.Y.I.I.(.9X6X6X6X6X6X6X6X6X6X6X9X`.D.K.K.I.H.Q.6XwXwX6X6XrX(.D.I.I.I.I.I.I.*X6X6X6X9X6X9X9X6X9X9X6X6XwX9XI.I.I.H.I.>XrXwX9XiX&XQ.d.1 t 3 3 2 2 3 < 3 3 3 2 < t < < < < < < < 3 5 5 x c M S S S S I T Q Q &.&.&.a.M.M.m.m.m.a.8.a.a.0.0.0.0.a.a.0.m.#X#X#X#X#X#X#X#X#X#X#X#X#X#X#X#X#X#X#X#X#X#X#X#XN.N.m.m.m.8.a.a.a.a.a.a.8.a.m.N.N.m.N.N.a.8.8.8.8.0.N.#X#X#X#X#X#Xm.a.m.d.%X-X:X>X,X,X$X5 w t t t t t t t t 1 R 3.1.1.e.S.S.B.S.S.z.X.sXfXS.D.`.rX6X>XK.K.K.'.6X6X6X6X6X6X6X6X(.D.I.I.I.I.I.I.I.",
"6X6X6X6X6X6X6X6X6X6X6X6X6X6X6X6XoXoX6X|.I.I.I.I.I.K.(.9X6X6X6X6X}.Q.I.I.I.I.I.Q.>X6X6X6X6X6X6X6XQ.I.I.I.K.>X6X6X6X6X6X0X(.D.K.K.K.D.>X9X6X6XaXL < t t t t t t t t t t t t t t t # I D.S.{ 3.1.1.1.1.1.t.H.p.Q.AXDXFX>XH.(.9X6X6X6X6X9X6X6X6X,X9X>XI.K.I.I.I.D.>X9X6X6X6X6X6X6X`.K.I.K.Q.oX6XQ.I.I.I.I.I.(.9X6X6XwX`.H.I.I.I.I.I.D.5X6X6X6XQ.K.I.D.(.6X,X6X6X6X6X6X6X6X6X9X9X>XD.S.>X9X,X6X6X6X6X6X6X6X6X6X6X6X6X6X6X5XI.I.I.I.I.I.D.5X0X|.1 :.{ >.>.1.t.S.B.B.B.B.B.B.B.z.S.p.aXFXrX1XQ.I.I.I.I.I.H.`.6X6X6X6X6X6X6XwX|.I.I.I.I.I.I.I.D.>X9X6X6X6X6X6XwX>XK.Y.I.I.I.(.9X6X6X6X6X6X6X6X6X6X6X9X(.D.K.K.I.H.Q.wXwXwX6X6XrX(.S.I.I.I.I.I.I.>X6X6X6X9X9X9X9X6X9X9X6X6X9X`.I.I.H.I.`.wX6X6X9X9X>XK.0.1 t t t t 3 3 3 3 3 2 t t < 1 Y -.>.y.y.n.`.>X,X6X6X7XzX{.(.T.(.(.(.(.T.T.].0XuXrXrXrXwX|.Q.I.T.T.T.T.T.T.T.T.5X0X0X0XeXwXeXwXwXeXeXwXwXwXwXwXwXeXeXeXeXwXwXwXwXeXeXrXrX5XG.(.(.T.T.I.T.T.I.{.zXrXwXrXwXXX(.].].T.(.5XeXeXwXeX7XzX{.T.T.A.(.0X7X7X+X@X,Xh w t t t t t t t t 1 R 3.1.1.u.H.S.B.S.c.D...sXgXS.D.>XrX,XQ.K.I.Q.6X6X6X6X6X6X6X5X(.I.I.I.I.I.I.I.I.>X",
"6X6X6X6XrX6X|.|.6X0X6X6X6X6X6X6X6X6XoX6X`.D.K.I.I.I.K.`.9XwX6X6X6XG.D.I.I.I.I.I.(.6X6X6X6X6X6X6XQ.I.I.I.K.>X9X6X6X6X6X0XQ.D.K.K.K.D.>X9X6XoXaXL - t t t t t t t t t t t t t 2 t # I D.S.e.1.1.1.1.1.1.e.H.S.K.AXDXFX<XH.Q.9X6X,X6X6X6X6X6X6X6X9X9XI.K.I.I.I.D.`.9X6X6X6X6X6X6X|.I.I.K.Q. X6X).I.I.I.I.I.(.6X6X6XwX|.I.I.I.I.I.I.S.>XwX6X6X(.S.I.K.(.6X6X6X6X6X6X6X6X6X6X9X9X*XI.I.Q.9X,X6X6X6X6X6X6X6X6X6X6X6X6X6X6X6XI.I.I.I.I.I.D.>X0X|.5 <.2.>.>.>.e.c.S.B.B.B.B.B.B.z.S.p.aXFXrX9X&XS.I.I.I.I.K.).6X6X6X6X6X6X6X6X,XI.I.I.I.I.I.I.K.>X9X6X6X6X6X6XwX>XH.I.Y.Y.I.(.9X6X6X6X6X6X6X6X6X6X6X9X`.D.D.K.I.K.Q.9X6XwX6X6XrX`.S.I.I.I.I.I.I.9X6X6X6X9X6X9X6X6X6X6X6XrX>XK.Y.K.D.`.6X6X6X6X6X9X9X`.b.1 t t t t t t t w t t t e e R P.Y.Y.Q.Y.Q.6XrX6X9X6X9X9X>XK.K.I.I.I.I.I.I.(.6X6X,X6X6X6X(.I.I.I.K.K.K.K.H.H.H.>X6X6X6X6X6X6X6X6X6X6X6X6X6X6X6X6X6X6X6X6X6X6X6X6X6X6X6X6X,XQ.K.I.K.K.K.H.I.H.K.'.6X|.6X6X|.Q.I.I.I.I.I.>X6X X6X6X6X>XQ.K.K.H.*X6XoX6X6X:Xh w t t t t t t t t 1 R r.] r.g.S.S.c.S.c.p.1.hXkXB.`.rX9X>XD.I.I.>XrX6X6X6XoX6X6XQ.I.Y.I.I.I.I.I.I.>X6X",
"6X6X6X9X>XI.D.D.I.'.9X0X9X6X6X6X6X6X6X6X6X).D.I.I.I.H.K.>XrX6X6XrXQ.S.I.I.I.I.I.S.>XwX6X6X6X6X6XQ.I.I.I.K.>X9X6X6X6X6X0X(.K.K.K.K.D.>X9X6XoXaXL ; t 2 t t t t t t t t t t t t t - S D.S.p.1.1.1.1.1.1.r.H.S.K.AXFXFX1XH.I.>XrX,X6X6X6X6X6X6X6X9X9XQ.D.I.I.I.K.(.9X6X6X6X6X6X6X>XI.I.I.I.|.wX).K.I.I.I.I.Q.,X6X6X6X>XI.I.I.I.I.I.D.'.wX6X6X(.S.I.H.(.6X6X6X6X6X6X6X6X6X6X6X9X*XI.I.I.<X9X6X6X6X6X6X6X6X6X6X6X6X6X6X6X6X(.I.I.I.I.I.K.`.9X|.c <.2.>.1.>.r.p.S.B.B.B.B.B.B.z.S.p.1XFXrX9X>XI.H.I.I.I.K.).6X6X6X6X6X6X6X6X6XY.I.I.I.I.I.I.K.`.9X6X6X6X6X6XwX>XK.K.Y.Y.I.(.9X6X6X6X6X6X6X6X6X6X6X9X`.D.D.K.I.K.Q.9XwX6X6X6X9X|.S.I.I.I.I.I.(.9X6X6X6X6X6X9X6X6X6X6X6X9XQ.K.I.K.D.5X6X6X6X6X6X6X6X9XW.1 t t t t t t t t t t w 1 @.8.j.I.K.K.K.I.,X6X6X6X6X6X9X>XD.K.I.I.I.I.I.H.'.rX6X6X6X6X6X(.I.I.I.I.I.I.I.I.I.K.>X6X6X6X6X6X6X6X6X6X6X6X6X6X6X6X6X6X6X6X6X6X6X6X6X6X6X6X6X6X>XI.I.I.K.I.I.I.P.K.`.9X6X6X6XrX`.D.I.I.I.I.'.6X6X6X6X6XrX`.H.K.I.I.5X6X6X6X2Xj 9 t t t t w w t t 1 R r.] e.S.c.c.c.S.c.y.;.dXkXD.|.6X9X`.S.I.(.9X9X6X6X6XwX6XQ.K.Y.I.I.I.I.I.K.>X6X6X",
"6X6XrX`.D.H.I.I.H.S.I.`.6XrX6X6X6X6X6X6X6X6X).I.I.K.K.H.Q.6X6X6XwX`.D.I.I.I.I.I.I.(.rX6X6X6X6X6XQ.I.I.I.D.>X9X6X6X6X6XrX(.D.K.K.K.D.>X9X6XoXaXL ; t 2 t t t t t t t t t t t t t > F D.S.g.1.>.1.1.1.1.r.S.S.D.AXFXFX1XH.I.&XrX,X6X6X6X6X6X6XwX9X9X(.D.I.I.I.K.I.6X6X6X6X6X6X6X6XQ.K.Y.I.|.eX`.I.I.I.I.I.I.>X6X6X6X>XI.I.I.I.I.I.H.`.6X6X9X(.S.I.I.(.6X6X6X6X6X6X6X6X6X6X6X9X`.I.I.K.&XrX6X6X6X6X6X6X6X6X6X6X6X6X6X6X6X'.D.I.I.I.I.I.I.9X|.c :.2.>.1.>.1.r.S.B.B.B.B.B.B.B.S.p.1XFXyX6XrX).S.I.I.Y.I.).6X6X6X6X6X6X6X6X6XQ.I.I.I.I.I.I.K.`.9X6X6X6X6X6X6X6XK.K.I.Y.I.(.9X6X6X6X6X6X6X6X6X6X6X9X`.D.D.K.K.K.Q.9XwXwX6X6XwX>XD.I.I.I.I.I.(.9X6X6X6X6X6X6X6X6X6X6X9X>XI.I.I.H.(.9X6X6X6X6X6X6X6XrX^.1 i t t t t t w t t t 3 $.3.>.s.Y.I.I.I.I.6XwX6X6X6X6X0X>XK.K.I.I.I.I.I.H.>XwX6X6X6XwX6XQ.I.I.I.I.I.I.I.I.K.I.6X6X6X6X6X6X6X6X6X6X6X6X6X6X6X6X6X6X6X6X6X6X6X6X6X6X6X6X6X6XwX`.K.I.K.I.I.I.K.K.I.>X6X6X6XwX,XI.I.I.I.I.(.6X6X6X6X6X9X,XI.K.Y.I.Q.6X6X6X4Xj ; t t t t t t w t 1 R r.] p.S.c.c.c.c.p.r.;.sXgXQ.,X6X6XI.K.D.>X9X6X6X6X6X6XQ.H.I.I.I.I.I.I.I.`.6X6X6X",
"6XrX|.H.H.I.I.I.I.I.I.I.I.*X6XrX6X6X6X6X6X6X6X(.K.K.I.I.I.`.6X6X9X,XG.D.I.I.I.I.I.I.>X6X6X6X6X6XQ.I.I.I.S.>X9X6X6X6X6X0X(.D.I.K.I.D.>X9X6XoXaXL $ t 2 t t t t t t t t t t t t t < n B.S.S.r.>.1.1.1.1.r.p.S.D.VXFXFXiXH.I.`.rX6X6X6X6X6X6X6XwX9X9X`.D.I.I.I.I.D.>X6X6X6X6X6X,X9X(.K.Y.K.'.eX'.I.I.I.I.I.D.|.9X6X6X5XI.I.I.I.I.I.H.(.6X6X6X(.S.I.I.Q.oX6X6X6X6X6X6X6X6X6X9X9X`.K.I.K.Q.9X6X6X6X6X6X6X6X6X6X6X6X6X6X6X6X|.D.I.I.I.I.I.D.>XOXM :.2.,.1.1.>.r.c.S.B.B.B.B.B.B.S.p.,XFXdX,XrX>XD.I.I.Y.I.).6X6X6X6X6X6X6X6X6XQ.I.I.I.I.I.I.K.`.9X6X6X6X6X6X6X6XI.K.I.Y.I.(.9X6X6X6X6X6X6X6X6X6X9X9X`.D.K.K.K.K.Q.6XwXwX6X6X6X6XD.I.I.I.I.I.(.9X6X6X6X6X6X6X6X6X6X6X9X`.K.I.K.I.9X6X6X6X6X6X6X6X6X9X^.1 i t t t t e t t ; t | t.,.,.s.I.K.I.I.Y.6XwX6X6X6X6X0X>XD.K.I.I.I.I.H.I.9X6X6X6X6X6X6XI.I.I.I.I.I.I.I.I.K.I.9X6X6X6X6X6X6X6X6X6X6X6X6X6X6X6X6X6X6X6X6X6X6X6X6X6X6X6X6X6XwX6XQ.I.K.I.I.I.I.I.H.(.6X6X6X,X6X`.I.I.I.I.I.'.6X6X6XrX6X9X&XK.I.Y.I.'.6X6X1XC ; t t t t t w w t 1 R r.>.p.S.S.c.c.c.i.1.;.sXkX`.6XrX`.D.I.Q.6X6X6X6X6X9X(.I.I.I.I.I.I.I.I.Q.9X6X6X6X",
"6X9XQ.I.I.I.I.I.I.I.I.I.I.S.I.|.9X9X6X6X6XoXrX>XQ.I.I.I.I.K.'.9X6XwX).I.I.I.I.I.I.I.Q.6X6X6X6X6X(.I.I.I.D.>X9X6X6X6X6X0X(.D.I.I.K.D.`.9X6XoXaXL ; t t t t t t t t t t t t t t t < b z.S.S.r.>.1.1.1.1.1.p.S.S.VXFXFXsXH.I.(.9X6X6X6X6X6X6X6XrX9X9X>XD.K.I.I.I.S.*XwX6X6X6X6X,X9X`.K.Y.K.`.wX|.I.K.K.I.I.D.*X9X6X6X6XI.I.I.I.I.I.I.(.6X6X9X`.S.I.I.I.oX6X6X6X6X6X6X6X6X6X9X9X`.S.K.I.K.>XwX6X6X6X6X6X6X6X6X6X6X6X6X6X6X9X(.I.I.I.I.I.D.`.oXV :.2.1.1.1.>.>.p.S.B.B.B.B.B.B.S.p.>XFXdX,X,X6XQ.I.I.Y.K.).6X6X6X6X6X6X6X6X6XQ.K.I.I.I.I.I.I.Q.9X6X6X6X6X6X6X6XK.K.H.I.H.(.9X6X6X6X6X6X6X6X6X6X6X9X`.D.K.K.K.K.Q.6XwXwX6X6X6X9XI.K.I.I.I.I.(.9X6X6X6X6X6X6X6X6X6X6X6XQ.K.I.I.>XrX6X6X6X6X6X6X6X6X6X}.1 i t t t t t t < 3 | D.X.,.,.H.I.K.K.K.Y.6X6X6X6X6X9X9X>XD.D.I.I.I.I.I.`.9X6X9X6X6X6X6XD.I.I.I.I.I.I.I.I.K.Q.9X6X6X6X6X6X6X6X6X6X6X6X6X6X6X6X6X6X6X6X6X6X6X6X6X6X6X6X6X6X6X6X|.K.K.I.I.I.I.K.H.I. X6X6XoX6X>XI.I.I.I.I.(.6X6X6XrXwX6X9XQ.K.I.Y.I.>XeX1XC ; t t t t t t t t 1 R y.r.c.S.S.c.S.c.r.3.;.dXBX>X9X9XI.H.I.*X9X6X6X6XwX'.S.I.I.I.I.I.I.D.Q.,X9X6X6X6X",
"rX`.I.I.I.I.I.I.I.I.I.I.I.I.I.D.(.,X6X6X6X6XwXrX>XQ.I.I.I.I.I.>X6XwX6XI.I.I.I.I.I.I.K.>XwX6X6X6X(.I.I.I.D.>X9X6X6X6X6X0X(.D.K.K.I.D.`.9X6XoXaXT ; t t t t t t t t t t t t t t t < u z.S.S.t.>.1.1.1.1.1.r.S.S.VXFXFXfXH.Y.I.6X6X6X6X6X6X6X6XrX6X9X>XD.K.K.I.I.S.(.6X6X6X6X6X6X9X`.K.I.I.(.wX5XI.K.K.I.I.D.`.9X6X6X6X(.I.I.I.I.I.I.Q.6X6XrX`.S.I.I.I. X6X6X6X6X6X6X6X6X6X9X9X`.S.K.I.K.`.9X6X6X6X6X6X6X6X6X6X6X6X6X6X6XrX*XI.I.I.I.I.K.Q.6XS :.2.1.1.1.1.>.p.S.B.B.B.B.B.B.S.p.:XFXdX,X,X9XQ.K.Y.U.K.).6X6X6X6X6X6X6X6X6X(.K.I.I.I.I.I.I.Q.6X6X6X6X6X6X6X6XQ.K.H.I.I.Q.9X6X6X6X6X6X6X6X6X6X6X9X|.D.K.K.K.K.Q.6XwXwX6X6X6X9XQ.H.I.I.I.I.I.6X6X6X6X6X6X6X6X6X6X6X>XK.I.H.(.9XwX6X6X6X6X6X6X6X6XrX:X1 i t t t t t t a 8.D.z.r.>.>.H.Y.K.K.K.Q.6X6X6X6X6X9X9X>XD.D.I.I.I.I.I.>XrX6X9X6X6XwX5XD.I.I.I.I.I.I.I.I.K.Q.9X6X6X6X6X6X6X6X6X6X6X6X6X6X6X6X6X6X6X6X6X6X6X6X6X6X6X6X6X6X6X6X6XQ.K.I.I.I.I.K.I.I.`.6X6X6X6X9X(.H.I.I.I.T.|.6X6X6XrX6X9X>XK.I.I.I.Y.OXaXL $ t t t t t t t t 1 R r.r.S.c.S.c.S.p.>.3.1.dXZX,X9X>XD.H.Q.9X6X6X6X6X6XQ.K.H.I.I.H.I.I.D.|.rX6X6X6X6X",
">XQ.I.I.I.I.I.I.I.I.I.I.I.I.I.I.D.G..X6X6X6X,XwX6X>XI.K.I.H.H.I.>XwX6X(.H.I.Y.I.I.I.K.Q.6XeX6X6X(.I.I.I.D.>X9X6X6X6X6X0X(.K.K.K.I.D.`.9X6XoXaX! - t t t t t t t t t t t t t t t w t z.D.S.z.r.>.1.1.1.1.1.t.S.MXFXFXgXK.Y.I.>X6X6X6X6X6X6X6X6X6X9X9XI.K.K.K.I.S.I.,X6X6X6X6X6X9X>XI.I.I.(.6X6XQ.K.K.K.K.K.(.9X6X6X9X(.I.I.I.I.I.I.I.6X6XrX'.S.I.I.I.|.wX6X6X6X6X6X6X6X6X9X9X`.S.K.I.K.I.6X6X6X6X6X6X6X6X6X6X6X6X6X6X6X9X6XI.I.I.I.I.I.D.|.! :.2.1.3.1.1.>.r.S.B.B.B.B.B.z.S.p.:XFXdX X6X6X}.K.K.U.U.`.wX6X6X6X6X6X6X6X6X(.K.I.I.I.I.I.I.Q.6XwX6X6X6X6X6X6XQ.H.I.I.I.Q.6X6X6X6X6X6X6X6X6X6X6X9X5XK.D.K.K.K.I.6XwX6X6X6X6X9X`.H.I.I.I.I.I.6X6X6X6X9X9X6X6X6X6X9X(.H.I.K.>XrX6X6X6X6X6X6X6X6X6X6X}.3 i t t w t < b 8.D.c.p.p.>.>.H.Y.K.K.K.Q.6X6X6X6X6X6X9X>XD.D.I.I.I.A.I.6X6X6X6X6X6XwX>XD.I.I.I.I.I.I.I.I.K.`.9X6X6X6X6X6X6X6X6X6X6X6X6X6X6X6X6X6X6X6X6X6X6X6X6X6X6X6X6X6X6X6X6X,XI.I.I.I.I.K.I.I.Q.6X6X6X6X6X>XI.I.I.I.I.(.6X6X6X6XrX9X9XQ.K.I.I.K.D.3XK $ t t w t w w t t 1 R r.r.S.c.c.S.c.y.>.3.1.gXZX,X9X`.K.K.`.6X6X6X6XrX|.K.H.K.I.H.K.I.D.).6X6X6X6X6X6X",
"`.I.I.I.I.I.I.I.I.I.I.I.I.I.I.I.I.I.I.).6X6X6XwX6X6X6XQ.I.I.K.H.Q.>X6X>XI.I.Y.I.I.I.K.K.5XeX6X6X`.I.I.I.D.*X9X6X6X6X6X0X(.K.K.K.I.D.(.9X6XoXaX! - t t t t t t t t t t t t t t 2 w i b.x.z.C.r.>.1.1.1.1.{ t.S.MXFXFXMXK.Y.I.|.6X6X6X6X6X6X6X6X6X6X9XQ.K.K.K.K.H.K.>X6X6X6XwX6X6X,XI.I.I.Y. X6XQ.K.K.K.K.K.Q.9X6X6X9X(.I.I.I.I.I.I.I.,X6XwX'.D.I.I.I.|.wX6X6X6X6X6X6X6X6X9X9X`.K.I.I.I.H.>X9X6X6X6X6X6X6X6X6X6X6X6X6X6X6X9XQ.I.I.I.I.I.D.'.! ^ 2.>.1.1.1.>.1.p.S.B.B.B.B.z.S.p.:XFXdX,X6X,X,XQ.K.U.K.`.6X6X6X6X6X6X6X6X6X(.K.I.I.I.I.I.I.I.>XwX6X6X6X6X6X6XQ.H.I.I.I.I.>X6X6X6X6X6X6X6X6X6X6X6X6XI.D.K.K.I.K.>XwX6X6X6X6XwX|.I.I.I.I.I.K.>X6X6X6X9X9X9X6X6X6X5XI.H.K.I.9XrX6X6X6X6X6X6X6X6X6X6X}.3 i t t u w t 6.K.c.S.c.p.>.>.H.T.H.I.K.Q.6X6X6X6X6X6X9X>XD.D.I.I.I.A.`.9X6X6X6X6X6X6X*XD.I.I.I.I.I.I.I.I.K.`.rX6X6X6X6X6X6X6X6X6X6X6X6X6X6X6X6X6X6X6X6X6X6X6X6X6X6X6X6X6X6X6X6X6X`.K.I.I.I.I.I.I.I.|.wX6X6X6X6X(.I.I.I.I.I.5X6X6X6XrX9X9X*XS.K.I.K.H.^.L $ t t w t t w t t 1 R r.r.S.c.z.S.p.1.>.1.;.gXVX9X9XQ.H.K.>XwX6X6X6X9X`.S.K.I.H.H.I.D.).6X6X6X6X6X6X6X",
"I.I.I.I.I.I.I.I.I.I.I.I.I.I.I.I.I.I.I.D.Q.|.6X6XwX6X6XrX(.H.I.Y.H.Q.9X6X`.H.Y.I.I.I.I.K.(.7X6X6X`.I.I.I.K.*X9X6X6X6X6X0X(.K.I.I.I.D.(.9X6XoXaX! # t t t t t t t t t t t t t t 2 t w X.D.z.D.t.] 1.1.1.1.] t.S.MXFXFXBXK.Y.I.`.9X6X6X6X6X6X6X6X6X6X9X).D.K.K.K.K.K.>X6X6X6X6X6X6X6XQ.I.I.I.|.6X`.K.K.K.K.K.Q.9X6X6X9X(.I.I.I.I.I.I.I.|.6X7X>XD.I.I.I.|.6X6X6X6X6X6X6X6X6X9X9X`.K.I.I.I.H.(.9X6X6X6X6X6X6X6X6X6X6X6X6X6X6XwX'.I.I.I.I.I.D.(.^ &.2.>.3.1.1.1.>.y.S.B.B.B.B.z.S.p.:XFXcX,X6X,XrX}.D.Y.K.`.6X6X6X6X6X6X6X6X9X`.K.I.I.I.I.I.I.I.>XwX6X6X6XwXoX6X`.H.I.I.I.I.>X6X6X6X6X6X6X6X6X6X6X6X6XQ.D.K.K.I.K.>XwX6X6X6X6XwX,XI.K.I.I.I.I.*XwX6X6X9X9X6X6X6X6X'.K.H.S.`.9X6X6X6X6X6X6X6X6X6X6X6X>X3 i t t w 5 6.I.S.c.S.c.p.>.>.j.T.H.Y.K.Q.6X6X6X6X6X9X0X>XD.D.I.I.I.I.|.6X6XwX6X6X6X6X'.D.I.I.I.I.I.I.I.I.K.'.9X6X6X6X6X6X6X6X6X6X6X6X6X6X6X6X6X6X6X6X6X6X6X6X6X6X6X6X6X6X6X6X6X6X6XQ.I.I.I.I.I.I.I.(.6X6X6X6X6X>XI.I.I.I.I.`.6X6X6X9X9X9X9XQ.S.I.I.I./.L $ t t t t t w e t 1 Y 6.r.S.z.z.c.r.>.>.3.1.gXBX9X>XI.K.K.,XrX6X6X6X6XQ.I.I.I.H.I.K.Q.6X6X6X6X6X6X6X9X",
"I.I.I.I.I.I.I.I.I.I.I.I.I.I.I.I.I.I.I.I.I.D.`.6XwX6X6X6X9X(.H.I.I.I.(.6X,XI.I.I.I.I.I.I.D.>X6X6X`.I.I.I.K.`.9X6X6X6X6X9X(.K.I.I.I.D.(.9X6XoXaX! - t t t t t t t t t t t t t t 2 t w  .D.z.x.c.{ 1.1.1.1.>.r.p.lXKXFXBXI.I.I.(.9X6X6X6X6X6X6X6X6X6XrX`.D.K.K.K.K.D.'.6X6X6X9X6X6X9X(.K.I.I.|.rX`.D.K.K.K.K.I.6X6X6X9X(.I.I.I.I.I.I.I.|.6X6X>XK.I.I.I.|.6X6X6X6X6X6X6X6X6X9X9X'.H.I.I.H.H.I.6X6X6X6X6X6X6X6X6X6X6X6X6X6X6XwX5XI.I.I.I.I.K.I.! -.2.>.1.3.1.1.,.1.c.S.B.B.B.z.S.p.:XFXcX,XwX,XwX,XQ.K.K.`.6X6X6X6X6X6X6X6XrX`.K.I.I.I.I.I.I.I.|.wX6X6X6X6X6X6X`.K.I.I.I.K.>X6X6X6X6X6X6X6X6X6X6X6X6X`.K.K.K.I.H.`.wX6X6X6X6XwX6XQ.K.I.I.I.I.`.wX6X6X6X6X6X6X6X6X(.H.H.D.|.wX6X6X6X6X6X6X6X6X6X6X6X>Xt i t w a 8.F.z.S.S.S.S.p.>.>.s.T.H.Y.K.(.6X6X6X6X6X6X9X>XD.K.I.I.D.Q.6X6X6X6X6X6X6X6X`.A.I.I.I.I.I.I.I.I.K.>X9X6X6X6X6X6X6X6X6X6X6X6X6X6X6X6X6X6X6X6X6X6X6X6X6X6X6X6X6X6X6X6X6X6XwX`.I.I.I.I.I.I.I.I.>X6X6X6X6X6XQ.I.I.I.I.T.oX6X6X6XrX6X9X,XI.H.I.I./.L $ t e t t t t e t 1 Y 6.r.c.z.c.c.r.>.1.3.3.vXBX9X`.D.K.I.6XrX6X6X6X9XI.I.I.H.I.I.D.`.9X6X6X6X6X6X9X>X",
"I.I.I.I.I.K.I.I.Q.Q.(.I.I.I.I.I.I.I.I.I.I.I.I.'.6XwX6X,X6X9X`.I.I.Y.I.&XwX>XH.I.I.I.I.I.I.*X6X6X`.I.I.I.K.`.9X6X6X6X6X9X(.K.I.I.I.D.(.9X6XoXaX! - t 2 t t t t t t t t t t t t 2 t 9 [ D.z.x.S.r.1.1.1.1.>.r.p.fXKXAXVXQ.I.I.I.9X6X6X6X6X6X6X6X6X6XrX|.D.K.K.K.I.K.`.9X6X6X6X6X6X9X`.K.K.H.|.0X'.D.K.K.K.K.I.5X6X6X9X(.I.I.I.I.I.I.A.|.6X6X6XK.I.I.I.'.6X6X6X6X6X6X6X6X6X9X9X'.S.I.I.K.I.K.>XwX6X6X6X6X6X6X6X6X6X6X6X6X6X6X6XQ.I.I.I.I.I.I.Q :.u.>.1.1.1.1.3.>.p.S.B.B.B.z.S.p.:XFXvX,X6X,X,X,X^.H.K.}.wX6X6X6X6X6X6X6XrX`.S.I.I.I.I.I.I.I.`.rX6X6X6X6X6X6X}.K.I.I.I.I.`.9X6X6X6X6X6X6X6X6X6X6X9X'.K.K.K.I.H.(.wX6X6X6X6X6XrXQ.D.I.I.I.H.(.6X6X6X6X6X6X6X6X>XI.H.S.Q.6XwX6X6X6X6X6X6X6X6X6X6X6X,X5 t t t  .F.z.S.c.S.S.S.p.>.>.s.Q.H.Y.K.(.6X6X6X6X6X6X0X>XD.K.I.I.D.`.6X6X6X6X6X6X6X6X(.I.I.I.I.I.I.I.I.I.I.>X6X6X6X6X6X6X6X6X6X6X6X6X6X6X6X6X6X6X6X6X6X6X6X6X6X6X6X6X6X6X6X6X6XwXwX,XI.I.I.K.I.I.I.I.`.6X6XwXwX6X'.I.I.I.I.I.'.6X6X6X9X9X6XrX*XK.I.I.Q.L $ t e t t t t e t 1 Y 6.t.c.z.D.p.>.>.1.3.u.BXBX9X(.K.K.I.6XwX6X6X6X9XI.I.K.K.I.I.I.>X6X6X6X6X6X6X9XQ.",
"I.I.I.I.D.`.9X9X9X9X9X>X'.Q.I.I.I.I.I.I.I.I.I.I.`.wX6X6X6X6X9X&XI.I.Y.K.|.0X(.H.I.I.I.I.I.K.|.6X`.I.I.I.K.`.9X6X6X6X6X9X(.K.I.I.I.D.Q.9X6XoXaX! - t 2 t t t t t t t t t t t t 2 t $ [ D.z.x.S.y.1.1.1.1.1.1.1.fXKXAXAXQ.I.I.I.5X6X6X6X6X6X6X6X6X6XwX,XI.K.I.I.I.I.I.6X6X6X6X9X6X9X>XD.K.H.).0X>XK.K.K.K.K.K.>X6X6X9X`.K.I.I.I.I.I.A.`.6X6X6XK.I.I.H.`.9X6X6X6X6X6X6X6X6X9X9X*XK.I.K.I.I.I.Q.6X6X6X6X6X6X6X6X6X6X6X6X6X6X6X9X`.D.I.I.I.K.I.! ' 2.>.>.>.>.>.>.>.3.c.S.B.B.B.S.p.`.FXvX,X,X6X,X,X<XK.U.|.wX6X6X6X6X6X6X6X6X'.S.I.I.I.I.I.I.D.`.rX6X6X6X6X6X6X>XI.K.I.I.I.(.6X6X6X6X6X6X6X6X6X6X6X6X>XK.K.K.I.H.I.6X6X6X6X6X6XrX`.D.I.I.I.I.I.6X6X6X6X6X6X6XrX'.K.K.S.`.rX6X6X6X6X6X6X6X6X6X6X6X6X,Xc i u ' K.z.x.S.c.S.S.c.p.>.>.p.Q.H.Y.K.(.6X6X6X6X6X6X9X>XD.I.I.I.D.|.9X6X6X6X6X6X6X6XQ.K.I.I.I.I.I.I.I.K.I.6X6X6X6X6X6X6X6X6X6X6X6X6X6X6X6X6X9X9X6X0XwX6X,X6X6X6X6X6X6X6X6X6X6X6X6X9X`.I.Y.I.I.I.I.I.Q.,X6X6XwX6X>XI.I.I.Y.I.Q.9X6X6X9XrX6X6X9XQ.K.H.Y.) ; t t t t t t t t < Y i.c.z.x.x.t.1.>.>.e.B.BXVX>XI.I.I.I.6X6X6X6X6X6XQ.K.I.I.I.I.).6X6X6X6X6X6X6X9XQ.",
"K.K.K.K.(.rX9X9X9X9X9X9X9X9X>X`.Q.I.I.I.I.I.I.I.I.|.6X6X6X6X6X9X*XI.Y.I.K.>X9XI.I.I.I.I.K.K.|.wX}.K.I.I.D.`.9X6X6X6X6X9XQ.K.K.I.I.D.Q.6X6XoXaX) - t t t t t t t t t t t t t t t t $ / D.z.z.S.p.1.1.1.1.1.1.>.pXKXAXAXQ.I.I.D.>X9X6X6X6X6X9X9X9X6X6X6XQ.K.I.I.I.I.K.6X6X6X6X9X9X9X>XD.H.H.(.9X6XQ.K.K.K.K.K.>XwX6X6X'.K.I.I.I.I.I.D.`.6X6X6XK.I.I.I.(.9X6X6X6X6X6X6X6X6X6X9X>XK.I.K.I.I.I.I.6XwX6X6X6X6X6X6X6X6X6X6X6X6X6X9X>XI.I.I.I.I.I.^ _ 2.>.>.>.>.>.>.1.1.t.S.B.B.z.S.p.`.FXvX,X,XwXwX6X9X(.Y.>X6X6X6X6X6X6X6X6X6X|.D.I.I.I.I.I.I.K.(.9X6X6X6X6X6X6X6XQ.K.I.I.I.Q.>X6X6X6X6X6X6X6X6X6X6X6X>XI.K.K.I.D.D.>X6X6X6X6X6XrX,XD.I.I.K.I.D.,X6X6X6X6X6X6XwX(.K.K.D.>XrX6X6X6X6X6X6X6X6X6X6X6X6X6X5 e $.p.S.c.x.c.c.S.S.S.r.>.] p.Q.H.Y.K.`.6X6X6X6X6X6X9X>XD.I.I.I.I.>X6X6X9X9X6X6X6X,XI.I.I.I.I.I.I.I.I.D.Q.6X6X6X6X6X6X6X6X6X6X6X6X6X6X6X6X|.(.(.Q.).5X6X6X6X6X6X6X6X6X6X6X6X6X6X6X6X>XI.I.I.I.I.I.I.I.'.6X6X6X6X6X`.I.I.I.I.D.>X9X6X6X9X9X,X9X>XK.K.Q.) ; t t t t t t t t < Y p.S.z.x.c.r.3.3.>.e.B.vXVX>XI.I.I.D. X6X6X6X6X9XQ.K.I.I.I.I.).wX6X6X6X6X6X6X6XQ.",
"K.K.K.K.>XrX,X9X6X6X9X6X6X9X9X9X>XQ.I.I.I.I.I.I.S.I.6X6X6X6X6X6X9XQ.H.Y.H.D.>X`.I.I.I.I.I.K.(.wX>XK.I.I.K.(.9X6X6X6X6X9XQ.K.K.I.I.K.Q.6XwX6XaX) ; t t t t t t t t t t t t t t t t $ ) K.z.z.S.p.1.1.1.1.1.3.;.8XKXAXAXQ.I.I.S.`.9X6X6X6X6X9X9X9X6X6XwX(.K.I.I.I.I.K.|.6X6X6X9X6X6X5XD.H.I.Q.9X6XQ.K.K.K.K.K.*XwX6X6X|.D.I.I.I.I.I.D.).6X6X6XY.Y.I.I.(.9X6X6X6X6X6X6X6X6X6X9X>XK.Y.H.I.I.I.I.'.wX6X6X6X6X6X6X6X6X6X6X6X6X6X6X6XI.I.I.I.I.I.^ ' 2.>.>.>.>.>.>.3.>.1.p.B.B.z.S.p.^.FXvX,X,XwXwX6X6X>XY.>X6X6X6X6X6X6X6X6X6X|.D.I.I.I.I.I.I.K.Q.9X6X6X6X6X6X6X6X`.K.I.I.I.D.|.6X6X6X6X6X6X6X6X6X6X6X9XQ.K.K.K.K.D.|.6X6X6X6X6XwXrXQ.K.I.K.I.D.|.6X6X6X6X6X6X6XI.K.K.I.9X6X6X6X6X6X6X6X6X6X6X6X6X6X6Xc Y r.t.c.c.c.c.c.D.S.S.r.>.] p.Q.H.Y.K.*X6X6X6X6X6X6X9X>XD.I.I.I.(.9X6X6X9X9X6X6X6X|.K.I.I.I.I.I.I.I.I.D.).6X6X6X6X6X6X6X6X6X6X6X6X6X6X|.Q.D.H.D.I.I.D.'.6X6X6X6X6X6X6X6X6X6X6X6X6X6X6X`.I.Y.I.I.I.I.I.(.6X6X6X6X6X>XI.I.I.I.D.I.9X,X6X9X9X6X,XrX`.D.Q.( : t 2 2 t t t t t < Y p.S.z.x.c.r.3.1.1.p.B.vXVX`.D.I.I.D.|.6X6X6X6X9X`.H.I.I.I.I.|.wX6X6X6X6X6X6X6XQ.",
"I.I.I.K.>X9X6X6X6X6X6X6X9X6X6X9X6X|.Y.I.I.I.I.I.H.I.>XrX6X6X6X6X6X>XI.I.I.H.I.oXQ.K.I.I.I.I.I. X>XH.I.I.K.(.9X6X6X6X6X9XQ.K.I.I.I.K.I.5XwX6XaX! ; t t t t t t t t t t t t t t 2 t 9 T K.z.z.C.S.1.1.1.1.1.3.;.3XKXAXAX^.I.Y.H.(.9X9X6X6X6X6X9X9X6X6XwX`.D.I.I.I.I.K.`.9X6X6X6X6X6X6XI.H.I.I.9X6X(.K.K.K.K.K.&XwX6X6X>XK.I.I.I.I.I.I.).6X6X6XY.I.I.I.Q.9X6X6X6X6X6X6X6X6X6X9X>XK.I.K.I.I.I.I.Q.6X6X6X6X6X6X6X6X6X6X6X6X6X6X6X9X(.I.I.I.I.I.*.:.2.>.>.>.>.>.>.>.1.>.r.B.B.c.S.p.Q.FXvX,X,X6X6X6X6X6X`.,X6X6X6X6X6X6X6X6X6X6XD.I.I.I.I.I.I.K.I.6X6X6X6X6X6X6X6X>XK.I.I.I.I.(.6X6X6X6X6X6X6X6X6X6X6X9X(.K.K.K.I.D.`.wX6X6X6X6X6XrX`.D.I.K.K.D.`.6X6X6X6X6XwX|.K.I.D.Q.rX6X6X6X6X6X6X6X6X6X6X6X6X6X6X .8.6.t.c.c.c.c.c.S.S.c.r.>.] p.$XH.I.K.*X6X6X6X6X6X6XrX>XI.I.I.I.'.wX6X6X6X9X6X6XwX}.S.I.I.I.I.I.I.I.I.D.`.wX6X6X6X6X6X6X6X6X6X6X6X6X`.D.I.I.I.D.D.(.I.S.'.wX6X6X6X6X6X6X6X6X6X6X6X6X6X>XI.I.I.I.I.I.I.I.5X6X6X6X6X6XQ.I.I.I.I.S.*X6X6X9X9X9X6X6XwXQ.I.^ % t 2 2 t t t t t > Y p.c.z.c.p.1.3.1.1.p.S.vXVXQ.D.I.I.S.`.6X6X6X6XwX|.H.I.I.I.I.|.wX6X6X6X6X6X6X9XQ.",
"I.I.I.K.&XrX6X6X6X6X6X6X9X9X9X9X6X6X|.I.I.I.I.K.I.I.>XrXrX6X6X6X6X6X`.D.I.Y.H.'.|.D.Y.I.I.I.K.|.>XK.I.I.K.Q.9X6X6X9X6X9XQ.D.I.I.I.I.I.>XwX6XrX! ; t t t t t t t t t t t t t t 2 t 9 L K.z.z.C.S.r.1.1.1.1.3.` -XKXAXFX`.I.I.H.I.,X9X6X6X6X6X9X9X6X6XwX>XD.I.I.I.I.K.(.9X6X6X6X6X6X6XQ.H.I.I.6XwX`.K.K.K.K.K.(.6X6X6X5XK.I.I.I.I.I.I.(.6X6X6XQ.I.Y.I.I.9X6X6X6X6X6X6X6X6X6X9X>XK.I.K.I.K.I.I.I.,X6X6X6X6X6X6X6X6X6X6X6X6X6X6X9X>XD.I.I.I.I.5.8.1.>.>.>.>.>.>.>.3.1.1.t.S.c.S.p.Q.FXvX,X,X6X,X6X6X6X6X6X6X6X6X6X6X6X6X6X6X6XI.I.I.I.I.I.I.K.D.>XwX6X6X6X6X6X6X,XQ.K.I.I.I.Q.6X6X6X6X6X6X6X6X6X6X6X6X`.K.K.K.I.D.(.6X6X6X6X6X6XwX>XD.I.K.I.D.Q.6X6X6X6X6XrX`.H.I.D.`.wX6X6X6X6X6X6X6X6X6X6X6X6X6X6X7.5.6.t.c.c.c.c.c.S.S.c.r.>.` p.&XH.I.K.>X6X6X6X6X6X6XrX*XD.I.I.I.5X6X6X6X6X6X6X6XwX`.S.I.I.I.I.I.I.I.I.D.|.wX6X6X6X6X6X6X6X6X6X6X9X`.S.I.I.I.I.I.S.D.I.I.D.'.6X6X6X6X6X6X6X6X6X6X6X6X6X6X`.K.I.I.I.I.I.I.'.9X X6X6X9X`.I.I.I.I.I.Q.6X,X6X6X6X6X,X6X,X(.' % t 2 2 t t t t t > Y c.z.z.c.p.>.3.1.r.p.B.vXVXQ.D.I.I.S.`.6X6X6X6XwX>XI.I.I.I.I.`.wX6X6X6X6X6X6XrX!.",
"I.I.I.K.Q.9X6X6X6X6X6X6X6X6X6X6X6X6X6X'.I.I.I.H.I.I.|.6XwXwX6X6X6XrX>XD.I.Y.Y.I. X`.H.Y.I.K.H.).>XK.I.I.K.Q.9X6X6X6X9X0X(.D.I.I.I.I.D.>XwXoXrX! ; t t t t t t t t t t t t t t 2 i 9 V K.z.z.x.S.r.1.1.1.1.3.` -XFXAXFX:XH.I.I.H.>X9X6X6X6X6X6X9X6X6X6X6XQ.K.K.K.I.I.I.9X6X6X6X6X6X9X`.K.I.K.5X6X>XK.K.K.K.K.Q.6X6X6X6XI.K.I.I.I.I.I.(.6X6X6X(.K.Y.I.I.6X6X6X6X6X6X6X6X6X6X9X>XI.I.I.I.K.I.I.I.|.9X6X6X6X6X6X6X6X6X6X6X6X6X6X6X6XI.I.I.H.I.0.i.y.>.>.>.>.>.>.>.3.1.>.r.S.S.S.p.Q.FXvX,X,X6X6X6X6X6X6X6X6X6X6X6X6X6X6X6X6X6XQ.I.I.I.I.I.I.K.D.>XwX6X6X6X6X6X6X6X`.D.I.I.I.I.>X9X6X6X6X6X6X6X6X6X6X6X|.K.K.K.I.I.Q.6XwX6X6X6X6X6X9XQ.K.I.I.S.Q.9X6X6X6X6XrX!.H.I.K.|.wX6X6X6X6X6X6X6X6X6X6X6X6X6X6X7.:.1.t.c.c.c.c.c.S.S.c.r.>.] p.&XH.I.I.>X6X6X6X6X6X6XwX'.D.I.I.I.9X9X6X6X6X6X6X6X6X!.S.I.I.I.I.I.I.I.I.I.>X6X6X6X6X6X6X6X6X6X6X6X|.D.D.I.I.I.I.I.I.I.I.I.I.Q.6X6X6X6X6X6X6X6X6X6X6X6X6X6X>XI.I.I.I.I.I.I.(.6X6X6X6XrX>XI.I.I.I.I.D.>X6X6X9X6X6X6X6XwX>X' % t 2 2 t t t t t > Y c.z.z.c.y.>.3.1.r.S.B.BXVXD.D.I.I.S.Q.9X6X6X6X6X6XQ.I.I.I.I.(.6X6X6X6X6X6X6XwX).",
"I.I.I.I.K.'.9X6X6X6X6X6X6X6X6X6X6X6X+X6XI.I.I.K.I.D.|.6X6X6X6X6X6XwX>XI.I.Y.Y.I.).8XI.K.I.Y.H.Q.>XQ.K.I.K.Q.9X6X6X9X9X9X`.D.I.I.I.I.D.>XwXoXrX! - t t t t t t t t t t t t t t 2 t 9 m m.z.z.x.D.p.1.1.1.3.3.` -XFXAXFX,XH.I.I.K.'.9X6X6X6X6X6X9X6X6X6X6XQ.K.D.K.I.I.I.6X6X6X6X6X6XrX|.S.Y.I.>X6X>XI.K.K.I.K.Y.6X6X6X6XI.D.I.I.I.I.I.Q.6X6X6X`.K.Y.I.K.5X6X6X6X6X6X6X6X6X6X6X5XI.K.I.I.I.I.I.K.(.6X6X6X6X6X6X6X6X6X6X6X6X6X6X6X6X(.H.K.K.Y.i.n.s.>.>.>.>.>.>.>.>.>.>.>.t.S.c.c.Q.AXZX,X,X6X6X6X6X6X6X6X6X6X6X6X6X6X6X6X6XwXQ.I.I.I.I.I.I.I.D.>XwX6X6X6X6X6X6XwX}.D.I.I.I.I.'.9X6X6X6X6X6X6X6X6X6X6X,XQ.H.I.I.I.I.5XrX6X6X6X6X6X0X`.D.K.K.D.D.5X6X6X6X6X6XQ.K.K.K. X6X6X6X6X6X6X6X6X6X6X6X6X6X6X6Xp.1.r.p.c.c.c.c.c.S.S.c.r.>.>.y.&XH.I.I.5X6X6X6X6X6X6X6X`.H.I.I.`.9X6X6X6X6X6X6XwX6XQ.S.I.I.I.K.I.I.I.S.I.9X6X6X6X6X6X6X6X6X6X6X6XG.I.I.I.I.I.I.I.I.I.I.I.I.D.'.9X6X6X6X6X6X6X6X6X6X6X6X6X6X(.K.I.I.I.I.I.I.>XrX6X6X6X6X(.I.I.I.I.I.(.6X6X6X6X6X6X6X,XsXi.% t 2 2 t t t t t > Y c.z.c.c.r.>.3.1.r.S.B.BXVXK.D.K.Y.H.I.6X6X6X6X6X6X>XD.I.I.I.I.>X6X6X6X6X6X6X6X,X",
"K.I.I.I.I.I.5X6X6X6X6X6X6X6X6X6X6X6XoX6X`.I.K.K.K.D.,X6X6X6X6X6X6X6X,XI.I.Y.Y.I.I.9X`.H.H.I.K.K.<X(.K.I.I.I.9X6X6X9X9X9X>XD.I.I.I.I.D.>XwX6XrX/ - t t t t t t t t t t t t t t 2 t w c m.x.z.z.D.S.1.1.1.3.3.;.%XFXAXFX9XH.I.I.I.(.9X6X6X6X6X6X6X6X6X6X9XQ.K.D.K.I.I.K.>X6X6X6X6X6X9X>XK.Y.I.*XwX,XQ.K.K.I.Y.Y.6XwX6X6XQ.D.I.I.I.I.I.Q.6X6X6X'.I.Y.I.I.>X9X6X6X6X6X6X6X6X6X6X>XI.K.Y.K.K.I.I.I.I.>X6X6X6X6X6X6X6X6X6X6X6X6X6X6X9X'.K.K.K.I.r.c.s.r.>.>.>.>.>.>.>.>.>.>.r.S.c.c.Q.AXZX,X,XwX6X6X6X6X6X6X6X6X6X6X6X6X6X6X6X6X`.I.I.I.I.I.I.I.D.`.wX6X6X6X6X6X6X6X,XQ.I.I.I.I.Q.>X6X6X6X6X6X6X6X6X6X6X6X).K.I.I.I.I.'.0X6X6X6X6X6X9X|.D.I.K.K.D.>X6X6X6X6X6XQ.K.I.I. X6X6X6X6X6X6X6X6X6X6X6X6X,X,X6Xp.>.r.S.c.c.c.c.c.S.S.c.r.>.>.r.&XH.I.I.6X6X6X6X6X6X6X6X(.A.I.I.'.9X6X6X6X6X6X6XwX6XQ.D.I.I.I.I.I.I.I.H.Q.rX6X6X6X6X6X6X6X6X6X6X(.D.I.D.I.I.I.I.I.I.I.I.I.I.D.Q.6X6X6X6X6X6X6X6X6X6X6X6X6X6X>XI.I.I.I.I.I.D.`.wX6X6X6XwX'.I.I.I.I.I.D.|.9X6X6X6X6X6X6X0XU.; t 2 2 t t t t t > Y S.z.z.c.r.>.3.1.r.S.B.BXZXW.D.K.I.I.H.>XwXwX6X6X6X9X(.D.I.I.K.`.9X6X6X6X6X6X6X6X",
"Q.K.I.I.I.I.(.6X6X6X6X6X6X6X6X6X6X6X6X6X`.I.K.I.K.Q.6XwX6X6X6X6X6X6X9XI.K.Y.Y.H.H.>X6XI.H.Y.I.K.*X`.K.I.I.I.9X6X6X9X9X9X>XI.I.I.I.I.D.>XwX6XrX/ - t t t t t t t t t t t t t t 2 t w x b.x.z.z.B.S.r.1.3.3.3.;.;XFXZXFXsXI.I.I.I.I.9X6X6X6X6X6X6X6X6X6X9X`.K.D.K.I.I.H.`.6X6X6X6X6X9X>XD.Y.I.`.9X6X(.K.K.I.Y.Y.,XwX6X6X(.S.I.I.I.I.I.I.6X6X6X>XI.I.I.K.*X9X6X6X6X6X6X6X6X6X6X6XI.K.Y.K.K.I.I.I.I.`.6X6X6X6X6X6X6X6X6X6X6X6X6X6X6X>XI.K.K.U.p.c.n.p.1.>.>.>.>.>.>.>.1.1.1.t.S.c.Q.AXZXwX,XwXwX6X6X6X6X6X6X6X6X6X6X6X6X6X6XwX'.I.I.I.I.I.I.I.K.`.wX6X6X6X6X6X6X6X6XQ.K.I.I.I.I.`.6X6X6X6X6X6X6X6X6X6X6X|.I.K.I.I.I.(.9XwX6X6X6X6X6X6XQ.K.I.K.S.'.6X6X6X6X6XQ.K.K.Q. X6X6X6X6X6X6X6X6X6X6X6X6X6X6X6Xp.>.t.S.c.c.c.c.c.c.S.c.r.>.>.r.&XP.K.Q.6X6X6X6X6X6X6X6X(.I.I.I.>X6X6X6X6X6X6X6XwX,XI.D.I.I.I.I.I.I.I.S.`.rX6X6X6X6X6X6X6X6X6X'.D.I.I.I.I.I.I.I.I.I.I.I.I.I.I.D.>X6X6X6X6X6X6X6X6X6X6X6X6X6X6X(.I.I.I.I.I.I.Q.6X6X6X6XwX,XQ.I.I.I.I.I.Q.6X6X6X6X6X6X6X0X%X9 2 2 t t t t t t > Y S.z.B.c.>.>.3.1.1.S.B.BXZXQ.D.I.I.I.H.`.rXwX6X6X6X9X|.D.I.I.I.I.5X6X6X6X6X6X6X6X",
"*XI.I.I.I.I.Y.`.6X6X6X6X6X6X6X6X6X6X6X6X(.I.K.I.I.|.6XwX6X6X6X6X6X6X9XQ.K.Y.I.I.I.`.rX`.S.Y.I.H.'.'.K.I.I.I.6X6X6X6X9X9X9XI.K.I.I.I.D.>XwX6XrX/ # t 2 t t t t t t t t t t t t t t w a 5.S.z.B.B.S.p.>.1.3.3.;.Y.FXZXFXdXI.I.I.I.I.>X6X6X6X6X6X6X6X6X6X9X`.K.K.I.K.I.H.).wX6X6X6X6X6X>XD.Y.I.(.9X6X`.K.K.I.I.K.>XwX6X6X`.H.I.I.I.I.I.I.>X6X6X>XI.Y.Y.K.`.9X6X6X6X6X6X6X6X6X6X6XI.K.I.K.K.I.I.I.I.Q.6X6X6X6X6X6X6X6X6X6X6X6X6X6X6X6XQ.K.U.U.c.c.n.p.y.1.>.>.>.>.>.>.1.1.1.r.p.c.K.AXZXwX,X6X6X6X6X6X6X6X6X6X6X6X6X6X6X6X6X6X*XI.I.I.I.I.I.I.D.(.wX6X6X6X6X6X6X6X6X`.K.I.I.I.I.).6X6X6X6X6X6X6X6X6X6X6X,XQ.K.K.I.I.I.6XwX6X6X6X6X6X9X(.K.I.I.D.`.6X6X6X6X6XI.K.K.Q. X6X6X6X6X6X6X6X6X6X6X6X6X6X6X6Xp.>.t.c.c.c.c.c.c.c.S.c.r.>.>.r.-XU.K.(.6X6X6X6X6X6X6X6XQ.I.I.I.6X6X6X6X6X6X6X6XwX|.K.I.I.I.I.I.I.I.I.D.'.rX6X6X6X6X6X6X6X6X5XI.I.I.I.I.I.I.I.I.I.I.I.I.I.I.I.D.(.6X6X6X6X6X6X6X6X6X6X6X6X6X9X>XI.I.I.I.I.I.I.|.6X6X6X6X6X`.I.I.I.I.I.D.'.6X6X6X6X6X6X0X%Xt t t t t t t t t > R D.z.z.p.>.>.3.1.r.S.S.BXZXQ.D.K.I.I.H.Q.9X6X6X6X6X6X6XQ.I.I.I.K.'.9X6X6X6X6X6X6X",
"6XI.I.I.I.I.I.Y.>XwX6X6X6X6X6X6X6X6X6X(.H.I.K.I.Q.6X6X6X6X6X6X6X6X6X9XQ.K.Y.Y.Y.I.'.6X5XI.K.I.H.`.|.K.I.I.I.6X6X6X6X6X9X9X(.I.I.I.I.D.>XwX6XrX/ # t t t t t t t t t t t t t t t t w t 5.S.z.B.B.S.p.1.1.3.3.;.P.FXAXFXvX(.I.I.I.I.'.6X6X6X6X6X6X6X6X6XrX`.K.I.K.I.I.H.Q.6X6X6X6X6X6X6XI.Y.K.Q.9X6X&XK.I.I.I.K.>XrX,X9X`.K.I.I.I.I.I.I.>XrX6X>XI.Y.I.K.(.9X9X6X6X6X6X6X6X6X6X6XI.K.I.K.I.I.I.I.I.I.6X6X6X6X6X6X6X6X6X6X6X6X6X6X6X9X`.K.U.U.n.c.K.c.p.1.,.>.>.>.>.>.1.1.1.] e.p.W.AXZXrX,X6X6X6X6X6X6X6X6X6X6X6X6X6X6X6X6X6X>XD.I.I.I.I.I.I.D.Q.wX6X6X6X6X6X6X6X6X>XI.I.I.I.I.Q.9X6X6X6X6X6X6X6X6X6X6X6X`.K.K.I.I.D.>XrX6X6X6X6X6X6X`.I.I.I.D.Q.6X6X6X6X6XI.K.K.Q.6X6X6X6X6X6X6X6X6X6X6X6X6X6X6XwXp.>.B.c.z.z.c.c.c.c.S.p.r.>.>.6.-XU.K.`.wX6X6X6X6X6X6X6XI.I.I.(.6X6X6X6X6X6X6X6XrX|.K.I.I.I.I.I.I.I.I.I.>X6X6X6X6X6X6X6X6X6X'.D.I.I.I.I.I.I.I.I.I.I.I.I.I.I.I.I.I.>X6X6X6X6X6X6X6X6X6X6X6X6X6X6XQ.I.I.I.I.I.D.(.6X6X6X6X6X|.I.I.I.I.I.I.Q.5X6X6X6X6X6X0X$Xi 2 t t t t t t t > Y D.z.B.p.>.3.1.1.r.S.S.BXVXK.D.I.I.I.I.D.>X9X6X6X6X6X6X>XK.I.I.K.Q.6X6X6X6X6X6X6X",
"9XQ.H.I.I.I.I.I.Q.6XwX6X6X6X6X6X6X,X`.D.H.I.K.I.|.6XwX6X6X6X6X6X6XrX6XI.H.Y.Y.K.H.>X6X9X'.I.Y.H.).|.I.I.I.K.6X6X6X6X6X6X9X`.K.I.I.I.D.|.wXoXsX/ # t 2 t t t t t t t t t t t t t t w 2 :.t.S.B.B.S.c.1.>.3.3.;.P.FXZXFXvX*XS.I.I.I.`.6X6X6X6X9X9X6X6X6X6X>XI.I.K.I.I.K.Q.6X6X6X6X6X6X6XQ.I.K.I.9X6X>XH.I.I.I.K.`.wX,XrX}.K.I.I.I.I.I.I.>XrX6X,XI.Y.I.K.Q.9X6X6X6X6X6X6X6X6X6X6XI.I.Y.K.I.K.I.I.I.K.`.9X6X6X6X6X6X6X6X6X6X6X6X6X6X6X>XI.K.U.n.c.n.S.c.y.>.1.>.>.>.>.>.>.1.>.1.p.W.AXAXrX,X6X6X6X6X6X6X6X6X6X6X6X6X6X6X6X6XwX5XD.I.I.I.I.I.I.K.Q.6X6X6X6X6X6X6X6X6X6XQ.K.I.I.I.K.`.6X6X6X6X6X6X6X6X6X6X6X|.I.K.K.I.I.`.6X6X6X6X6X6X6X6XI.I.I.D.I.6X6X6X6X6XI.K.K.I.6X6X6X6X6X6X6X6X6X6X6X6X6X6X6XwXp.6.S.c.c.c.c.c.c.c.c.p.1.1.>.>.-XY.K.`.wX6X6X6X6X6X6X5XI.I.H.`.rXwX6X6X6X9X9X6X9X`.K.I.K.K.I.I.I.I.I.I.5X6X6X6X6X6X6X6X6X6X`.K.I.I.I.I.I.I.I.I.I.I.I.I.I.I.I.I.I.`.6X6X6X6X6X6X6X6X6X6X6X6X6X9X}.I.I.I.I.I.D.D.6X6X6X6X6X6XQ.I.I.I.I.I.I.*X6X6X6X6X6X9X&Xu 2 t t t t t t t > ~ D.z.S.r.>.3.1.1.r.S.B.BXAXQ.D.I.K.I.I.K.`.9X6X6X6X6X6X6XQ.K.I.I.I.|.6X6X6X6X6X6X",
"9X>XD.I.I.I.I.I.D.(.6XoXoX6X6XwX6XQ.K.I.K.I.I.`.6XwX6X6X6X6X6X6X6X9X*XK.Y.Y.I.H.I.9X6X6X>XI.Y.H.(.,XY.I.I.K.OXwX6X6X6X6X9X`.K.I.I.I.D.'.wX6XsX/ # t < t t t t t t t t t t t t t t t 2 / e.S.B.B.S.z.r.>.3.3.;.s.FXAXFXvX*XS.I.I.I.Q.6X6X6X9X9X9X6X6X6X6X6XQ.I.K.I.I.I.I.>X6X6X6X6X6X9XQ.K.Y.K.,XwX5XK.I.I.I.K.`.6X6XwX>XK.I.I.I.I.I.I.>XwX6X,XQ.Y.Y.K.Q.9X6X6X6X6X6X6X6X6X6X6XI.I.Y.K.I.I.I.I.I.I.Q.9X6X6X6X6X6X6X6X6X6X6X6X6X6X6X9XQ.K.U.n.c.c.S.S.c.r.>.>.>.>.>.>.>.>.1.1.r.K.AXAXrX,X6X6X6X6X6X6X6X6X6X6X6X6X6X6X6X6X6X6XI.I.I.I.I.I.I.K.I. XwX6X6X6X6X6X6X6X6X}.I.I.I.I.I.I.6X6X6X6X6X6X6X6X6X6X6X,XI.K.I.I.I.Q.6X6X6X6X6X6X6X9X`.K.I.K.I.>X6X6X6X6XQ.K.K.I.oX6X6X6X6X6X6X6X6X6X6X6X6X6X6XwXp.r.D.c.S.S.B.S.c.c.c.p.1.1.1.>.-XY.K.>XwX6X6X6X6X6X6X|.I.I.K.>XrXwXwX6X9X9X9X6X9XQ.K.I.K.K.I.I.I.I.K.I.6X6X6X6X6X6X6X6X6X6XQ.I.I.I.I.I.I.I.I.I.I.I.I.I.I.I.I.I.I.(.,X6X6X6X6X6X6X6X6X6X6X6X6X6X,XQ.I.I.K.I.I.D.'.rX6X6X6X6X`.I.I.I.I.I.I.(.9X6X6X6X6X6X:Xl < t t t t t t t > ~ D.z.S.r.>.1.1.1.r.S.B.SXAX`.D.K.I.K.I.K.Q.9X6XwX6X6X6X9X`.K.I.I.K.`.6X6X6X6X6X6X",
"6X6X(.S.I.I.I.I.I.I.`.eXwXwXoX|.Q.K.K.K.I.S.(.6XwX6X6X6X6X6X6X6X6X9X`.H.Y.Y.I.I.>X6X6XwX>XQ.Y.H.Q.6XQ.I.I.K.|.wX6X6X6X6X6X|.I.K.I.I.K.`.9X6XsX^ # t t t t t t t t t t t t t t t t t 2 / e.S.S.B.S.S.u.1.3.3.;.s.FXAXAXvX>XH.I.Y.I.Q.,X6X6X6X6X9X6X6X6X6X6XQ.I.K.I.I.I.K.*X9X6X6X6X6X9X`.K.Y.K.>XwX6XI.I.I.I.K.(.6X6X6X>XK.K.K.I.I.I.I.>XwX6X6XQ.I.Y.I.I.9X6X6X6X6X6X6X6X6X6X9XI.I.Y.K.I.I.I.I.I.I.I.>X6X6X6X6X6X6X6X6X6X6X6X6X6X6X9X).K.K.H.c.c.D.S.S.p.1.>.>.>.>.>.>.>.>.3.>.c.AXAXrX,X6X6X6X6X6X6X6X6X6X6X6X6X6X6X6X6X6X6XQ.K.I.I.I.I.I.I.I. XwX6X6X6X6X6X6X6XwX,XQ.K.I.K.I.K.*X9X6X6X6X6X6X6X6X6X6X6X(.K.I.I.I.D.|.6X6X6X6X6X6X9X>XI.I.I.I.|.wX6X6X6XQ.K.K.I. X6X6X6X6X6X6X6X6X6X6X6X6X6X6XeXc.r.C.B.B.B.B.S.c.c.c.i.1.1.3.] -X;XD.6X6X6X6X6X6X6X6X|.I.I.K.>XrXwX6X9X6X6X9X9X6XQ.K.I.K.I.I.I.I.I.K.Q.9X6X6X6X6X6X6X6XwX>XI.I.I.I.I.I.I.I.I.I.I.I.I.I.I.I.I.I.I.I.|.6X6X6X6X6X6X6X6X6X6X6X6X6X6X`.I.I.K.I.I.S.Q.6X6X6X6XwX>XI.I.I.I.I.I.I.>X9X,X6X6XwX:Xl < t t t t w w t & ~ D.z.c.r.>.1.3.1.r.S.B.SXZX>XI.K.I.I.I.I.Q.9XrX6X6X6X6X6X,XI.I.I.H.Q.9X6X6X6X6X6X",
"6X6X|.D.D.I.I.I.I.K.D.|.>X`.I.I.I.I.S.I.I.G.,X6XwX6X6X6X6X6X6X6X9X9XQ.K.Y.Y.I.`.rX6X6X6X6X(.I.H.Q.6XQ.K.Y.K.|.rX6X6X6X6X6X|.I.H.I.I.D.`.9X6XsX .# t t t t t t t t t t t t t t t t t ; R 1.g.S.B.S.S.p.1.3.3.;.s.SXAXAXvX8XI.I.Y.I.I.>X6X6X6X6X9X6X6X6X6X6X).D.K.I.I.I.D.`.9X6X6X6X6X9X`.K.Y.K.>XwX6XQ.H.I.I.I.(.6X6X6X,XI.K.K.I.I.I.D.|.wX6X6X(.I.Y.I.I.>X6X6X6X6X6X6X6X6X6X9XQ.I.Y.K.I.I.I.I.I.I.K.`.6X6X6X6X6X6X6X6X6X6X6X6X6X6X9X>XK.K.K.c.c.S.S.c.S.p.>.>.>.>.>.>.>.>.3.>.i.AXFXrX,X6X6X6X6X6X6X6X6X6X6X6X6X6X6X6X6X6X6XQ.K.I.I.I.I.I.I.I.|.wX6X6X6X6X6X6X6X6X6X`.K.I.K.K.K.Q.6X6X6X6X6X6X6X6X6X6X6X`.K.I.I.I.D.`.6X6X6X6X6X6X6X6XQ.I.I.H.`.wX6X6X6XQ.K.I.I. X6X6X6X6X6X6X6X6X6X6X6X6X6X6X6XD.c.B.B.S.S.S.c.c.c.c.y.3.3.3.] -X;XQ.6X6X6X6X6X6X6X6X'.I.I.I.6XrXwX6X6X6X6X6X9X,XD.K.K.K.I.I.I.I.I.H.(.9X6X6X6X6X6X6X6XwX`.K.I.I.I.I.I.I.I.I.I.I.I.I.I.I.I.I.I.I.I.'.6X6X6X6X6X6X6X6X6X6X6X6X6X6X,XQ.I.I.K.I.K.D.>XrX6X6X6X6X(.I.I.I.I.I.I.(.9X6X6X6X6X,Xb < t t t t t w t & ~ D.z.c.r.>.1.1.1.r.c.S.SXZX9X(.K.I.I.I.I.K.,XwXwX6X6X6X6X6X`.K.I.I.I.6X6X6X6X6X6X",
"6X6X6X(.A.I.I.I.I.I.I.D.D.D.I.I.I.I.I.K.D.>XwX6X6X6X6X6X6X6X6X6X6X>XI.I.Y.Y.(.rX6X6X6X6X6X`.K.P.Q.6X(.H.I.K.`.rX6X6X6X6X6XoXI.H.I.I.K.Q.9X6XsX .# t t t t t t t t t t t t t t t t t ; E 1.p.S.z.S.B.p.1.3.3.>.u.SXFXFXVX9X(.I.I.I.D.|.6X6X6X6X9X6X6X6X6XwX`.D.K.I.I.I.K.(.9X6X6X6X6X9X|.H.Y.D.>XwX6X(.H.I.I.I.Q.6X6X6X6XQ.K.K.I.I.I.D.}.wX6X6X`.K.I.I.I.>X6X6X6X6X6X6X6X6X6X9XQ.K.Y.K.I.I.I.I.I.I.I.Q.6X6X6X6X6X6X6X6X6X6X6X6X6X6X6X6XI.K.K.c.c.c.c.c.S.c.r.>.>.>.>.>.>.>.3.>.r.SXFXrX,X9X6X6X6X6X6X6X6X6X6X6X6X6X6X6X6X6X9X`.D.D.I.I.I.I.I.K.|.wX6X6X6X6X6X6X6X6X6X>XQ.K.K.H.I.K.>X9X6X6X6X6X6X6X6X6X6X|.I.K.I.I.D.(.6X6X6X6X6X6X6X9X`.K.I.D.).6X6X6X6XQ.K.I.D.|.6X6X6X6X6X6X6X6X6X6X6X6X6X6X6XI.c.B.B.S.S.S.S.z.c.c.y.3.3.3.` -X;X!.wX6X6X6X6X6X6X9X`.I.H.Q.6XrXrX6X6X6X6X6X9X>XD.I.K.K.I.I.I.I.I.H.(.9X6X6X6X6X6X6X6X6X(.I.I.I.I.I.I.I.I.I.I.I.I.I.I.I.I.I.I.I.I.`.6X6X6X6X6X6X6X6X6X6X6X6X6X6X6X`.K.I.K.I.I.S.`.9X6X6X6X9X'.D.I.I.I.I.I.I.'.6X,X9X6X1Xb < t t t t t w t & ~ S.z.c.r.>.1.1.1.r.c.B.SXZXrX*XK.I.I.I.I.D.:XwXwX6X6X6X6X6X>XI.I.I.H.>XwX6X6X6X6X",
"6X6XeX5XD.D.I.I.I.I.I.I.I.I.K.I.H.H.Y.D.'.rX6X6X6X6X6X6X6X6X6X6X9X(.K.Y.Y.I.>X6X6X6X6X6X6X`.H.P.I.9X`.H.Y.K.`.0X6X6X6X6X6XwXQ.K.I.I.K.Q.9X6XsX .# t t t t t t t t t t t t t t t t t ; W 1.r.S.z.S.B.c.r.1.3.1.y.SXFXAXZXrX(.S.I.I.K.`.6X6X6X6X6X6X6X6X6XwX|.K.K.I.I.I.K.Q.8X9X6X6X6XwX>XK.Y.D.`.wXwX`.H.I.I.I.I.6X6X6X6XQ.K.K.I.I.I.D.`.wXwXwX`.K.I.I.K.*X6X6X6X6X6X6X6X6X6X9X(.K.Y.K.I.I.I.I.I.I.I.I.>X6X6X6X6X6X6X6X6X6X6X6X6X6X6X6XQ.K.K.c.S.c.z.S.c.S.r.] >.>.>.>.>.>.1.1.r.SXFXsX6X9X6X6X6X6X6X6X6X6X6X6X6X6X6X6X6X9X9X`.D.D.I.I.I.I.I.D.`.rX6X6X6X6X6X6X6X6X6X6X`.K.K.H.H.I.(.9X6X6X6X6X6X6X6X6X6X>XQ.K.I.I.I.Q.6X6X6X6X6X6X6X9X>XI.I.D.Q.6X6X6X6XQ.K.I.D.|.6X6X6X6X6X6X6X6X6X6X6X6X6X6X6XQ.c.B.B.S.S.S.S.z.c.c.r.3.3.3.` -XQ.`.wX6X6X6X6X6X6X9X(.I.H.(.rXwX9X9X6X6X6X6X9X|.D.I.K.K.I.I.I.I.I.H.(.9X6X6X6X6X6X6XwX6XI.I.I.I.I.I.I.I.I.I.I.I.I.I.I.I.I.I.I.I.I.Q.,X6X6X6X6X6X6X6X6X6X6X6X6X6X6X>XQ.H.K.I.I.H.Q.9X6X6X6X9X>XI.I.I.I.I.I.I.Q.6X6X9X6X1Xb < t t t t w w t & ~ S.z.c.r.1.1.1.1.t.S.C.SXZXrX9XI.K.I.I.I.D.(.wXwX6X6X6X6X6X6XQ.K.I.I.`.wX6X6X6X6X",
"6X6X6X0X`.D.I.I.I.I.I.I.I.I.I.I.K.I.K.(.6X6X6X6X6X6X6X6XwXwX,XrX>XK.I.Y.I.Y.9X6X6X6X6X6XwX`.H.P.I.9X'.H.Y.I.(.9X6X6X6X6X6XwX`.K.I.I.K.I.,X6XsX .# t t t t t t t t t t t t t t t t t : P r.6.p.c.S.B.S.r.1.3.3.r.SXFXAXZXaX&XS.I.I.I.(.6X6X6X6X6X6X6X6X6XwX XK.K.I.I.I.K.I.>X9X6X6X6XwX,XI.I.K.`.6XwX}.H.I.I.I.I.|.6X6X6XQ.K.K.I.I.I.D.).6X6XwX|.K.I.I.K.`.6X6X6X6X6X6X6X6X6X9X(.I.Y.K.K.I.I.I.I.I.I.K.`.9X6X6X6X6X6X6X6X6X6X6X6X6X6X6X}.K.K.c.c.c.z.S.B.S.S.r.>.>.>.>.>.1.1.1.r.SXKXgX9X6X6X6X6X6X6X6X6X6X6X6X6X6X6X6X6X6X0X'.D.D.I.I.I.I.I.I.).rX6X6X6X6X6X6X6X6X6X6X|.I.H.H.K.Y.I.>X9X6X6X6X6X6X6X6X6X9X`.K.I.I.I.I.>X6X6X6X6X6X6X6X6XQ.K.K.I.6XwX6X6XQ.K.I.D.|.6X6X6X6X6X6X6X6X6X6X6X6X6X6X6XQ.c.B.B.S.S.S.c.c.S.p.1.1.3.3.` %X(.>X6X6X6X6X6X6X6X6X(.I.I.&XrX6X9X9X9X6X6X6X9X`.D.I.K.K.I.K.K.I.I.H.`.9X6X6X6X6X6X6XwXoXI.I.I.I.I.I.I.I.I.I.I.I.I.I.I.I.I.I.I.I.I.K.`.wX6X6X6X6X6X6X6X6X6X6X6X6X6X6X`.K.K.I.I.K.D.>X6X6X6X6X6X(.I.I.I.I.I.I.D.`.6X6X6X1Xn ; t w t t t t t > ! S.c.c.1.1.1.1.1.t.z.B.SXZX6X9X`.D.I.I.I.K.I.6XrX9X6X6X6X6X6X*XK.I.I.I.6X6X6X6X6X",
"6X6X6X7X9X(.K.I.I.I.I.I.I.I.I.K.I.K.Q.6X6X6X6X6X6X6X6X6X9XwX6X6XQ.K.Y.I.I.>X6X6X6X6X6X6XwX`.H.K.I.9X>XK.Y.I.Q.6X6X6X6X6X6XwX'.I.I.I.K.I.,X6XsX .# t 2 t t t t t t t t t t t t t t t ; L r.] p.c.z.B.B.t.3.3.3.1.cXKXAXZXrX*XH.I.I.I.(.6X6X6X6X6X6X6X6X6XwX,XI.K.I.K.I.I.K.>X6X6X6X6X6X9XQ.I.I.Q.6X6X|.K.K.I.I.I.'.wX6XwX`.K.K.I.I.I.D.!.6XwXwX>XK.Y.I.K.(.6X6X6X6X6X6X6X6X6X9X`.K.Y.I.K.I.I.I.I.I.I.I.Q.9X6X6X6X6X6X6X6X6X6X6X6X6X6X6X|.K.D.c.c.c.z.z.z.z.S.c.>.>.>.>.1.1.1.1.6.SXKXfX9X6X6X6X6X6X6X6X6X6X6X6X6X6X6X6X6X9X9X>XD.D.I.I.I.I.I.H.).rX6X6X6X6X6X6X6X6X6XwX6XQ.S.I.Y.Y.D.(.9X6X6X6X6X6X6X6X6X9X>XI.K.I.I.D.`.6X6X6X6X6X6X6X9X`.I.I.I.>XwX6X6X`.K.I.D.`.9X6X6X6X6X6X6X6X6X6X6X6X6X6X6XQ.c.B.B.S.S.S.c.z.S.p.1.1.3.3.` %X*X>X6X6X6X6X6X6X6X6XI.I.I.>XwX6X9X9X9X6X6X6X9X`.D.K.K.K.K.I.K.I.I.S.`.9X6X6X6X6X6X6XwX XI.I.I.I.I.I.I.I.I.I.I.I.I.I.I.I.I.I.I.I.I.H.Q.6X6X6X6X6X6X6X6X6X6X6X6X6X6X6X|.I.K.K.I.I.S.).9X6X6X6XwX>XI.I.I.I.I.I.D.Q.6X6X6XrXn # t w t t t t t > ! S.c.c.>.1.1.1.1.t.S.B.ZXZX,X9X6XQ.I.I.I.K.Y.,XrXrX6X6X6X6X6X5XQ.K.I.K.>X9X6X6X6X",
"6X6X6X6X0X>XD.I.I.I.I.I.I.I.I.I.K.I.>X6X6X6X6X6X6X6X6X6X,X6XrX`.K.Y.Y.H.I.9XwX6X6X6X6X6XwX).H.K.K.9X>XI.Y.I.I.5X6X6X6X6X6XwX>XI.I.I.I.K.>X6XsX .# t t t t t t t t t t t t t t t t t ; H r.] r.c.z.S.B.t.3.3.3.>.cXKXAXZXrX<XI.I.I.I.I. X6X6X6X6X6X6X6X6XwX6XQ.H.K.K.Y.Y.K.'.6X6X6X6X6X9XQ.K.I.Q.6X6X,XI.K.I.I.I.`.wX6XwX`.K.K.I.I.I.S.Q.6X6XwX6XI.Y.Y.I.Q.6X6X6X6X6X6X6X6X6X9X`.K.Y.I.K.K.I.I.I.I.I.I.I.5X6X6X6X6X6X6X6X6X6X6X6X6X6X6X6XQ.D.c.c.z.z.z.z.z.z.S.t.>.>.>.1.1.1.1.6.SXKXiX>X9X6X6X6X6X6X6X6X6X6X6X6X6X6X6X6X6X9X>XI.D.I.I.I.I.I.S.Q.9X6X6X6X6X6X6X6X6X6X6X9X`.D.I.Y.I.H.I.>X6X6X6X6X6X6X6X6X6X9XQ.H.I.I.I.(.6X6X6X6X6X6X6X6X|.I.I.K.>XwX6X6X'.I.I.K.(.9X6X6X6X6X6X6X6X6X6X6X6X6X6X6XQ.c.B.B.B.S.S.c.c.c.y.1.1.3.3.` %X5X,X9X6X6X6X6X6X6X>XI.I.I.>XwX6X6X9X9X6X6X6X0X`.D.K.K.I.I.I.I.I.I.S.`.9X6X6X6X6X6X6XwX XI.I.I.I.I.I.I.I.I.I.I.I.I.I.I.I.I.I.I.I.I.K.D.>X6X6X6X6X6X6X6X6X6X6X6X6X6X6X,XQ.K.K.K.I.D.I.6X9X6X6X6X6X(.I.I.I.I.I.K.K.`.6XoXrXM # t w t t t t t > ! S.c.p.>.1.1.1.1.p.S.C.ZXZX,X9X9X>XI.I.I.I.I.>XrX9X6X6X6X6X6X9X`.K.I.K.`.6X6X6X6X",
"6X6X6X6X6X6XQ.I.I.I.I.I.I.I.I.I.I.'.6X6X6X6X6X6X6X6X6X6X,X,X>XI.I.Y.Y.I.`.9X6X6X6X6X6X6XwXQ.K.K.K.6X XI.I.I.Y.>X7X6X6X6X6X6X6XQ.I.I.I.K.>X9XsX .# t t t t t t t t t t t t t t t t t ; m y.>.r.S.z.S.B.p.3.3.3.>.hXKXAXAXrX9XY.H.I.I.I.|.6X6X9X6X6X6X6X6X6X6X(.H.H.K.Y.Y.K.).6X6X6X9X6X9XQ.K.I.I.6X6X6XQ.K.I.I.H.).wX6X6X*XK.K.I.I.I.S.Q.6X6XwX6XQ.Y.Y.I.I.6X6X6X6X6X6X6X6X6XrX`.K.Y.I.K.I.I.I.I.I.I.I.D.'.9X6X6X6X6X6X6X6X6X6X6X6X6X6X6X`.D.S.c.z.z.z.z.z.z.z.S.r.>.>.1.1.1.1.6.MXKX8XQ.0X6X6X6X6X6X6X6X6X6X6X6X6X6X6X6X6X6X>XI.I.I.I.I.I.I.D.Q.9X6X6X6X6X6X6X6X6X6X6X6X>XI.I.I.K.I.D.`.9X6X6X6X6X6X6X6X6X9X`.K.I.I.I.D.OX6X6X6X6X6X6X6X,XQ.I.K.`.wX6X6X>XI.I.I.Q.9X6X6X6X6X6X6X6X6X6X6X6X6X6X6X(.c.B.B.B.S.S.c.c.c.r.1.1.3.u.` %X9X,X9X9X9X6X6X6XwX|.I.K.Y.8XwXwX6X9X9X9X9X6X0X`.D.K.K.I.I.I.I.I.I.D.`.9X6X6X6X6X6X6XwX XD.K.I.I.I.I.I.I.I.I.I.I.I.I.I.I.I.I.I.I.I.I.D.'.9X6X6X6X6X6X6X6X6X6X6X6X6X6X6X'.K.K.K.I.K.D.>XrX6X6X6X9X'.I.I.I.I.I.I.K.Q.,X6XaXF # u w t t t t t > ! S.c.p.>.1.1.1.1.p.c.C.ZXZX,X9X9X6X`.I.I.I.I.`.rX9X6X6X6X6X6X9X>XK.I.K.Q.6X6X6X6X",
"6X6X6X6X6XeX|.I.I.I.I.I.I.K.I.D.Q.9X6X6X6X6X6X6X6X6X6X6XrX>XQ.I.K.Y.I.Q.6X6X6X6X6X6X6X6XwXQ.I.I.D.6X6XI.I.I.K.>X7X6X6X6X6X6X6XQ.I.I.I.K.:XrXsX .# t 2 t t t t t t t t t t t t t t t 9 c >.>.>.c.B.S.B.c.3.1.3.] hXFXAXFXrX9XQ.H.I.Y.I.'.9X6X6X6X6X6X6X6X6X6X`.H.H.K.I.Y.H.Q.6X6X6X6X6X9X(.H.Y.K.6X6X9X(.H.I.I.I.(.0X6X6X>XK.I.I.I.I.S.Q.6X6X6X9XQ.I.Y.I.I.>X6X6X6X6X6X6X6X6XrX'.K.I.I.K.I.I.I.I.I.I.I.D.`.6X6X6X6X6X6X6X6X6X6X6X6X6X6X6X|.K.S.c.z.z.z.z.z.z.z.z.c.6.>.1.1.>.1.6.MXKX9XS.>X9X6X6X6X6X6X6X6X6X6X6X6X6X6X6X6X6X6XI.I.I.I.I.I.I.D.I.6X6X6X6X6X6X6X6X6X6X6X6X9X`.K.K.H.K.K.I.>X9X6X9X6X6X6X6X6X6X>XI.K.I.I.D.'.6X6XwX6X6X6X6X6X(.I.K.(.6X6X6X,XI.I.I.I.9X9X6X6X6X6X6X6X6X6X6X6X6X6X6X(.c.B.B.z.S.B.c.S.c.r.1.3.1.u.` T.rX,X9X6X6X6X6X6X6X`.I.K.Q.9XwX6X6X6X6X6X6X6X0X`.D.K.I.I.I.I.I.I.I.H.`.9X6X6X6X6X6X6X6X XD.K.I.I.I.I.I.I.I.I.I.I.I.I.I.I.I.I.I.I.I.I.K.`.0X6X6X6X6X6X6X6X6X6X6X6X6X6X6X,XQ.K.K.I.I.S.`.9X6X6X6X6X6XI.I.I.I.I.I.K.K.'.6XrXS # u w t t t t t > ! A.c.i.1.1.1.1.1.c.B.D.ZXZX6X9X6XwX6XQ.I.I.I.(.9X9X9X6X6X6X6X6X6XQ.I.I.I.5XwX6X6X",
"6X6X6X6X6X6X6XQ.K.I.I.I.I.I.I.Q.6X6X6X6X6X6X6X6X6X6X6XwX9XQ.K.I.K.Y.K.>XrX,X6X6X6X6X6X6X9XQ.I.I.K.,X6XY.K.Y.K.|.7X6X6X6X6X6XwX(.I.I.I.K.(.6XrX .# t 2 t t t t t t t t t t t t t t t 9 c >.>.>.p.S.B.B.S.y.>.3.>.aXFXAXFXvXkX8XK.Q.I.S.Q.9X9X6X6X6X9XrX9X9XrX>XI.H.K.K.K.K.Q.6X6X6X6X9X9XQ.S.K.c.|.6X9XQ.H.K.H.S.Q.9X6X9X1XK.K.I.K.Y.K.Q.6X6X6X9X(.I.I.I.I.|.6X6X6X6X6X6X6X6X9X>XI.I.I.I.I.I.I.I.I.I.I.K.Q.6X6X6X6X6X6X6X6X6X6X6X6X6X6X6X6XI.S.c.c.z.z.B.z.z.z.z.S.p.>.1.3.1.1.>.MXKXiXS.I.8X6X6X6X6X6X6X6X6X6X6X6X6X6X6X6X6X9XQ.I.I.I.I.I.I.D.I.6X6X6X6X6X6X6X6X6X6X6X6X9X|.I.K.H.H.I.K.`.9X9X6X6X6X6X6X6X6X6X(.K.I.I.K.Q.6X6XwX6X6X6X6X6X>XI.K.Q.6X6X6X6XI.I.I.D.5X9X6X6X6X6X6X6X6X6X6X6X6X6XwXQ.c.S.S.z.S.z.c.S.c.r.1.3.1.u.` Y.dX,X9X6X6X6X6X6X6X).K.D.*X9X6X6X6X6X6X6X6X9X9XQ.D.K.K.K.K.K.K.K.I.K.`.9X6X6X6X6X6X6X6X6XI.K.I.I.I.I.I.I.I.I.I.I.I.I.I.I.I.I.I.I.I.I.I.I.9X6X6X6X6X6X6X6X6X6X6X6X6X6X6X6X`.D.K.I.I.K.Q.5X6X6X6XwX6X`.I.I.I.I.I.I.I.I.|.hXS # t w t t t t t > ! A.c.i.1.3.1.1.1.c.z.D.ZXZX6X9X6X6X6X(.K.I.I.I.9XrX9X6X6X6X6X6X9XQ.I.I.S.`.rX6X6X",
"6X6X6X6X6X6XwX|.I.I.I.I.I.I.I.|.eX6X6X6X6X6X6X6X6X6XwXrX`.K.K.K.I.K.&XrX,X6X6X6X6X6X6X6X9XQ.I.I.K.,XwXQ.K.Y.K.`.6X6X6X6X6X6XwX'.I.I.I.I.Q.6XrX .# t < t t t t t t t t t t t t t t t 9 s >.6.>.p.S.B.S.S.p.>.3.] <XKXAXAXFXAXAXAXZXBXiXsXBXBXvXvXvXvXZXZXVXZXVXBXVXVXVXVXVXBXVXVXBXvXBXBXkXfXsXaXdXdXvX9X>X&X(.Q.`.9X9X9X,XW.D.S.c.H.c.D.,X6X6X9X`.I.I.I.D.'.6X6X6X6X6X6X6X6X9X>XI.I.I.I.I.I.I.I.I.I.I.I.D.'.6X6X6X6X6X6X6X9X9X9X6X6X6X6X6XQ.c.S.c.c.S.S.S.B.z.z.c.c.r.>.1.1.1.>.mXKXiXH.I.(.6X6X6X6X6X6X6X6X6X6X6X6X6X6X6X6X9XQ.I.I.I.I.I.I.I.I.6XwX6X6X6X6X6X6X6X6X6X6X6X,XQ.K.K.H.I.I.Y.9X9X6X6X6X6X6X6X6X6X`.K.K.I.K.I.>X6XwX6X6X6X6X6X6XQ.K.I.6XwX6X6X(.I.I.S.'.9X6X6X6X6X6X6X6X6X6X6X6X6XwXQ.z.S.S.S.S.c.c.S.p.1.1.3.3.3.` Y.jX,X9X6X6X6X6X6X6XQ.K.D.>X9X6X6X6X6X6X6X6X9X9XQ.K.K.K.K.K.K.K.K.K.D.`.9X6X6X6X6X6X6X6X,XI.K.I.I.I.I.I.I.I.I.I.I.I.I.I.I.I.I.I.I.I.I.I.K.`.9X6X6X6X6X6X6X6X6X6X6X6X6X6X6X>XD.I.I.K.I.I.*X6X6XwXwX6X6XI.I.I.I.I.I.I.H.(.rXI # t t t t t t t - ! A.c.i.1.1.1.1.1.c.c.D.ZXZX6X9X6X6X6X(.K.I.I.I.6XrX9X6X6X6X6X6X9X(.I.I.S.Q.9X6X6X",
"6X6X6X6X6X6X6X6X(.K.I.I.I.H.(.wXoX6X6X6X6X6X6X6X6X6XrX|.K.K.K.I.K.`.rX,X6X6X6X6X6X6X6X6X>XI.I.I.I.,XwX(.K.Y.K.(.9X6X6X6X6X6XwX>XI.I.I.I.I.>XsX| # t < t t t t t t t t t t t t t t t 0 5 <.1.>.r.S.z.S.S.p.1.y._ Q.KXAXAXAXZXAXFXFXFXFXFXAXAXAXAXAXFXFXFXFXFXFXFXFXFXFXFXFXFXFXFXFXFXFXFXFXFXFXFXDXDXFXFXDXZXDXDXZXZXSXvXvXgXdXsX9X8X<X>X9X9X9X9X*XS.H.H.S.(.6X6X6X6X6X6X6X6X9X>XQ.I.I.I.I.I.I.I.I.I.I.I.D.Q.6X6X6X6X6X6X6X9X6X6X6X6X6X6X6X`.c.c.c.z.S.S.S.B.z.z.z.c.p.r.>.>.1.>.gXKXsXH.I.I.*X9X6X6X6X6X6X6X6X6X6X6X6X6X6X6X9X(.I.I.I.I.I.I.I.I.>XwX6X6X6X6X6X6X6X6X6X6X6X6X&XI.K.H.I.I.K.*X9X6X6X6X6X6X6X6X6X>XI.K.I.I.I.'.6XwX6X6X6X6X6X6XQ.S.I.>XrX6X6X(.I.I.H.(.9X6X6X6X6X6X6X6X6X6X6X6X6X6XQ.z.S.S.S.c.c.c.S.t.1.1.3.3.3.` I.jX6X9X6X6X6X6X6X6XI.D.D.>X9X6X6X6X6X6X6X6X9X9XQ.K.K.K.K.K.K.K.K.K.D.`.9X6X6X6X6X6X6X6X,XI.K.I.I.I.I.I.I.I.I.I.I.I.I.I.I.I.I.I.I.I.I.I.I.I.6X6X6X6X6X6X6X6X6X6X6X6X6X6X6X6XQ.K.I.H.I.D.(.6X6X6X6X6X6X'.I.I.I.I.I.I.Y.D.1XQ # u t t t t t t - ! A.c.r.1.1.3.1.1.c.S.D.ZXZX6X9X6X6X6X(.K.I.I.I.6XrX9X6X6X6X6X6X9X`.I.I.I.I.6X9X6X",
"6X6X6X6X6X6X6XwX>XI.I.I.I.I.|.eX6X6X6X6X6X6X6X6X6XwX>XI.K.I.I.K.Q.9X6X6X6X6X6X6X6X6X6X9X>XK.I.I.I.,XwX`.K.Y.K.I.9X6X6X6X6X6X6X6XQ.I.I.I.D.|.dX .# t 2 t t t t t t t t t t t t t t t 0 3 :.r.>.r.p.z.S.S.c.r.3._ :XKXZXAXAXZXZXZXFXFXFXFXFXFXAXAXAXAXAXAXAXAXAXAXSXAXAXAXVXVXVXZXZXVXVXZXZXZXZXVXZXFXDXZXZXZXFXFXFXDXDXDXDXFXFXGXFXFXKXKXFXFXZXZXbXdXgXdXrXaXdXrXrXrXwX,X,X,X6X>XK.H.I.I.I.I.I.Y.I.I.I.I.I.I.|.9X6X6X6X6X6X6X6X9X6X6X6X6X6X>Xc.S.c.c.c.S.S.B.B.z.z.c.c.u.1.1.1.>.gXFXsXH.I.K.Y.6X6X6X6X6X6X6X6X6X6X6X6X6X6X6X9X`.K.I.I.I.I.I.I.K.>X6X6X6X6X6X6X6X6X6X6X6X6X6X>XQ.K.K.H.Y.I.(.9X9X6X6X6X6X6X6X9X>XQ.H.K.I.I.(.6X6X6X6X6X6X6X6X`.D.I.>XrX6X6X*XH.I.S.Q.9X6X6X6X6X6X6X6X6X6X6X6X6XwX^.z.S.c.c.c.S.c.S.r.1.1.3.3.3.{ Q.jX6X9X6X9X6X6X6X>XK.K.D.>X9X6X6X6X6X6X6X6X9X9XI.K.K.K.K.K.K.K.K.K.D.`.9X6X6X6X6X6X6X6X,XK.K.I.K.I.I.I.I.I.I.I.I.I.I.I.I.I.I.I.I.I.I.I.I.K.`.wX6X6X6X6X6X6X6X6X6X6X6X6X6X6X|.I.K.H.I.I.I.>X6X6X6X6X6X6XQ.K.Y.I.I.I.Y.D.^.~ < u t w t t t t > ! A.c.r.1.1.1.1.r.c.c.D.AXZX6X6X6X6X6X(.K.I.I.K.>XrX9X6X6X6X6X6X6X|.I.I.I.K.|.9X6X",
"6X6X6X6X6X6X6X6X6X`.I.I.I.I.oX6X6X6X6X6X6X6X6X6XwX6XQ.I.K.I.K.I.>X6X,X6X6X6X6X6X6X6X6X9X`.D.I.I.Q.,XwX&XK.Y.U.I.5X6X6X6X6X6X6X6XQ.I.I.I.D.`.jX .# t 2 t t t t t t t t t t t t t t t 0 3 %.r.>.>.p.S.S.S.H.y.>.6.gXFXZXAXAXAXFXHXAXMXfXsXsXdXaX9X9X1X1X<X<X:XY.p.p.p.p.p.p.I.*X`.&X&X&X&XK.H.S.K.>X1X1X>X(.I.Q.`.*X<XgXdXdXdXaXaXgXkXMXBXZXZXAXFXAXFXFXFXFXFXFXDXAXZXZXvXvXjXdXsX>X`.Q.Q.D.D.S.S.S.H.K.K.I.K.).6X6X6X6X6X6X6X6X9X6X6X6X6X6X>Xc.S.c.c.c.S.B.S.z.z.z.c.c.c.p.1.3.>.fXFXsXH.I.Y.H.`.6X6X6X6X6X6X6X6X6X6X6X6X6X6X9X`.K.I.I.I.I.I.I.K.|.6X6X6X6X6X6X6X6X6X6X6X6X6X6X`.K.K.H.I.I.I.>X9X6X6X6X6X6X6X6X9X(.K.K.I.I.I.6X6X6X6X6X6X6X6X>XI.I.'.rX6X6X>XI.I.H.I.6X6X6X6X6X6X6X6X6X6X6X6X6XwX^.z.S.S.c.c.S.c.S.r.1.1.3.3.3.1.Q.jX6X9X6X9X6X6X6X*XK.K.I.6X6X6X6X6X6X6X6X6X9X9XI.K.K.K.K.K.K.K.K.K.D.`.9X6X6X6X6X6X6X6X|.D.K.I.K.I.I.I.I.I.I.I.I.I.I.I.I.I.I.I.I.I.I.I.I.I.I.>XwX6X6X6X6X6X6X6X6X6X6X6X6X6X6XQ.H.I.I.I.K.'.6X6XrX6X6X6X`.K.I.I.I.I.I.D.Q.! < u w w t t t t > ! A.c.r.1.1.1.>.r.c.z.D.AXZX6X6X6X6X6X(.K.I.I.D.>XrX9X6X6X6X6X6X6X|.I.I.I.I.(.9X6X",
"6X6X6X6X6X6X6X6X6X5XI.I.I.I.6XoX6X6X6X6X6X6X6XwXwX(.I.I.K.I.K.`.rX,X6X6X6X6X6X6X6X6X9X9X`.D.I.I.Q.9XwX>XK.U.U.H.>XeX6X6X6X6X6X6X`.I.I.I.K.Q.dX .# t 2 t t t t t t t t t t t t t t t 0 1 &.1.>.] p.S.S.S.H.u.] Q.FXZXAXFXAXVX>Xp.e.1.] ] K.Q.Q.Q.Q.Q.Q.Q.Q.Y.u.;.;.;.;.;.1.I.(.Q.Q.I.Q.H.` ;.` H.Q.Q.Q.K.r.` { 1.] { K.Q.^.Q.c.r.r.p.p.c.>X>X,X9X1X&X`.&X>X6XdXvXVXVXZXAXZXAXFXFXFXFXAXZXVXkXfX0X9X*XQ.Q.I.K.D.>X,X,X,X,X6X9X9X9X9X6X6X6XwX'.z.S.c.c.c.S.z.B.z.z.z.z.z.S.H.r.3.>.fXFXgXK.I.Y.P.K.>XwX6X6X6X6X6X6X6X6X6X6X6X6X9X`.K.I.I.I.I.I.I.H.`.9X6X6X6X6X6X6X6X6X6X6X6X6X6X>XI.K.I.H.I.I.`.6X6X6X6X6X6X6X6X9X*XI.I.I.I.I.>X6X6X6X6X6X6X6X9XQ.K.`.rX6X6X5XI.I.I.I.5X6X6X6X6X6X6X6X6X6X6X6X6XwX`.z.S.c.c.c.S.c.c.r.1.1.3.3.1.r.Q.jX6X6X6X6X6X6X9X(.K.K.Q.9X6X6X6X6X6X6X6X6X9X5XI.K.K.K.K.K.K.K.K.K.D.`.9X6X6X6X6X6X6X6X|.D.K.I.I.I.K.I.I.I.I.I.I.I.I.I.I.I.I.I.I.I.I.I.I.I.K.).wX6X6X6X6X6X6X6X6X6X6X6X6X6X9X`.K.I.K.I.K.(.6X6X6X6X6X6X6X(.I.I.I.I.I.D.Q.T < u i t t t t t - ! A.c.r.1.1.1.>.y.S.z.K.AXZX6X6X6X6X6X(.K.I.I.D.`.rX9X6X6X6X6X6X9X6XI.I.I.I.I.6X6X",
"6X6X6X6X6X6X6X6X6X>XK.I.S.].6X6X6X6X6X6X6X6X6XwX|.I.I.K.I.K.^.6XrX6X6X9X6X6X6X6X6X9X9X9XQ.D.I.K.Q.9XwX>XK.U.Y.H.*XeX6X6X6X6X6X6X|.I.I.I.I.Q.sX .# t t t t t t t t t t t t t t t t t 0 > $.y.6.] r.z.c.S.H.y.r.BXFXZXZXFXBX(.] ` >.1.1.S.`.!.^.^.Q.`.(.(.%XH.3.1.1.1.1.>.p.%X(.(.`.(.(.r.>.1.r.Q.Q.Q.`.K.1.3.3.3.>.r.K.Q.Q.Q.r.>.>.>.>.c.(.(.!.Q.Q.t.] r.>.3.Q.`.`.`.>X>X9X9XrXrX>X>XrXrXdXcXvXbXZXDXDXDXSXvXdXdXdXrXrXrX9X>X,X6X9X6X6X6XwX&X[ c.c.c.c.S.z.z.z.z.z.c.c.c.S.p.3.] aXFXgXK.Y.Y.I.H.(.6X6X6X6X6X6X6X6X6X6X6X6X6X9X}.I.I.I.I.I.I.I.H.`.6X6X6X6X6X6X6X6X6X6X6X6X6X6X6XQ.K.I.I.I.I.I.>X6X6X6X6X6X6X6X9X5XI.I.I.I.K.`.9X6X6X6X6X6X6X6X`.D.(.rX6X6X9XQ.I.I.H.|.wX6X6X6X6X6X6X6X6X6X6X6XwX`.c.S.c.c.c.S.S.p.1.1.3.3.1.1.p.K.cX6X6X6X6X6X6X6XQ.K.S.`.rX6X6X6X6X6X6X6X6X9X>XD.K.K.K.K.K.K.K.K.K.D.`.9X6X6X6X6X6X6X6X|.K.K.I.I.I.I.I.I.I.I.I.I.I.I.I.I.I.I.I.I.I.I.I.I.I.I.D.|.wX6X6X6X6X6X6X6X6X6X6X6X6X6X,XI.K.I.I.I.D.>X6X6X6X6X6X9X6XI.I.I.I.Y.D.Q.) < u i t t t t t - ! A.c.r.1.1.1.>.y.S.c.D.AXAX6X6X6X9X,XQ.I.I.I.D.`.rX9X6X6X6X6X6X9X5XI.I.I.I.D.>XwX",
"6X6X6X6X6X6X6X6XwX6XK.H.I.6X6X6X6X6X6X6X6X6XwX6X(.I.K.K.K.Q.,XrXrX9X6X9X6X6X6X9X6X9X9X1XD.D.I.I.Q.6X6X,XI.U.Y.H.`.6X6X6X6X6X6X6X,XI.K.I.I.D.9X .# t < t t t t t t t t t t t t t t t 0 > R y.6.>.r.z.B.S.;Xs.<XKXZXZXFXvX(.r.1.1.1.` r.Q.(.Q.Q.Q.Q.Q.Q.Q.Q.p.>.3.3.>.1.>.K.`.Q.(.(.(.H.>.1.>.c.Q.Q.Q.Q.p.>.1.1.>.3.r.Q.Q.^.K.>.>.1.1.1.Q.`.`.Q.`.K.1.r.y.1.1.I.Q.Q.Q.Q.Q.Q.Q.Q.Q.p.] >.] >.r.y.y.p.c.H.Q.&X<XiXfXkXBXVXvXvXvXcXdXsXrXwXwXeX&X| r.p.c.z.z.S.S.S.S.B.S.c.c.c.c.p.] iXKXkXI.Y.Y.I.I.I.'.wX6X6X6X6X6X6X6X6X6X6X6X9X>XI.I.I.I.I.I.I.H.).6X6X6X6X6X6X6X6X6X6X6X6X6X6X6X>XK.I.I.H.I.K.Q.6X6X6X6X6X6X6X6X6X(.I.I.I.K.Q.6X6X6X6X6X6X6X6X>XS.Q.6XwX6X9X`.H.I.S.`.wX6X6X6X6X6X6X6X6X6X6X6XwX`.c.S.c.c.c.c.c.t.1.3.3.3.1.1.p.D.cX6X6X6X6X6X6X,XI.K.H.`.rX6X6X6X6X6X6X6X6X0X>XD.K.K.K.K.K.K.K.K.K.D.`.9X6X6X6X6X6X6X6X`.K.K.I.I.I.I.I.I.I.I.I.I.I.I.I.I.I.I.I.I.I.I.I.I.I.I.K.Q.6X6X6X6X6X6X6X6X6X6X6X6X6X6X6X`.D.I.K.I.D.`.6X6X6X6X6X6X9X`.K.Y.I.Y.D.W.^ < u i t t t t t - ! A.c.r.1.1.3.>.y.S.z.K.AXAX6X6X6X9X>XI.I.I.I.D.`.rX9X9X6X6X6X6X9X|.I.I.I.I.D.>X9X",
"6X6X6X6X6X6X6X6X6X6X).I.|.eX6X6X6X6X6X6X6X6XeX|.I.I.K.K.K.>XrXrXrX9X9X9X6X9X6X9X6X9X9X>XD.K.I.K.(.6X6X6XQ.H.Y.H.(.6X6X6X6X6X6X6X6XQ.D.I.I.D.,X .# t < t t t t t t t t t t t t t t t t > Y y.>.>.>.c.z.S.j.%XAXZXZXFXgX`.I.1.1.1.1.] H.`.Q.Q.Q.Q.Q.Q.Q.`.K.>.1.3.3.1.1.r.Q.`.Q.Q.(.Q.r.1.1.r.K.Q.Q.Q.Y.r.1.>.1.3.>.i.`.Q.^.n.>.1.1.>.p.(.`.^.Q.(.r.1.1.1.>.p.(.Q.Q.Q.Q.Q.Q.Q.Q.H.3.3.3.3.3.,.>.>.>.>.] ` ` _ _ _ ] r.t.K.`.|.,X,X6X6X6X6XwXQ.| 6.y.p.z.z.S.S.S.S.S.S.c.c.c.c.c.| iXKXvXI.Y.Y.I.Y.H.Y.6X6X6X6X6X6X6X6X6X6X6X6X9X>XI.I.I.I.I.I.I.K.Q.6X6X6X6X6X6X6X6X6X6X6X6X6X6X6X6XI.K.I.I.H.I.I.>X9X6X6X6X6X6X6X6X`.I.I.I.I.I.,X6X6X6X6X6X6X6X5XD.I.6XwX6X9X'.I.I.K.Q.6X6X6X6X6X6X6X6X6X6X6X6XwX`.c.S.c.c.c.S.c.r.1.3.3.3.1.u.S.D.jX6X6X6X6X6X6X>XK.K.H.|.9X6X6X6X6X6X6X6X6X0X>XD.K.K.K.K.K.K.K.K.K.D.`.9X6X6X6X6X6X6X6X`.D.K.I.I.I.I.I.I.I.I.I.I.I.I.I.I.I.I.I.I.I.I.I.I.I.I.I.K.).6X6X6X6X6X6X6X6X6X6X6X6X6X6X>XI.I.K.I.I.Q.6X6X6X6X6X6X9X5XI.I.I.I.D.Q.^ < u i t t t t t - ! A.c.r.1.1.3.>.y.S.c.K.AXAX6X6X6X9X`.K.I.I.I.K.`.rX9X6X6X6X6X6X9X|.I.I.I.I.D.'.rX",
"6X6X6X6X6X6X6X6X6XeX6XOX6X6XoX6X6X6X6X6X6X6X6X(.I.I.K.K.`.6XwX9X9X9X6X6X6X6X6X9X6X9X9X>XD.K.I.H.`.rX6X6XQ.H.Y.H.I.6X6X6X6X6X6X6XwX`.S.I.I.D.|. .# t < t t t t t t t t t t t t t t t t > T r.1.1.>.p.z.S.j.gXFXZXFXgXQ.%Xu.` 1.1.;.p.`.Q.Q.Q.Q.Q.Q.Q.Q.Q.p.>.3.1.1.1.>.H.`.Q.Q.Q.(.s.1.r.>.r.Q.Q.^.Q.n.>.1.1.>.1.>.n.`.^.Q.i.>.1.1.1.K.`.`.^.Q.S.] r.1.1.1.H.(.Q.Q.Q.Q.Q.Q.Q.Q.y.1.y.1.3.3.3.3.3.3.3.1.1.1.1.1.3.3.;.3.;X(.(.(.Q.Q.Q.Q.Q.Q.K.6.>.>.y.t.z.z.z.S.S.S.S.S.S.c.c.c.r.9XKXBXI.Y.Y.I.Y.I.I.`.6X6X6X6X6X6X6X6X6X6X6X6X,XQ.I.I.I.I.I.I.K.Q.6X6X6X6X6X6X6X6X6X6X6X6X6X6X6X9X(.S.I.I.H.I.I.`.9X9X6X6X6X6X6X6X>XI.I.I.I.I.`.6X6X6X6X6X6X6X6XI.H.,XwX6XwX>XI.I.I.G.6X6X6X6X6X6X6X6X6X6X6X6XwX`.c.S.c.c.c.S.p.r.1.3.3.1.1.p.S.x.jXwX6X6X6X6X9X`.K.K.K.>X6X6X6X6X6X6X6X6X6X0X>XD.I.K.K.K.K.K.K.K.K.D.`.9X6X6X6X6X6X6X6X`.S.K.I.I.I.I.I.I.I.I.I.I.I.I.I.I.I.I.I.I.I.I.I.I.I.I.I.I.I.|.6X6X6X6X6X6X6X6X6X6X6X6X6X6XQ.D.I.I.I.I.>X6X6X6X6X6X6X9X`.I.I.I.D.Q.5.< t w t t t t t - ! A.c.r.1.1.3.>.p.S.c.K.AXAX6X6X6X6XQ.I.I.I.I.K.`.rX9X6X6X6X6X6XwX|.I.I.I.I.S.`.9X",
"6X6X6X6X6X6X6X6X6X7X*XI.(.6XoX6X6X6X6X6X6X6X>XI.I.K.K.Q.1X6X,X,X1X6X6X6X6X6X9X9X6X6X9X:XD.K.K.H.`.rX6XwXQ.H.Y.H.I.5X6X6X6X6X6X6XwX`.D.I.I.S.`.X.# t < t t t t t t t t t t t t t t t t < P 1.1.1.>.t.S.t.:XFXZXAXkXQ.Q.H.{ 1.1.` r.Q.`.Q.Q.(.Q.Q.Q.Q.`.U.1.3.3.1.1.1.r.Q.`.Q.Q.`.Y.1.>.1.>.S.Q.Q.^.Q.y.1.,.y.1.1.>.U.Q.^.Q.r.>.3.>.y.Q.`.`.`.I.1.1.1.1.>.y.Y.(.Q.Q.Q.Q.Q.Q.%XY.>.>.1.1.>.>.,.,.,.>.1.1.1.1.1.1.3.3.1.s.%X(.(.(.(.(.Q.(.Q.`.i.>.r.>.>.r.t.z.B.B.S.c.S.S.S.c.c.S.z.rXFXBXY.I.I.I.I.Y.I.I.>X9X6X6X6X6X6X6X6X6X6X6X6XQ.I.I.I.I.I.I.I.D.,X6X6X6X6X6X6X6X6X6X6X6X6X6X6X6X>XD.I.Y.K.K.K.Q.>X9X6X6X6X6X6X6X9XQ.I.K.I.S.(.9X6X6X6X6X6X6X6X(.H.|.wX6X6X6XQ.I.I.D.6X6X6X6X6X6X6X6X6X6X6X6XwX`.c.S.c.S.c.S.t.1.1.1.3.1.1.j.S.z.jXrX6X6X6X6X9X`.K.K.I.,X6X6X6X6X6X6X6X6X6X0X>XD.K.K.K.K.K.K.K.K.K.D.`.9X6X6X6X6X6X6X6X`.S.K.I.K.K.I.I.I.I.I.I.I.I.I.I.I.I.Y.I.I.I.I.I.I.I.I.I.I.K.Q.6X6X6X6X6X6X6X6X6X6X6X6X6X6X|.D.I.I.I.I.`.9X6X6X6X6X6X6X6XQ.I.Y.D.K.5.< t t t t t t t - ! A.c.6.1.1.3.>.p.S.c.W.AXAX6X6X6X>XI.I.I.I.I.K.`.rX9X6X6X6X6X6XwX|.I.I.I.I.S.`.0X",
"6X6X6X6X6X6X6X6X6X|.I.I.S.`.6X6X6X6X6X6X6X6X`.I.I.K.K.`.9X6X6X6X6X6X6X6X6X6X6X9X,X6X6X`.D.I.I.K.`.rX6XwX`.H.Y.K.K.>XwX6X6X6X6X6X6X|.K.K.I.H.(.6.# t t t t t t t t t t t t t t t t t t < A 3.1.3.>.e.H.D.BXFXFXBX(.Q.Y.r.1.u.1.] K.`.Q.Q.Q.Q.Q.^.Q.^.Q.p.>.3.3.1.1.>.c.&X^.Q.^.`.p.>.>.>.r.Q.Q.Q.^.n.>.3.3.3.>.1.y.Q.^.^.K.>.,.1.>.H.`.(.(.`.s.>.1.1.1.>.s.(.Q.Q.Q.Q.Q.Q.(.%Xu.>.>.1.1.>.>.>.>.>.>.>.1.1.>.>.1.1.3.3.H.Q.Q.Q.Q.(.(.(.(.*Xi.B 8.r.6.,.3.r.t.z.B.S.S.S.S.c.c.c.S.z.rXFXSXQ.I.I.Y.I.I.I.I.(.9X6X6X6X6X6X6X6X6X6X6X9XQ.D.I.I.I.I.I.I.D.>X6X6X6X6X6X6X6X6X6X6X6X6X6X6X6X9XQ.K.I.I.H.H.I.'.9X6X6X6X6X6X6X9X|.K.K.I.H.Q.6X6X6X6X6X6X6X6X).I.|.wX6X6X6X`.I.I.D.>XwX6X6X6X6X6X6X6X6X6X6XwX`.z.c.c.c.S.S.r.>.1.1.1.>.r.H.c.z.jXrX6X6X6X6X6XI.I.K.I.6X6X6X6X6X6X6X6X6X6X0X>XD.K.K.K.K.K.K.K.K.K.D.`.9X6X6X6X6X6X6X6X(.S.I.I.I.I.I.I.I.I.K.K.I.K.H.H.I.I.I.I.I.I.I.I.I.I.I.I.I.I.I.).6X6X6X6X6X6X6X6X6X6X6X6X6X6XQ.I.K.I.I.Q.9X6X6X6X6X6X6X9X>XI.I.K.K.0.< t t t t t t t - ! A.c.6.1.1.1.>.p.S.c.W.AXAX9X6X9X`.I.I.I.I.I.K.`.rX9X6X6X6X6X6XrX).D.I.I.I.D.(.0X",
"6X6X6X6X6X6X6XrX6XD.I.I.I.D.6X6X6X6X6X6X6X6X(.I.K.I.Q.6X6X6X6X6X6X6X6X6X6X6X6X6X,X6X6XQ.K.I.I.K.`.rX6XwX`.I.I.I.H.&X6X6X6X6X6X6X6X,XQ.K.I.K.Y.>.# t t t t t t t t t t t t t w t t t t < F 3.1.3.;.r.n.iXFXFXBXQ.Q.(.H.` 1.r.1.p.`.Q.Q.Q.Q.^.Q.Q.Q.`.K.1.1.3.3.1.>.r.Q.^.Q.Q.`.I.1.>.1.>.H.Q.Q.Q.Q.r.1.1.3.>.>.>.H.^.^.^.r.>.y.>.u.(.Q.(.`.I.>.1.1.1.>.r.Q.(.Q.Q.Q.Q.Q.(.&XH.>.3.1.1.1.3.1.>.>.1.3.1.1.1.1.1.1.1.>.u.Y.Q.Q.(.(.(.(.(.(.%Xc c d.r.r.y.3.1.r.t.c.c.B.B.B.S.B.S.S.z.rXKXZX(.I.K.I.I.I.I.I.I.'.wX6X6X6X6X6X6X6X6X6X9X(.S.I.I.I.I.I.I.D.>X6X6X6X6X6X6X6X6X6X6X6X6X6X6X6X6X`.K.I.Y.H.H.I.(.6X6X6X6X6X6X6X6X6XD.K.K.I.D.>X6X6X6X6X6X6X6X'.I.'.6XwX6XwX|.I.I.S.`.wX6X6X6X6X6X6X6X6X6X6XwX`.z.c.c.S.S.S.r.>.1.1.1.] p.H.c.z.kXrX6X6X6X9X>XD.I.K.Y.6X6X6X6X6X6X6X6X6X6X0X>XD.K.K.K.K.K.K.K.K.K.D.`.9X6X6X6X6X6X6X6XQ.S.I.I.I.I.I.I.I.I.K.K.K.I.Q.*X*X(.I.S.I.I.I.I.I.I.I.I.I.I.I.D.>XwX6X6X6X6X6X6X6X6X6X6X6X9X`.I.I.K.I.I.>X9X6X6X6X6X9X6X9X`.I.I.K.0.< t t t t t t t - ! A.c.6.1.1.1.>.p.S.c.W.HXAX9X6X6XQ.I.I.I.I.I.I.>XrX9X6X6X6X6X6X9X(.D.I.I.I.D.`.rX",
"6X6X6X6X6X6X6XrX'.S.I.I.I.I.(.7X6X6X6X6X6X6XY.K.I.I.).wX6X6X6X6X6X6X9X6X9X6X6X6X,XwX,XQ.K.I.I.K.`.rX6X6X>XI.I.K.H.`.wX6X6X6X6X6X9X9XQ.D.I.K.Q._ $ t t t t t t t t t t t t t t t t t t 9 n 1.1.3.>.] %XAXFXcXK.Y.%XY.1.;.1.1.r.(.(.Q.Q.^.^.^.Q.Q.`.Q.i.>.3.3.3.1.>.K.`.Q.Q.Q.Q.p.>.1.>.y.Q.Q.Q.`.p.>.1.y.1.3.>.y.Q.^.^.U.>.3.y.>.H.(.Q.(.(.y.>.3.1.1.] H.%XQ.Q.Q.Q.Q.Q.(.Q.u.1.1.>.1.1.1.1.1.,.,.3.1.1.1.1.1.1.1.>.H.Q.(.(.(.(.(.(.(.(.~ % B d.1.1.y.y.3.1.r.t.z.S.S.S.S.S.S.S.z.rXKXZX`.I.I.I.I.I.I.I.I.I.,X6X6X6X6X6X6X6X6X6X9X`.D.I.I.I.I.I.I.D.|.6X6X6X6X6X6X6X6X6X6X6X6X6X6X6X6X>XI.I.I.I.H.K.I.>X6X6X6X6X6X6X6X6XD.D.H.I.S.'.9X6X6X6X6X6X6X|.I.`.6XwX6XwX|.I.I.I.(.6X6X6X6X6X6X6X6X6X6X6XwX`.z.S.S.c.S.c.r.>.1.1.>.] p.S.c.z.dXsX6X6X6X9X*XD.I.H.(.6X6X6X6X6X6X6X6X6X6X0X5XI.D.K.K.K.K.K.K.K.K.D.`.9X6X6X6X6X6X6X6XQ.A.I.I.I.I.I.I.I.K.K.I.H.(.9X6X7X6X5X(.D.I.I.I.I.I.I.I.I.I.I.I.I.6XwX6X6X6X6X6X6X6X6X6X6X9X>XI.I.K.I.I.(.9X6X6X9X9X9X6X9X6X(.K.U.0.< t t t t t t t - Q A.c.6.1.3.1.1.p.S.c.W.AXSX9X9X>XI.I.I.I.I.I.I.>XrX9X6X6X6X6XwX6XQ.I.I.I.I.D.`.0X",
"6X6X6X6X6X6X6X5XI.I.I.I.I.I.I.5X6X6X6X6X6X6XI.K.Q.I. XwX6X6X6X6X6X6X9X9X6X6XwX,X,XwX,XK.I.I.I.K.`.wX6X6X>XI.I.I.H.(.6X6X6X6X6X6X9X9X`.D.I.K.Q./ # t t t t t t t t t t t t t t t t t t 9 n 1.3.3.;.1.gXLXvXH.Q.Y.(.H.1.1.1.] H.(.Q.Q.(.(.(.(.(.Q.`.K.>.3.3.3.3.>.p.&XQ.Q.Q.^.K.>.>.1.>.K.Q.Q.Q.I.6.>.3.y.1.y.>.H.^.Q.&Xp.>.y.>.r.Y.Q.Q.(.H.>.3.1.3.1.r.Y.(.Q.Q.Q.Q.Q.Q.`.H.>.3.3.1.1.1.1.1.1.,.,.3.1.1.1.1.1.1.>.r.Y.Q.(.Q.(.(.(.(.(.a.a $ N ,.1.1.1.r.y.1.1.r.t.c.B.S.S.B.S.S.t.aXKXZX&XS.I.K.I.I.I.I.I.I.(.9X6X6X6X6X6X6X6X6X6X`.D.I.I.I.I.I.I.D.'.9X6X6X6X6X6X6X6X6X6X6X6X6X6X6X6X9XQ.I.I.I.H.K.I.'.9X6X6X6X6X6X6X6X`.S.I.I.S.`.9X6X6X6X6X6X6X5XI.Q.7XwX6X6X6XI.I.I.I.6X6X6X6X6X6X6X6X6X6X6XwX`.z.S.S.c.S.p.r.>.1.1.>.r.c.S.z.z.sXsX6X6X6X9X(.I.I.K.`.6X6X6X6X6X6X6X6X6X6X9X9XQ.D.K.K.K.K.K.K.K.K.D.`.9X6X6X6X6X6X6X6XI.A.I.I.I.I.I.I.I.K.K.H.`.,X6X6X6X6X6X6X|.D.A.I.I.I.I.I.I.I.I.I.S.`.6X6X6X6X6X6X6X6X6X6X6X6X6X(.I.I.K.I.I.8X9X9X9X9X9X9X6X9X>XD.K.i.< t t t t t t t - Q D.i.6.1.3.1.1.p.S.c.Q.AXSX9X8X(.I.I.I.I.I.I.I.>X9X9X6X6X6X6XwX>XI.I.I.I.I.D.'.0X",
"6X6X6X6X6X6X6X(.D.I.I.I.I.I.I.(.6X6X6X6X6X6XY.H.I.I.6X X6X6X6X6X6X6X9X9X6X6XwX,X,XwX>XK.I.I.I.K.|.wX6X6X>XI.I.I.K.(.6X6X6X6X6X6X6X9X>XD.I.K.Q._ # t 2 t t t t t t t t t t t t t t t t 9 x 1.3.3.;.%XPXSXx.I.(.Q.Y.r.1.1.] r.(.Q.Q.Q.(.(.(.(.(.(.(.p.>.3.3.1.1.>.Y.`.Q.Q.Q.Q.p.>.1.>.t.Q.Q.Q.(.p.>.1.3.>.1.>.i.Q.Q.Q.Q.6.>.3.1.H.%XQ.(.Y.1.3.3.3.3.>.H.%XQ.(.(.(.Q.Q.(.(.y.>.1.>.1.1.1.1.1.3.1.,.1.1.1.1.1.1.1.>.p.Q.(.(.(.(.(.(.Q.g.M < w H d.1.1.1.>.>.3.1.>.r.t.c.B.B.S.S.S.z.aXKXDX9XI.K.I.K.I.I.I.I.I.I.>X6X6X6X6X6X6X6X6X6X|.D.I.I.I.I.I.I.D.`.0X6X6X6X6X6X6X6X6X6X6X6X6X6X6X6X6X`.I.I.I.H.K.K.(.9X6X6X6X6X6X6X6X`.K.K.I.I.Q.9X6X6X6X6X6X6X6XI.I.9XwX6X6X6X(.I.I.I.6X6X6X6X6X6X6X6X6X6X6XwX`.z.S.S.c.S.p.1.1.1.1.>.r.S.S.z.z.sXsX5X6X6X9XI.I.I.K.*X6X6X6X6X6X6X6X6X6X6X9X9XQ.D.K.K.K.K.K.K.K.I.D.`.9X6X6X6X6X6X6X>XI.I.I.I.I.I.I.K.I.I.H.I.9X6X6X6X6X6X6X6XwX6X(.D.D.I.I.I.I.I.I.I.I.I.'.6X6X6X6X6X6X6X6X6X6X6X6X`.I.I.K.I.K.*X9X9X9X6X6X6X6X6X9X(.K.b.< w t t t t t t - Q D.i.>.1.3.1.1.t.S.c.Q.AXZX0X5XQ.I.I.I.I.I.I.I.6X9X6X6X6X6X6XwX`.I.I.I.I.I.S.*X0X",
"6X6X6X6X6X6X>XI.I.I.I.I.I.I.I.D.>X6X6X6X6X6XQ.H.H.(.6X X6X6X6X6X6X6X9X9X6X6X6X,X,XwX}.K.I.I.I.K.>XwX6X6X9XI.I.I.K.Q.6XwX6X6X6X6X6X6X6XI.K.K.Y.:.$ t 2 t t t t t t t t t t t t t t t t 9 t >.3.1.y.SXHXc.c.&XQ.&XH.6.>.1.>.K.(.Q.Q.(.(.(.(.(.(.`.I.r.1.3.1.1.>.H.&XQ.Q.Q.Q.K.>.>.1.1.K.Q.Q.^.K.1.1.3.3.1.1.>.U.(.Q.&Xn.>.y.>.y.Q.(.Q.(.u.>.1.3.3.>.y.Q.(.Q.(.(.(.Q.(.`.H.>.>.1.1.>.1.1.1.1.3.3.3.1.1.1.>.1.1.1.1.H.Q.(.(.(.(.(.(.H._ 3 i ; L P.1.1.1.>.>.>.,.>.1.r.t.z.B.S.S.S.z.iXKXDXsX`.D.K.I.I.I.I.I.I.I.I.6X6X6X6X6X6X6X6X6X>XD.I.I.I.I.I.I.D.(.0X6X6X6X6X6X6X6X6X6X6X6X6X6X6X6X6X>XI.I.I.K.H.I.I.>X9X6X6X6X6X6X6X>XI.H.I.I.D.5X6X6X6X6X6X6X6XQ.I.6XwX6X6X6X`.I.I.I.5X9X6X6X6X6X6X6X6X6X6X6X`.z.S.S.S.S.i.>.1.1.1.>.t.S.S.S.X.sXsX>X6XwX>XI.I.I.D.>X6X6X6X6X6X6X6X6X6X6X9X9X(.D.K.K.K.K.K.K.K.K.D.`.9X6X6X6X6X6X6X|.I.I.I.I.I.I.I.K.I.I.K.,X9X6X6X6X6X6X6X6X6XwX6X'.I.I.I.I.I.I.I.I.I.I.I.5X6X6X6X6X6X6X6X6X6X6X6X>XI.I.I.I.I.Q.6X9X6X6X6X6X6X6X9X5XQ.b.< w t t t t t t # Q D.i.>.1.1.1.r.p.S.z.Q.AXZX0X>XI.I.I.I.I.I.I.Q.9X6X6X6X6X6X6XrXQ.K.I.I.I.I.D.*X9X",
"6X6X6X6X6X0X(.I.I.I.I.I.I.I.I.A.(.0X6X6X6X6X(.I.H.(.rX X6X6X6X6X6X6X6X6X6X6X6X,X6XrX`.K.I.I.K.I.>XwX6X6X9XI.K.I.K.I.,XwX6X6X6X6X6X6X9XQ.K.K.Y.' $ t 2 t t t t t t t t t t t t t t t t 9 t >.3._ iXDXK.r.Q.(.(.(.i.6.r.>.p.(.(.(.(.(.(.(.(.(.(.(.p.] >.>.>.>.r.Q.Q.Q.Q.(.(.r.] 1.>.p.Q.Q.^.Q.r.1.1.1.1.1.>.p.%XQ.`.Y.r.1.3.>.H.&XQ.(.H.>.3.1.3.3.>.P.(.Q.Q.Q.(.(.Q.).(.y.>.1.1.1.>.>.1.1.1.3.1.1.1.1.1.1.1.1.>.p.Q.Q.(.(.(.(.(.H.8.n < u w L D.B.3.1.1.>.>.>.3.3.1.r.t.z.S.S.S.t.>XFXDXaX9X`.D.I.I.I.I.I.I.K.S.>XrX6X6X6X6X6X6X6X,XI.I.I.I.I.I.I.H.(.0X6X6X6X6X6X6X6X6X6X6X6X6X6X6X6X6X6XQ.I.I.I.I.I.I.`.9X6X6X6X6X6X6X9X(.H.I.I.D.>X6X6X6X6X6X6X6X(.I.9XwX6X6X6X'.I.I.D.>X9X6X6X6X6X6X6X6X6X6XwX'.z.B.z.S.t.r.>.1.1.1.r.p.S.S.S.t.9XkX,X6XwX'.H.I.I.I.5X6X6X6X6X6X6X6X6X6X6X9X0X`.D.K.K.K.K.K.K.K.K.D.`.9X6X6X6X6X6X6X|.I.I.I.I.I.I.I.I.I.I.`.rX6X6X6X6X6X6X6X6X6X6X6X0X5XD.I.I.I.I.I.I.I.I.K.Q.9X6X6X6X6X6X6X6X6X6X6X6X`.K.I.K.I.I.>X6X6X6X6X6X6X6X9X7X5Xc.1 w t t t t t t # Q D.i.>.1.1.1.r.p.S.z.Q.AXZX9X(.K.I.I.I.I.I.K.`.9X6X6X6X6X6X6X9XD.I.I.I.I.I.I.>XrX",
"6X6X6X6XrX>XI.I.I.I.I.I.I.I.I.I.I.5X6X6X6X6X>XK.H.Q.9X,X6X6X6X6X6X6X6X6X6X6X6X,XwXrXQ.I.I.I.I.I.>X6X6XwX9XQ.K.I.K.I.>XwX6X6X6X6X6X6X9X`.K.K.Y.' # t 2 t t t t t t t t t t t t t t t t 0 t >.,.c.FXH._ Q.(.Q.(.c.>.6.6.6.I.`.(.(.(.`.`.(.(.(.(.Q.r.>.>.>.>.] Y.%X(.(.Q.(.H.] >.>.r.K.Q.Q.Q.H.>.1.3.1.3.1.r.Q.(.`.(.u.>.y.>.r.Q.`.Q.Q.y.>.3.3.3.>.p.Q.(.Q.Q.Q.Q.Q.Q.`.H.>.>.1.1.>.1.1.1.1.>.1.1.1.1.>.>.>.>.>.] H.(.(.(.(.(.].Y.8.T w t t w C D.B.h.1.1.1.>.>.>.>.3.1.r.t.S.c.S.z.>XFXZXsX9X9XQ.K.I.I.I.I.I.I.I.Q.9X6X6X6X6X6X6X6X6XQ.I.I.I.I.I.I.H.(.9X6X6X6X6X6X6X6X6X6X6X6X6X6X6X6X6X6X).I.I.I.I.I.I.Q.6X6X6X6X6X6X6X9X(.H.K.I.K.`.6X6X6X6X6X6X9X(.I.9XwX6X6X6X>XI.I.I.>X9X6X6X6X6X6X6X6X6XwXwX`.c.B.z.S.t.1.1.1.1.1.r.c.D.c.S.X.9XkX,X6X6X(.K.I.I.I.6X6X6X6X6X6X6X6X6X6X6X9X9X`.D.K.K.K.K.K.K.K.K.D.*X9X6X6X6X6X6X6X`.I.I.I.I.I.I.I.I.I.Q.,X6X9X6X6X6X6X6X6X6X6X6X6X6X6X|.D.I.I.I.I.I.I.I.I.I.'.6X6X6X6X6X6X6X6X6X6X6X>XK.I.K.I.K.`.6X6X6X6X6X6X6X6X6X6XQ.1 w t t t t t t # $.D.i.>.1.1.1.r.c.S.z.Q.FXAX9XQ.K.I.I.I.I.I.K.*X9X6X6X6X6X6XwX>XS.I.I.I.I.K.Q.9X6X",
"6X6X6X6X6XQ.I.I.I.I.I.I.I.I.I.I.D.'.6X6X6X6X6XK.H.Y.6X6X6X6X6X6X6X6X6X6X6X6X6X,XwX,XQ.I.I.I.I.I.6X6X,XwX9X(.K.I.I.I.>XwX6X6X6X6X6X6X9X>XK.K.Y._ $ t t t t t t t t t t t t t t t t t t 0 t _ >.kXQ.f.H.&XQ.Q.Y.6.>.>.>.i.Q.(.(.(.(.(.Q.Q.Q.Q.(.S.] 1.>.>.>.e.(.(.(.(.(.(.r.>.1.>.c.Q.Q.`.I.r.1.r.1.1.1.1.K.(.Q.`.j.;.3.1.>.H.(.Q.%XH.;.1.1.3.1.>.K.^.(.Q.Q.Q.(.(.(.Q.p.1.1.1.>.1.1.1.1.1.1.3.1.3.1.1.>.>.>.>.r.Q.Q.(.(.(.(.T.i.%.t w u t w C D.B.B.p.1.1.1.>.>.>.,.3.1.r.c.S.S.t.>XFXDXdX9XiX'.K.I.I.I.I.I.I.I.D.>XrX6X6X6X6X6X6XwXQ.K.I.I.I.I.I.D.Q.6X6X6X6X6X6X6X6X6X6X6X6X6X6X6X6X6X6X|.I.I.I.I.I.I.I.6X6X6X6X6X6X6X9X*XK.K.I.K.`.9X6X6X6X6X6X9X(.I.9XrX6X6X9X5XI.I.I.|.9X6X6X6X6X6X6X6XwX,X`.D.S.B.z.S.r.1.1.1.1.1.e.S.S.z.S.X.9XkX,XwX6XI.I.I.H.Q.6X6X6X6X6X6X6X6X6X6X6X9X0X`.D.K.K.K.K.K.K.K.I.K.>X9X6X6X6X6X6X9X`.I.I.I.I.I.I.I.I.S.`.9X,X6X6X6X6X6X6X6X6X9X6X9X6X6X9X>XI.I.I.I.I.I.I.I.I.I.|.6X6X6X6X6X6X6X6X6X6X6XQ.I.I.K.I.I.|.6XwX6X6X6X6X6X6X6X|.a w t t t t t t # Q D.i.>.3.1.1.r.z.S.z.Q.AXAX>XK.I.I.I.I.I.K.I.>X9X6X6X6X6X6XwX`.S.I.I.I.I.S.(.9X6X",
"6X6X6XwX`.S.I.I.I.I.I.I.I.I.I.I.D.(.6X6X6X6X6X(.H.K.>X6X6X6X6X6X6X6X6X6X6X6X6X,XwX>XD.I.I.K.I.I.9X6X6XwX9X`.K.I.I.K.|.rX6X6X6X6X6X6X6X6XQ.K.Y.' $ t t t t t t t t t t t t t t t t t t 0 < E &XQ.;.u.Q.Q.Q.`.n.>.>.>.6.Y.`.`.`.(.(.(.(.(.(.&XI.| r.>.>.>.>.I.(.(.Q.Q.(.p.>.>.>.r.K.Q.Q.Q.p.] 1.1.1.1.>.S.(.Q.`.H.1.3.1.] r.Q.Q.(.Y.r.1.3.1.1.>.p.Q.(.Q.Q.(.Q.(.(.(.H.r.1.1.1.1.>.1.1.1.1.1.3.1.3.1.1.1.>.>.>.K.(.Q.(.(.(.(.p.>.S 9 u t t w C D.l.B.S.p.1.1.1.>.>.>.>.,.1.e.c.S.t.>XFXDXhX9X9XoX(.H.I.I.I.I.I.I.I.Q.6X6X6X6X6X6X6XwX`.K.I.I.I.I.I.D.Q.6X6X6X6X6X6X6X6X6X6X6X6X6X6X6X6X6X6X XQ.I.I.I.I.I.I.|.6X6X6X6X6X6X6X>XI.K.I.I.Q.6X6X6X6X6X6X9X(.I.5XwX6X9X9X9XI.I.D.|.9X6X6X6X6X6X6XwX>XQ.K.S.S.c.z.c.r.1.1.1.1.1.t.S.S.z.D.t.5XkX,XwX>XD.I.I.H.(.6X6X6X6X6X6X6X6X6X6X6X9X9X`.D.K.K.K.K.K.I.K.I.K.>X9X6X6X6X6X6X6X(.I.I.I.I.I.I.I.I.D.>XwX6X6X6X6X6X6X6X6X6X6X6X9X6X6X6X6X>XI.I.I.I.I.I.I.I.I.(.6X6X6X6X6X6X6X6X6X6X6X`.I.I.H.I.H.`.6X6X6X6X6X6X6X6X6X7Xc w t t t t t t # Q D.i.,.3.1.1.r.z.S.z.Q.AXAX`.D.I.I.I.K.I.K.I.9XrX6X6X6X6X6X,XI.K.I.I.I.I.K.'.9X6X",
"6X6X9X|.I.I.I.I.I.I.I.I.I.I.I.I.I.D.OX6X6X6X6X>XK.P.'.6X,X6X6X6X6X6X6X6X9X6X6X,XwX}.D.I.I.I.I.I.9X6X,XwXrX'.H.I.I.H.`.rX6X6X6X6X6X6X6X9XQ.K.Q.:.$ t t t t t t t t t t t t t w t t t t t > 1.-X>.u.Y.*X(.`.(.r.>.>.;.s.Y.Y.P.H.K.K.K.K.K.U.m.' _ :.-.` ` r.Y.R.(.(.%XI.>.3.u.r.I.`.`.`.I.e.r.e.r.3.1.t.(.[.(.Y.u.1.u.1.` H.(.Q.(.p.>.3.3.1.1.r.Y.(.Q.Q.Q.Q.Q.(.(.(.p.1.1.r.>.>.1.1.1.1.1.1.3.3.3.1.1.>.1.] r.Q.Q.(.(.(.(.c.8.$.< w u t u w C D.l.B.B.B.u.1.1.1.1.>.>.>.1.r.p.S.t.>XFXDXhX4XrX6X|.I.K.I.I.K.K.I.I.I.`.rX X,X6X6X6XwX`.K.I.I.I.I.I.D.Q.6X6X6X6X6X6X6X6X6X6X6X6X6X6X6X6X6X6X6X(.I.I.I.I.I.D.`.9X6X6X6X6X6X6X9XI.H.I.I.I.6X6X6X6X6X6X9X`.I.8XrX6X6X9X9XI.I.K.'.wX6X6X6X6X6XrX`.K.K.K.H.S.z.B.c.1.1.1.1.>.r.p.S.z.z.D.z.5XkX6XwX`.S.I.I.H.`.6X6X6X6X6X6X6X6X6X6X6X9X9X&XD.K.K.K.K.K.I.K.K.K.>X9X6X6X6X6X6X9XQ.I.I.I.I.I.I.I.K.`.6X6X6X6X6X6X6X6X6X6X6X6X6X9X6X6X6X6X6X|.D.I.Y.I.I.I.I.I.I.`.6X6X6X6X6X6X6X6X6X6X,XQ.H.I.K.H.I.6X6XwX6X6X9X6X6X6X7Xn w t t t t t t # $.D.i.>.1.1.1.r.z.c.z.Q.AXAXQ.K.I.I.I.I.I.K.Q.9XrX6X6X6X6X6X`.D.I.I.I.I.K.I.5X9X6X",
"6X6X6XI.I.I.I.I.I.I.I.I.I.I.I.I.I.D.'.6X6X6X6XrXQ.H.(.6X,X6X6X6X6X6X6X6X6X6X6X6XwX`.S.I.I.I.K.I.9X6XwXwXrX>XH.I.I.H.`.rX6X6X6X6X6X6X6XrX`.S.Q.:.$ t t t t t t t t t t t t t t t t t t t < A P P A P P V N c 6 a a 1 5 g 5 5 5 4 4 4 3 4 5 3 1 3 1 5 5 5 6 c c c c c s s B B M I I I Q Y P Y Y Y $.%.m.U./.%Xd.:.8.8.8.p.&X*X'.Y.r.1.1.1.1.{ c.Q.Q.Q.Q.Q.Q.Q.Q.Q.Q.y.1.1.1.>.1.1.1.1.1.1.3.1.1.1.1.1.1.1.>.H.`.Q.(.`.`.I.i.8.n w u u t u 9 L D.l.B.B.S.S.r.1.1.1.>.>.>.>.1.r.p.t.>XFXDXdX,XrXwX6X`.K.I.I.K.K.I.I.I.Q.9X,X,X6X6X6XwX>XK.I.I.I.I.I.K.D.>X6X6X6X6X6X6X6X6X6X6X6X6X6X6X6X6X6X6X`.D.I.I.I.I.I.Q.6X6X6X6X6X6X6X9XQ.H.I.I.I.>X6X6X6X6X6X9X`.H.>XwX6X6X6X0X(.K.K.`.wX6X6X6X6X6X`.K.K.I.H.S.S.z.S.p.1.1.1.1.1.r.c.c.c.z.S.t.>XvX,X6XQ.S.I.I.I.'.6X6X6X6X6X6X6X6X6X6X6X9X9X*XD.K.K.K.K.K.I.K.I.K.>X6X6X6X6X6X6X9XI.I.I.I.I.I.I.I.I.5X6X6X6X6X6X6X6X6X6X6X6X6X6X9X6X6X6X6X6X6X5XI.I.I.I.I.I.I.I.I.|.6X6X6X6X6X6X6X6X6X6X`.S.I.H.H.K.|.rX6XwX6X9X6X6X6X7Xn w t t t t t t # $.D.i.>.1.1.1.r.S.c.z.Q.FXAXQ.K.I.I.I.I.I.K.Q.9X9X6X6X6X6X6XQ.D.I.I.I.I.S.(.9X6X6X",
"6X9X`.S.I.I.I.I.I.I.I.I.I.I.I.I.I.K.Q.6X6X6X6XrX&XH.K.>X6X6X6X6X6X6X6X6X6X6X6X6XwX`.S.I.I.I.I.Q.9X6X6X6X6X,XK.I.I.K.^.9X6X6X6X6X6X6X6XrX`.S.Q.:.# t t t t t t t t t t t t t t t t t t t t < w w w w w w w w w 9 0 0 0 ; 9 0 0 0 0 0 0 0 0 t t t t t 0 0 0 9 9 9 9 9 9 9 9 9 9 9 ; ; ; ; < ; < < 3 3 4 6 6 g g g m V V ) 6.| r.' / >.>.1.y.p.%X&X&X`.`.`.^.^.`.^.K.1.1.1.1.1.1.3.3.3.3.3.3.>.1.3.3.1.1.1.p.(.^.Q.Q.`.Q.r.6.L # * 1 & e u 9 L x.l.S.S.c.S.c.r.>.>.>.>.>.>.,.>.r.r.>XFXDXdX,X9XeX6X,XQ.S.I.I.I.I.I.I.K.'.wX,X6X6X6XwX6XK.K.K.I.I.I.I.K.>X6X6X6X6X6X6X6X9X9X6X6X6X6X6X6X6X6X6X*XD.I.I.I.Y.I.Y.5X6X6X6X6X6X6XwX`.S.I.I.I.,X6X6X6X6X6XrX`.S.`.wX6X6X6XrX`.H.K.`.wX6X6X XwX`.K.Q.K.H.Y.Q.z.S.S.e.1.1.1.>.1.t.c.S.c.z.S.t.`.vX,X,XK.K.I.I.I.>X6X6X6X6X6X6X6X6X6X6X6X9X9X*XD.K.K.K.K.K.K.K.K.I.6X6X6X6X6X6X6X6XD.I.I.I.I.I.I.H.Q.9X6X6X6X6X6X6X6X6X9X6X6X6X6X9X9X6X6X6X6X6X0X*XK.I.I.I.I.I.I.I.Q.,X6X6X6X6X6X6X6X6X6X,XI.I.I.K.K.Q.6XwXwX6X6X6X6X6X7XF w t t t t t t # $.D.i.>.1.1.1.r.B.c.c.Q.FXAXQ.K.I.I.I.K.I.D.`.9X9X6X6X6X6X,XD.I.I.I.I.I.S.`.rX6X6X",
"6X6XD.I.I.I.I.I.I.I.I.I.I.I.I.I.I.K.I.>X6X6X6XwX6XI.D.`.9X6X6X6X6X6X6X6X6X6X6X6XwXQ.K.I.I.I.I.Q.9X6X6X6X6X,XI.I.I.K.Q.9XwX6X6X6X6X6X6X9X|.K.Q.:.# t t t t t t t t t t t t t t t t t t t t t t e * $ $ * 9 w w w t t t 2 t t t t t t t t t t t t t t t t t t t t t t t t t t t t t t t t t t t t t 3 2 2 2 < < < < < < < ; % w t t t a n M M Y ~ %.5.i.c.x.D.Q.K.7.1.1.1.1.1.1.3.3.3.1.3.>.;.;.1.1.1.>.1.p.(.`.`.`.`.Q.p.y.^ %.7.W.|.$.; w L x.B.S.S.S.S.S.p.6.>.>.>.1.3.,.>.y.] &XKXDXdX,X6X0XwX6X|.K.H.I.I.I.I.I.K.Q.9X6X6X6X6XwX6XI.H.I.I.I.I.I.K.`.6X6X6X6X6X6X6X9X9X6X6X6X6X6X6X6X6X6X>XD.I.I.I.I.I.I.>X9X6X6X6X6X6XwX}.H.I.I.I.>X6X6X6X6X6XwX`.H.`.wX6X6X6XrX(.H.K.`.wXwX XwX>XK.H.Y.H.Q.>X|.x.z.S.r.1.1.1.>.r.t.S.S.c.z.S.t.`.vX6X`.S.I.I.I.I.>X6X6X6X6X6X6X6X6X6X6X6X9X9X*XD.K.K.K.K.K.K.I.K.Q.6X6X6X6X6X6X6X5XD.I.I.I.I.I.I.K.`.9X6X6X6X6X6X6X6X6X6X6X6X6X6X6X9X6X6X6X6X6X6X6X`.I.I.I.I.I.I.I.I.(.6X6X6X6X6X6X6X6X6X6X(.S.I.K.K.K.|.wX6X6X6X6X6X6XeXS < t t t t t t # Q D.i.>.1.1.1.p.S.c.c.Q.FXAXQ.K.I.I.K.I.I.D.>X9X6X6X6X6X6X|.D.I.I.I.I.I.I.|.9X6X6X",
"rX`.D.Y.I.I.I.I.I.I.I.I.I.I.I.I.I.I.K.(.9X6X6X6XrX(.H.Q.6X6X6X6X6X6X6X6X6X6X6X6X6XQ.K.I.I.I.I.Q.9X6X6X6X6X6XI.I.I.I.Q.9X6X6X6X6X6X6X6X6X,XK.Q.:.$ t t t t t t t t t t t t t t t t t t t t t t 1 T ) K K L L C j h g 5 4 > > & & # # # # # # # # # # # # # $ $ $ * < * * $ $ ; $ $ $ $ $ $ $ $ $ ; ; ; ; ; ; ; ; ; ; ; w t < ; ; # % % O o o O O O + o O # & 5 g g L T ) ' | i.p.p.p.p.p.I.Q.(.(.S.H.H.H.I.>X6X6X6XrX>XI.I.Q.Q.`.sXjX#.$ w L x.B.S.S.S.S.S.S.r.>.>.>.>.3.3.>.y.] Q.FXDXcX6X6X6XwXwX6X(.D.I.I.I.I.I.K.D.>XrX,X6X6XwX9XQ.H.I.I.I.I.I.K.`.6X6X6X6X6X6X6X6X6X6X6X9X9X6X6X6X6X6X6XI.I.I.I.I.I.I.>X9X6X6X6X6X6XwX>XK.K.I.I.>X6X6X6X6X6XwX`.H.`.wX6X6X6XrX(.S.K.`.wX6X,X6XK.H.K.I.>X9X6X>Xx.S.c.r.1.1.1.>.r.t.c.S.c.z.S.t.`.vX6XQ.H.Y.I.I.I.6X6X6X6X6X6X6X6X6X6X6X6X9X9X*XD.K.K.K.K.K.K.I.K.Q.6X6X6X6X6X6X6X>XS.I.I.I.I.I.I.I.>X9X6X6X6X6X6X6X6X9X9X9X6X6X6X9X9X9X6X6X9X6X6X6X6XQ.I.Y.I.I.I.I.I.I.'.6X6X6X6X6X6X6X6X6X>XD.I.I.I.K.Q.6X6X6X6X6X6X6XeXD ; t t t t t t # Q D.y.>.1.1.>.p.S.S.z.Q.AXAXQ.K.I.I.I.I.K.I.9X9X6X6X6X6X6X).K.I.I.I.I.I.(.oX6X6X6X",
"6XD.I.I.I.I.I.I.I.I.I.I.D.D.I.I.I.I.I.I.>X9X6X6XeX6XK.K.|.6X6X6X6X6X6X6X6X6X6X6X6XQ.I.I.I.I.I.Q.9X6X6X6X6X6XQ.I.I.I.I.6X6X6X6X6X6X6X6X6X6XQ.Y.5.$ t t t t t t t t t t t t t t t t t t t t t t T 3XsXsXsXaXaX1X^.W.m.n.m.m.U.%X#X#X#XN.N.a.%.*.M.m.a.a.8.5.*.*.~ L T T T ~ Q Q Q Q Q Q Q Q Q Q Q T P V P P P I I I I I Y Q Q ~ *.a.a.M.M.M.m.m.a.8.a.a.M.#X$X$X-X2X2X2X2X1X1X1XQ.U.Y.K.Q.9XrXrX9XI.I.I.I.I.>X6X6XwXwX|.D.K.K.x.Q.6X7XT 9 w L x.B.S.S.S.S.S.S.c.r.>.>.>.3.3.>.6.-.U.FXDXvX,X6X6X6XwX6X>XI.K.I.I.I.I.I.D.(.6X6X6X6XwXrX`.H.I.I.I.I.I.K.Q.6X6X6X6X6X6X6X9X6X6X6X9X9X6X6X6X6X6X6XQ.H.I.I.I.I.I.*X9X6X6X6X6X6XwX6XI.H.I.I.|.6X6X6X6X6XwX`.H.`.wX6X6X6X9X(.S.K.`.wX,X6X`.H.Y.Q.9X9X,X,X,Xx.S.p.1.1.1.1.>.r.z.c.c.c.z.S.t.Q.vX|.I.I.Y.I.I.(.9X6X6X6X6X6X6X6X6X6X6X6X9X9X*XD.K.K.K.K.K.K.Y.H.`.6X6X6X6X6X6X9X'.S.I.I.I.I.I.I.I.9X6X6X6X6X6X6X6X6X9X9X9X9X6X6X9X9X9X6X6X6X6X6X6X6X6XQ.I.I.I.I.I.I.I.Q.>X6X6X6X6X6X6X6X6X6X(.K.I.I.I.D.>XwX6X6X6X6X6XeX#.; t t t t t t # Q D.r.>.1.1.>.p.B.S.z.Q.AXAXQ.K.I.I.I.I.K.Q.9X6X6X6X6X6X6XQ.I.I.I.I.I.H.`.6X6X6X6X",
"(.D.I.I.I.I.I.I.I.I.K.K.`.Q.K.K.H.I.I.K.`.9X6X6X6XrXQ.H.`.6X6X6X6X6X6X6X6X6X6X6X,XK.I.I.I.I.I.Q.9X6X6X6X6X6X(.H.I.I.I.6XwX6X6X6X6X6X6X6XwXQ.U.6.$ t 2 t t t t t t t t t t t t t t t 2 t t < I 6.&X6X6X6X6XwX6X}.G.G.D.D.D.@XzXeXeXeXeXuX`.K.Q.6XuXeXeXzXuXuXuXeXC.[.[..XrXeXeXrXrXrXrXrXrXrXrXrXzX].T.].T.T.T.T.(.(.(.T.I.I.(.7XuXzXzXzXeXzXzX).D.Q.Q.).7XzX7X7XeXwX6X6X,X6X9XQ.K.Y.K.Q.1X6X6X,XK.H.H.H.Q.6X6X6XwXwX|.D.K.K.K.Q.6X0XS 9 w L x.l.S.S.S.S.S.S.S.t.r.>.>.3.3.>.>.-.K.FXDXvX6X6X6X6X6X6X9X(.S.I.I.I.I.I.K.K.>XrXwX6XwXwX`.H.K.I.I.I.I.K.I.6XwX6X6X6X6X6X6X6X6X6X9X9X6X6X6X6X6XwXQ.H.I.I.I.I.H.`.9X6X6X6X6X6XwXrXQ.H.I.D.|.6X6X6X6X6XwX'.H.`.wX6X6X6X9X(.S.K.`.wXwX XY.K.Q.,X9X6X9X9X6Xx.S.p.>.1.>.>.1.r.z.S.c.S.z.S.z.Q.vX`.Y.I.I.I.K.`.6X6X6X6X6X6X6X6X6X6X6X6X9X9X`.D.K.I.K.K.I.K.Y.H.`.6X6X6X6X6X6X9X(.S.I.I.I.I.I.H.(.9X6X6X6X6X6X6X9X6X6X6X6X6X6X6X6X6X9X9X9X6X6X6X6X6XwX|.I.I.I.I.I.I.I.I.(.6X6X6X6X6X6X6X6X6X>XI.I.I.I.I.).wXwX6X6X6X6XrX#.; t t t t t t # $.D.r.>.1.1.>.p.B.S.z.^.FXAXQ.K.I.I.I.I.D.(.9X,X6X6X6X6X>XK.I.I.I.I.I.H.>XwX6X6X6X",
"I.I.I.I.I.I.I.I.I.I.I.`.6X6XQ.K.K.K.I.K.Q.,X6X6X6XwX*XH.I.,X6X6X6X6X6X6X6X6X6X6X>XK.I.I.I.I.I.I.9X6X6X6X6XwX(.H.I.I.K.6XwX6X6X6X6X6X6X6XwX&XK.6.$ t 2 t t t t t t t t t t t t t t t < t 1 E 3.1.>X6X6X6X6XwX9XQ.I.I.I.K.I.|.6X,X6X6X6X`.K.K.H.>X9X6X6X6X6X6X9X>XD.I.K.`.6X6X6X6X6X6X6X6X6X6X6X6X|.I.H.I.K.H.I.I.I.I.I.I.I.S.I.6X6X6X6X6X6X6X,XK.K.H.H.Q.6X6X9X,X6X6X6X6X6X6X6XQ.K.Y.K.`.9X6XrX>XK.I.K.K.Q.9X6X,XwXwX'.K.K.U.U.Q.9XrXM 9 w L x.l.c.c.S.S.S.c.c.c.p.r.>.,.,.>.y.-.U.FXFXvX9X9X6X6X6X6X6X5XD.I.I.I.I.I.I.S.`.rXwX6X6XwX|.U.K.I.I.I.I.K.I.,XwX6X6X6X6X6X6X6X6X6X9X9X6X6X6X6X6XwX`.H.I.I.I.I.H.`.rX6X6X6X6X6X6X6X(.S.I.I.|.6X6X6X6X6XrX'.H.`.wX6X6X6X9X(.S.K.`.wX6XQ.Y.I.>X,X6X6X9X9X,XD.c.r.1.1.>.>.r.t.c.S.c.S.z.S.z.Q.ZXQ.K.I.K.K.K.`.6X6X6X6X6X6X6X6X6X6X6X6X9X9X(.D.D.I.I.I.I.Y.I.K.|.6X6X6X6X6X6X9X(.S.I.I.I.I.I.I.6X6X6X6X6X6X6X6X6X6X6X6X6X6X6X6X9X9X9X9X6X6X6X6X6X6X6X6X`.I.I.I.I.I.I.Y.I.(.6X6X6X6X6X6X6X6X6XI.I.I.K.I.Q.|.rX6X6X6X6XdX&.# t t t t t t # $.D.r.>.1.1.>.p.S.c.z.^.FXAXQ.K.I.I.I.I.D.`.wX6X6X6X6X6X(.K.I.I.I.Y.I.I.5XwX6X6XwX",
"I.I.I.I.I.I.I.I.I.D.Q.,X6XwX>XD.I.K.I.I.K.>X9X6X6XwX9XI.H.`.6X6X6X6X6X6X6X6X6X6X>XK.I.I.I.I.I.I.5X6X6X6X6X6X'.H.I.I.K.,XwX6X6X6X6X6X6X6XwX>XK.6.$ t 2 t t t t t t t t t t t t t t < t > W r.3.e.>XrX6X6X6XwX9XQ.I.I.I.K.I.>XwX6X6X6X6X`.K.I.I.,XrX6X6X6X6X6X9X>XD.I.I.`.wX6X6X6X6X6X6X6X6X6X6XwX|.K.I.I.I.I.I.I.I.I.I.I.I.H.(.6XwX6X6X6X6X6X6XI.I.K.H.(.6X9X9X6XwX6X6X6X6X6X,XK.K.Y.K.&X9X6XrX>XD.Y.I.K.Q.9XwX,X,X6X`.K.I.U.U.Q.6XrXn 9 w L D.B.S.S.S.S.S.c.c.c.S.i.>.>.>.,.y.-.K.FXFXvX9X6X6X6X6X6X6X6X`.H.I.I.I.I.I.H.I.6XwX6X6XwX,XI.K.I.I.I.I.I.K.|.wX6X6X6X6X6X9X9X6X6X9X9X6X6X6X6X6XwX`.H.I.I.I.I.H.`.rX6X6X6X6X6X6X6X`.H.K.I.>X6X6X6X6X6XrX'.H.`.6X6X6X6X0X(.S.K.`.rX>XI.K.(.9X6X6X6X6X6X,XD.c.r.1.1.1.1.r.p.c.S.S.S.z.S.z.W.ZXQ.H.I.K.K.I.>X6X6X6X6X6X6X6X6X6X6X6X6X9X9XQ.D.D.K.I.I.I.Y.K.I.>X6X6X6X6X6X6X6XI.H.I.I.I.I.H.Q.9X6X6X6X6X6X6X6X6X6X6X6X6X6X6X6X9X9X9X9X6X9X6X6X6X6X6X6X6X`.I.I.I.I.I.Y.K.K.|.6X6X6X6X6X6X6X6X`.K.I.K.I.I.).9XwX6X6X6XrX*.# t t t t t t # Q D.6.>.>.1.>.p.S.c.z.^.FXAXQ.K.I.I.I.I.D.>X6X6X6X6X6X>XI.I.I.I.I.I.I.(.9X6X6X6X|.",
"I.I.I.I.I.I.K.K.K.D.,XwX6XwXwXQ.I.K.K.I.D.`.9X6X6X6X0X(.H.Q.6X6X6X6X6X6X6X6X6X6X>XK.I.I.I.I.I.I.>X6X6X6X6X6X*XS.I.I.K.>XwX6X6X6X6X6X6X6X6X,XQ.6.$ t 2 t t t t t t t t t t t t t < < < P >.1.3.p.>XwX6X6X6XwX5XI.I.I.I.K.I.6X6X6X6X6X6XQ.H.I.I.6XrX6X6X6X6X6X9X>XD.I.I.`.wX6X6X6X6X6X6X6X6X6X6X6X`.S.I.I.I.I.I.I.I.I.I.I.I.I.(.rXwX6X6X6X6X9X>XK.I.K.H.`.6X6X6X6X6X6X6X6X6X6X>XK.K.Y.K.>X9X6XrX>XD.Y.I.K.Q.9XwX6X,X,X`.K.K.U.U.Q.6X0Xc 9 w L D.B.S.S.S.S.c.S.S.S.S.c.y.>.>.,.y.;.H.AXFXkX`.9X6X6X6X6X6X6X5XI.K.I.I.I.I.K.H.|.rX6X6XwX6XQ.K.I.I.I.I.I.K.|.wX6X6X6X6X6X6X9X6X6X9X9X6X6X6X6X6X6X`.H.I.I.I.I.H.`.rX6X6X6X6X6X6X6X'.S.K.I.>X6X6X6X6X6XrX'.H.(.6X6X6X6X0X(.S.K.`.rX>XK.K.>XrX6X9X9X6X6X,XD.t.1.1.1.1.1.r.c.S.S.S.S.z.c.z.D.VXQ.H.I.K.K.I.>X6X6X6X6X6X6X6X6X6X6X6X6X9X9XQ.D.D.I.I.I.I.Y.K.(.6X6X6X6X6X6X6X5XI.H.I.I.I.I.K.`.rX6X6X6X6X6X6X6X6X6X6X6X6X6X6X6X6X6X6X6X6X9X6X6X6X6X9X6X6X6X).I.I.I.I.I.K.H.Q.,X6X6X6X6X6X6X6X>XI.I.I.K.I.I.>XrX6X6X6XrX*.O t t t t t t # Q D.6.>.>.1.>.p.S.c.z.^.FXAXQ.K.I.I.I.K.G.,X6X6X6X6X6X`.D.I.I.I.I.I.I.'.wX6X6X9XQ.",
"I.I.I.I.I.K.K.K.K.>XwXwXwXwXwX6XI.I.K.I.K.Q.9X9X6X6XrX>XK.D.>X6X6X6X6X6X6X6X6X6X&XK.I.I.I.I.I.I.`.6X6X6X6XwX>XD.I.I.K.>XwX6X6X6X6X6X6X6X6X6X`.6.$ t t t t t t t t t t t t t t t t ; P y.1.1.3.p.>XwX6X6X6XwX>XI.I.I.I.H.Q.6X6X6X6X6X>XI.K.I.I.6XwX6X6X6X6X6X0X*XD.Q.I.`.wX6X6X6X6X6X6X6X6X6X6X9X).S.I.I.K.I.I.I.I.I.I.I.I.I.(.rXwX6X6X6X6XrX>XK.I.K.H.`.rX6X6X6X6X6X6X6X6X6X>XK.I.Y.K.>X9X6XrX>XK.Y.I.K.Q.9XwX6X,X6X(.K.I.Y.U.Q.9X9Xh 9 w L D.B.S.S.c.S.S.S.S.S.S.S.c.y.>.>.y.>.H.AXFXkXD.9X6X6X6X6X6X6X6X`.D.I.I.I.I.I.H.Q.9X6X6XwX6X(.K.I.I.I.I.I.K.`.6X6X6X6X6X6X6X9X9X6X6X6X6X6X6X6X6X6X`.H.I.I.I.I.K.).rX6X6X6X6X6X6X6X>XK.K.I.>X6X6X6X6X6XwX'.H.(.rX6X6X6X9X(.S.K.|.wXQ.U.Q.9X9X6X6X6X6X6X,XD.y.>.1.>.1.r.t.z.S.S.S.S.z.c.z.D.BXQ.H.Y.I.K.Q.6X6X6X6X6X6X6X6X6X6X6X6X6X9X9XQ.D.I.I.I.I.I.Y.K.}.6X6X6X6X6X6X6X>XD.I.I.I.I.I.I.>X9X6X6X6X6X6X6X6X6X6X6X6X6X6X6X6X6X6X6X6X6X6X6X6X9X9X9X9X6X6X XQ.I.I.I.H.K.I.I.`.,X6X6X6X6X6X6X6X`.K.I.I.I.I.Q.9XrX6X6XrX*.O t 2 t t t t # Q D.6.>.>.1.>.p.S.c.z.`.FXAXQ.K.I.I.I.K.Q.6X6X6X6X6X6XQ.D.I.I.I.Y.I.I.>X6X6XwX6XI.",
"I.I.I.I.I.K.K.K.`.rX6X,XwXwX6X6X).I.H.I.I.I.>X9X6X6XwX9XQ.S.`.6X6X6X6X6X6X6X6X9X`.K.I.I.I.I.I.D.`.6X6X6X6XwX5XD.I.I.I.>XwX6X6X6X6X6X6X6X6X6X&X6.$ t t t t t t t t t t t t t t t < P u.1.1.1.1.g.>XwX6X6X6X6X'.H.I.I.I.K.Q.6X6X6X6X6X`.H.K.I.I.6X6X6X6X6X9X9X0X'.D.Q.K.}.wX6X6X6X6X6X6X6X6X6X6X9X(.S.I.I.K.I.I.I.I.I.I.I.I.I.`.rXwX6X6X6X6X0X*XS.I.K.H.`.rX6X6XrXwXwX6X6X6XrX>XD.Y.Y.K.>X9X6XrX>XK.Y.I.H.Q.9XwX6X,X XQ.K.I.Y.U.Q.9X8X5 9 w L D.l.S.S.c.c.S.S.S.S.S.S.c.d.,.>.3.;.n.AXFXkXD.'.6X6X6X6X6X6X6X6XQ.D.I.I.I.I.H.I.6X6X6X6XwX`.K.I.I.I.I.I.K.`.6X6X6X6X6X6X6X9X9X6X6X6X6X6X6X6X6XwX`.H.I.I.I.I.K.).wX6X6X6X6X6X,X6X>XK.K.I.>X6X6X6X6X6XwX'.H.`.wX6X6X6X9X(.S.I.>X6XQ.H.!.9X6X6X6X6X6X6X,XS.r.>.1.1.1.r.t.z.S.S.S.S.z.z.z.D.BXQ.H.Y.K.K.(.6X6X6X6X6X6X6X6X6X6X6X6X6X6X9XQ.D.I.I.I.K.I.I.I.>X6X6X6X6X6X6X6X|.D.K.I.I.I.D.Q.6X6X6X6X6X6X6X6X6X6X6X5X(.Q.>X9X6X6X6X6X6X6X6X6X6X9X9X6X9X6X6X6X|.Q.I.I.I.I.I.I.I.|.9X6X6X6X6X6X6X>XI.I.I.I.I.I.|.rX6X6XrXa.O t t t t t t # Q D.6.>.>.1.>.c.S.S.z.&XFXAXQ.K.I.I.I.K.).wX6X6X6X6XwXQ.I.I.I.I.Y.K.Q.6XoX6XwX|.K.",
"I.I.I.I.I.Y.S.I.9X,X6X,X6X,X,X6X>XI.K.K.I.H.`.9X6X6X6XrX`.K.K.>XwX6X6X6X6X6X6X9X(.K.I.K.I.I.I.K.Q.6X6X6X6XwX5XK.I.I.H.>XwX6X6X6X6X6X6X6X6X6X>X6.$ t t t t t t t t t 2 t t t t > P 3.1.1.1.1.y.S.>XrX6X6X6X6X`.H.I.I.K.K.(.6X6X6XwXrX`.H.I.I.I.,XwX6X6X6X9X9X9X*XD.I.K.>XwX6X6X6X6X6X6X6X6X6X6X6XQ.K.I.I.I.I.I.I.I.I.I.I.I.I.`.rXwX6X6X6X6X9X`.K.Y.I.D.>XrX6X6XwX6X6X6X6X6XrX>XK.Y.Y.I.,X9X6XrX>XK.Y.I.K.Q.9X6X6X6X XQ.K.I.I.K.Q.rX8X3 9 w L c.B.S.S.c.c.S.S.S.S.S.S.c.c.y.>.3.;.n.AXFXMXK.I.5X6X6X6X6X6X6X6X'.D.K.I.I.I.I.D.`.9X6X6XwX>XK.I.I.I.K.I.I.Q.9X6X6X6X6X6X6X6X6X9X6X6X6X6X6X6X6XwX`.I.I.I.I.I.D.`.wX6X6X6X6X6XoX6X>XI.D.Q.,X6X6X6X6X6XrX`.S.`.6X6X6X6X9X(.H.K.>X6XD.K.}.6X,X6X6X6X6X6X,Xz.>.>.>.>.>.r.c.B.S.S.c.c.c.z.z.z.BX&XH.Y.K.K.`.6X6X6X6X6X6X6X6X6X6X6X6X6X6X6XI.D.K.I.I.I.I.K.Q.6X6X6X6X6X6X6X6X).D.K.I.I.I.D.`.9X6X6X6X6X6X6X6X6X6X9XQ.S.H.I.(.5X9X6X6X6X6X6X6X6X6X9X6X6X6X6X6X6X'.I.I.I.I.I.Y.K.`.9X6X6X6X6X6X6X6XQ.I.I.I.I.K.Q.6X9X6XrX0.O i t t t t t # Q D.6.>.,.1.r.S.S.S.t.&XFXAXQ.K.I.I.I.K.|.wX6X6X6X6X,XI.I.I.I.I.I.K.`.6XoX6X6X`.K.",
"I.I.I.I.I.K.K.>X6X,X6X6X6X6X6X6X6X(.I.K.I.K.Q.6X9X6X6XrX`.K.S.`.rX6X6X6X6X6X6X6X(.K.I.K.I.I.I.I.I.>X6X6X6X6X5XK.I.I.H.|.wX6X6X6X6X6X6X6X6X6X>X6.# t t t t t t t t t t t t t : M 8.1.1.1.1.1.u.S.>XrX6X6XwX6XQ.H.I.I.I.K.`.9X6X6XwXrXQ.K.K.K.I.6X6X6X6X6X6X9X9X*XD.K.K.>XwX6X6X6X6X6X6X6X6X6X6X,XD.I.I.I.I.I.I.I.I.I.I.I.I.I.|.rX6X6X6X6X6X9X`.K.Y.I.D.6X6X6X6X6X6X6X6X6X6X9X`.K.Y.K.Q.6X6X6XrX>XK.Y.I.K.Q.9X6X6X6X,XQ.K.I.I.K.Q.rX>X3 0 w H i.H.S.S.c.c.S.S.S.S.S.S.S.D.c.r.1.;.n.AXFXMXK.I.`.6X6X6X6X6X6X6X6XQ.K.I.I.I.I.K.Q.9X6X6X6X,XQ.K.I.I.I.Y.I.I.9X6X6X6X6X6X6X6X6X9X6X6X6X6X6X6X6X6X(.I.I.I.I.I.D.>X6X6X6X6X6X6X6X6X>XI.D.Q.6X6X6X6X6X6XrX`.S.`.6X6X6X6X9XQ.H.K. X6XI.K.|.9X,X6X6X6X6X6X>Xr.>.>.>.>.>.r.c.z.c.S.c.c.c.z.x.r.MX>XH.Y.K.K.>X6X6X6X6X6X6X6X6X6X6X6X6X6X6X>XD.I.I.I.I.Y.Y.K.&X9X6X6X6X6X6X6X6XQ.D.I.I.I.I.I.>X6X6X6X6X6X6X6X6X6X9X>XK.I.K.H.I.Q.|.6X6X6X6X6X6X6X9X9X6X6X6X6X6XwX6X`.I.I.Y.K.I.I.I.*X9X6X6X6X6X6X6X|.I.I.K.I.K.I.`.rX6XrXm.o i 2 t t t t # Q D.6.>.3.,.r.S.B.S.z.&XFXAX^.K.I.I.I.I.>X6X6X6X6XwX`.D.I.I.I.I.I.I.>X6XoX6X,XQ.K.",
"I.I.I.I.I.D.`.rX,X6X6X6X6X6X6X6X6X}.I.K.K.K.K.>X9X6X6X6X6XI.K.Q.,X6X6X6X6X6X6X6X(.K.I.I.I.I.I.I.D.`.6X6X6X6X5XI.I.Y.H.|.wX6X6X6X6X6X6X6X6X6X6X| # t t t t t t t t t t t l - n y.1.1.1.1.1.1.p.S.>XrX6X6X6X,XI.H.I.I.K.K.'.6X6X6X9X9XI.K.K.K.I.6X6X6X6X6X6X9X9X`.D.K.K.|.wX6X6X6X6X6X6X6X6X6X6X>XK.I.I.I.I.I.I.I.I.I.I.I.I.I.>XwX6X6X6X6X6X6XQ.K.Y.K.Q.9X6X6X6X6X6X6X6X6X6X9XQ.K.Y.K.Q.6X6X6XrX|.K.I.I.K.I.9X6X6X6X,XQ.K.I.I.K.Q.rX&X4 0 ; L y.g.S.S.c.c.S.S.S.S.S.S.c.z.z.t.1.-.n.AXFXBXK.I.I.5X6X6X6X6X6X6X6X`.K.I.I.I.I.K.I.6X6X6X6X9XQ.K.I.I.I.I.I.I.>X6X6X6X6X6X6X6X6X6X6X6X6X6X6X6X6X6XQ.I.I.I.I.K.I.>X6X6X6X6X6X6X6X6X*XI.D.`.6X6X6X6X6X6XrX`.D.`.6X6X6X6X9XQ.H.I. X>XQ.K.}.6X,X6X6X6X6X6X1Xr.>.>.>.>.>.p.S.c.c.S.c.c.c.c.c.6.MX<XH.Y.K.K.5X6X6X6X6X6X6X6X6X6X6X6X6X6XwX'.D.I.I.I.K.I.I.I.>X9X6X6X6X6X6X6X6XQ.D.K.K.I.K.Q.6X6X6X6X6X6X6X6X6X6X9XQ.K.I.K.K.I.I.I.`.6X6X6X6X9X6X9X9X6X6X6X6X6X6X6X|.Q.I.Y.I.I.Y.K.Q.5X6X6X6X6X6X6X6XQ.I.I.I.I.I.Q.6X6XrXm.o i 2 t t t t # Q D.>.>.3.>.r.S.B.B.t.%XFXAX^.H.I.I.I.(.6X6X6X6X6X6XQ.K.I.I.I.I.K.I.6X6XoX6X}.K.I.",
"I.I.I.I.I.Q.6XwXwX6XwX6X6X6X6X6X6X6XQ.K.K.I.K.`.9X6X6X6X6XQ.D.K.`.6X6X6X6X6X6X6XQ.K.I.I.I.I.I.I.K.Q.6X9X6X6X5XI.I.Y.H.'.wX6X6X6X6X6X6X6X6X6X9X| # t t t t t t t t t t 0 > M 8.1.1.1.1.1.1.1.p.S.>XrX6X6X6X>XK.K.I.I.K.K.*X6X6X6XrX>XK.I.K.K.Q.6X6X6X6X6X6X9X9X`.D.K.K.|.wX6X6X6X6X6X6X6X6X6X6X>XK.I.I.I.I.I.I.I.I.I.I.I.I.Q.6XwX6X6X6X6X6X6XQ.K.Y.K.Q.9X6X6X6X6X6X6X6X6X6X9XI.I.Y.K.(.wX6X6XrX|.K.I.I.H.I.9X6X6X6X,XQ.I.I.I.K.Q.rX`.4 t ; H y.p.S.S.S.c.S.S.S.S.S.S.c.t.z.S.r.;.p.AXFXBXI.I.I.(.6X6X6X6X6X6X6X>XI.K.I.I.I.I.D.|.wX6X6XrX`.K.I.I.I.I.Y.Y.>XwX6X6X6X6X6X6X6X6X6X6X6X6X6X6X6X6XQ.I.I.I.I.K.I.>X6X6X6X6X6X6X6X6X'.I.D.`.9X6X6X6X6X6X9X(.D.`.9X6X,X9X9XI.K.I.,X>XQ.K.).6X,X6X6X6X6X6X1X6.,.>.>.>.r.p.S.c.c.S.c.c.c.c.i.| MX<XH.Y.K.Q.9X6X6X6X6X6X6X6X6X6X6X6X6X6XwX`.D.I.I.I.K.I.I.Q.9X9X6X6X6X6X6X9X6XI.D.K.K.K.K.`.6X6X6X6X6X6X6X6X6X9X>XK.Y.H.K.I.K.K.K.I.`.6X6X6X6X9X9X9X6X6X6X6X6X6X6X6X*XI.I.Y.I.I.I.I.(.9X6X6X6X6X6X9X'.I.I.K.I.I.I.`.9XjXm.# i t t t t t # Q D.>.>.3.>.r.S.B.B.t.%XFXAX^.H.I.I.I.(.9X6X6X6X6X|.I.I.I.I.I.I.K.(.6X6X6X6X(.K.I.",
"I.I.I.I.K.>XrX6XwXwXwX6X6X6X6X6X6X6X`.K.I.I.K.Q.,X6X6X6X6X}.D.K.Q.,X6X6X6X6X6X6XQ.K.I.I.I.I.I.I.I.I.9XrX6X6X5XI.I.Y.H.`.6X6X6X6X6X6X6X6X6X6X9X .$ t t t t t t t t t t - V i.1.1.>.1.1.1.1.1.H.c.>XrX6X6X9X`.K.K.I.I.K.I.>X6X6X6XrX>XK.I.K.K.Q.6X6X6X6X6X6X9X9X`.D.K.K.|.wX6X6X6X6X6X6X6X6X6X6X>XK.I.I.I.I.I.I.I.I.I.I.I.I.Q.rXwX6X6X6X6X6X5XI.K.I.H.).wX6X6X6X6X6X6X6X6X6X8XI.Y.Y.K.`.wX6X6XrX}.K.I.K.H.I.6X6XwX6X,XQ.I.I.I.K.Q.rXQ.> t ; H y.r.S.S.c.c.S.S.S.S.S.S.S.c.z.S.S.,.i.AXFXZXQ.K.I.I.>X6X6X6X6X6X6X6X(.K.I.I.I.I.K.`.wX6X6X6X|.K.I.I.I.I.Y.I.`.wX6X6X6X6X6X6X6X9X6X6X6X6X6X6X6X,XI.I.I.I.I.K.Q.6X6X6X6X6X6X6X6X6X`.K.D.>X9X6X6X6X6X6X6XQ.D.&X9X,X,X9X1XI.K.I.6X>XI.K.!.9X,X6X6X6X6X6X1X| ,.,.,.>.r.c.S.z.S.S.c.c.c.c.r.:.fX9XH.I.K.`.9X9X6X6X6X6X6X6X6X6X6X6X6X6XwXQ.S.I.I.I.I.I.I.`.9X9X6X6X6X6X6X9X5XD.D.K.K.K.K.>X6X6X6X6X6X6X6X6X6X9XQ.H.Y.H.K.I.I.K.I.I.D.*X6X6X6X6X9X9X6X6X6X6X6X9X6X6X6X(.I.Y.I.I.I.I.I.*X6XwX6X6X6X6X6XQ.I.I.I.I.I.Q.>XjXm.o i t t t t t # Y D.6.>.3.>.r.S.B.B.t.%XFXAX^.H.I.I.I.'.9X6X6X6X6X`.K.I.I.I.I.I.K.*X6X6X6X6XQ.K.K.",
"I.I.Y.K.^.rXrX6X,XwX6X6X6X6X6X6X6X6X>XI.I.K.I.K.|.9X6X6X6X|.D.D.D.`.6X6X6X6X6X9XQ.K.I.I.I.I.I.I.K.I.6XrX6X6X5XI.I.Y.H.`.6X6X6X6X6X6X6X6X6X6XrXr.$ t t t t t t t t t < P H.e.>.1.1.1.1.1.1.1.H.c.,XrX6X6X6X(.H.I.I.I.K.I.5X6X6X6XwX`.K.Y.I.K.(.6X6X6X6X6X6X9X9X`.D.K.K.|.wX6X6X6X6X6X6X6X6X6X6X'.I.I.I.I.I.I.I.I.I.I.I.I.I.`.wX6X6X6X6X6X9X>XI.K.K.K.}.wX6X6X6X6X6X6X6X6X6X>XI.Y.Y.K.*XwX6X6XrX}.D.I.K.H.I.6X6X6X6X,XQ.I.I.I.K.G.rXK.> i ; H y.r.S.S.c.c.c.S.S.S.S.S.S.c.z.B.D.y.r.AXFXAXQ.K.I.I.(.6X6X6X6X6X6X6X>XI.I.I.I.I.K.I.6X6X6X6X,XI.I.I.I.I.Y.I.(.rX6X6X6X6X6X6X6X9X9X9X6X6X6X6X6X>XI.I.I.I.I.H.^.6X6X6X6X6X6X6XoX6X`.D.D.>XrX6X6X6X6X6X6XQ.D.>X9X,X,X9X>XK.H.Y.wX>XQ.K.!.9X,X6X6X6X6X6X1X' ,.,.,.>.r.S.c.z.S.S.S.S.c.c.y.-.fXiXH.Y.K.*X9X6X6X6X6X6X6X6X6X6X6X6X6X6X6XI.H.I.I.I.I.K.I.>X9X9X6X6X6X6X6X9X>XD.K.K.I.K.Q.>X6X6X6X6X6X6X6X6X6X>XD.H.U.Y.K.K.K.I.I.K.I.I.|.6X6X6X6X9X6X6X9X9X6X6X6X6X6X>XQ.Y.Y.I.I.I.I.I.>X6X6X6X6X6X9X'.I.I.K.I.K.D.!.rX#X+ i t t t t t # Q D.6.>.3.1.r.S.B.B.t.%XFXAX^.H.I.I.I.>X6X6X6X6X9XQ.H.I.I.I.I.K.I.5X6X6X6X>XI.K.K.",
"I.Y.I.K.,XrX6X6X6X6X6X6X6X6X6X6X6X6X6X(.I.K.I.K.`.9X6X6X6X6XQ.K.S.Q.6X6X6X6X6X9XQ.K.I.I.I.I.I.I.I.I.|.6X6X6X6XI.Y.I.H.`.6X6X6X6X6X6X6X6X6X6XrXz.$ t t t t t t t t < M D.p.>.1.1.1.1.1.1.1.r.H.z.,XwXwXwX>XI.H.I.I.K.I.I.6X6X6X6X6X`.K.I.K.K.(.6X6X6X6X6X6X9X9XQ.D.K.K.>XwX6X6X6X6X6X6X6X6X6X6X`.D.I.I.I.I.I.I.I.I.I.I.I.I.'.rX6X6X6X6X6X9X'.K.I.K.I.|.wX6X6X6X6X6X6X6X6XwX*XI.Y.Y.K.>X6X6X,XrX`.K.I.I.K.Q.9X6X6X6X,XQ.I.I.I.K.G.rXc.> i ; H 8.r.S.S.S.S.S.S.S.S.S.S.S.c.c.S.D.c.c.AXFXAXQ.K.Y.I.I.5X6X6X6X6X6X6X6XQ.K.I.I.I.K.I.>X6X6X6X6XQ.K.I.I.I.I.Y.I.9X6X6X6X6X6X6X6X6X6X6X6X6X6X6XwX|.K.I.I.I.I.H.'.6X6X6X6X6X6X6XoX6X(.D.K.>XrX6X6X6X6X6X,XQ.D.>XrX6X,XrX>XK.H.Q.wX9X&XK.Q.6X,X,X6X6X6X6X1X' ,.>.>.>.t.S.c.c.c.S.c.c.S.p.1.-.fXfXH.I.I.9X6X6X6X6X6X6X6X6X6X6X6X6X6X6X>XI.K.I.I.I.I.I.(.9X9X9X6X6X6X6X6X9X*XK.I.I.K.K.(.9X6X6X6X6X6X6X6X6X6X`.D.K.K.I.K.K.I.I.K.K.I.I.I.|.9X6X6X6X9X9X9X9X6X6X9X6X6X9X*XI.I.I.I.I.I.I.(.6X6X6X6X6X6X5X(.I.I.I.I.D.D.|.#X> i t t t t t # Y D.6.>.3.1.t.S.B.S.r.%XFXAX^.K.I.I.Q.6X6X6X6X6X6XQ.K.Y.Y.I.I.K.(.9X6XoXwX'.D.I.I.",
"Y.Y.K.`.rX,X6X6X6X6X6X6X6X6X6X6X6X6X6X'.I.I.K.K.Q.,X6XwX,XwX`.K.H.K.>X6XwXwX6X9XQ.K.I.I.I.I.I.I.I.K.'.6X6X6X6XY.I.I.H.`.6X6X6X6X6X6X6X6X6X6XrXD.$ t t t t t t t w M z.B.t.>.1.3.1.1.1.1.>.p.H.z.,XwX6X9X|.K.K.I.I.K.K.(.6X6X6X6X6X`.K.I.K.K.(.6X6X6X6X6X6X9X9XQ.D.K.K.>XwX6X6X6X6X6X6X6X6X6X6X`.K.I.I.I.I.I.I.I.I.I.I.I.I.>XwX6X6X6X6X6X6X`.K.I.K.I.,XwX,X6X6X6X6X6X6X6XwX&XI.Y.Y.I.5X6X6X,XrX`.K.I.I.K.Q.9X6X6X6X,XI.I.I.I.D.G.rXi.> i ; H y.>.c.S.c.S.S.S.c.c.S.S.S.z.z.S.c.c.D.AXFXAXQ.H.Y.I.I.'.6X6X6X6X6X6X6X`.K.I.I.I.K.K.|.6X6X6X6X).D.I.I.I.I.I.I.5X6X6X6X6X6X6X6X6X6X6X6X6X6X6XwX`.K.I.I.I.I.I.|.6X6X6X6X6X6X6X6X6XQ.D.D.6XrX6X6X6X6X6X,XI.D.>X9X6X,X9X>XK.H.Q.wX9X>XK.D.>X6X6X6X6X6X6X9X' ,.,.>.>.p.S.c.c.S.S.S.c.S.p.>.>.sXkXH.K.Q.9X6X6X6X6X6X6X6X6X6X6X6X6X6X9X'.K.I.I.I.I.I.I.*X9X6X6X6X6X6X6X6X9X`.K.I.I.K.D.`.9X6X6X6X6X6X,X6X6X6XQ.K.K.K.K.K.K.K.K.K.K.K.I.S.Q.5X6X6X6X9X6X9X9X6X6X9X9X6XrX9X(.I.I.I.I.I.I.I.>X6X6X6X6X6X9X'.I.I.K.I.D.D.).N.4 i t t t t t # Y D.6.>.3.1.t.S.B.S.r.%XFXAX^.K.I.I.(.6X6X6X6XwX>XI.K.I.I.I.I.K.`.9X6X6X6X(.S.I.I.",
"Y.I.K.9XrXwX6X6X6X6X6X6X6X6X6X6X6X6X6X>XQ.I.K.K.K.>X6X6X,X6X>XK.K.H.(.6XwXwXwX6XQ.K.I.I.I.I.I.I.I.K.`.6X6X6X6XY.I.Y.H.(.6X6X6X6X6X6X6X6X6X6XrXD.# t t t t t t t ; Q l.t.r.1.1.3.1.1.1.1.1.S.H.z.,XwX6X9X`.H.I.I.I.I.K.(.6X6X6X6X6X`.K.I.K.K.(.6X6X6X6X6X6X9X9XQ.D.K.K.>XwX6X6X6X6X6X6X6X6X6X6XQ.K.I.I.I.I.I.I.I.I.I.I.I.Q.6XwX6X6X6X6X6X6X`.K.I.K.Q.6XwX6X6X6X6X6X6X6X6X6X(.I.Y.I.Q.6X6X6X6XwX`.K.I.I.K.Q.9X6X6X6X,XQ.I.I.I.D.G.rX7.> l ; H 8.] t.S.c.S.S.S.S.S.S.S.S.S.B.B.c.c.D.VXFXAX`.H.Y.I.I.(.5X6X6X6X6X6X6X>XI.K.I.I.I.D.`.6X6X6X6X}.D.I.I.I.I.Y.I.*X6X6X6X6X6X6X6X6X6X6X6X6X6X6XwX(.K.I.I.I.I.I.>X6X6X6X6X6X6X6X6X,XI.K.K.9XrX6X6X6X6XwX,XI.D.>X9X6X,X6X'.K.K.(.wX9X>XQ.S.}.rX6X6X6X6X6X9X' ,.,.>.r.c.S.S.S.S.c.S.S.S.r.>.:.iXkXH.K.`.9X6X6X6X6X6X6X6X6X6X6X6X6X6XrX(.H.I.I.I.I.K.I.6X9X9X6X6X6X6X6X6X9XQ.K.I.I.H.D.>X6X6X6X6X6X6X,X6X6X>XK.K.K.K.K.K.K.K.K.K.K.K.K.I.I.Q.>X6X6X6X6X6X6X6X6X6X9X9X6XrX5XI.I.I.I.I.I.I.(.6X6X6X6X6X6X6XQ.I.I.K.D.D.Q.m.3 i t t t t t # Y D.>.>.3.1.p.S.B.S.r.%XFXAX^.K.I.I.'.6X6X6X6XwX`.K.I.I.I.I.K.I.>X6X6X6X6XI.K.I.I.",
"I.S.`.rXrXwX6X6X6X6X6X6X6X6X6X6X6X6X6X6X`.I.K.I.K.`.9X6X,X,X,XQ.K.H.I.>XwXwXwX6X(.K.I.I.I.I.I.K.I.K.(.6X6X6X6XY.I.Y.H.(.6X6X6X6X6X6X6X6X6X6XrXG.$ t t t t t t t ; ! C.t.r.1.1.1.1.1.1.1.r.D.c.z.6XrX6X6XQ.H.I.I.K.I.I.'.6X6X6X6X6X`.K.I.I.K.&X6X6X6X6X6X6X9X5XI.D.K.K.>XwX6X6X6X6X6X6X6X6X6X6XQ.I.I.I.I.I.I.I.I.I.I.I.I.(.6X6X6X6X6X6X6X6XQ.K.Y.K.(.6XwX6X6X6X6X6X6X6X6X6XY.Y.Y.I.Q.6X6X6X6X6X`.K.K.I.K.I.9X6X6X6X,XQ.I.I.I.D.G.dX .> l ; H y.] t.S.S.S.S.S.S.S.S.S.S.c.S.z.S.S.D.VXFXAX`.H.Y.I.I.I.|.6X6X6X6X6X6X6XQ.K.I.I.I.K.(.6X6X6XwX>XD.K.I.I.I.Y.H.%X9X6X6X6X6X6X6X6X6X6X6X6X6X6X6XQ.K.I.I.I.I.Q.6X6X6X6X6X6X6X6X6X|.D.I.I.9X9X6X6X6X6XwX,XI.D.>X6X6X6X6X`.K.K.&XwX6X9XQ.H.!.rX6X6X6X6X6X9X' ,.3.>.r.c.S.S.S.c.c.S.S.p.>.3._ 1XkXS.K.>X9X6X6X6X6X6X6X6X6X6X6X6X6X6X9XQ.K.K.I.I.I.K.(.9X6X6X6X6X6X6X6X6X>XI.K.K.K.K.Q.6X6X6X6X6X6X6X6X6X6X`.K.K.K.K.K.K.K.K.K.K.K.K.K.I.I.S.(.6X6X6X6X6X6X6X6X6X6X6X6X6XrX*XS.I.I.I.I.I.I.'.6X6X6X6X6X6X*XI.I.K.D.D.G.b.5 i t t t t t # Y D.>.>.8.>.p.S.B.S.r.%XFXAX^.K.I.I.>X6X6X6XrX6XQ.K.Y.I.I.I.K.Q.6X6X6XwX|.K.I.I.I.",
"H.D.,X6XwX6X6X6X6X6X6X6X6X6X6X6X6X6X6X9X>XI.K.I.K.Q.6X6XwX,X6X`.H.I.S.`.wXwXwX6X(.K.I.I.I.I.I.K.I.K.Q.6X6X6X6XQ.Y.Y.P.(.6X6X6X6X6X6X6X6X6X6XrXG.$ t t t t t t t ; ! C.p.>.3.,.1.1.1.1.>.p.D.c.z.6XwXrX>XK.K.I.K.I.K.I.|.6X6X6X6X6X`.K.I.I.K.&X6X6X6X6X6X6X9X>XD.D.D.K.}.wX6X6X6X6X6X6X6X6XwX6XQ.I.I.I.I.I.I.I.I.I.I.I.I.`.rX6X6X6X6X6X6X6XY.K.I.K.`.6X6X6X6X6X6X6X6X6X9X5XY.Y.Y.H.).wX6X6X6XwX`.D.I.I.H.I.6X6X6X6X XQ.I.I.I.D.G.rX/ & l ; L y.>.r.S.S.S.S.S.S.S.S.S.S.c.z.z.c.c.x.BXFXFX&XH.I.I.I.I.).6X6X6X6X6X6X6X'.I.I.I.I.K.Q.6X6X6X6X,XQ.K.I.I.I.I.H.T.9X6X6X6X6X6X6X6X6X6X6X6X6X6X,XY.I.I.I.I.D.(.6X6X6X6X6X6X6X6X6X|.D.I.Q.9X9X6X6X6X6XwX,XK.D.>X9X,X6X6X(.K.K.&XwX6X9X`.K.Q.6XwX6X6X6X6X9X[ -.y.>.y.S.S.S.S.S.S.S.S.y.>.y._ >XBXD.I.5X6X6X6X6X6X6X6X6X6X6X6X6X6X6X6XI.K.I.I.I.I.I.`.6X6X6X6X6X6X6X6X6X>XK.K.K.K.K.Q.9X6X6X6X6X6X6X6X6X,XQ.K.I.K.K.K.K.K.K.K.K.K.K.K.K.K.I.S.(.9X6X6X6X6X6X6X6X6X6X9X6X6X6X(.H.I.I.I.I.I.(.>X6X6X6X6X6X5XQ.I.K.K.D.D.m.5 9 t t t t t # Y D.>.>.8.>.p.B.B.S...%XFXAX^.K.I.Q.6X6X6X6XrX>XI.I.I.I.K.I.K.`.6X6X6XrX`.S.I.I.I.",
"H.^.6X6X6X6X6X6X6X6X6X6X6X6X6X6X6X6X6X6X,X(.I.I.K.I.>X6X6X6X6X|.K.I.K.Q.6XwX6X6X`.K.I.I.I.I.I.I.I.K.I.6X6X6X6XI.Y.Y.P.Q.6X6X6X6X6X6X6X6X6X6XrXG.$ t t t t t t t ; I C.r.>.3.,.>.1.1.1.1.S.S.S.z.6XwXrX>XD.I.I.I.I.K.I.>X6X6X6X6X6X`.K.I.I.I.*X6X6X6X6X6X6X9X>XD.K.K.K.`.wX6X6X6X6X6X6X6X6XwX,XI.I.I.I.I.I.I.I.I.I.I.I.I.>XrX6X6X6X6X6X6X,XY.K.I.K.|.wX6X6X6X6X6X6X6X6X9X>XY.Y.Y.H.`.wX6X6X6X6X).S.I.I.H.Q.6X6X6X6X XQ.I.I.I.D.Q.rX^ # l ; W y.>.r.S.S.S.S.S.S.c.c.S.c.z.z.z.c.c.x.vXFXFX&XS.Y.I.I.I.(.5X6X6X6X6X6X6X5XI.K.I.I.K.I.>XwX6X6X6XQ.K.I.I.I.I.I.I.6X6X6X6X6X6X6X6X6X6X6X6X6X6X|.I.I.I.I.I.D.'.wX6X6X6X6X6X6X6X6X).D.I.Q.9X9X6X6X6X6XwX>XK.I.6X6X6X6X6XQ.K.H.*XwX9X9X>XK.Q.,XwX6X6X6X6X9X[ -.y.>.p.D.S.S.S.S.S.c.c.r.>.y._ &XBXD.Q.6X6X6X6X6X6X6X6X6X6X6X6X6X6X6X>XK.I.I.I.K.K.I.6X6X6X6X6X6X6X6X6XrX`.H.K.I.K.K.`.6X6X6X6X6X6X6XwX6X>XI.I.I.K.K.K.K.K.K.K.K.K.I.K.K.I.I.S.D.`.6X6X6X6X6X6X6X6X6X6X6X6X6X>XI.I.I.I.I.I.D.`.6X6X6X6X6X6X'.I.I.K.D.D.m.5 9 t t t t t # Y D.>.>.8.>.c.B.B.S...%XFXAX`.K.I.(.6X6X6X6XrX|.I.I.I.I.I.I.I.>X6X6X6X9X(.S.I.I.I.",
"H.|.6X6X6X6X6X6X6X6X6X6X6X6X6X6X6X6X6X6X9X`.K.K.I.D.`.6X6X6X6X,XI.I.K.I.>XrXwX9X`.K.I.I.I.I.I.I.I.K.K.,X6X6X6XI.Y.Y.P.Q.6X6X6X6X6X6X6X6X6X6XrXG.$ t t t t t t t ; L l.>.1.1.1.,.3.1.3.1.p.S.S.c.,XwX9X(.K.I.I.I.I.K.Q.6X6X6X6X6X6XQ.K.I.I.I.>X6X6X6X6X6X6X9X>XD.K.K.K.`.wX9X9X9X6X6X6X6X6XwX,XI.K.I.I.I.I.I.I.K.K.I.K.(.6XwX6X6X6X6X6X6X>XI.K.I.I.,XwX6X6X6X6X6X6X6X6X9X(.H.Y.Y.K.|.wX6X6X6X6X`.S.I.I.H.Q.6X6X6X6X XQ.I.I.I.K.(.rX$.o l ; W y.>.r.c.S.c.c.c.c.z.c.c.c.c.c.z.S.S.D.BXFXFX>XS.Y.I.I.I.I.|.6X6X6X6X6X6X6X(.K.I.I.I.S.`.wX6X6X6X`.D.I.I.I.I.Y.H.|.wX6X6X6X6X6X6X6X6X6X6X6X6X`.K.I.I.I.I.I.|.6X6X6X6X6X6X6X6X6XD.I.D.Q.9X6X6X6X6X6XwX|.K.I.6X6X6X6X6X(.K.H.>XwX9X9X|.K.K.>X6X6X6X6X6XrX( &.y.>.p.S.S.S.S.c.c.c.t.>.>.y.-.&XBXD.&X9X6X6X6X6X6X6X6X6X6X6X6X6X6X6X`.K.I.K.I.K.H.Q.rX6X6X6X6X6X6X6X6XrX`.H.I.I.K.I.>X6X6X6X6X6X6X6X6XrX`.K.Y.I.I.I.I.I.I.I.I.I.I.I.K.K.K.K.K.K.D.}.6X6X6X6X6X6X6X6X6X6X6X6XoX[.S.I.I.I.I.D.I.6X6X6X6X6X6X6X(.I.K.K.D.n.5 9 t t t t t # T C.] >.3.>.c.B.B.S...%XFXAX&XH.I.`.6X6X6XwXwX`.K.I.I.I.I.I.I.6X6X6X6X6XQ.A.I.I.I.",
"I.6X6X6X6X6X6X6X6X6X6X6X6X6X6X6X6X6X6X6X6X>XK.H.I.D.Q.6X9X6X6X9XQ.K.I.I.:XrXwXwX>XI.I.I.I.I.I.I.I.I.K.|.6X6X9XI.I.Y.P.I.6X6X6X6X6X6X6X6X6X6XrXG.$ t t t t t t t ; I B.>.,.>.,.,.3.1.1.r.c.S.S.z.,XwX6XK.I.I.I.I.I.D.`.6X6X6X6X6X6XQ.K.I.H.Y.5X6X6X6X6X6X6X9X'.D.K.K.K.`.6X9X6X9X6X6X6X6X6XwX,XI.K.I.I.I.I.I.I.K.K.I.K.`.rX6X6X6X6X6X6X6X`.P.I.K.Q.6X6X6X6X6X6X6X6X6X6X6XQ.I.Y.Y.I.>XwX6X6X6X6X(.S.I.I.K.Q.6X6X6X6X,XQ.I.I.I.K.(.rXQ # l ; W y.>.1.t.S.z.z.z.c.c.c.c.c.c.S.S.S.S.D.BXFXFX<XH.Y.I.I.I.D.'.6X6X6X6X6X6X6X'.I.I.I.I.S.`.wX6X6X6X|.I.K.I.I.I.Y.H.`.6X6X6X6X6X6X6X6X6X6X6X6X6X`.K.I.I.I.I.I.|.6X6X6X6X6X6X6X6X>XD.I.D.Q.9X6X6X6X6X6XwX'.I.Q.6X6X6X6X6XQ.K.K.>XwX9X9X|.I.K.>XwXwX6X,X,XrX( @.y.6.c.c.S.S.c.c.z.c.r.>.>.y.-.&XAXK.<XrX6X6X6X6X6X6X6X6X6X6X6X6X6X9X(.K.I.I.I.I.H.`.6X6X6X6X6X6X6X6X6XrX`.H.I.I.K.Q.6X6X6X6X6X6X6X6X6X9XQ.K.I.I.I.I.I.I.I.I.I.I.I.I.K.K.K.K.K.K.K.I.|.wX6X6X6X6X6X6X6X6X6X0X6X>XI.D.I.I.I.I.D.`.6X6X6X6X6X6X>XI.K.K.D.m.c 9 t t t t t # T C.] ,.3.y.c.B.B.S...%XFXAX&XK.I.>X6X6X6XwXwX(.K.I.I.I.I.I.Q.9X6X6X9X>XI.I.I.I.I.",
"`.6X6X6X6X6X6X6X6X6X6X6X6X6X6X6X6X6X6X6X6X9XI.K.I.K.Q.,X6X6X,X9X(.K.I.K.`.9XwXwX>XI.K.I.I.I.I.I.I.K.H.|.6X6X9XQ.K.I.P.I.6X6X6X6X6X6X6X6X6X6XrXG.$ t t t t t t t ; S t.>.,.,.,.,.>.1.1.e.c.S.S.c.,XrX>XD.I.I.K.I.I.D.|.6X6X6X6X6X,XQ.I.I.I.Y.6X6X6X6X6X6X6X6X'.S.I.I.K.`.6X6X6X9X6X6X6X6X6XwX,XI.K.I.I.I.I.I.I.K.K.I.K.>XrX6X6X6X6X6X6X6XQ.P.I.I.(.wX6X6X6X6X6X6X6X6X9X>XY.I.Y.I.I.6XwX6X6X6X6X(.S.I.K.K.(.6X6X6X6X,XQ.I.I.I.K.(.rXD # l 9 W y.>.>.r.S.z.z.S.S.c.c.S.c.c.c.z.S.S.D.BXFXAX1XH.Y.I.I.I.I.`.6X6X6X6X6X6X6X5XI.I.I.I.H.Q.6X6X6X6X,XQ.K.I.I.I.I.K.Q.6X6X6X6X6X6X6X6X6X6X6X6X6XQ.K.I.I.I.K.Q.6X6X6X6X6X6X6X6X6X`.S.I.D.`.9X6X6X6X6X6XwX`.I.(.6X6X6X6X6XQ.H.K.>XwX9X6X XI.K.`.6XwX6X6X,XrX( R r.r.S.c.S.c.c.c.z.S.i.>.>.y.;.Q.AXQ.9XrX6X6X6X6X6X6X6X6X6X6X6X6X6X6XQ.I.I.I.K.I.D.>X6X6X6X6X6X6X6X6X6X6XQ.H.I.I.K.).rX6X6X6X6X6X6X6XwX,XY.K.I.I.I.I.I.I.I.I.I.I.I.I.K.K.K.K.K.K.K.K.Q.6X6X6X6X6X6X6X6X6X7XeX6X6X).S.I.I.I.I.K.I.6X6X6X6X6X6X6X(.K.K.D.m.c 9 t t t t t & Y C.] ,.3.y.S.B.z.S...%XFXAX&XH.Q.5X6X6X6XrX6XQ.K.I.I.I.I.S.`.9X6X6X9X>XI.I.I.I.I.",
"|.6X6X6X6X6X6X6X6X6X6X6X6X6X6X6X6X6X6X6X6X9XQ.K.Y.K.D.>X9X9X6X9X*XK.I.H.Q.6XwXwX6XQ.K.I.I.I.I.I.I.I.H.|.6X6X9XQ.K.I.Y.I.6X6X6X6X6X6X6X6X6X6XrXG.$ t t t t t t t ; S t.>.,.,.,.,.>.>.1.p.c.S.S.S.,XrX`.D.I.K.K.K.I.I.|.wX6X6X6X6X,XI.I.I.I.(.6X6X6X6X6X6X6XwX`.H.I.K.K.`.6X6X6X6X6X6X6X6X6XwX,XI.K.I.I.I.I.I.I.I.I.I.Q.6X6X6X6X6X6X6X6X6XQ.P.I.D.'.wX6X6X6X6X6X6X6X6X9X&XI.Y.Y.I.Q.6X6X6X6X6X6X(.S.I.K.H.(.6X6X6X6X,XQ.I.I.I.K.).rXD # l 9 W y.>.>.r.c.B.B.S.S.c.S.c.S.S.z.z.S.S.D.MXFXAX9XH.I.I.I.I.I.(.6X6X6X6X6X6X6X6X(.H.I.I.H.I.6X6X6X6X6XQ.K.I.I.I.I.I.D.6X6X6X6X6X6X6X6X6X6X6X6X6XI.K.I.I.I.H.Q.6X6X6X6X6X6X6X6X6XQ.H.Y.D.`.9X6X6X6X6X6X6X(.I.(.6X6X6X6X>XI.H.K.>XwX9X6X,XQ.K.`.,XwX6X6X,XrX( R r.r.S.c.S.S.c.c.c.S.y.>.>.y.>.Q.AX&X1XrX6X6X6X6X6X6X6X6X6X6X6X6X6X>XI.I.I.I.I.K.Q.6X6X6X6X6X6X6X6X6X6X5XI.H.I.I.D.|.rX6X6X6X6X6X6X6XrX|.K.I.I.I.I.I.I.I.I.I.I.I.I.I.K.K.K.K.K.K.I.K.K.(.9X6X6X6X6X6X6X6X6X6XoX6X|.I.H.I.I.I.I.K.`.6X6X6X6X6X6X>XQ.D.D.U.n 9 t t t t t & Y x.] ,.,.y.S.B.z.S...%XFXAX&XH.(.6X6X6X6XrX,XI.K.I.I.I.I.S.|.9X6X6X9X`.K.I.I.I.I.",
"6X6X6X6X6X6X6X6X6X6X6X6X6X6X6X6X6X6X6X6X6X6X`.K.Y.K.D.`.9X6X6X9X>XK.K.K.I.>XwXwX6XQ.K.I.I.I.I.I.I.I.H.|.6X6X9XQ.K.I.Y.I.6X6X6X6X6X6X6X6X6X6XrXG.$ t t t t t t 2 ; S r.>.,.,.,.3.>.>.1.c.S.S.S.z.6XwXQ.K.I.K.K.K.K.Q.6X6X6X6X6X6X XD.I.K.K.`.6X6X6X6X6X6X6XwX`.H.Y.K.K.Q.6X6X6X6X6X6X6X6X6XwX,XI.K.I.I.I.I.I.K.I.I.K.`.rX6X6X6X6X6X6X6X>XI.Y.I.I.5X6X6X6X6X6X6X6X6X6X9X(.I.Y.Y.H.`.wX6X6X6X6X6X(.H.I.K.H.`.6X6X6X6X,XQ.I.I.I.K.`.rXF # l 9 W y.>.>.>.p.C.B.S.c.c.S.S.S.S.z.c.c.c.S.kXFXFXaXH.I.I.I.I.I.Q.5X6X6X6X6X6X6X6X*XI.I.I.K.D.6XwX6X6X6X`.K.I.I.I.I.I.K.5X6X6X6X6X6X6X6X6X6X6X6X6XI.K.I.I.I.H.`.6X6X6X6X6X6X6X6X>XI.K.I.K.>X9X6X6X6X6X6X9X(.I.`.6X6X6X6X>XI.H.K.>XwX9X6X6XQ.H.Q. X6X6X6X,XrX( T y.t.S.c.S.S.c.S.S.c.r.>.3.,.>.K.AX3X,X,XwX6X6X6X6X6X6X6X6X6X6X6X9X*XK.I.K.K.I.H.`.9X6X6X6X6X6X6X6X6X6X>XK.I.I.I.I.,XwX6X6X6X6X6X6X,X9X(.H.I.K.I.I.I.I.I.I.I.I.I.I.I.K.K.K.K.K.I.K.I.K.D.`.9X6X6X6X6X6X6X6X6XOXwX6X`.S.I.I.I.I.I.Q.6X X6X6X6X6X9XQ.D.D.U.M 9 t t t t t & Y x.] ,.>.y.H.B.z.S...%XFXAX&XH.*X9X6X6X6XrX>XI.I.I.I.I.I.I.,X6X6X6X9X`.H.I.I.I.I.",
"6X6X6X6X6X6X6X6X6X6X6X6X6X6X6X6X6X6X6X6X6X9X'.I.Y.I.K.Q.6X6X6X6X9XQ.K.I.I.*X9XwXrX`.K.I.I.I.I.I.I.I.H.|.6X6X6XQ.K.I.Y.I.>X6X6X6X6X6X6X6X6X6XrXG.$ t t t t t t 2 ; A r.>.,.,.,.3.3.>.r.S.S.S.S.z.9X,XD.K.K.K.K.K.K.`.9X6X6X6X6X6X>XK.I.I.I.>X6X6X6X6X6X6X6XwX(.H.I.I.K.Q.6X6X6X6X6X6X6X6X6X6X6XI.K.I.I.I.I.I.K.I.Y.K.>XwX6X6X6X6X6X6X6X&XK.Y.I.Q.6X6X6X6X6X6X6X6X6X9X>XI.I.Y.Y.H.'.eX6X6X6X6X6X(.H.I.K.H.`.6X6X6X6X,XQ.I.I.I.K.(.rXn - l q T y.>.>.>.t.C.B.S.c.c.S.S.S.S.z.z.c.S.c.kXFXAXkXK.K.I.I.I.I.D.*XeX6X6X6X6X6X6X5XI.I.I.I.D.>XwX6X6XwX|.I.I.I.I.I.I.K.'.7X6X6X6X6X6X6X6X6X6XwX|.H.K.I.I.K.S.'.6X6X6X6X6X6X6X6X}.K.K.I.I.>X9X6X6X6X6X6X0XQ.H.`.6X6X6X6X|.K.H.K.,XwX9X6X6XQ.H.Q.,XwX,X6X,XrX( T y.t.S.S.S.S.S.S.S.c.>.>.1.>.>.c.AXaX,X,XwX6X6X6X6X6X6X6X6X6X6X6X9X(.K.I.K.K.I.H.>X6X6X6X6X6X6X6X6X6XwX*XK.I.I.K.Q.wX6X6X6X6X6X6X6X6X6XQ.H.I.K.I.I.I.I.I.I.I.I.I.I.I.I.K.K.K.K.K.K.I.I.K.K.>X6X6X6X6X6X6X6X6X6X6XeX5XD.I.I.I.I.I.I.`.6X,X6X6X6X9X:XD.D./.M 9 t t t t t & Y x.] ,.>.y.H.z.z.S.| %XFXAX&XS.>X9X6X6X6XrX`.I.I.I.I.I.I.Q.6X6X6X6X9XQ.H.I.I.I.(.",
"6X6X6X6X6X6X6X6X6X6X6X6X6X6X6X6X6X6X6X6X6X6X|.K.Y.I.I.D.6X9X6X6X9X`.H.I.K.(.9XrXrX>XI.I.I.K.I.I.I.K.K.|.6X6X6XI.K.Y.Y.I.>X6X6X6X6X6X6X6X6X6XrXG.$ t t t t t t 2 ; M r.,.,.,.,.,.3.>.t.S.S.S.S.z.9X}.D.I.I.K.K.K.K.>X9X6X6X6X6X6X'.I.I.I.(.6X7X6X6X6X6X6X6X6XQ.H.Y.K.K.Q.6X6X6X6X6X6X6X6X6X6X6XQ.K.I.I.I.I.I.I.K.H.Q.wX6X6X6X6X6X6X6X6XQ.K.I.K.`.9X6X6X6X6X6X6X6X6X9X*XI.Y.Y.Y.I.|.wX6X6X6X6X6X(.S.I.I.K.`.6X6X6X6X,XQ.I.I.I.H.(.6Xn > l q E y.>.1.>.r.C.B.S.c.c.z.z.c.S.S.c.c.c.z.kXFXFXBXQ.K.I.Y.I.I.H.&XeX6X6X6X6X6X6X6XQ.K.I.I.D.`.wX6X6X6X,XQ.I.I.I.I.I.I.Q.9X6X6X6X6X6X6X6X6X6XwX).H.K.I.I.K.S.>X6X6X6X6X6X6X6X6X).K.I.K.G.6X6X6X6X6X6X6X9XQ.I.'.6X6X6X6X|.H.H.K.,XrX6X6X6XQ.H.I.,XwXwXwX,XrX( P i.p.S.S.S.S.S.c.S.t.>.>.>.>.>.c.AXaX,X,X6X6X6X6X6X6X6X6X6X6X6X6X6XQ.I.K.K.K.I.I.6X6X6X6X6X6X6X6X6X6XwX`.H.I.I.D.`.wX6X6X6X6X6X6X6X6X,XI.K.I.K.I.I.I.I.I.I.I.I.I.I.I.I.I.K.K.K.I.I.I.I.I.K.Q.,XwX6X6X6X6X6X6X6X6X6X6X`.S.I.I.I.I.I.Q.6X,X6X6X6X6X9X^.D./.M 9 t t t t t & Y x.] ,.,.y.D.B.B.S.] %XFXAX&XS.9X9X6X6X6XrX`.K.I.I.I.I.K.`.9X6X6XwX6XI.I.I.I.I.>X",
"6X6X6X6X6X6X6X6X6X6X6X6X6X6X6X6X6X6X6X6X6X6X>XI.I.Y.I.D.>XrX6X6X9X>XK.I.I.Q.6XrX9X6XQ.K.I.K.I.I.I.K.K.|.6X6X6XQ.K.Y.Y.I.>X6X6X6X6X6X6X6X6X6XrXG.$ t t t t t t 2 ; M r.,.,.,.,.,.>.1.t.S.S.S.S.z.9X(.D.I.I.K.K.K.Q.6X6X6X6X6X6XwX`.I.I.S.(.9X6X6X6X6X6X6X6X6XI.K.Y.K.H.Q.6X6X6X6X6X6X6X6X6X6X6X(.K.I.I.I.I.I.Y.H.H.>XwX6X6X6X6X6X6X6X>XI.I.I.I.>X6X6X6X6X6X6X6X6X6X6X(.I.Y.Y.K.I.,XwX6X6X6X6X6X(.S.I.I.K.`.6X6X6X6X,XQ.I.I.I.K.).oXx > t q E i.>.1.>.r.B.S.c.c.c.z.c.c.S.S.c.c.c.z.kXKXFXvX`.K.K.Y.I.I.I.(.6X6X6X6X6X6X6X6X`.I.I.I.D.).6X6X6X6X6X`.I.I.I.I.I.I.I.5X7X6X6X6X6X6X6X6X6X6X!.H.K.K.I.K.D.>XoX6X6X6X6X6XwX6XQ.I.I.K.Q.6X6X6X6X6X6X6X6XI.I.|.6X6X6X6X'.H.K.K.,X9X6X6X9XQ.H.K.|.6X,XwX,X1X) A p.c.S.S.S.S.c.S.S.r.>.1.>.>.:.c.AXdX,X,X,X6X6X6X6X6X6X6X6X6X6X9X>XI.I.K.K.H.K.`.6X6X6X6X6X6X6X6X6X6X6X(.H.I.I.D.>XwXwX6X6X6X6X6X6X6X>XK.I.I.K.I.I.I.I.I.I.I.(.(.I.I.I.I.I.I.I.I.I.I.I.I.I.K.Q.6XwX6X6X6X6X6X6X6X6X6X6XD.I.I.I.I.I.I.'.6X6XwX6X6XrX,XD.%XV 9 t t t t t & Y x.] ,.,.p.S.B.B.S.] -XFXAX&XK.9X6X6X6X6X6X!.K.I.I.Y.I.I.>X9X6X6XrX5XI.I.I.I.I.6X",
"6X6X6X6X6X6X6X6X6X6X6X6X6X6X6X6X6X6X6X6X6X6X>XI.I.Y.I.S.`.9X6X6X9X9XI.I.I.D.>XrXwX9X`.K.I.I.I.I.I.K.K.|.6X6X6XQ.K.Y.Y.I.>X6X6X6X6X6X6X6X6X6XrXG.$ t t t t t t 2 ; B r.,.,.,.,.,.>.y.c.z.S.S.S.z.,XQ.D.I.I.K.K.K.`.6X6X6X6X6X6XoXI.I.I.D.>X0X6X6X6X6X6X6X6X,XI.H.Y.U.K.Q.,X6X6X6X6X6X6X6X6X6X6X`.K.I.I.I.I.I.I.K.Q.6XwX6X6X6X6X6X6X6X`.K.I.I.I.6X6X6X6X6X6X6X6X6X6X>XI.I.I.Y.H.(.6X6X6X6X6X6X6X(.A.I.I.K.`.wX6X6X6X,XQ.I.I.I.K.`.|.a < t 8 ) s.>.1.>.r.c.S.B.B.S.z.z.S.S.S.S.z.c.z.kXFXFXBX<XK.K.I.I.I.I.Q.6X6X6X6X6X6X6X6X|.I.I.I.D.Q.6X6X6X6XwX>XI.I.I.I.I.I.K.`.eX6X6X6X6X6X6X6X6X6XQ.K.K.K.I.H.D.6XoX6X6X6X6X6X0X|.D.I.I.H.`.6X6X6X6X6X6XwX5XI.I.|.6X6X6X6X`.H.H.K.,X9X6X6X6X!.S.K.>XwX,X>XQ.(.W A p.S.S.S.S.S.c.c.c.r.>.>.>.>.:.b.AXgX,X,X,X6X6X6X6X6X6X6X6X6X6X9X`.K.I.K.K.H.D.>X6X6X6X6X6X6X6X6X6X6X,XI.K.I.I.I.6X6XwX6X6X6X6X6X6XwX`.K.I.K.K.I.I.I.I.I.I.>XwX6X6X'.I.I.I.I.I.I.I.I.I.I.I.I.K.`.wX6X6X6X6X6X6X6X6X6X7X(.S.I.I.I.I.I.Q.6X6X6X6X6X9X9X).%XP ; t t t t t # T x.] >.>.p.D.B.B.H.] -XFXAX&XI.0X6X6X6X6X9XQ.K.I.Y.Y.K.Q.6X9X6X6XrX>XD.I.I.I.Q.6X",
"6X6X6X6X6X6X6X6X6X6X6X6X6X6X6X6X6X6X6X6X6X6X,XI.I.Y.I.K.(.9X6X6X6X9XQ.I.I.S.`.9XwX9X>XI.I.I.I.I.I.K.K.|.6X6X6XQ.K.Y.Y.K.|.6X6X6X6X6X6X6X6X6XrXG.$ t t t t t t 2 ; B 1.,.>.>.1.,.>.r.S.z.z.c.S.c.>XI.K.I.I.K.K.I.>X6X6X6X6X6X6X|.I.I.I.I.6X7X6X6X6X6X6X6X6X|.H.K.Y.U.K.Q.,X6X6X6X6X6X6X6X6X6X6X`.K.I.I.I.I.Y.K.K.}.6X6X6X6X6X6X6X6X,XQ.K.I.K.(.9X6X6X6X6X6X6X6X6X9X`.I.Y.I.I.K.`.wX6X6X6X6X6X6X(.A.I.I.K.|.wX6X6X6X6XQ.I.I.I.K.'..X3 2 t 8 / s.>.1.>.r.c.S.S.z.S.c.c.S.S.S.S.z.c.z.kXKXFXBX9XQ.K.I.I.I.I.Y.5X6X6X6X6X6X6X6X6XI.I.I.K.I.6X6X6X6X6X>XQ.I.I.I.I.I.I.Q.6X6X6X6X6X6X6X6X6X6XI.K.K.K.I.H.D.6XoX6X6X X6X6X9X`.D.I.I.K.}.6X6X6X6X6X6XwX>XI.I.OX6X6X6X6X`.H.K.Q.6X9X6X6X6X!.S.K.`.,X).K.D.Q.W A c.S.S.S.S.c.c.c.c.>.>.>.>.>.>.r.AXgX,X6X6X6X6X6X6X6X6X6X6X6X6X6XQ.K.I.K.I.H.I.6X6X6X6X6X6X6X6X6X6X6X|.I.I.I.K.Q.6X6XwX6X6X6X6X6X6XrXQ.K.I.K.K.I.I.I.I.K.>X9X6X6X6X6X|.Q.I.I.I.I.I.I.I.I.I.I.I.K.&XwX6X6X6X6X6X6X6X6X6X|.I.I.I.I.I.I.D.>X6X6X6X6X,X6X6XQ.P < t t t t u & T x.] >.>.p.S.B.B.H.] -XFXAX&XQ.0X6X6X6X6X9XQ.K.I.I.Y.K.(.9X6X6X6X6X*XS.I.I.I.(.6X",
"6X6X6X6X6X6X6X6X6X6X6X6X6X6X6X6X6X6X6X6X6X6X,XI.I.I.I.K.Q.6X6X6X6X9X&XI.I.H.(.9XwX6X,XQ.K.I.I.I.I.I.K.|.6X6X9XQ.K.I.I.K.|.6X6X6X6X6X6X6X6X6XrXQ.< t t t t t t 2 w B 1.,.1.1.1.3.>.t.S.z.c.c.S.c.>XI.K.K.I.K.K.Q.6X6X6X6X6X6X9X(.S.I.I.(.6X6X6X6X6X6X6X6XwX|.S.I.Y.U.U.I.,X6X6X6X6X6X6X6X6X6X6X|.K.K.K.K.I.I.H.Q.,XoX6X6X6X6X6X6X6X|.I.I.I.D.>X9X6X6X6X6X6X6X6X6X9X(.I.Y.I.I.I.>XeX6X6X6X6X6X6X(.S.I.K.K.>XwX6X6X6X6XQ.K.I.I.K.|.).< 2 t 8 / n.>.1.>.6.z.c.S.B.S.c.c.S.S.S.S.c.c.z.lXHXAXBXrX`.K.I.I.I.I.I.>X6X6X6X6X6X6X6X9X(.K.I.K.I.,X6X6X6X6X6X`.I.I.I.I.I.I.D.|.7X6X6X6X6X6X6X6X>XI.I.K.I.I.H.G.6XoX6X6XoX6X6X6X(.D.I.I.I.|.6X6X6X6X6X6XwX>XH.Y.6X6X6X6X6X(.H.K.Q.6X9X6X,X6X`.S.K.D.D.K.I.K.(.W d S.S.B.S.S.S.c.S.p.>.3.>.>.>.>.r.AXgX,X6X6X6X6X6X6X6X6X6X6X6X6X6XI.I.I.K.I.H.Q.wX6X6X6X6X6X6X6X6X6X6X'.S.I.I.K.`.wX6XwX6X6X6X6X6X6X9XQ.K.I.I.K.I.I.I.K.D.6X6X6X6X6X6X6X>XQ.I.I.I.I.I.I.I.I.I.I.I.I.}.6X6X6X6X6X6X6X6X6X6X`.D.I.I.I.I.I.`.6X6X6X6X,X,XrX&XL ; t t t t t # T z.] >.>.p.S.B.B.H.] -XFXAX&X(.0X6X6X6X9X5XI.I.I.I.I.K.`.wX6X6X6X6X`.S.I.I.H.`.6X",
"6X6X6X6X6X6X6X6X6X6X6X6X6X6X6X6X6X6X6X6X6X6X,XQ.I.I.I.K.I.,X6X6X6XwX>XI.I.K.Q.9XwX,X6X`.K.I.I.I.I.I.H.|.6X6X9XQ.K.I.Y.K.>X6X6X6X6X6X6X6X6X6XrXQ.< t t t t t t 2 w B 1.,.1.y.1.,.r.z.S.c.S.S.S.t.:XY.K.K.I.I.D.`.6X6X6X6X6X6X5XD.I.I.I.|.9X6X6X6X6X6X6X6XrX|.S.I.Y.I.Y.I.>X6X6X6X6X6X6X6X6X6X6X6XK.K.U.K.Y.H.I.>XwXwX6X6X6X6X6X6X6X(.I.I.K.Q.9X6X6X6X6X6X6X6X6X6X>XI.I.I.I.I.Q.6XwX6X6X6X6X6X6XT.I.I.K.K.>XwX6X6X6X6X(.H.I.I.D.>XQ.< 2 t q ( P.y.>.>.>.t.c.c.B.S.c.c.S.S.S.S.c.S.z.lXKXAXZX9X|.K.I.I.I.I.H.`.9X6X6X6X6X6X6X9X>XK.I.I.D.|.6X6X6X6X6X'.D.I.I.I.I.I.D.`.6X6X6X6X6X6X6XwX|.I.I.I.I.I.H.Q.6XoX6X6X6X6X6X6XI.D.I.I.Q.6X6X6X6X6X6X6XwX'.H.(.6X6X6X6XrX(.H.K.Q.6X9X6X,X6X}.D.K.K.I.K.I.K.(.E z S.B.z.B.c.c.S.c.p.>.,.3.,.,.>.c.AXvX,X6X6X6X6X6X6X6X6X6X6X6X9X>XK.K.K.K.I.K.`.wX6X6X6X6X6X6X6X6X6X6X`.S.I.I.I.|.wX6X6X6X6X6X6X6X6X,XK.I.I.I.K.I.I.I.K.Q.6X6X6X6X6X6X6X6X>XI.I.I.I.I.I.I.I.I.I.I.I.D.`.6X6X6X6X6X6X6X7X6X>XD.D.I.I.I.I.Q.6X6X6X6X6X6X6XrXT $ t t t t t # T z.] >.>.p.S.B.B.H.` -XFXAX&X&X0X6X6X6X0X>XD.I.I.I.I.K.|.wX6X6X6X6X(.S.I.I.H.>X6X",
"6X6X6X6X6X6X6X6X6X6X6X6X6X6X6X6X6X6X6X6X6X6X6XQ.K.I.I.K.I.|.6X6X6X6X>XY.I.I.I.>XwX6X6X>XK.I.I.I.I.I.H.|.6X6X9XQ.K.I.I.D.>X6X6X6X6X6X6X6X6X6XrXQ.< t t t t t t t w B 2.3.3.3.1.>.r.z.S.S.S.S.S.r.&XQ.K.K.I.K.I.5X6X6X6X6X,X6X(.S.I.I.(.6X6X6X6X6X6X6X6X6X6X'.H.I.I.I.Y.I.5X6X6X6X6X6X6X6X6X6X6X6X(.K.Y.H.Y.K.`.oXwXwX6X6X6X6X6X6X|.D.I.I.I.'.9X6X6X6X6X6X6X6X6X6X(.K.I.I.I.I.(.rX6X6X6X6X6X6X6XI.I.I.K.K.6XwX6X6X6X6X(.H.I.I.D.>XQ.* t t q / P.r.>.>.>.p.x.c.B.c.S.S.S.S.S.S.S.S.z.fXHXAXSX9X>XK.I.I.I.I.H.`.9X6X6X6X6X6X6X6X>XK.I.I.H.'.6X6X6X6X9X|.I.I.I.I.I.I.I.I.6X6X6X6X6X6X6XwX`.K.I.I.I.I.H.(.6XoX6X6X6X6X6X|.I.I.I.K.(.6X6X6X6X6X6X6XwX`.H.(.6X6X6X6X0X(.H.K.Q.6X9X6X6X6X>XK.K.K.I.K.I.K.I.E p S.B.B.B.c.S.S.S.y.>.,.3.>.>.6.c.AXvX,X6X6X6X6X6X6X6X6X6X6X6X9X`.K.I.I.I.I.K.>XwX6XrX6X6X6X6X6X6X6X6XQ.S.I.I.I.6XwX6X6X6X6X6X6X6X6X|.D.I.I.I.I.I.I.I.K.`.9X6X6X6X6X6X6X6X6X|.I.I.I.I.I.I.I.I.I.I.I.I.Q.6X6X6X6X6X6X6XwX6X6X(.D.I.I.I.I.I.|.6X6X6X6X6X6XeX^ $ t t t t t & T z.] >.1.p.S.B.B.H._ -XFXAX&X&X0X6X6X6X0X'.I.I.I.I.I.I.>X6X6X6XwX6XQ.H.I.H.D.6X6X",
"6X6X6X6X6X6X6X6X6X6X6X6X6X6X6X6X6X6X6X6X6X6X6XQ.K.I.I.I.I.'.9X6X6X6X,XQ.K.I.K.&XwX6X6X>XI.I.I.I.I.I.H.|.6X6X9XQ.K.I.I.D.>X6X6X6X6X6X6X6X6X6XrX!.< t t t t t t t w n 2.3.3.1.1.1.t.z.S.S.z.S.S.| -XQ.K.K.I.K.Q.0X6X6X6X6X6X>XS.I.I.I.>X6X6X6X6X6X6X6X6X6X6X`.H.I.I.I.Y.I.5X6X6X6X6X6X6X6X6X6X6X6X9XI.Y.Y.H.Q.,XoXwX6X6X6X6X6X6X6X(.D.I.I.Q.6X6X6X6X6X6X6X6X6X6X>XI.H.I.I.I.I.`.rX6X6X6X6X6X6X6XI.I.I.K.I.9X6X6X6X6X6X(.S.I.I.S.>XD.$ t t : ( P.r.>.>.>.p.c.z.z.S.S.S.S.S.S.S.S.S.z.sXHXAXBX9X6XI.I.I.I.I.H.(.9X6X6X6X6X6X6X6X5XI.I.I.H.).6X6X6X6XrX>XI.I.I.I.I.I.I.I.>X6X6X6X6X6X6XwX`.I.I.I.I.I.H.`.6XoX6X6X6X6X6X`.K.I.I.I.'.6X6X6X6X6X6X6XwX(.H.`.wX6X6X6X9X(.H.K.Q.6X9X6X,X6X,XQ.K.K.I.I.I.K.T.E p c.B.B.B.c.S.S.c.y.,.3.1.>.>.r.c.SXvX,X6X6X6X6X6X6X6X6X6X6X6X9X(.K.I.I.I.K.I.,X6X6XwX6X6X6X6X6X6X6X6XI.H.I.I.Q.wX6X6X6X6X6X6X6X6X9X).D.I.I.I.I.I.I.K.K.>X6X6X6X6X6X6X6X6X6X9X'.I.I.I.I.I.I.K.I.I.I.I.K.Q.6X6X6X6X6X6X6X7X6X|.D.I.I.I.I.I.).6X6X6X6X6X6XeX5.; t t t t t # T z.] >.1.p.S.B.B.H._ -XFXAX&X&X0X6X6X6X0X`.I.I.I.I.K.Q.6X6X6X6XwX6XI.I.I.K.I.9X6X",
"6X6X6X6X6X6X6X6X6X6X6X6X6X6X6X6X6X6X6X6X6X6X6X(.K.K.I.I.D.`.6X6X6X6X9XQ.K.I.K.(.9X6X6X9XQ.K.I.I.I.I.H.|.6X6X9XQ.K.I.I.D.|.6X6X6X6X6X6X6X6X6XrXQ.< t 2 t t t t t 9 c 2.3.1.1.1.1.c.z.S.S.z.S.S.] -XQ.K.K.K.K.`.rX6X6X6X6X0X`.H.I.I.(.6X6X6X6X6X6X6X6X6X6X9X(.H.I.I.I.I.I.>XwX6X6X6X6X6X6X6X6X6X6XrX&XK.S.K.>X6X6X6X6XwX6X6X6X6X>XI.I.I.I.*X9X6X6X9X6X6X6X6X6X6X`.I.I.I.K.I.D.>XwX6X6X6X6X6X6X6XI.I.I.H.Q.9X6X6X6X6XwX(.D.I.I.S.>XD.$ t t : ( H.y.>.>.>.r.c.z.z.S.c.c.S.S.S.S.S.S.z.0XKXFXVX9X6XQ.I.I.I.I.K.I.6X6X6X6X6X6X6X6X6X(.I.I.H.Q.6X6X6X6XrX>XQ.I.I.I.I.I.I.I.`.wX6X6X6X6X6XwX(.I.I.K.I.I.H.'.6XoX6X6X6X6X6XQ.K.I.I.I.>X6X6X6X6X6X6X6X6XQ.H.'.wX6X6X6X6XQ.H.H.Q.6X9X6X,X6X6XQ.K.D.K.I.I.K.(./ i c.B.B.B.S.S.S.c.>.,.3.1.,.>.r.c.BXBX,X,X6X6X6X6X6X6X6X6X6X6X6XI.K.I.I.I.K.Q.6X6X6X6X6X6X6X6X6X6X6X5XI.I.I.I.`.wX6X6X6X6X6X6X6X6X9XQ.D.I.I.I.I.I.I.K.Q.6X6X6X6X6X6X6X6X6X6X9X9X`.I.I.I.I.I.I.I.I.I.I.I.K.`.6X6X6X6X6X6XeX6X6XQ.I.I.I.I.I.Q.>X6X6X6X6X6XeX5.; t t t t t # T z.] >.r.p.S.B.B.H.` -XFXAX&X&X0X6X6X6X0X(.I.I.I.I.I.Q.9X6X6XwXwX6XD.I.I.K.Q.9X6X",
"6X6X6X6X6X6X6X6X6X6X6X6X6X6X6X6X6X6X6X6X6X6X6X`.K.K.I.I.K.(.6X6X6X6X9X^.K.Y.K.I.9X6X6X9X(.K.I.I.I.I.H.|.6X6X6XQ.K.I.I.D.|.6X6X6X6X6X6X6X6X6XrX!.< t 2 t t t t t w c 1.3.3.3.1.r.S.z.z.S.z.S.c.[ -XQ.K.K.K.I.>X9X6X6X6XwX6XI.I.I.I.|.6X6X6X6X6X6X6X6X6X6X9XQ.H.I.I.I.I.I.>XwX6X6X6X6X6X6X6X6X6X6X9X9X>X`.>XrXwX6X6X6XwX6X6X6X9X(.K.I.I.Q.8X9X6X6X6X6X6X6X6X6X6XI.K.K.I.I.I.Q.6X6X6X6X6X6X6X6X,XI.I.I.H.Q.rX6X6X6X6XwX(.D.I.I.S.>Xz.# t t : ( H.y.>.>.>.r.c.c.z.S.z.c.c.c.S.S.S.S.z.0XKXFXZX9XoX(.I.I.I.I.K.I.6X6X6X6X6X6X6X6X6X).I.I.I.Q.6X6X6X6X9X6X(.I.I.I.I.I.I.I.Q.6X6X6X6X6X6X6XQ.I.I.I.I.I.K.>X6XoX6X6X6XwX>XD.I.I.I.I.6X6X6X6X6X6X6X6X6XY.H.>XrX6X6X6X6XQ.H.H.^.6X9X,X6X6X6X`.D.K.K.K.I.K.'.8.i z.B.B.B.S.S.S.p.>.3.1.>.,.>.p.c.BXBX,X,X6X6X6X6X6X6X6X6X6X9X>XI.I.I.I.I.K.`.9X6XwX6X6X6X6X6X6X6X9X>XH.I.I.D.|.wX6X6X6X6X6X6X6X6X9XI.K.I.I.K.I.I.I.K.`.6X6X6X6X6X6X6X6X6X6X9XrX5X(.I.I.I.I.I.I.I.I.I.I.I.I.>X6X6X6X6X6X6X6X6X'.A.I.I.I.I.I.`.6X6X6X6X6XeXb.; t t t t t & T z.] >.r.p.S.B.B.H.] -XFXAX&X&X0X6X6X6X9X(.K.I.I.I.I.).rXoX6X6XwX,XD.I.I.D.`.9X6X",
"6X6X6X6X6X6X6X6X6X6X6X6X6X6X6X6X6X6X6X6X6X6X9X`.K.K.I.I.K.(.6X6X6X6XrX>XK.Y.K.I.6X6X6X9X`.K.I.I.I.I.I.|.6X6X9XQ.K.I.I.D.|.6X6X6X6X6X6X6X6X6XrX!.< t t t t t t t w s 1.3.1.3.>.t.S.z.z.S.z.S.p.[ <XQ.K.K.K.Q.6X6X6X6X6XwX>XI.I.K.I.6XwX6X6X6X6X6X6X6X6X6X9XI.H.I.I.I.I.I.5X6X6X6X6X6X6X6X6X6X6X6X6X6X9X9X9X6X6X6X6X6X6X6X6X9X`.H.I.I.I.*X0X6X6X6X9X6X6X6X6X6X`.I.D.K.I.I.I.`.6X6X6X6X6X6X6X6X>XI.I.I.K.`.rX6X6X6X6XwX(.K.I.I.S.>Xr.# t t : ( K.p.>.>.>.r.z.c.c.c.z.c.c.c.z.z.S.S.z.sXKXAXZX9X6X*XI.I.I.I.I.I.,XwX6X6X6X6X6X6X6X'.I.I.I.I.5X6X6X6X6X6X>XH.I.I.I.I.I.I.I.5X6X6X6X6X6X6XQ.I.I.K.I.I.H.>X6XoX6X6X6XwX>XK.I.I.I.(.6X6X6X6X6X6X6X6X5XI.H.>XrX6X6X6X6XI.K.H.`.9X9X6X6X6X6X>XK.K.K.K.K.Q.6Xb.i t.S.z.B.c.z.S.p.>.3.3.>.3.y.c.c.gXSX6X6X6X6X6X6X6X6X6X6X6X9X`.K.I.I.I.I.D.>X9X6X6X6X6X6X6X6X6X6X0X`.H.I.K.I.6X6X6X6X6X6X6X6X6X9X6XI.K.I.I.I.I.I.I.D.`.wX6X6X6X6X6X6X6X6X6X6X6X6X5X(.I.I.I.I.I.I.I.I.I.I.K.I.5X6X6X6X6X6X6X6X5XI.A.I.I.I.I.Q.>X6X6X6X6XeXb.; t t t t t # T z.] >.r.p.S.B.B.H.] -XFXAX:X&X0X6X6X6X9XI.K.I.I.I.D.'.rX6X6X6X6X>XD.I.I.D.`.9X6X",
"6X6X6X6X6X6X6X6X6X6X6X6X6X6X6X6X6X6X6X6X6X6X9X`.K.K.I.I.K.Q.6X6X6X6XwX,XI.I.K.K.>X6X6X9X`.K.I.I.I.I.I.>X6X6X9XQ.K.I.I.D.|.6X6X6X6X6X6X6X6X6XrX!.< t 2 t t t t t 9 s 1.3.>.3.1.p.S.z.z.S.z.S.t.[ <XQ.K.K.K.(.6X6X6X6X6XwX'.K.I.K.(.9X6X6X6X6X6X6X6X6X6X6X9XI.H.I.I.I.I.I.5X6X6X6X6X6X6X6X6X6X6X6X6X6X6X6X6X6X6X6X6X6X6X6X9X>XI.I.I.I.(.9X6X6X6X6X6X6X6X6XrX6XD.I.I.K.I.I.I.>XwX6X6X6X6X6X6X6X|.I.I.I.H.`.rX6XwX6X6X6X(.H.I.I.S.<X7.# t t : ( K.p.r.>.>.r.z.S.S.c.z.z.c.c.z.c.c.S.t.sXKXAXZX9X6X>XI.I.I.I.I.K.>XwX6X6X6X6X6X6X6X|.I.I.I.I.>X9X6X6X6X6X6XI.K.I.I.I.I.I.K.`.6X6X6X6X6X6XQ.I.I.K.I.I.H.>X6XoX6X6X6XrX`.K.I.I.I.'.wX6X6X6X6X6X6X9X>XH.I.,XwX6X6X6X5XI.K.H.`.6X9X6X6X6X6X9X`.K.K.S.I.|.dXb.9 r.S.c.B.c.c.S.i.>.3.3.>.3.y.c.z.gXZX6X6X6X6X6X6X6X6X6X6X6X9XQ.K.I.I.K.K.Q.6X6X6X6X6X6X6X6X6X6X6X9X(.H.I.S.(.9X6X6X6X6X6X6X6X6X9X>XK.I.I.I.I.I.I.I.D.`.6X6X6X6X6X6X6X6X6X6X6X6X6XrX5XI.I.I.I.I.I.I.I.I.I.I.K.Q.6X6X6X6X6X6X6X6X(.A.I.I.I.I.I.|.6X6X6X6XeXm.; 2 t t t t # T z.] >.r.p.S.B.B.H.] -XFXAX:X&X0X6X6X6X6XI.K.I.I.K.I.>X9X6X6X6X6X|.D.I.I.D.>X9X6X",
"6X6X6X6X6X6X6X6X6X6X6X6X6X6X6X6X6X6X6X6X6X6X9X`.K.I.I.I.K.I.>XwX6X6XwX,XI.I.K.K.}.9X,X9X>XI.I.I.I.I.I.,X6X6X9XQ.K.I.I.D.|.6X6X6X6X6X6X6X6X6XrXQ.< t t t t t t t w a 1.3.1.1.r.S.S.z.z.D.B.c.r.[ <XQ.K.K.I.'.6X6X6X6X6XwX(.D.I.H.}.rX6X6X6X6X6X6X6X6X6X6X6XI.K.I.I.I.I.I.5X6X6X6X6X6X6X6X6X6X6X6X6X6X6X6X6X6X6X6X6X6X6X6X6XI.I.I.I.I.5X6X6X6X6X6X6X9X6X6XrX`.S.I.I.I.I.K.I.6X6X6X6X6X6X6X6X6X`.I.I.I.K.>XrX6X6X6X6X6X(.H.I.I.S.<X .# t t : ( D.c.r.>.>.r.t.S.z.c.z.c.c.c.z.c.c.S.t.iXKXAXZXrX6X5XI.I.I.I.I.H.>XrX6X6X6X6X6X6X6X6XQ.I.I.K.'.9X6X6X6X6XrX(.D.I.I.I.I.I.K.Q.6X6X6X6X6X6XQ.I.I.I.I.I.H.>X6XoX6X6X6X6X(.K.I.I.I.>XwX6X6X6X6X6X6X9X'.H.Y.6X6X6X6X6X5XD.K.H.`.9X9X6X6X6X6X6X,XQ.K.I.|.wXdXm.9 | S.B.B.c.c.c.y.>.3.>.>.1.i.S.b.dXZX6X6X6X6X6X6X6X6X6X6X6X>XI.K.I.I.K.K.Q.6X6X6X6X6X6X6X6X6X6X6X6XI.H.I.S.`.6X6X6X6X6X6X6X6X6X0X`.K.I.I.I.I.I.I.I.D.`.9X6X6X6X6X6X6X6X6X6X6X6XrXrX9X|.I.I.I.I.I.I.I.I.I.I.I.D.(.6X6X6X6X6X6X6X|.I.I.I.I.I.K.`.6X6X6X6XeXN.; 2 t t t t # T z.] >.>.p.S.B.B.H.` -XFXAX:X-X0X6X6X6X5XI.K.I.I.H.I.6X6X6X6X6X6X|.D.I.I.D.>X9X6X",
"6X6X6X6X6X6X6X6X6X6X6X6X).>X6X6X6X6X6X6X6X6X9X`.I.I.I.K.K.I.>X6X6X6X,XwXQ.K.I.D.`.9X,X9X>XI.I.I.I.I.I.6X6X6X9XQ.K.I.I.D.|.6X6X6X6X6X6X6X6X6XrXQ.< t t t t t t t 9 a 1.3.3.>.y.S.B.B.B.D.S.t.r.[ <XQ.K.K.I.5X6X6X6X6X6X6XQ.D.I.K.>XrX6X6X6X6X6X6X6X6X6X6X,XI.K.I.I.I.I.I.>X6X6X6X6X6X6X6X6X6X6X6X6X6X6X6X6X6X6X6X6X6X6X6X(.H.I.I.I.'.9X6X6X6X6X6X9X9X6X9X5XI.I.I.I.I.I.D.(.6X6X6X6X6X6X6X6X6X(.I.I.I.K.9X9X6X6X6X6X9X(.H.I.I.S.<X/ $ t t ; ( D.c.r.>.>.1.r.S.c.c.c.c.c.c.c.c.c.S.t.9XKXAXZXrX6X6XI.I.I.I.I.H.`.rX6X6X6X6X6X6X6XoX(.I.I.D.`.9X6X6X6X6XwX|.D.I.I.I.I.I.I.I.>X6X6X6X6X6XQ.I.I.I.I.I.H.>X6XoX6X6X6X,XI.K.I.H.I.6XwX6X6X6X6X6X6X9X`.H.(.6X6X6X6X6X>XD.K.H.`.9X9X6X6X6X6XwX9X:XQ.|.wX6XrXm.8  .D.B.B.c.S.c.y.>.,.,.>.1.p.c.b.aXAX9X9X9X6X6X6X6X6X6X6XrX'.K.I.I.I.I.S.`.6X6X6X6X6X6X6X6X6X6X6X>XD.I.I.D.>X6X6X6X6X6X6X6X6X6X6XQ.K.I.I.I.I.I.I.I.K.|.6X6X6X6X6X6X6X6X6X6X6X6X6X6X6XrX`.D.I.K.I.I.I.I.I.I.I.I.I.'.6X6X6X6X6X6X6X(.D.I.K.I.K.Q.|.6X6X6XeX/.< < t t t t # T z.] >.>.p.S.B.B.H.` -XFXAX:X-X0X6X6X6X>XK.I.I.I.H.I.9X6X6X6X6X6X}.D.I.I.D.>X9X6X",
"6X6X6X6X6X6X6X6X6X6X6X5XD.(.6X6X6X6X6X6X6X6X9X`.K.I.I.I.K.I.>X6X6X6X,XwX`.K.I.K.Q.6X6X9X6XQ.I.I.I.I.I.6X6X6X6XQ.K.K.I.D.'.6X6X6X6X6X6X6X6X6XrXG.< t t t t t t t 9 a 1.,.3.;.p.S.z.B.S.D.D.t.r.[ <X(.H.K.(.6X6X6X6X6XwX6XI.D.I.I.6XwX6X6X6X6X6X6X6X6X6XwX>XI.K.I.I.I.I.I.>X6X6X6X6X6X6X6X6X6X6X6X6X6X6X6X9X6X6X6X6X6X9X).D.I.I.I.Q.9X6X6X6X6X6X6X6X6X9X9X(.I.I.I.I.I.I.I.>X6X6X6X6X6X6X6X6X6XQ.I.I.I.I.9X6X6X6X6X6X9X(.K.I.I.S.8X! $ t t ; ( D.S.r.>.1.>.r.S.c.S.c.c.c.c.S.S.c.S.t.9XKXAXZXrX6X6XI.I.I.I.I.H.`.rX6X6X6X6X6X6X6X6X'.I.I.D.(.9X6X6X6X6XwX6XD.I.I.I.I.I.I.D.`.9X6X6X6X6XQ.I.I.I.I.I.H.>X6XoX6X6XrX>XD.K.I.S.Q.9X6X6X6X6X6X6X6X9X(.S.`.6X6X6X6X6X|.D.K.K.`.9X9X6X6X6X6X6XwX6X>X6X6X,XdXm.8 ^ D.B.S.S.S.c.y.>.,.,.3.>.c.D.b.aXAX9X6X6X6X6X6X6X6X6X6X9X(.K.I.I.I.I.S.}.6X6X6X6X6X6X6X6X6X6X9X>XD.I.I.I.6X6X6X6X6X6X6X6X6X6X6XI.K.I.I.I.I.I.I.I.I.>X6X6X6X6X6X6X6X6X6X6X6X6X6X6X6X6X9X(.K.I.I.I.I.I.I.I.I.I.I.Q.>X6X6X6X6X6X6X|.D.I.I.I.I.I.}.6X6X6XeX#X< < t t t t # T t.] >.r.p.S.B.B.H.] -XFXFX:X%X0X6X6X6X>XD.I.I.I.H.I.9X6X6X6X6X6X`.K.I.I.K.5X9X6X",
"6X6X6X6X6X6X6X6X6X6X9X`.S.K.6X6X6X6X6X6X6X6X9X`.K.I.I.I.I.I.'.6X6X6X,XwX}.K.K.K.Q.6X6X6X6XQ.K.I.I.K.I.6X6X6X6XQ.K.K.I.D.'.6X6X6X6X6X6X6X6X6XrXD.< t t w t t t t 9 a 1.3.3.>.p.S.z.B.S.S.S.t.1.[ 8X%XH.K.`.6X6X6X6X6XwX|.K.K.K.(.wXwX6X6X6X6X6X6X6X6X6XwX>XK.I.I.I.I.I.I.>X6X6X6X6X6X6X6X6X6X6X6X6X6X6X6X6X6X6X6X6X9X>XD.I.I.I.K.'.9X6X6X6X6X6X6X6X6X9X>XD.I.I.I.I.K.I.Q.6X6X6X6X6X6X6X6X6X5XI.I.I.H.Q.9X6X6X6X6X6X6X(.K.I.I.S.9X) $ t t ; ( D.S.r.>.3.>.r.S.c.S.c.c.S.S.S.S.S.S.t.9XKXAXZXrX6X9XQ.I.I.I.I.H.(.rX6X6X6X6X6X6X6X6X>XI.I.K.Q.9X6X6X6X6X6X6XQ.I.I.K.I.I.I.K.Q.9X6X6X6X6XQ.I.I.I.I.I.K.>X6XoX6X6X9X`.D.I.I.S.`.rX6X6X6X6X6X6X6X9XQ.S.`.wX6X6X6X6X>XD.I.K.`.9X6X6X6X6X6X6X6X6XrX6X,X,XeXN.% / D.B.S.S.S.c.,.,.>.>.3.1.c.D.b.1XAX9X6X6X6X6X6X6X6X6XwX,XQ.K.I.I.I.K.K.|.6X6X6X6X6X6X6X6X6X6X9X`.D.I.I.Q.6X6X6X6X6X6X6X6X6XrX>XK.I.I.I.I.I.I.I.K.I.>X6X6X6X6X6X6X6X6X6X6X6X6X6X6X6X6X9X9XQ.K.I.K.I.I.I.I.I.I.I.K.(.6XoX6X6X6X6X6XQ.I.I.I.I.I.).6X6X6XeX$X< < t t t t # T t.] >.r.p.S.B.B.H.] =XFXFX:X%X0X6X6X6X|.S.I.I.I.H.Q.9X6X6X6X6X6X`.K.I.H.I.8X9X6X",
"6X6X6X6X6X6X6X6X6X6X5XI.I.S.}.9X6X6X6X6X6X6X6X*XH.K.I.K.I.K.'.0X6X6X6XwX>XK.K.K.I.>X6X6X6X(.H.I.I.K.Y.6X6X6X9XI.K.I.I.D.'.6X6X6X6X6X6X6X6X6XrXD.w t t 2 t t t t w a >.3.;.r.S.S.z.B.S.S.S.r.1._ <X&XH.K.*X6X6X6X6X6XwX`.H.K.K.`.6X6X6X6X6X6X6X6X6X6X6XwX|.H.I.I.I.I.I.I.5X6X6X6X6X6X6X6X6X6X6X6X6X6X6X6X6X6X6X6X9X'.S.I.I.K.H.(.9X6X6X6X6X6X6X6X6X6X6XQ.I.I.I.I.I.I.D.`.6X6X6X6X6X6X6X6X6X>XI.I.I.H.(.9X6X6X6X6X6X0X(.H.I.I.A.9XL ; 2 t : [ D.c.r.>.3.>.r.S.S.S.S.S.S.S.c.c.c.S.t.8XKXAXZXrX6X9X).I.I.I.I.H.Q.rXwX6X6X6X6X6X6X6X>XI.I.K.I.6XwX6X6X6X6XwX`.K.I.I.I.I.I.K.I.6X6X6X6X6XQ.K.I.I.I.I.K.>X6XoX6X6X6XQ.D.I.I.K.>XrX6X6X6X6X6X6X6X9XQ.S.>XwX6X6X6X6X>XD.I.K.(.6X6X6X6X6X6X6X6X6X,X6X6X,XrXN.% ) K.B.B.S.S.p.,.,.>.>.1.r.c.D.r.,XFXrX9X9X6X6X6X6X6X6XrX>XI.K.I.K.I.K.I.6X6X6X6X6X6X6X6X6X6X6X9X(.S.I.I.`.6X6X6X6X6X6X6X6X6X9X`.K.I.I.K.K.I.I.I.K.Q.6X6X6X6X6X6X6X6XwXwXwX6X6X6X6X6X6X6X9X9XK.K.Y.Y.I.I.I.I.I.I.K.K.>X6XoX6X6X6X7X'.D.I.I.I.I.Q.5X6X6XeX$X< < t t t t - D t.] >.r.p.S.z.z.H.] 8XFXFX:X%X0X6X9X9X*XH.I.I.I.H.`.6X6X6X6X,XrX`.H.K.H.I.9X6X6X",
"6X6X6X6X6X6X6X6X6X9X'.I.I.H.`.6X6X6X6X6X6X6X6X>XK.K.K.K.I.K.'.6X6XwX,XwX,XI.K.K.I.|.6X6X6X`.H.I.I.K.Q.6X6X6X9XI.K.I.I.S.'.6X6X6X6X6X6X6X6X6XrXD.t t t < t t t t w a >.3.;.p.S.S.B.B.c.B.c.r.3.` 8X&XH.I.>X6X6X6X6X6X9X`.H.K.K.:X6X6X6X6X6X6X6X6X6X6X6XwX`.H.I.I.I.I.I.I.5X6X6X6X6X6X6X6X6X6X6X6X6X6X6X6X6X6X9XrX*XI.I.I.I.H.I.6X6X6X6X6X6X6X6X6X6XwX`.D.I.I.I.I.I.I.I.>X6X6X6X6X6X6X6X6X9X'.I.I.I.S.'.9X6X6X6X6X6X0X(.H.I.I.D.8XC 9 t t : / D.c.r.;.3.1.r.S.S.S.S.S.S.S.c.c.S.S.t.<XKXAXAXrX6X9X).I.I.I.I.K.Q.wXwX6X6X6X6X6X6X6X,XQ.I.K.I.>X6X6X6X6X6XwX>XK.I.I.I.I.I.I.D.|.6X6X6X6XQ.K.I.I.I.I.I.>X6XoX6X6X,XQ.K.I.K.I.6X6X6X6X6X6X6X6X6X5XI.D.>XwX6X6X6X6X|.D.I.K.Q.6X6X6X6X6X6X6X6X6X6X6X6X,XeXN.% K K.B.B.S.S.r.,.,.>.3.>.r.S.D.b.>XFXsX,X9X9X6X9X6X6X6XrX*XK.I.I.K.I.K.(.6X6X6X6X6X6X6X6X6X6X6X9XI.H.I.I.>X6X6X6X6X6X6X6X6X6X9X`.K.I.I.I.I.I.I.I.K.`.6X6X6X6X6X6X6X6XrXrX,X6X6X6X6X6X6X6X6XwX|.K.Y.Y.I.I.I.I.I.K.K.I.Q.6X6X6X6X6X6X6XI.I.I.I.I.D.|.6X6XeX-X< < t t t t - D t.] >.r.p.S.z.z.H.] 8XFXKX:X(.0X6X9X9X*XH.I.I.I.H.`.6X6X6X6X6X9X`.H.I.H.Q.9X6X6X",
"6X6X6X6X6X6X6X6X6X6XQ.K.I.K.Q.6X6X6X6X6X6X6X6X>XI.K.I.I.I.K.`.6X6XwX,XwX,XI.K.K.K.|.wX6X6X`.H.I.I.K.(.6X6X6X6XQ.K.I.I.D.'.6X6X6X6X6X6X6X6X6XrXD.t t t < t t t t w a >.,.>.c.S.S.S.B.c.S.c.r.3.` 8X&XH.I.<X6X6X6X6X6X9XQ.H.K.K.>X6X6X6X6X6X6X6X6X6X6X6X6X`.H.I.I.I.I.I.Q.5X6X6X6X6X6X6X6X6X6X6X6X6X6X6X6X6X6X9X*XI.I.I.I.K.K.>X9X6X6X6X6X6X6X6X6XwX|.D.I.I.I.I.I.I.I.(.6X6X6X6X6X6X6X6X6X0X(.A.I.I.S.>X9X6X6X6X6X6X0X(.H.I.Y.D.<Xj 9 t t ; [ D.c.r.>.3.1.r.c.S.S.c.c.S.S.S.S.c.S.t.>XFXAXAXsX6X6X).I.I.I.I.K.Q.6XwX6X6X6X6X6X6X6X6X(.K.I.K.|.wX6X6X6X6X6X9XI.K.I.I.I.I.I.D.`.6X6X6X6XQ.K.I.I.I.I.I.5X6XoX6X6X>XI.K.I.K.(.9X6X6X6X6X6X6X6X6X>XD.D.>XwX6X6X6X6X'.D.I.I.Q.6X6X6X6X6X6X6X6X6X6X6X6X6XeX/.$ L K.B.B.S.S.r.>.,.,.1.>.p.S.c.b.:XFXsX9X9X6X6X9X6X6X6X9X`.K.I.I.K.I.D.`.6X6X6X6X6X6X6X6X6X6X6X5XI.K.I.I.>X6X6X6X6X6X6X6X6X6X9XQ.K.I.I.I.I.I.I.K.K.`.6X6X6X6X6X6X6X6X|.,X,X,XwX6X6X6X6X6X6X6X9X>XK.I.I.K.I.I.I.I.I.I.K.`.6X X6X6X6X0X`.I.I.I.I.D.`.6X6X7X2X1 < t t t t - D h.>.>.r.S.S.B.B.H.] 8XFXFX:X(.9X9X6X9X&XH.I.I.I.H.`.6X6X6X6X6X9X`.H.I.H.Q.9X6X6X",
"6X6X6X6X6X6X6X6X6X>XD.K.I.I.I.6X6X6X6X6X6X6X6X>XI.K.I.I.I.D.`.6X6XwX,XwX6XQ.K.K.K.`.wX6X6X`.H.I.I.K.(.9X6X6X6XQ.K.I.I.D.|.6X6X6X6X6X6X6X6X6XrXK.t t t < t t t t w a >.>.r.S.S.z.B.B.S.S.c.1.3.` 8X&XH.Q.9X6X6X6X6X6X9XI.H.K.I.,XrX6X6X6X6X6X6X6X6X6X6X6X).H.I.I.I.I.I.Q.5X6X6X6X6X6X6X6X6X6X6X6X6X6X6X6X6X6X'.I.I.I.I.I.H.`.wX6X6X6X6X6X6X6X6X6X6XQ.D.I.I.I.I.I.I.I.`.wX6X6X6X6X6X6X6X6X6XI.I.I.S.D.9X6X6X6X6X6X6X0X(.H.I.K.D.<Xg 9 t t ; [ D.S.r.>.1.1.r.c.S.c.z.c.S.S.c.c.c.S.t.>XFXAXAXsX6X6X`.I.I.I.I.K.Q.6XwX6X6X6X6X6X6X6X6X`.D.I.S.`.wX6X6X6X6X6X9X(.H.I.I.I.I.I.K.I.6X6X6X6XQ.K.I.I.I.I.Y.5X6XoX6X6X|.D.K.I.K.'.9X6X6X6XwX6X6X6X6X|.D.D.5X6X6X6X6X6X'.D.I.I.I.6X6X6X6X6X6X6X6X6X6X6X6X6XeX/.$ C K.B.B.c.S.r.>.,.,.1.>.p.S.S.b.:XFXdX6X9X9X9X9X9X6X6X9XQ.K.I.I.K.I.S.'.6X6X6X6X6X6X6X6X6X6X6X'.S.I.I.Q.6X6X6X6X6X6X6X6X6X6X9XQ.I.I.I.I.I.I.I.K.I.>X6X6X6X6X6X6X6X,XQ.Q.6X9X6XrX6X6X6X6X6X6XwX9X`.K.K.I.I.K.I.I.I.I.K.I. X X6X6X6X6X5XI.I.I.I.K.Q.6X6X7X<X1 < t t t t - D h.>.>.r.S.S.B.B.H.] 8XFXFX:X(.9X9X9X6X&XH.I.I.I.H.'.6X6X6X6X6X9X(.H.I.K.`.9X6X6X",
"6X6X6X6X6X6X6X6X6X).S.I.I.I.H.>X6X6X6X6X6X6X6X>XI.K.I.I.I.D.`.6X6XwX6X6X6XQ.K.K.H.`.wX6XwX`.H.I.I.H.%XrX6X6X6XQ.K.I.I.D.>X6X6X6X6X6X6X6X6X6X9XH.t t t < t t t t w a ,.1.p.S.S.S.S.B.c.S.p.1.3.` 8X&XH.Q.9X6X6X6X6X6X,XK.H.K.Q.9X6X6X6X6X6X6X6X6X6X6X6X6X(.H.I.I.I.I.I.Q.6X6X6X6X6X6X6X6X6X6X6X6X6X6X6X6XrX'.D.I.I.I.I.S.Q.9X6X6X6X6X6X6X6X6X6X6X'.D.I.I.I.I.I.I.I.I.6XwX6X6X6X6X6X6X6X6X'.D.I.I.S.Q.9X6X6X6X6X6X6X6X(.H.I.I.[.<Xh 9 t t ; [ S.S.t.>.3.1.1.c.c.c.z.z.S.S.S.S.z.S.z.>XFXAXAXdX6X6X'.I.I.I.I.K.Q.6XwX6X6X6X6X6X6X6XwX'.S.I.S.`.wX6X6X6X6X6XrX`.K.I.I.I.I.I.I.I.|.6X6X6XQ.K.I.I.I.I.Y.5X6XoX6XwX`.D.K.I.D.5X6X6X6X6X6X6X6X6X9X`.S.I.6X6X6X6X6X6X'.D.I.I.I.5X6X6X6X6X6X6X6X6X6X6X6X6XeX#X; m K.B.B.c.c.r.>.3.>.>.r.c.S.S.t.`.FXdX6X9X6X6X6X6X6X9X9XI.K.I.I.I.I.K.>X6X6X6X6X6X6X6X6X6X6X6X`.A.I.I.`.9X6X6X6X6X6X6X6X6XwX,XK.I.I.I.I.I.I.I.K.Q.6X6X6X6X6X6X6X9X>XI.I.Q.9XrX6XwX6X6X6X6X6X6X6X9XQ.H.I.I.I.I.I.I.I.I.H.Q.6XoX6X6X6X9X(.I.I.I.I.D.|.6X+X<X5 < t t t t - D g.>.>.r.S.S.B.B.H.] 8XFXFX:X`.9X6X6X6X`.H.I.I.I.H.|.6X6X6X6X6X6X(.K.Y.K.`.9X6X6X",
"6X6X6X6X6X6X6XwX6XG.K.K.I.I.H.`.6X6X6X6X6X6X6X5XI.K.I.I.I.D.).6X6X6X6X6X6XQ.K.K.H.`.wX6XwX`.H.I.I.H.%XrX6X6X6XQ.K.I.I.D.>X6X6X6X6X6X6X6X6X6X9XS.t t t < t t t t w a :.r.S.S.S.S.S.B.c.S.t.1.3.` 8X&XS.`.9X6X6X6X6XwX>XK.K.K.Q.9X9X6X6X6X6X6X6X6X6X6X6X6XQ.H.I.I.I.I.I.Q.6X6X6X6X6X6X6X6X6X6X6X6X6X6X6X6X'.I.I.I.I.I.I.Q.>XwX6X6X6X6X6X6X6X6X6X>XI.I.I.I.I.I.I.I.D.>X9X6X6X6X6X6X6X6XwX6X(.S.I.I.S.`.0X6X6X6X6X6X6X6X(.H.I.I.[.<Xh w 2 t ; [ D.c.t.>.3.3.>.p.S.c.z.z.S.S.S.S.z.S.z.>XFXAXFXdX6XwX|.I.I.I.I.K.Q.6XwX6X6X6X6X6X6X6XwX>XK.I.H.(.wX6X6X6X6X6X9X>XK.K.K.K.K.I.I.K.`.6X6X6XQ.K.I.I.Y.I.I.6X6XoX6XwX).K.I.K.I.9X6X6X6X6X6X6X6X6X9X(.S.Q.6X6X6X6X6X6X`.D.I.I.D.5X6X6X6X6X6X6X6X6X6X6X6X6XeX$X< g n.B.B.S.c.r.>.,.>.>.r.S.S.S.z.`.AXdX,X9X6X6X6X6X6X9X>XK.K.I.I.K.K.I.>X6X6X6X6X6X6X6X6X6X6X6X(.H.I.I.`.9X6X6X6X6X6X6X6X6XwX|.D.I.I.I.I.I.I.I.K.).6X6X6X6X6X6X6X9X`.K.I.K.Q.6X9X6X6X6X6X6X6X6X6X6X9XQ.K.K.I.I.I.I.I.K.K.K.'.6X6X6X6X6X'.I.I.I.I.D.`.6XoX3X6 < t t t t - D g.>.>.e.S.S.B.B.H.] 8XFXFX:X`.9X6X6X6X(.H.I.I.I.I.>X6X6X6X6X6X6X(.K.I.K.>X9X6X6X",
"6X6X6X6X6X6X6XwX|.K.K.I.I.I.H.Q.9X6X6X6X6X6X6X6XI.K.I.I.I.D.).6X6X6X6X6X6XQ.K.K.H.`.wX6XrX`.H.I.I.K.&XrX6X6X9XQ.K.I.I.D.>X6X6X6X6X6X6X6X6X6X6XS.t t t < t t t t w a -.t.S.S.S.S.S.B.S.S.r.1.3._ 8X&XS.&X9X6X6X6X6XwX`.K.K.D.Q.9X9X6X6X6X6X6X6X6X6X6X6X6XQ.H.I.I.I.I.I.(.6X6X6X6X6X6X6XeXeX6X6X6X6X6X6X(.K.K.I.K.I.I.Q.>X6X6X6X6X6X6X6X6X6X6X6X(.D.I.I.I.I.I.I.I.Q.9X6X6X6X6X6X6X6X6X6X6XI.I.I.I.H.>X0X6X6X6X6X6X6X6XQ.H.I.K.[.:X3 w 2 t ; [ S.c.p.>.3.1.1.p.S.S.z.c.c.S.S.c.c.S.z.:XFXAXAXdX6XwX|.I.I.I.I.K.Q.6XwX6X6X6X6X6X6X6XwX>XK.K.K.Q.6XwX6X6X6X6X6X6XI.K.K.K.K.I.I.K.Q.6X6X6XQ.K.Y.Y.Y.I.I.5X6XoX6X6XQ.K.I.D.`.9X6X6X6X6X6X6X6X6X6XQ.S.`.9X6X6X6X6X6X`.D.I.I.D.>X6X6X6X6X6X6X6X6X6X6X6X6XeX$X< 6 n.S.B.S.c.r.>.,.>.>.r.S.S.S.z.^.HXgX,X9X6X9X6X6X6X9X*XK.K.I.K.K.H.Q.6X9X6X6X6X9X6X6X6X6X6X6XQ.I.I.I.>X9X6X6X6X6X6X6X6X6XwX`.D.I.I.I.I.I.I.K.I.}.6X6X6X6X6X6X6X6XQ.I.I.Y.K.Q.,X9X6X6X6X6X6X6X6X6X9X>XK.K.I.I.I.I.I.I.I.K.Q.6X6X6X6X6X5XI.I.I.I.K.Q.>X6XiXc < t t t t - D g.>.>.u.S.S.B.B.H.] iXFXFX>X`.9X6X6X6X(.H.I.I.I.I.>X6X6X6X6X6X6XQ.K.I.K.>XrX6X6X",
"6X6X6X6X6X6XwX6XQ.I.K.I.I.I.K.Q.6X6X6X6X6X6X6X6XQ.K.I.I.I.D.).6X6X6X6X6X6XQ.K.K.H.`.wX6XrX`.H.I.I.K.'.wX6X6X9XQ.K.I.I.K.>X6X6X6X6X6X6X6X6X6X6XS.t t t < t t t t t a -.c.S.S.S.S.B.z.B.S.r.1.3._ 8X*XS.>X9X6X6X6X6X6X`.K.I.D.(.9X6X6X6X6X6X6X6X6X6X6X6X6XQ.K.I.I.I.I.K.`.9X6X6X6X6X6X6X6X6X6X6X6X6X>X(.I.I.H.S.K.I.D.}.6X6X6X6X6X6X6X6X6X6X6X`.D.I.I.I.I.I.I.I.D.'.6X6X6X6X6X6X6X6X6X6X'.I.I.I.I.I.8X6X6X6X6X6X6X6X6XQ.K.I.H.[.&X< w 2 t ; [ S.c.p.>.3.1.>.p.S.S.c.c.c.S.S.c.z.S.z.&XFXAXAXdX6X6X|.I.I.I.I.I.D.,XwX6X6X6X6X6X6X6X6X9XI.K.I.I.,XwX6X6X6X6X6X9X(.K.I.K.K.I.I.I.I.5X6X6XQ.K.Y.Y.Y.I.I.6X6XoX6X,XK.K.I.D.|.rX6X6X6X6X6X6X6X6X6XI.S.'.9X6X6X6X6X6X`.K.I.I.D.>X6X6X6X6X6X6X6X6X6X6X6X6XeX$X< 6 m.S.z.S.c.r.,.3.>.1.p.S.S.S.z.Q.AXgX,X9X9X9X6X6X6X9X`.K.I.I.K.I.H.(.9X6X6X6X6X6X6X6X6X6X6X,XI.I.I.I.6X6X6X6X6X6X6X6X6X6X6XQ.D.I.I.I.I.I.I.K.Q. X6X6X6X6X6X6X6X9XI.K.I.I.I.H.(.9X9XwX6X6X6X6X6X6X6X6X).K.I.I.I.I.I.I.I.I.D.'.wX6X6X6X6X(.D.I.I.K.D.`.6XiXm < t t t t - D g.>.>.u.S.S.B.B.H.' iXFXFX>X`.0X9X6X6XQ.H.I.I.I.I.5X6X6X6X6X6X6XQ.K.I.K.>X9X6X6X",
"6X6X6X6X6X6XwX>XD.I.K.K.I.I.I.I.5X6X6X6X6X6X6X6XQ.K.I.I.I.K.(.6X6X6X6X6X6XQ.K.K.H.`.wX6X9X`.H.I.I.I.'.wX6X6X9XQ.K.K.I.K.>X6X6X6X6X6X6X6X6XwX6XS.t w t < t t t t t 3 :.S.S.c.S.S.S.B.S.S.r.1.3._ 8X*XD.>X9X6X6X6X6X6X).H.I.D.`.9X6X6X6X6X6X6X6X6X6X6X6X,XI.K.I.I.I.I.I.*X9X6X6X6X6X6X6X6X6X6X6X6X|.I.I.I.I.K.D.K.D.`.,X,X6X6X6X6X6X6X6X6X6X9XI.I.I.I.I.I.I.I.I.I.6X9X6X6X6X6X6X6X6X6X6XI.I.Y.I.H.(.9X6X6X6X6X6X6X6X6XQ.K.I.K.[.$X- t 2 t ; [ D.c.p.>.3.3.>.p.S.S.S.S.S.c.S.S.c.S.z.`.FXAXAXjX6XwX|.I.I.I.I.I.D.,XwX6X6X6X6X6X6X6X6XrXQ.K.I.K.>XrX6X6X6X6X6X9X*XK.K.K.K.I.I.I.K.'.9X9XQ.K.I.I.I.I.I.6X6XoX6X>XD.K.I.K.>X6X6X6X6X6X6X6X6X6X>XI.I.>X9X6X6X6X6X6X`.K.I.I.D.'.6X6X6X6X6X6X6X6X6X6X6X6XeX$X< 6 b.S.B.S.c.r.,.3.,.1.p.S.S.S.z.Q.KXkX,X9X9X9X6X6X6X9X(.K.I.I.I.I.D.`.6X6X6X6X6X6X6X6X6X6X6X|.I.I.K.(.9X6X6X6X6X6X6X6X6X9X,XI.K.I.I.I.I.I.I.K.(.6X6X6X6X6X6X6XwX>XD.I.K.K.K.I.D.`.6XwX6X6X6X6X6X6X6X6X6XQ.K.I.I.I.I.I.I.I.K.Q.6X6XoX6X6X|.I.I.K.I.S.^.6XaXN < t t t t - D g.>.>.u.S.S.B.B.H.] iXFXFX>X).0X9X9X6XI.H.I.I.I.Y.6X6X6X6X6X6X6XQ.K.I.I.>X9X6X6X",
"6X6X6X6X6XwX6XQ.K.K.K.K.I.I.I.I.>X6X6X6X6X6X6X9XQ.K.I.I.I.D.Q.6XwX6X,X6X6XQ.K.K.H.`.wX6XrX`.H.I.I.I.*X6X6X6X9XQ.K.K.I.K.>X6X6X6X6X6X6X6X6XwX6XS.t < t < t t t t t 1 :.D.S.S.S.S.S.c.S.c.r.1.3._ 8X*XD.9X9X6X6X6X6X6XQ.H.I.D.`.9X6X6X6X6X6X6X6X6X6X6X6X,XD.I.I.I.I.I.I.*X9X6X6X6X6X6X6X6X7X7X5X`.I.I.I.I.I.K.I.D.Q.6X,X,X6X6X6X6X6X6X6X6X9X(.K.I.I.I.I.I.I.I.D.`.9X6X6X6X6X6X6X6X6X6X`.S.I.Y.I.H.'.9X6X6X6X6X6X6X6X6XI.K.I.K.].Q.> t 2 t ; [ D.c.p.1.3.3.>.p.S.S.S.c.S.c.c.S.c.S.z.`.FXAXAXkX6XwX|.I.I.I.I.I.D.,XwX6X6X6X6X6X6X6X6XrX`.K.Y.D.*XrX6X6X6X6X6X6X>XK.K.K.I.I.I.I.K.(.6X9XQ.K.I.I.I.I.I.6X6X6X6X|.K.K.K.I.,X6X6X6X6X6X6XoX6XwX>XI.I.5X6X6X6X6X6X6X(.K.I.I.I.'.6X6X6X6X6X6X6X6X6X6X6X6XeX$X< 6 i.S.B.S.c.r.,.3.>.1.p.S.S.S.z.Q.HXvX,X9X9X9X6X6X6X6XQ.K.I.I.I.I.D.'.6X6X6X6X6X6X6X6X6X6X6X'.H.I.K.`.rX6X6X6X6X6X6X6X6X9X>XI.I.I.I.I.I.I.I.D.`.6X6X6X6X6X6X6XwX`.K.I.I.H.K.I.I.K.>X6XwX6X6X6X6X6X6X6X6X|.D.K.I.I.I.I.I.I.K.K.`.6X6X6X6X6XQ.I.K.I.K.Q.oXaXL < t t t t - D g.>.>.p.S.S.B.B.H.] iXFXFX>X).0X9X9X,XI.I.I.I.H.Q.6X6X6X6X6X6X6XQ.K.I.I.>X9X6X6X",
"6X6X6X6X6XwX|.K.K.H.K.K.I.I.I.D.'.9X6X6X6X6X6X9XQ.D.I.I.I.K.Q.6XwX6X,X6X6XQ.K.K.H.`.wX6XrX`.H.I.I.I.>XwX6X6X6XQ.K.I.I.K.6X6X6X6X6X6X6X6X6XwX6Xc.t w t 2 t t t t t 1 >.D.z.S.S.S.S.c.B.c.1.1.3._ 8X*XD.9X9X6X6X6X6X6XQ.H.I.D.`.9X6X6X6X6X6X6X6X6X6X6XwX,XD.I.K.I.I.I.I.>X6X6X6X6X6X6X6X6X6X5X(.S.I.I.I.I.I.I.D.G.,X,X6X6X6X6X6X6X6X6X6XrX`.K.I.I.I.I.I.I.I.I.D.9X6X6X6X6X6X6X6X6X6X6XQ.I.I.Y.I.K.>X9X6X6X6X6X6X6X6X6XI.K.I.K.]./.> t 2 t ;  .D.c.p.1.3.1.>.p.S.S.S.S.c.c.c.c.c.S.z.^.FXAXAXvX6XwX|.D.I.I.I.I.D.,XwX6X6X6X6X6X6X6X6XrX`.H.I.S.`.wX6X6X6X6X6X6X9XQ.K.K.I.I.I.I.K.Q.6X6XQ.K.I.I.I.I.I.6X6X6X6X`.K.K.K.Q.,X6X6X6X6X6X6X6X6XwX>XH.Y.9X6X6X6X6X6X6X(.K.I.I.I.`.wX6X6X6X6X6X6X6X6X6X6X6XeX:X1 4 i.S.B.B.c.r.>.3.>.1.c.S.S.S.z.K.AXBX1X9X9X9X6X6X9X>XI.K.I.I.I.I.D.>X6X6X6X6X6X6X6X6X6X6X6X(.H.I.K.>XrX6X6X6X6X6X6X6X6X9X`.K.I.I.I.I.K.I.I.Q.>X6X6X6X6X6X6X6X6XQ.I.I.K.I.I.I.I.K.I.>X6X6X6X6X6X6X6X6X6X6X`.K.I.I.I.I.I.I.K.K.Q.,X6XoX6X6X`.K.K.K.K.K.OXsXL < t t t t - D g.>.>.u.S.S.B.B.H.] pXFXFX>X).9X6X9X,XI.I.I.I.K.Q.6X6X6X6X6X6X,XI.K.I.I.,X9X6X6X",
"6X6X6X6X6X9XQ.K.K.K.K.K.I.I.I.D.(.9X6X6X6X6X6X9X).D.I.I.I.I.Q.6XwX6X,X6X9XQ.K.K.K.`.wX,XrX'.H.I.I.I.>XwX6X7X5XI.K.I.I.I.9X9X6XwX6X6X6X6X6XwX>Xc.t w t t t t t t t 3 y.D.z.B.B.B.B.z.B.c.1.1.3._ 8X>XD.9X9X9X6X6X6X,XD.I.I.D.`.9X6X6X6X6X6X6X6X6X6X6XwX>XD.K.K.I.I.I.I.>X6X6X6X6X6X6X6X6X|.(.D.I.I.I.I.I.I.D.Q.>X,X6X9X6X6X6X6X6X6X6X6X>XI.H.I.I.I.I.I.I.I.D.'.9X6X6X6X6X6X6X6X6X6X'.D.I.Y.Y.H.Q.9X6X6X6X6X6X6X6X6X6XI.K.I.H.].m.< t 2 t ;  .D.c.p.1.3.1.>.t.S.S.S.S.c.c.c.c.c.S.z.^.FXAXAXvX6XwX|.D.I.I.I.I.D.,XwX6X6X6X6X6X6X6X6XrX`.H.I.K.(.wX6X6X6X6X6X6X9X`.K.K.K.K.K.I.I.I.>XwXQ.K.I.I.I.I.I.6X6X6X9X`.K.K.H.`.6X6X6X6X6X6X6X6X6XwX`.H.(.9X6X6X6X6X6X6X(.H.I.I.K.`.wX6X6X6X6X6X6X6X6X6X6X6XeX2X1 < 7.C.B.B.c.r.>.3.>.y.S.S.B.D.z.D.AXBX9X9X9X9X6X6X9X*XS.I.I.I.I.I.I.5X6X6X6X6X6X6X6X6X6X6X6XI.I.K.I.9X9X6X6X9X9X9X6X6X9X9X(.K.I.K.I.I.K.I.I.`.0X6X6X6X6X6X6X6X6XI.I.I.I.I.I.I.I.I.I.Q.>X6X6X9X6X6X6X6X6X6X9X`.K.I.I.K.I.I.K.K.I.`.6X6X6X6X6XI.H.H.I.K.'.sXT - t t t t - D g.>.>.u.S.S.B.B.H.] hXFXFX>X).rX6XwX,XK.I.I.I.I.Q.6X6X6X6X6X9X>XI.K.K.I.9X6X6X6X",
"6X6X6X6XrX>XK.K.D.I.K.I.I.I.I.D.Q.6X6X6X6X6X6XwX}.K.I.I.K.I.Q.6XwX6X6X6X9XQ.K.H.K.>XwX6XrX'.H.I.I.I.>XwX6X7X5XI.K.I.I.Q.9X9X6X6X6X6X6X6X6XwX|.c.u w t t t t t t t 3 i.D.z.B.B.B.B.c.C.c.1.1.3._ 8X<XK.9X9X6X6X6X6X,XD.I.I.D.`.9X6X6X6X6X6X6X6X6X6X6XwX>XD.K.K.I.I.K.Q.5X6X6X6X6X6X6X6X|.Q.I.I.I.I.I.I.I.K.I.>X,X6X6X6X6X6X6X6X6X6XwX6XD.I.I.I.I.I.I.I.I.I.I.9X6X6X6X6X6X6X6X6X6X6XI.I.I.Y.Y.H.`.9X6X6X6X6X6X6X6X6X>XI.K.I.H.'.m.< 3 2 t 9  .D.c.t.1.3.1.>.r.S.S.S.c.c.z.c.c.c.S.z.^.FXAXAXvX6XwX|.I.I.I.I.Y.D.,XwX6X6X6X6X6X6X6X6XrX}.H.I.K.Q.,X6X6X6X6X6X6X9X>XK.K.K.K.K.I.I.K.*XwXQ.K.I.I.I.I.I.6X6X6X9X(.K.I.H.`.6X6X6X6X6X6X6X6X6X6X`.H.(.9X6X6X6X6X6X6X(.H.I.I.K.(.6X6X6X6X6X6X6X6X6X6X6X6XeX2X3 < 5.C.z.z.c.1.>.1.>.r.S.B.S.D.z.D.VXBX9X9X6X6X9X9X9X`.D.I.I.I.I.I.I.8X6X9X6X6X6X6X6X6X6X6X,XI.I.K.I.9X9X6X6X6X6X6X6X6X9X>XI.K.I.I.I.I.K.I.D.|.6X6X6X6X6X6X6XwX|.I.I.I.I.I.I.I.I.K.K.I.Q.>X9X9X6X6X6X6X6X6X6X6XQ.K.I.I.I.I.I.K.K.Q.>X6X6X6X6X(.H.K.K.K.(.fX) - t t t t - D h.>.>.u.S.S.B.B.H.] fXFXFX>X).9X6XwX,XK.I.I.I.K.(.6X6X6X6X6X9X>XK.K.K.I.9X6X6X6X",
"6X6X6X6X9X^.K.K.K.K.K.I.I.I.I.K.Q.6X6X6X6X6X6XwX|.K.I.I.K.I.Q.6XwX6X6X6X9XQ.K.H.I.>XwX6XrX`.H.I.I.I.>XwX6X7X5XI.K.I.I.Q.9X6X6X6X6X6X6X6X6XwX|.c.u w t t t t t t t 3 y.D.z.B.B.B.B.c.B.c.1.1.3._ 8X<XK.9X9X6X6X6X6X,XD.I.I.S.`.9X6X6X6X6X6X6X6X6X6X6XwX>XD.K.K.I.I.K.(.6X6X6X6X6X6X6X|.Q.H.I.I.I.I.I.I.I.K.>X6X,X6X6X6X6X6X6X6X6X6X6X(.D.I.I.I.I.I.I.I.I.I.*X0X6X6X9X6X6X6X6X6X6X`.D.I.Y.Y.K.I.>X6X6X6X6X6X6X6X6X6X|.I.I.I.H.|.0.; t 2 t 0  .S.c.t.1.3.1.] r.S.S.S.S.z.z.c.S.c.S.z.Q.AXAXAXvX6XwX|.I.I.I.I.Y.D.,XwX6X6X6X6X6X6X6X6XrX>XH.I.K.Q.,XwX6X6X6X6X6X6X,XQ.K.K.K.K.I.I.H.`.6XQ.I.I.I.I.I.I.6X6X6X6XQ.K.I.I.>X6X6X6X6X6X6X6X6X6X6XQ.H.`.9X6X6X6X6X6XwX(.H.I.I.K.Q.6X6X6X6X6X6X6X6X6X6X6X6XeX<Xt ; %.C.z.z.c.>.>.1.>.r.S.B.S.D.z.D.VXAX9X9X9X6X9X9X9X`.D.I.I.I.I.I.I.9X6X9X6X6X6X6X6X6X6X6X|.I.I.K.Q.9X9X6X6X6X6X6X6X6X9X>XI.I.I.I.I.K.I.I.I.6X6X6X6X6X6X6X6XwX`.D.I.I.I.I.I.I.I.I.K.K.K.Q.>X6X9X6X6X9X6X6X6X6X,XQ.K.I.I.I.I.K.K.K.`.6X6X6X6X|.H.K.I.K.I.0X( # t t t t - D h.>.>.u.S.S.B.B.H.] fXFXFX,X).9X6XwX,XD.I.I.I.K.`.6X6X6X6X6X9X>XK.K.K.Q.9X6X6X6X",
"6X6X6XwX>XK.K.K.I.K.I.I.I.I.I.I.I.>X6X6X6X6X6X6X6XI.I.I.K.I.Q.6XwX6X6X6X6XQ.K.H.I.>X6X6XwX`.H.I.I.I.5XwX6X7X5XI.K.I.K.(.9X6X6X6X6X6X6X6X6XwX|.c.l w t t t t t t t 1 8.D.B.B.B.B.S.S.B.c.1.1.3._ 8X<XK.9X6X6X6X6X6X5XD.I.I.S.`.9X6X6X6X6X6X6X6X6X6X6XrX>XD.K.K.K.I.I.`.6X6X6X6X6X6X|.I.H.I.I.I.I.I.I.I.I.`.6X6X,X6X6X6X6X6X6X6X6XrX`.K.I.I.I.I.I.I.I.I.K.(.9X6X6X9X6X6X6X6X6X6X>XD.I.I.I.Y.H.Q.6X6X6X6X6X6X6X6X6X0X'.I.I.Y.K.5Xa.$ t 2 t 0  .D.c.t.1.3.1.>.r.S.S.c.c.z.z.S.S.S.S.z.Q.AXAXAXvX6XwX|.I.I.I.I.Y.D.,XwX6X6X6X6X6X6X6X6X6X>XI.I.I.I.,XwX6X6X6X6X6X6X9XQ.K.K.K.K.I.I.H.(.6XQ.I.I.I.I.K.I.6X6X6X6XQ.I.I.I.>X6X6X6X6X6X6X6X6X6X6XQ.H.`.9X6X6X6X6X6XwX(.H.I.I.K.Q.,X9X6X6X6X6X6X6X6X6X6X6XeX<Xt $ ^ F.z.B.c.>.>.1.>.r.z.B.z.S.z.D.BXAX9X6X9X9X6X6X9X(.K.Y.I.I.I.I.Q.9X6X9X6X6X6X6X6X6X6XwX`.K.I.K.&X9X6X6X6X6X6X6X9X9X9X(.K.I.I.I.I.K.I.I.`.6X6X6X6X6X6X6X6X6X(.K.I.I.I.I.I.I.I.I.I.K.K.K.Q.6X6X6X9X6X6X9X6X6X6X|.I.I.I.I.I.I.K.K.I.|.6X6X6X6XY.K.I.K.S.8X^ # t t t t - D g.>.>.u.S.S.B.B.H.] fXFXFX,X).9X6XwX>XK.K.I.I.D.`.+X6X6X6X6X9X>XK.K.K.Q.9X6X6X6X",
"6X6X6X6X(.K.K.K.K.I.I.I.I.I.I.I.D.|.6X6X6X6X6X6X6XI.K.I.K.I.Q.6XwX6X6X6X6XQ.K.K.Y.9X6X6XwX(.K.I.I.I.6X6X6X0X5XI.K.I.K.`.9X6X6X6X6X9X6X6X6XwX`.c.l t t t t t t t t 1 8.D.B.B.B.B.S.S.B.t.>.1.3._ 8X<XK.9X6X6X6X6X6X|.D.I.I.S.`.9X6X6X6X6X6X6X6X6X6X6XrX*XD.K.I.K.I.I.}.6X6X6X6X9X*XI.S.K.I.I.I.I.I.K.K.`.6XwX,X6X6X6X6X6X6X6X6X9X>XD.I.I.I.I.I.I.I.I.I.I.5XrX6X6X6X6X6X6X6X6X6X(.S.I.I.H.I.K.*X9X6X6X6X6X6X6X6X6X0X`.H.I.I.K.6X5.$ t 2 t 9  .S.c.t.1.3.1.>.r.S.S.c.c.z.z.S.S.S.S.z.Q.AXAXAXvX6X6X|.I.I.I.I.Y.D.,XwX6X6X6X6X6X6X6X6X6X,XI.K.I.K.|.rX6X6X6X6X6X6X6X`.K.K.K.K.I.I.I.I.5XQ.I.I.I.I.K.I.6X6X6X5XI.I.I.Q.6X6X6X6X6X6X6X6X6X6X6XI.H.'.9X6X6X6X6X6XwX(.H.I.I.I.I.,X9X6X6X6X6X6X6X6X6X6X6XeX2Xa % ! F.z.B.S.>.>.1.>.r.z.z.B.B.z.z.BXAXrX6X6X6X6X9X9XQ.K.I.I.I.I.I.(.9X6X6X6X6X6X6X6X6X6XwX).Y.I.K.>X9X6X6X6X6X9X9X9X9X9XQ.K.I.I.K.K.I.I.D.>X6X6X6X6X6X6X6X6X6XQ.I.K.I.I.I.I.I.I.I.I.I.K.K.I.`.6X6X6X6X6X6X9X6X6X6X`.I.I.I.I.I.I.K.K.(.9X6X6X6X&XH.I.K.S.*X| # t t t t - D g.>.>.u.S.S.z.B.H.] fXFXFX,X).9X6XwX>XD.I.I.K.D.>XwX6X6X6X6X9X>XK.K.K.Q.9X6X6X6X",
"6X6X6X,XI.K.K.K.K.I.I.I.I.I.I.I.D.`.wX6X6X6X6X6X6X(.K.I.I.I.Q.6XwX6X6X6X6XQ.K.H.Y.9X6X6X6X(.K.I.I.I.6X6X6X7X5XI.K.I.I.`.wX6X6X6X6X6X6X6X6XwX`.c.l w t t t t t t t 1 6.D.B.B.B.B.S.S.z.t.] >.3._ 8X<XK.9X6X6X6X6X6X>XD.I.I.S.`.9X6X6X6X6X6X6X6X6X6X6XrX'.D.I.K.K.K.K.}.6XwX,X'.(.I.D.K.I.I.I.I.I.I.K.`.6X6X6X6X6X6X6X6X6X6X6X9X5XI.I.I.I.I.I.I.I.I.I.D.`.9X6X6X6X6X6X6X6X6X9X*XI.I.I.I.I.K.Q.,X6X6X6X6X6X6X6X6X6X6X(.S.I.I.K.0X^ $ t 2 t 9  .S.c.t.1.3.1.>.r.c.S.c.S.S.S.S.S.z.c.z.Q.AXAXAXVX6XwX|.I.I.I.I.I.D.,XwX6X6X6X6X6X6X6X6X6X6XI.K.I.D.}.rX6X6X6X6X6X6X6X>XK.K.K.K.I.I.K.K.>XQ.K.I.I.I.K.Y.6X6X6X>XI.K.K.Q.9X6X6X6X6X6X6X6X6X6X6XK.K.>X9X6X6X6X6X6XwX(.H.I.I.I.K.,X9X6X6X6X6X6X6X6X6X6X6XeX:Xa % I D.B.B.S.r.>.>.>.r.z.B.z.B.z.z.vXAXrX6X9X6X9X9X9XQ.K.I.I.I.I.K.).rX6X6X6X6X6X6X6X6X6X6XQ.Y.Y.K.>X6X6X6X6X6X6X9X6X9X5XI.I.I.I.I.K.I.K.Q.6X6X6X6X6X6X6X6X6X'.I.I.H.I.I.I.I.I.I.I.I.I.I.I.I.I.`.6X6X6X6X6X6X6X6X9X8XQ.K.K.K.I.I.I.K.I.>XwX6X6X8XK.I.K.H.(.| # t t t t - D g.>.>.u.S.S.B.B.H.] fXFXFX,X`.9X6X9X>XK.I.I.K.D.>XwX6X6X6X6X9X>XK.U.H.(.9X6X6X6X",
"6X6X9X>XI.I.K.K.K.I.I.I.I.I.I.I.D.`.6X6X6X6X6X6X6X`.K.I.I.I.Q.6XwX6X6X6X6XQ.K.H.Y.9X6X6X6XQ.K.I.I.I.9X6X6X7X5XI.K.I.K.`.wX6X6X6X6X6X6X6X6XwX).c.l w t t t t t t t 1 5.D.B.B.B.B.S.S.B.t.] >.3._ 8X<XK.9X6X6X6X6X6X>XD.I.I.D.(.0X6X6X6X6X6X6X6X6X6X6X9X`.D.I.K.K.K.I.Q.`.`.Q.D.D.K.I.I.I.I.I.I.I.I.`.,XwX6X6X6X6X6X6X6X6X6X9X9XI.I.I.I.I.I.I.I.I.I.I.(.6X6X6X6X6X6X6X6X6X6X5XQ.I.I.I.I.I.K.`.9X6X6X6X6X6X6X6X6X6X6XQ.S.I.I.I.rX) $ t 2 t 9  .S.c.t.1.3.1.>.r.c.S.c.c.S.S.S.S.z.c.z.I.AXFXFXZX6XwX|.I.I.I.I.I.D.,XwX6X6X6X6X6X6X6X6X6X6XI.D.I.K.`.rX,X,X6X6X6X6X6X,XI.K.K.K.K.K.K.K.`.Q.K.I.I.I.K.I.6X6X6X>XK.K.K.`.9X6X6X6X6X6X6X6X6X6X>XD.I.>X9X6X6X6X6X6XwX(.H.I.I.I.K.>X9X6X6X6X6X6X6X6X6X6X6X7X^.x 8 L D.B.B.S.r.>.>.>.r.S.B.z.B.z.z.kXAXrX6X9X6X9X9X6XQ.D.K.I.I.I.K.`.wX6X6X6X6X6X6X6X6X6X6XI.Y.I.I.8X6X6X6X6X6X6X9X9X0X>XK.I.I.I.I.H.I.I.`.6X6X6X6X6X6X6X6X9XQ.K.I.I.I.I.I.I.I.I.I.I.I.I.I.I.I.Q.|.wX6X6X6X6X6X6X9X9X>XK.K.I.I.I.I.I.D.`.6X6X,X9X(.K.K.K.Q. .- t t t t - S g.>.>.p.S.S.B.B.H.] fXFXFX,X`.9X6X9X&XK.I.K.K.D.6X6X6X6X6X6X9X`.K.U.H.(.9X6X6X6X",
"6X6X9X`.K.I.K.K.I.I.I.I.I.I.I.I.D.(.6X6X6X6X6X6XwX'.K.I.I.I.Q.6XwX6X6X6X6XQ.K.K.I.6X6X6X6XQ.K.I.I.Q.9X6X6X7X5XI.K.I.I.`.wX6X6X6X6X6X6X6X6XwX).c.u w t t t t t t t < :.D.z.B.B.B.S.S.B.t.] 1.3._ 8X8XK.9X9X6X6X6X6X>XD.I.I.D.(.9X6X6X6X6X6X6X6X6X6X6X9X`.D.I.I.K.I.I.I.K.H.K.K.I.I.I.I.I.I.I.I.I.(.|.wX6X6X6X6X6X6X6X6X6X6X9XQ.I.I.I.I.I.I.I.I.I.I.Q.6XwX6X6X6X6X6X6X6X6X6X(.H.Y.I.I.I.I.I.>XwX6X6X6X6X6X6X6X6X6X6XQ.K.I.K.Q.rXT $ t 2 t 9  .D.c.t.1.3.1.>.r.p.S.c.c.z.z.S.c.c.c.z.I.AXFXAXZX6X6X|.I.I.I.I.I.D.,XwX6X6X6X6X6X6X6X6X6X6XQ.D.I.K.`.rXwX,X6X6X6X6X6X9XQ.K.K.K.K.K.K.K.Q.Q.K.I.I.I.K.Y.6X6X6X>XK.K.I.`.6X6X6X6X6X6X6X6X6XwX>XK.I.>X9X6X6X6X6X6XwX(.H.I.I.I.K.:X9X6X6X6X6X6X6X6X6X6X6XoX/.x 8 V x.B.B.S.r.>.>.>.r.c.S.B.B.z.z.kXFXaX6X9X9X9X9X6XQ.D.I.I.I.I.K.}.wX6X6X6X6X6X6X6X6XwX>XK.Y.I.Q.9X6X6X6X6X6X6X6X9X0X`.D.K.I.I.K.H.I.I.5X6X6X6X6X6X6X6X0X>XI.K.K.I.I.I.I.I.I.I.I.I.I.I.I.I.I.I.Q.>X6X6X6X6X9X6X6X9X9X(.K.I.I.I.I.I.K.I.,X9X9X9X*XD.K.H.Q.' ; t t t t - S g.>.>.p.S.S.B.B.H.| fXFXFX,X).rX6X6X`.D.I.K.K.D.6X6X6X6X6X6X9X`.K.U.H.`.9X6X6X6X",
"6XrX9XQ.K.I.K.I.I.I.I.I.I.I.I.I.K.Q.6X6X6X6X6X6X6X>XK.I.I.I.Q.6XwX6X,X6X6XQ.K.H.Q.6X6X6X6XG.I.I.I.Q.9X6X6X7X5XI.K.I.I.`.wX6X6X6X6X6X6X6X6X6X(.S.u w t t t t t t t < :.D.B.B.B.B.S.S.B.t.] 1.3._ 8X8XD.9X9X6X6X6X6X|.D.I.I.D.(.9X6X6X6X6X6X6X6X6X6X6X6XQ.H.I.I.I.I.K.I.K.K.I.I.I.I.I.I.I.I.I.K.K.>XwXwX6X6X6X6X6X6X6X6X6X9X`.K.I.I.I.I.I.I.I.I.I.I.>XrX6X6X6X6X6X6X6X6X9X*XK.I.Y.I.I.I.I.(.6X6X6X6X6X6X6X6X6X6X6X5XI.K.I.K.(.sXL $ t 2 t 9  .D.c.t.1.3.1.>.1.p.S.c.z.z.z.S.S.c.c.z.I.AXFXAXZX6X6X|.I.I.I.I.I.D.,XwX6X6X6X6X6X6X6X6X6X6X(.D.I.K.Q.9XwX,X6X6X6X6X6X9X`.K.K.K.K.K.K.K.I.Y.K.I.I.I.K.Y.6X6X9X>XI.K.H.|.6X6X6X6X6X6X6X6X6XwX&XK.Q.8X9X6X6X6X6X6XwX(.H.I.I.I.K.`.9X6X6X6X6X6X6X6X6X6X6XOXW.x 9 m c.B.B.S.r.>.1.>.r.z.D.B.D.B.z.gXFXaX6X9X9X9X9X>XQ.D.I.I.I.I.I.|.wX6X6X6X6X6X6X6X6XwX>XK.Y.K.`.9X6X6X6X6X6X6X6X9X9X(.K.I.I.I.K.H.K.(.9X6X6X6X6X6X6X6X6X`.K.K.K.I.I.I.I.I.I.I.I.I.I.I.I.I.I.I.I.Q.,X6X6X6X6X6X9X6X6X,XQ.K.I.I.I.I.I.D.`.9X6X6X>XI.K.H.Q.' ; t t t t - S g.>.>.p.S.S.B.B.S.| fXFXFX,X).rX6X6X`.S.I.K.K.D.6X6X6X6X6X6X9X`.K.U.H.`.9X6X6X6X",
"6XrX,XI.K.I.I.I.I.I.I.I.I.I.I.I.K.Q.6X6X6X6X6X6X6X,XI.I.I.I.Q.6XwX6X,X6X6XQ.K.H.Q.,X6X6X6XI.I.I.I.Q.9X6X6X6X6XI.K.I.K.`.wX6X6X6X6X6X6X6X6X6XQ.S.l < t t t t t t t < :.D.B.B.B.B.B.S.B.r.] 1.3._ iX8XD.9X6X6X6X6X6X|.D.I.I.D.(.9X6X6X6X6X6X6X6X6X6X6X6XQ.D.I.I.I.I.I.I.I.I.I.I.I.I.I.I.I.I.K.S.>X6X6X6X6X6X6X6X6X6X6X6XrX'.D.I.I.I.I.I.I.I.I.I.I.|.rX6X6X6X6X6X6X6X6X6X>XI.K.I.I.I.I.I.I.'.6X6X6X6X6X6X6X6X6X6X7X5XD.K.I.K.(.sXC $ t 2 t 0  .D.c.t.1.3.1.>.>.p.S.S.S.S.c.c.z.z.c.z.D.AXAXAXZX6X6X>XI.I.I.I.I.D.,XwX6X6X6X6X6X6X6X6X6XwX`.D.I.D.Q.9XwX,X6X6X6X6X6X9X*XK.K.K.K.K.K.K.K.I.I.I.I.I.K.Y.6X6X9X>XI.I.H.>X6X6X6X6X6X6X6X6X6XwX`.S.Q.9X6X6X6X6X6X6XwX(.H.I.K.I.K.`.9X6X6X6X6X6X6X6X6X6X6X.XW.n 9 m c.B.c.S.r.1.1.>.1.z.S.S.D.D.z.sXKXaX6X6X6X9X9X>XI.D.I.I.I.I.I.>X6X6X6X6X6X6X6X6X6XwX&XH.Y.I.*X9X6X6X6X6X6X6X6X9X9XI.I.D.I.I.I.K.D.>XwX6X6X6X6X6X6X6X>XD.K.I.K.I.I.I.I.I.I.I.I.I.I.I.I.I.I.I.I.I.`.6X6X6X6X6X9X6X6X9X'.K.I.K.I.I.I.I.Q.>X6X6X9X(.K.H.Q.' ; t t t t - S h.>.>.u.S.S.B.B.S.| fXFXFX,X).rX6X6X`.S.I.K.K.Q.6X6X6X6X6X6X9XQ.K.Y.H.&XrX6X6X6X",
"6XrX>XK.K.I.I.I.I.I.I.I.I.I.I.I.I.I.6X6X6X6X6X6X6X6XQ.H.I.I.Q.6X6X6X,XwX6XQ.K.H.Q.6X6X6X6XD.I.I.I.Q.9X6X6X6X5XI.K.I.K.`.wX6X6X6X6X6X6X6X6X6XQ.H.b < t t t t t t t > %.D.z.S.B.B.S.S.C.r.] 1.3._ iX9XD.9X6X6X6X6X9X'.D.I.I.I.(.9X6X6X6X6X6X6X6X6X6X6X6XI.K.I.I.I.I.I.I.I.K.I.I.I.I.I.I.I.I.K.>XrXwX6X6X6X6X6X6X6X6X6X9X>XK.I.I.I.I.I.I.I.I.I.I.`.9XwX6X6X6X6X6X6X6X6X6X(.K.I.I.I.I.I.I.I.5X6X6X6X6X6X6X6X6X6X6X6X>XS.I.I.D.&XsXm 9 t 2 t 9 | D.c.p.1.3.1.>.>.p.S.S.S.c.c.c.z.z.S.z.D.AXFXAXZX6X6X>XI.I.I.I.I.D.,XwX6X6X6X6X6X6X6X6X6XwX`.K.I.D.I.9X6X,X6X6X6X6X6X9X>XK.K.K.K.K.K.K.K.K.I.I.I.I.K.Y.6X6X6X>XI.I.I.>X6X6X6X6X6X6X6X6X6XwX(.S.(.9X6X6X6X6X6X6XwX(.H.I.K.I.K.(.9X6X6X6X6X6X6X6X6X6X6X].K.c 9 c c.B.z.S.r.1.3.>.1.c.S.S.S.D.z.sXKXsX,X9X6X9X9X>XI.I.I.I.I.I.I.6X6X6X6X6X6X6X6X6X6XwX`.H.Y.I.*X9X6X6X6X6X6X6X6X6X6XD.I.I.I.I.I.I.D.6X6X6X6X6X6X6X6X9X`.D.I.I.I.I.I.I.I.I.I.I.I.I.I.I.I.I.I.I.I.I.Q.|.6X6X6X6X6X6X6X6X>XQ.K.K.K.I.I.I.K.`.9X6X9X&XK.H.Q.' ; t t t t - S g.>.>.p.S.S.B.B.S.| fXFXFX,X).rX6X6X(.S.I.K.K.Q.wX6X6X6X6X6X9XQ.K.Y.H.*XrX6X6X6X",
"wX6X`.K.I.I.I.I.I.I.I.I.I.I.I.I.K.I.6X6X6X6X6X6X6XrX(.H.I.I.Q.6X9X6X6XrX>XK.I.H.Q.rX6X9X6XD.I.I.I.(.9X6X6X6X6XD.K.I.H.`.wX6X6X6X6X6X6X6X6X6XQ.H.b < t t t < 2 2 t > ^ D.c.S.S.c.S.S.B.r.] 1.3._ 8XiXD.9X6X6X6X6X6X>XD.I.I.I.I.6X6X6X6X6X6X6X6X6X6X6XoXI.I.I.I.I.I.I.I.I.I.I.I.I.I.I.I.I.I.&X9X6X6X6X6X6X6X6X6X6X6X6X>XD.I.I.I.I.I.I.I.I.I.I.(.5X9X6X6X6X6X6X6X6X6X6X`.D.I.I.I.Y.I.I.I.5X0X6X6X6X6X6X6X6X6X6X6X6X`.H.I.I.I.9X9Xm ; t 2 t 0 | D.c.p.1.3.1.1.>.p.S.S.S.S.S.c.c.c.S.z.D.SXFXAXZX9X6X`.K.K.I.I.I.D.,XwX6X6X6X6X6X6X6X6X6XrX`.D.I.K.I.6X6X6X6X6X6X6X6X6X6XY.K.I.I.I.I.I.I.I.I.I.I.I.K.Y.6X6X6X5XI.I.I.>X6X6X6X6X6X6X6X6X6X6XQ.S.`.9X6X6X6X6X6X6XwX(.H.I.K.I.K.Q.6X6X6X6X6X6X6X6X6X6X6XY.;Xc 9 c b.C.z.S.y.1.3.>.3.p.c.c.c.D.r.aXKXsX6X9X6X6X9X>XI.I.I.I.I.K.I.6X6X6X6X6X6X6X6X6X6X6XQ.K.H.K.>X6X6X6X6X6X6X6X6X7X'.D.I.I.I.I.I.I.).wX6X6X6X6X6X6X7X8XI.K.K.I.I.I.I.I.I.I.I.I.I.I.I.I.I.I.I.I.I.I.I.K.>X9X6X6X6X6X6X6X6X6XI.I.K.K.I.I.K.Q.,X9X9X,XI.S.Q.r.< t t t t ; F g.>.>.p.S.B.B.S.S.| fXFXFX9X).rX6X6X(.H.I.K.H.Q.wX6X6X6X6X6X9XQ.H.Y.H.*XrX6X6X6X",
"wX6XQ.K.I.I.I.I.I.I.I.I.I.I.I.I.K.I.9X6X6X6X6X6X6XrX(.H.I.I.Q.6X9X6X6XrX>XK.I.H.`.rX6X9X>XD.I.I.I.(.6X6X6X6X5XD.K.I.H.`.wX6X6X6X6X6X6X6X6X6XQ.H.b < t t t w t 2 t > ^ D.c.S.c.c.c.S.C.t.>.1.3._ 8XiXD.9X6X6X6X6X6X>XK.I.I.I.I.6X6X6X6X6X6X6X6X6X6X6X XI.K.I.I.I.I.I.I.I.I.I.I.I.I.I.I.I.`.6X6X6X6X6X6X6X6X6XwX6X6X>XI.I.I.I.I.I.I.K.I.I.D.>X0X9X6X6X6X6X6X6X6X6X9X'.D.I.I.I.I.I.I.A.(.6X6X6X6X6X6X6X6X6X6X6X6X6XQ.I.I.I.Q.6X1Xj 9 t 2 t 0 | D.c.p.1.3.1.1.>.p.S.S.S.S.c.c.c.S.S.z.D.SXFXAXAXrX9X`.K.I.I.I.I.D.,XwX6X6X6X6X6X6X6X6X6XrX'.D.I.K.I.,X6X,X6X6X6X6X6X6X6X(.K.I.I.I.I.I.I.I.I.I.I.I.K.I.6X6X6X6XI.I.I.>X6X6X6X6X6X6X6X6X6X6XQ.S.`.9X6X6X6X6X6X6XwX(.H.I.I.I.K.Q.6X6X6X6X6X6X6X6X6X6X6XI.;Xc 9 x 0.B.c.c.p.1.3.1.,.p.c.c.c.D.r.iXKXdX6X9X6X6X9X5XI.K.I.I.I.K.I.6X6X6X6X6X6X6X6X6X6X6XQ.I.K.I.5X6X6X6X6X6X6X6X6XwX(.D.I.K.I.I.I.D.|.wX6X6X6X6X6X6X0X*XI.I.I.I.I.I.I.I.I.I.I.I.I.I.I.I.I.I.I.I.I.I.I.I.Q.6X6X6X6X6X6X6X6X9X`.K.K.K.I.K.I.K.&X9X6X9XQ.S.Y.i.< t t t t ; F g.>.>.p.S.B.S.S.S...mXFXFX9X`.9X6X6XQ.H.I.K.H.`.wX6X6X6X6X6X9XQ.H.Y.H.>XrX6X6X6X",
"wX9XI.K.I.I.I.I.I.I.I.I.I.I.I.I.K.Q.9X6X6X6X6X6X6XrX(.H.I.I.Q.9X9X6X6XrX>XK.I.K.`.rX6XrX|.D.I.I.K.(.6X6X6XwX5XD.K.I.H.`.wX6X6X6X6X6X6X6X6X6XQ.H.b < t t t t t 2 t > / D.z.c.c.S.c.S.B.r.] 1.3._ 8XiXD.9X9X6X6X6X6X>XD.I.I.I.D.>X0X6X6X6X6X6X6X6X6X6XoXI.I.I.I.I.I.I.I.I.I.I.I.I.I.I.I.`.6XwX6X6X6X6X6X6X6X6X6XwX5XI.I.I.I.I.I.I.I.I.I.D.>X9X6X6X6X6X6X6X6X6X6X6X5XI.H.I.I.I.I.I.I.I.5X6X6X6X6X6X6X6X6X6X6X6X6X>XK.Y.I.I.(.6X1Xg w 3 2 2 0 6.D.c.p.1.3.1.1.>.p.S.c.z.z.z.c.c.S.S.c.D.SXFXAXAXrX9X`.K.I.I.I.Y.Q.6XwX6X6X6X6X6X6X6X6X6XrX'.D.I.I.K.>X6X,X6X6X6X6X6X6XwX|.D.I.I.I.I.I.I.I.I.I.I.I.K.I.6X6X6X6XI.K.I.,X6X6X6X6X6X6X6X6X6X6XI.S.'.9X6X6X6X6X6X6XwX(.H.I.I.I.K.Q.,X6X6X6X6X6X6X6X6X6X>XI.;Xn 9 5 0.C.c.c.p.1.3.3.,.i.S.c.c.D.b.9XKXgX6X9X6X6X9X5XI.D.I.I.I.D.I.6X6X6X6X6X6X6X6X6X6X>XI.I.K.Q.6X6X6X6X6X6X6X6X6X6XQ.I.I.I.I.I.K.Q.6X6X6X6X6X6X6X6X6X(.K.I.I.I.K.I.I.I.I.I.I.I.I.I.I.I.I.I.I.I.I.I.I.I.K.`.rX6X6X6X6X6X6X,X9XQ.H.K.I.K.I.K.Q.6X6XrX}.K.Y.r.< t t t t ; F g.>.>.p.S.S.S.S.S...mXFXFX9X`.rX6X6XQ.H.I.K.K.`.wX6X6X6X6X6X9XQ.H.I.K.>X9X6X6X6X",
"wX6XK.K.I.I.I.I.I.I.I.I.I.I.I.I.K.Q.9X6X6X6X6X6X6XrX`.H.I.I.Q.9X9X6X6XrX>XK.I.K.`.rX6XrX}.D.I.I.K.(.wX6X6XwX5XD.K.I.H.`.wX6X6X6X6X6X6X6X6X6XI.H.b < t t t t t 2 t > / D.z.c.c.S.S.S.S.r.] 1.3._ 8X0XS.9X9X6X6X6X6X5XD.I.I.I.D.>X0X6X6X6X6X6X6X6X6X6XoXI.I.I.I.I.I.I.I.I.I.I.I.I.I.I.`.6XwX9X6X6X6X6X6X6X6X6X6X6XI.H.I.I.I.I.I.I.Y.I.I.>X6X6X6X6X6X6X6X6X6X6X6X6XI.H.I.I.I.I.I.I.I.`.6X6X6X6X6X6X6X6X6X6X6X6X9X'.K.Y.I.I.|.wX:X6 w 3 2 2 0 7.D.c.p.1.3.1.1.>.p.S.c.c.z.z.c.c.S.S.c.D.SXFXAXAXrX9X`.H.I.I.I.I.Q.6XwX6X6X6X6X6X6X6X6X6X9X>XD.I.I.K.|.wX6X6X6X6X6X6X6X6X,XD.K.I.I.I.I.I.I.I.I.I.I.I.I.6X6X6X9XI.H.Y.6X6X6X6X6X6X6X6X6X6X5XI.K.>X6X6X6X6X6X6X6XwX(.H.I.I.I.K.I.,X6X6X6X6X6X6X6X6X6X`.I.%Xm 9 3 8.C.c.c.c.3.3.3.3.r.c.x.c.D.b.1XKXkX6X9X6X6X9X6XI.D.I.I.I.D.I.6X6X6X6X6X6X6X6X6X6X>XK.I.K.Q.6X6X6X6X6X6X6X6X6X6XI.I.I.I.I.I.D.`.9X6X6X6X6X6X6X6X>XD.I.I.I.I.K.I.I.I.I.I.I.I.I.I.I.I.I.I.I.I.I.I.I.I.I.S.>X6X6X6X6X6X6X6XrX>XK.H.K.I.I.I.I.>X6X6X,XK.I.p.t t t t t ; F h.>.>.p.S.S.S.S.B...mXFXFX9X`.rX6X6XQ.H.I.K.K.|.6X6X6X6X6X6X9XQ.K.Y.K.>X9X6X6X6X",
"wX>XH.K.I.I.I.I.I.I.I.I.I.I.I.I.K.(.9X6X6X6X6X6X6XrX&XH.I.I.Q.9X9X6X6XrX'.K.I.K.`.rX6X6X`.D.I.I.K.(.wX6X6XwX>XK.K.I.H.`.wX6X6X6X6X6X6X6X6X5XI.H.b < t t t t t < t > ~ D.z.c.S.S.c.c.S.r.>.1.3._ 8X0XS.9X9X6X6X6X6X6XI.I.I.I.S.>X0X6X6X6X6X6X6X6X6X6XOXI.I.I.I.I.I.I.I.I.I.I.I.I.I.!.,XwX6X6X6X6X6X6X6X6X6X6X6X(.H.I.I.I.I.I.I.I.I.I.5X9X6X6X6X6X6X6X6X6X6X6X9XQ.I.I.I.I.I.I.I.S.I.6X6X6X6X6X6X6X6X6X6X6X6X6X0X(.I.K.I.Q.6XwXXX6 w 3 2 2 9 6.S.c.p.1.3.1.1.>.r.S.S.S.S.S.c.S.S.S.c.S.VXFXAXAXrX9X(.H.I.I.I.I.Q.6XwX6X6X6X6X6X6X6X6X6X6X>XD.I.I.K.`.6X6X6X6X6X6X6X6X6X6XQ.K.I.I.I.I.I.I.I.I.I.I.K.Y.6X6X6X9XI.K.Y.6X6X6X6X6X6X6X6X6X9X>XI.I.>X9X6X6X6X6X6X6XwX(.H.I.I.I.K.I.,X6X6X6X6X6X6X6X6X6XY.I.%Xm ; < 5.C.c.c.c.3.1.3.,.r.c.c.c.c.r.>XKXvX9X9X6X6X9X6XQ.D.I.I.I.D.I.6X6X6X6X6X6X6X6X6X9X`.D.Y.K.!.6X6X6X6X6X6X6X6X6X>XS.I.I.I.I.I.K.>X9X6X6X6X6X6X6X9X(.S.I.I.I.I.I.I.I.I.I.I.I.I.I.I.I.I.I.I.I.I.I.I.I.I.I.I.I.6X6X6X6X6X6X6X6X6X`.K.I.I.K.I.K.`.9X6XwX(.I.p.t t t t t ; F h.>.>.p.S.B.S.S.B.X.mXFXFXrX'.rX6X6XQ.H.I.K.K.>X6X6X6X6X6X6X9XQ.D.I.D.>X6X6X6X6X",
"wX`.K.I.I.I.I.I.I.I.I.I.I.I.I.I.K.`.9X6X6X6X6X6X6XrX*XK.I.I.Q.9X9X6X6XrX'.K.I.K.:X9X6X6X).D.I.I.K.(.6X6X6XwX>XK.K.I.H.`.6X6X6X6X6X6X6X6X6X5XI.H.b < t t t t t < t > ~ D.z.c.S.S.c.S.S.r.>.1.3._ 8XfXc.9X9X6X6X6XwX6XI.I.I.I.S.'.0X6X6X6X6X6X6X6X6X6XOXI.I.I.I.I.I.I.I.I.I.I.I.K.Q.,XwXwX6X6X6X6X6X6X6X6X6X6X(.I.I.I.I.I.I.I.I.I.(.5X0X6X6X6X6X6X6X6X6X6X6X5XQ.S.I.I.I.I.I.I.I.S.'.7X6X6X6X6X6X6X6X6X6X6X6X6X9XI.I.K.H.`.6XwX$X4 w 3 2 2 0 6.S.z.c.y.3.1.1.>.r.S.S.S.S.S.c.S.S.S.c.S.BXFXAXAXrX9XQ.H.I.I.I.I.Q.6XwX6X6X6X6X6X6X6X6X6X6X>XD.I.I.H.`.wX6X6X6X6X6X6X6X6X6X`.K.I.I.I.I.I.I.I.I.I.I.K.Y.6X6X6X9XQ.K.Y.6X6X6X6X6X6X6X6X6X9X>XI.I.5X6X6X6X6X6X6X6XwX(.H.I.I.I.I.I.>X6X6X6X6X6X6X6X6X>XI.I.%XC ; < *.C.c.c.c.y.>.3.1.1.c.c.c.c.r.>XKXvX9X9X6X6X9X6XQ.D.I.I.I.D.Q.6X6X6X6X6X6X6X6X6X9X`.H.Y.K.`.6X6X6X6X6X6X6X6X6X|.H.I.I.I.I.I.I.6X6X6X6X6X6X6X6X6XQ.H.I.I.I.I.I.I.I.I.I.I.I.I.I.I.I.I.I.I.I.I.I.I.I.I.I.I.D.).6X6X6X6X6X6XwX,X>XQ.K.Y.I.I.K.Q.>X6XwX>XI.p.t t t t t < F h.>.>.p.S.B.S.S.B.X.mXFXFXrX'.9X6X6XY.H.I.K.K.>X6X6X6X6X6X6X9XQ.K.I.D.5X6X6X6X6X",
"6XQ.I.I.I.I.I.I.I.I.I.I.I.I.I.I.I.*XwX6X6X6X6X6X6XrX*XH.I.I.Q.9X9X6X6XrX`.K.I.K.>X9X6X6XQ.D.I.I.K.(.wX6X6X6X>XK.K.I.K.(.6X6X6X6X6X6X6X6X6X5XI.H.b < t t t t t < t > ~ D.c.S.S.S.S.S.S.t.>.1.3._ 8XfXc.>X6X6X6X6XwX6XQ.I.I.I.S.(.0X6X6X6X6X6X6X6X6X6X|.I.I.I.I.I.I.I.I.I.I.I.I.Q.>XwXwX6X6X6X6X6X6X6X6X6X6X(.I.I.I.I.I.I.I.I.I.`.6X7X6X6X6X6X6X6X6X6X6X9X6X(.S.I.I.I.I.I.I.I.S.(.6X7X6X6X6X6X6X6X6X6X6X6X6X9X*XH.I.K.I.6XoXwX$X@ t 3 2 2 9 6.S.z.p.y.3.1.1.>.r.c.c.c.S.S.S.S.S.S.S.S.MXFXAXAXrX9XQ.H.I.I.I.I.Q.6XwX6X6X6X6X6X6X6X6X6X6X>XD.I.I.H.).6X6X6X6X6X6X6X6X6X6X`.K.I.I.I.I.I.I.I.I.I.I.K.Y.6X6X6X9X(.K.I.,X6X6X6X6X6X6X6X6X6X'.S.I.6X6X6X6X6X6X6X6XwX(.H.I.I.I.I.D.>X6X6X6X6X6X6X6X6X`.H.I.-XL ; < &.C.c.c.c.y.>.3.1.1.p.x.x.x.b.&XKXVX9X9X6X6X9X9XQ.D.I.I.I.D.Q.6X6X6X6X6X6X6X6X6X9XQ.H.I.K.|.6X6X6X6X6X6X6X6X6X`.H.Y.I.I.I.D.(.6X6X6X6X6X6X6X6X6XI.H.I.I.I.I.I.I.I.I.I.I.I.I.I.I.I.I.I.I.I.I.I.I.I.I.I.I.I.I.>X6X6X6X6X6X6X,X6X`.I.Y.I.K.I.K.`.6X6X6X(.c.t 2 t t t ; F h.>.>.t.S.z.S.S.S.r.mXFXFXrX|.rX6X6XI.K.I.K.K.6X6X6X6X6X6X6X6XI.K.I.K.5X6X6X6X6X",
"6XI.I.I.I.I.I.I.I.I.I.I.I.I.I.I.I.>X6X6X6X6X6X6X6XrX*XH.I.I.Q.9X9X6X6XwX`.K.I.I.>X9X6X9XQ.D.I.I.H.(.wX6X6X6X>XD.K.I.K.(.6X6X6X6X6X6X6X6X6X5XD.H.b < t t t t t < t > ) D.z.S.S.S.B.B.S.t.1.1.3._ 8XfXz.>X6X6X6X6X6X6XQ.I.I.I.S.Q.6X6X6X6X6X6X6X6X6X7X|.I.I.I.I.I.I.I.I.I.I.I.D.|.wXwX6X6X6X6X6X6X6X6X6X9X(.D.I.I.I.I.I.I.I.I.|.9X6X6X6X6X6X6X6X6X6X6X6X6X(.D.I.I.I.I.I.I.I.I.D.>X7X6X6X6X6X6X6X6X6X6X6X6X6X6X(.I.I.K.).wX XwXN.@ t 3 2 2 0 6.S.z.c.y.3.1.1.>.r.c.c.c.S.S.S.S.S.S.S.S.MXFXZXDXrX9XQ.K.I.I.I.K.Q.6X6X6X6X6X6X6X6X6X6X6X6X>XK.I.I.I.Q.9X6X6X6X6X6X6X6X6X6X>XQ.I.I.I.I.I.I.I.I.I.I.K.Y.6X6X6X9X`.I.I.>X6X6X6X6X6X6X6X6X6X'.H.I.6X6X6X6X6X6X6X6XwX(.H.I.I.I.I.D.>XwX6X6X6X6X6X6X9XQ.I.H.<XL ; < Q C.z.c.c.y.>.3.1.1.p.x.x.x.b.`.KXVX9X6X6X6X9X9XQ.D.I.I.I.D.Q.6X6X6X6X6X6X6X6X6X9XQ.K.K.K. X6X,X6X6X6X6X6X6X6X`.H.I.I.I.I.D.|.6X6X6X6X6X6X6XwX>XK.H.I.I.I.I.I.I.I.I.I.I.I.I.I.I.I.I.I.I.I.I.I.I.I.I.I.I.I.I.(.6X6X6X6X6X6XrX6X>XQ.K.I.K.I.K.Q.6X6XwX|.S.t w t t t < F h.>.>.t.S.z.S.S.S.r.mXFXFXrX|.rX6X6XI.I.I.H.I.6X6X6X6X6X6X6X6XI.K.I.I.6X6X6X6X6X",
">XI.I.I.I.I.I.I.I.I.I.I.I.I.I.K.Q.6X6X6X6X6X6X6X6XrX*XH.I.I.Q.9X9X6X6X6X(.H.I.I.>X9X6X9XQ.D.I.I.H.`.wX6X6X6X>XD.K.I.K.(.6X6X6X6X6X6X6X6X6X>XD.H.b < t t t 2 2 < t > ) K.z.c.c.c.z.B.S.t.1.1.3.` 8XfXz.}.rX6X6X6X6X6X(.I.I.I.D.D.6X6X6X6X6X6X6X6X6X6X|.I.I.I.I.I.I.I.I.I.I.I.`.wXwX6X6X6X6X6X6X6X6X6X9X`.D.D.I.I.I.I.I.I.Q.>XrX6X6X6X6X6X6X6X6X6X6X6X9X(.D.I.I.I.I.I.I.I.I.S.`.6X6X6X6X6X6X6X6X6X6X6X6X6X6X,XP.Y.I.I.|.wXoXeXm.+ t 2 2 t 0 6.S.c.c.y.3.1.1.>.r.c.c.z.c.c.S.S.S.S.c.c.MXFXZXDXrX9XQ.K.I.I.I.K.Q.rX6X6X6X6X6X6X6X6X6X6X9X>XI.I.I.I.Q.9X6X6X6X6X6X6X6X6X6X,XQ.K.I.I.I.I.I.I.I.I.I.K.Q.6X6X6X0X*XI.H.|.6X6X6X6X6X6X6X6X6X`.H.Q.6X6X6X6X6X6X6X6XwX(.H.I.I.I.I.D.|.wX6X6X6X6X6X6X>XI.Y.K.iXK ; w Q C.B.S.S.p.1.1.1.1.r.S.S.D.z.^.FXZX9X6X6X6X9X9XQ.D.I.I.I.K.Q.6X6X6X6X6X6X6X9X9X9XI.K.K.Y.,X6X,X6X6X6X6X6X6X6X(.K.I.I.I.I.D.6X6X6X6X6X6X6X6X6X`.H.K.I.I.I.I.I.I.I.I.I.I.I.I.I.I.I.I.I.I.I.I.I.I.I.I.I.I.I.I.D.'.6XoX6X6X6X6X6X6X&XI.K.I.K.K.I.|.6XwX6XK.l < t t t ; F h.>.>.t.S.B.S.S.S.r.mXFXAXrX|.rX6X,XI.K.I.K.Q.6X6X6X6X6X6X6X,XI.K.I.I.6X6X6X6X6X",
">XK.K.I.I.I.I.I.I.I.I.I.I.I.I.K.Q.6X6X6X6X6X6X6X6XrX*XK.I.I.Q.9X9X6X6X6X(.H.I.I.>X9X6X9XQ.D.I.I.H.`.wX6X6X6X>XD.K.I.K.(.6X6X6X6X6X6X6X6X6X>XD.H.b < t t t t 2 < t > E K.z.c.c.c.z.B.S.t.1.1.3.` 8XfXz.`.rX6X6X6X6X6X`.I.I.I.D.D.5X6X6X6X6X6X6X6X6X6X|.I.I.I.I.I.I.I.I.I.I.`.6XwX6X6X6X6X6X6X6X6X6X6X(.I.I.I.I.I.I.I.I.(.6X9X6X6X6X6X6X6X6X6X6X6X6X6X'.I.I.I.I.I.I.I.I.I.I.Q.6X6X6X6X6X6X6X6X6X6X6X6X6X6X9X`.Y.Y.I.`.6X6X6XeXM.o t < 2 2 0 7.S.c.S.y.3.1.1.>.r.c.c.z.c.c.c.c.c.c.c.z.kXFXZXDXdX6XQ.H.I.I.I.K.`.rX6X6X6X6X6X6X6X6X6X6X9X,XI.I.K.I.I.6X6X6X6X6X6X6X6X6X6X6X!.K.I.I.I.I.I.I.I.I.I.K.Q.6X6X6XrX>XI.H.`.6X6X6X6X6X6X6X6X6X(.H.(.6X6X6X6X6X6X6X6XwX(.H.I.I.I.I.D.|.wX6X6X6X6X6XwX`.I.Y.D.sXK ; w T C.B.S.S.p.1.1.1.1.r.S.S.D.z.Q.AXAX9X6X6X6X9X9XQ.D.I.I.I.K.Q.6X6X6X6X6X6X6X6X9X6XK.K.K.Y.6X6X,X6X6X6X6X6X6X6X(.H.I.I.I.I.Q.6X6X6X6X6X6X6X6X6XQ.H.I.I.I.I.I.I.I.I.I.I.I.I.I.I.I.I.I.I.I.I.I.I.I.I.I.I.I.I.I.I.Q.>X6X6X6X6X6X9X6X,XQ.K.I.K.I.K.(.6X6XwXQ.l < t t t < F h.>.>.t.S.B.S.S.S.r.mXFXAXrX|.rX6X,XK.I.I.H.Q.6X X6X6X6X6X6X,XD.I.I.I.6X6X6X6X6X",
"'.D.I.I.I.I.I.I.I.I.I.I.I.I.I.K.Q.6X6X6X6X6X6X6X6XrX*XH.I.I.Q.9X9X6X6X6XQ.H.I.I.,XwX6X9XQ.D.I.I.S.`.wX6XwXwX>XK.K.I.I.Q.6X6X6X6X6X6X6X6X6X>XD.H.b < t t t 2 t 2 t & T K.z.c.c.c.z.B.S.t.>.1.1._ 8XgXz.`.9X6X6X6X6X6X`.K.I.I.I.D.|.0X6X6X6X6X6X6X6X7X|.A.I.I.I.I.I.I.Y.K.I.,XwX6X6X6X6X6X6X6X6X6X6X(.H.I.I.I.I.I.I.I.G.6X6X6X6X6X6X6X6X6X6X6X6X6X6X'.I.I.I.I.I.I.I.I.I.I.I.*X6X6X6X6X6X6X6X6X6X6X6X6X6X6X9XQ.Y.I.D.|.wXoX6XrXM.o t < 2 2 0 7.S.z.S.y.3.1.1.>.6.c.S.S.S.c.c.c.S.S.S.S.kXFXAXFXdX6XI.H.I.I.I.K.`.rX6X6X6X6X6X6X6X6X6X6X6X6XI.I.K.I.K.6X6X6X6X6X6X6X6X6X6X9X`.K.I.I.I.I.I.I.I.I.I.K.Q.6X6X6XrX>XI.H.`.6X6X6X6X6X6X6X6X6X(.I.(.6X6X6X6X6X6X6X6XwX(.H.I.K.I.I.D.>X6X6X6X6X6X6XwX`.Y.P.D.sX) < w S C.z.B.S.c.1.1.1.1.r.c.S.D.z.Q.AXAX9X6X6X6X9X9XQ.D.I.I.I.K.I.6X6X6X6X6X6X6X6X6X6XK.K.K.I.6X6X,X6X6X6X6X6X6X6XI.I.I.I.I.H.`.eX6X6X6X6X6X6X6X6XI.H.I.I.I.I.I.K.I.I.I.I.I.I.I.I.I.I.I.I.I.I.I.I.I.I.I.I.I.I.I.I.D.).6X6X6X6X6X6X9X9X*XI.I.I.I.I.I.|.6X6X:Xb < t t t < F h.>.>.p.S.S.S.S.S.r.mXFXAXrX|.rX6X,XK.I.I.H.(.6X,X6X6X6X6X6X,XK.I.I.I.9X6X6X6X6X",
"`.I.I.I.I.I.I.I.I.I.I.I.I.I.I.K.`.wX6X6X6X6X6X6X6XrX&XK.I.I.Q.9X9X6X6X6XI.K.K.I.6XwXwX>XD.I.I.I.S.`.wX6XwXwX>XK.K.I.I.Q.6X6X6X6X6X6X6X6X6X>XD.H.b < t t t t t t t & T K.z.c.c.c.B.B.S.p.>.1.1.` 8XgXc.(.9X6X6X6X6X6X|.I.I.I.I.D.'.9X6X6X6X6X9X9X6X7X|.I.I.I.I.I.I.I.I.K.9X6X6X6X6X6X6X6X6X6X6X6X`.I.I.I.I.I.I.I.I.`.,X6X6X6X6X6X6X6X6X6X6X6X6X6X`.I.I.I.I.I.I.I.I.I.I.H.(.9X6X6X6X6X6X6X6X6X6X6X6X6X6X6X`.I.I.I.`.6X6X6X6XeXa.o t < 2 2 0 7.S.z.c.y.3.1.1.>.] c.S.S.S.S.z.c.S.S.S.S.kXFXAXFXdX,XD.H.I.I.I.K.`.rX6X6X6X6X6X6X6X6X6X6X6X,XI.I.I.I.D.>X9X6X6X6X6X6X6X6X6X9X5XI.I.I.I.I.I.I.I.I.I.K.(.6X6X6XwX>XI.H.Q.rX6X6X6X6X6X6X6X6XI.I.(.6X6X6X6X6X6X6X6XwX(.H.I.K.I.I.K.>X9X6X6X6X6X9X6XI.Y.P.Q.sX) < w M C.S.S.S.c.r.>.1.3.1.c.S.S.z.W.AXAXrX6X6X6X9X9X).D.I.I.I.I.I.6X6X6X6X6X6X6X6X6X|.H.K.K.Q.wX6X6X6X6X6X6X6X6X>XK.I.I.I.I.K.>X6X6X6X6X6X6X6X6X6XI.H.I.I.I.I.I.K.I.I.I.I.I.I.I.I.I.I.'.6X(.K.I.I.K.I.I.I.I.I.I.I.I.D.|.6X6X6X6X6X6X9X9XQ.K.Y.I.I.S.(.6XoX6XF < t t t < F h.>.>.p.S.S.S.S.S.r.mXFXAXrX|.rX6X,XH.I.I.K.`.6X X6X6X6X6X6X>XK.I.I.I.9X6XoX6X6X",
"(.I.I.I.I.I.I.I.I.I.I.I.I.I.I.I.>X6X6X6X6X6X6X6X6XrX&XK.I.I.Q.9X9X6X6X,XI.K.K.I.,X6XwX>XD.I.I.I.S.`.wX6XwXwX>XK.K.I.I.Q.6X6X6X6X6X6X6X6X6X>XD.H.b < t t t t t w t > T D.z.S.S.S.S.B.S.p.>.1.1._ 3XgXc.Q.9X6X6X6X6X6X>XI.I.I.I.S.(.9X6X6X6X6X9X9X6X6X|.I.I.I.I.I.I.I.I.>XrX6X6X6X6X6X6X6X6X6X6X(.K.K.I.I.I.I.K.I.|.6X6X6X6X6X6X6X6X6X6X6X6X6X>X(.I.I.I.I.I.I.I.I.I.I.H.I.6X6X6X6X6X6X6X6X6X6X6X6X6X6XwX,XI.I.K.I.5X6X6X6X6XrXa.o t 1 2 2 t 7.S.c.S.y.1.1.1.>.] c.S.S.c.c.z.c.c.c.c.z.kXFXAXFXvX,XD.H.I.I.I.K.`.rX6X6X6X6X6X6X6X6X6X6X6X6XQ.I.I.I.D.>X9X6X6X6X6X6X6X6X6X9X6XI.I.I.I.I.I.I.I.I.I.D.(.6X6X6XwX6XI.H.Q.6X6X6X6X6X6X6X6X6XI.I.(.6X6X6X6X6X6X6X6XwX(.H.I.I.I.I.K.>X9X6X6X6X6X9X,XK.Y.P.Q.sX) < w n B.S.S.S.S.y.>.3.3.>.p.S.S.z.W.AXAXrX6X6X6X9X9X`.D.I.I.I.I.I.6X6X6X6X6X6X6X6X6X`.H.U.K.(.wX6X6X6X6X6X6X6XwX|.H.I.I.I.I.I.5XwX6X6X6X6X6X6X6X6XI.I.I.I.I.I.I.I.I.I.I.I.I.I.I.I.I.I.5X6X6XI.I.I.I.I.I.I.I.I.I.I.I.D.`.6X6X6X6X6X6X6X6X*XK.Y.I.I.H.I.6XoX6XD # t t t ; F t.>.>.p.S.B.S.S.B.r.mXFXAXrX|.rX6X|.H.I.K.K.`.6X,X6X6X6X6X6X>XK.I.I.I.9X6XoX6X6X",
"Q.I.I.I.I.I.I.I.I.I.I.I.I.I.I.I.6X6X6X6X6X6X6X6X6XrX&XK.I.I.Q.9X9X,X6X,XI.K.K.I.,XwXwX>XD.K.K.I.S.`.wX6XwXwX>XK.K.I.I.Q.6X6X6X6X6X6X6X6X6X>XD.H.b < t t t t t w t > T D.z.S.S.S.S.B.S.p.1.>.1._ <XgXc.Q.9X6X6X6X6X6X6XQ.D.I.I.S.Q.9X6X6X6X6X9X9X6X6X|.I.I.I.I.I.I.K.*X9X6X6X6X6X6X6X6X6X6X6X(.I.I.K.K.Y.I.K.(.>XwXwX6X6X6X6X6X6X6X6X6X6X6X>X(.I.I.I.I.I.I.I.I.I.I.I.D.>X7X6X6X6X6X6X6X6X6X6X6X6X6X6X6X(.K.I.K.`.6XwX6X6X6XrX*.o t 1 2 2 t 7.S.c.c.y.1.1.1.>.] c.S.S.S.c.c.c.c.c.c.z.kXFXZXFXjX>XI.H.I.I.I.K.`.rX6X6X6X6X6X6X6X6X6X6X6X6XQ.I.I.I.D.>X9X6X6X6X6X6X6X6X6X9X6XQ.I.I.I.I.I.I.I.I.I.D.`.6X6X6X6X6XQ.H.I.>X6X6X6X6X6X6X6X6XI.I.(.6X6X6X6X6X6X6X6XwX(.H.I.I.I.I.K.>X9X6X6X6X6X9X>XK.Y.P.).sX( < w c l.S.S.S.S.p.>.3.3.>.p.S.S.z.K.AXAXrX6X6X6X9X9X`.D.I.I.I.I.I.,X6X6X6X6X6X6X6X0X).H.Y.K.`.wX6X6X6X6X6X6X6XwX'.H.I.I.I.I.I.6X6X6X6X6X6X6X6X6X5XD.I.I.I.I.I.I.I.I.I.I.I.I.I.I.I.I.Q.6XoX6X>XK.I.I.I.I.I.I.I.I.I.I.I.Q.,X6X6X9X6X6X6X,X9XQ.I.I.K.K.H.|.6XrXD # t t t ; F t.>.>.p.S.S.S.S.S.t.MXFXAXrX|.9X6X|.H.I.K.K.`.6X,X6X6X6X6X6X>XD.I.I.I.9X6XoX6X6X",
"Q.K.I.I.I.I.I.I.I.I.I.I.I.I.I.Q.6X6X6X6X6X6X9X6X6XrX&XK.I.I.Q.9X9X6X6X,XY.K.K.Y.6X6XrX>XK.K.K.I.S.`.6X6X6X6X>XK.K.I.I.Q.6X6X6X6X6X6X6X6X6X>XI.H.b < t t t w t w t > I D.c.c.S.S.S.B.B.p.r.1.1.` <XgXc.I.5XwX6X6X6X6X6XQ.I.I.I.I.I.9X9X6X6X6X6X9X6X6X|.I.I.I.I.I.K.`.6X6X6X6X6X6X6X6X6X6X6X(.D.I.I.I.I.I.K.`.9XwX6X6X6X6X6X6X6X6X6X6X6X6X>X(.I.I.I.I.I.I.I.I.I.I.I.H.`.eX6X6X6X6X6X6X6X6X6X6X6X6X6X6X>XK.K.K.Q.6X6XwXeX6X6XrX*.o t 3 2 2 t 7.D.c.S.u.1.1.1.1.{ c.c.z.z.c.S.S.c.c.c.c.kXKXZXFXVX}.D.K.I.I.I.K.&X9X6X6X6X6X6X6X6X6X6X6X6X6XQ.I.I.I.D.|.9X6X6X6X6X6X6X6X9X6X9X(.K.I.I.I.I.I.I.I.I.K.`.6X6X6X6X6XQ.H.K.`.6X6X6X6X6X6X6X>XI.I.`.6X6X6X6X6X6X6X6XwX(.H.I.K.I.I.I.>X9X6X6X6X6X9X`.K.Y.P.`.sX/ < w 5 l.S.S.S.S.p.1.3.3.>.y.c.S.z.D.ZXAXrX,X6X6X9X9X`.D.I.I.I.I.I.|.wX6X6X6X6X6X6X9X).H.U.K.`.wX6X6X6X6X6X6X6XrX`.I.I.I.I.Y.Q.6X6X6X6X6X6X6X6X6X|.D.I.I.I.I.I.I.I.I.I.I.I.I.I.I.I.I.(.6XoXwXeX`.K.I.I.I.I.I.I.I.I.I.I.D.`.9X6X6X6X6X9X6X6X|.I.I.I.I.H.(.6XrXD # u t t ; F t.>.>.t.S.z.S.S.B.c.MXFXAXsX|.rX6X|.H.I.K.K.`.6X,X6X6X6X6X6X>XD.I.I.I.6X6X6X6X6X",
"I.K.I.I.I.I.I.I.I.I.I.I.I.I.K.`.6X6X6X6X6X6X6X6X6X9X&XK.I.I.Q.9XwX,X6X XQ.D.D.Q.wXwXwX>XD.I.I.I.S.`.6X6X6X6X>XI.K.I.I.G.6X6X6X6X6X6X6X6X6X>XD.H.b < t t t w t w t > I D.c.c.S.S.S.S.C.c.r.>.1.` <XcXS.I.>XwX6X6X6X6X6X).I.I.I.K.I.>X9X6X6X6X9X9X6X6XOXI.I.I.I.K.`.9X6X6X6X6X6X6X6X6X6X6X(.D.I.I.I.I.K.S.).6X6X6X6X6X6X6X6X6X6X6X6X6X6X>X(.I.I.I.I.I.I.I.I.I.I.I.I.(.6X6X6X6X6X6X6X6X6X6X6X6X6X6X9X9XI.I.H.K.>X9X6X6X6X6X5XrX^ o t 3 2 2 t 7.S.z.S.e.1.1.1.>.] c.c.z.z.c.S.c.c.c.S.z.kXKXZXZXFXrXx.H.I.I.I.I.>XrX6X9X9X6X6X6X6X6X6X6X6X6X(.I.I.I.D.'.9X6X6X6X6X6X6X6X6X9X9X&XK.I.I.I.I.I.I.I.I.K.(.9X6X6X6X0X(.I.H.(.9X6X6X6X6X6X6X>XI.I.*X9X9X9X6X6X6X6X6XwX(.I.I.I.I.I.Y.,XwX6X6X6X9XrX`.S.I.H.}.rX' ; t 5 nXS.S.S.S.H.>.1.3.>.3.c.S.z.D.BXAXsX,X6X6X9X9X>XD.K.I.I.I.I.|.wX6X6X6X6X6X6X9XQ.K.Y.K.|.wX6X6X6X6X6X6X6X9X`.H.I.I.I.I.(.6X6X6X6X6X6X6X6XwX|.D.I.I.I.I.I.I.I.I.I.I.I.I.I.I.I.I.(.6XoX6XwX6XQ.I.I.I.I.I.I.I.I.I.I.I.G.6X9X6X6X6X6X6X6X,XQ.K.Y.Y.H.I.|.rXD # u t t ; F t.>.>.t.S.z.S.S.B.c.MXFXFXsX|.9X6X}.H.I.K.D.}.6X,X6X6X6X6X6X|.D.I.I.I.6X6X6X6X6X",
"I.I.I.I.I.I.I.I.I.I.I.I.Y.I.U.}.wX6X6X9X9X9X9X9X9X9X*XI.I.K.Q.9XrX6XrX,XI.I.K.Q.6X,XrX>XD.I.K.I.S.(.6X6X6X,X|.D.S.D.S.D.|.6X6X6X6X6X6X6X9X>XI.Y.b < t t t w t t t > P D.z.c.c.c.S.S.S.c.r.>.1.` -XcXS.I.>XwX6X6X6X6X6X`.I.I.I.K.H.*XrX6X6X6X6X6X6X9XoXI.Y.I.I.'.9X6X6X6X6X6X6X6X6X6X6X(.K.I.I.I.I.I.K.`.wX6X6X6X6X6X6X6X6X6X6X6X6X6X>XQ.Y.Y.I.I.I.I.I.I.I.I.I.I.D.5X6X6X6X6X6X6X6X6X6X6X6X6X6X6X9X(.S.I.S.(.9X6X6X6X6X6X6XeXQ & t 3 2 t t 7.D.z.S.r.1.1.1.>.] p.S.z.S.S.S.S.c.c.c.D.BXFXAXAXZXZXrXQ.S.D.D.D.`.9X,X,X,X,X,X,X,X,X,X,X6X6XI.S.H.H.S.`.9X6X6X6X6X6X6X6X6X6X9X&XH.H.H.H.S.H.S.S.H.S.Q.9X,X9X9X9XQ.H.H.I.,X6X6X6X6X,X6X>XI.H.`.9X6X6X6X6X6X,X,X,XI.c.S.c.S.S.K.}.,X,X,X,X6X9XQ.S.Y.H.{.sX6.# t 4 r.S.c.c.S.S.1.1.1.>.1.c.S.c.D.BXAXsX,X6X6X6X9X>XD.I.I.I.I.K.|.rX6X6X6X6X6X6X9XQ.H.I.K.>XwX6X6X6X6X6X6X6XrX(.H.I.I.I.I.`.wX6X6X6X6X6X6X6XwX'.D.I.I.I.I.I.I.I.I.I.I.I.I.I.I.I.I.(.6X6X6X6X6X6XI.I.I.I.I.I.I.I.I.I.I.D.*X9X6X6X6X6X6X6X9X`.K.Y.Y.I.H.(.rXQ # u t t ; F r.>.>.p.S.S.S.S.c.c.MXFXFXrX|.rX6X}.H.I.K.D.|.6X6X6X6X6X6X6X|.D.K.K.Q.6X6X6X6X6X",
"I.I.I.I.I.I.I.I.I.I.I.I.Y.Y.U.`.6X6X6X9X9X9X9X9X9X9X(.S.H.H.I.6X6X,XrX}.p.H.H.Q.1X1XrX>XD.D.K.Q.Q.`.rXrXwXrXrX*X*X>X*X>XrXrXrX0X0X9X6X9X1X^.m.5.u < t t t t t t t > S D.z.c.c.c.c.c.B.S.r.>.1.` -XcXS.K.'.wX6X6X6X6X6X|.I.I.I.I.H.`.9X9X6X6X6X6X6XrXeXT.I.I.(.0X6X6X6X6X6X6X6XwX6X9X`.I.I.I.K.K.I.I.*X9X6X6X6X6X6X6X6X6X6X6X6X6X6X>XI.H.Y.Y.Y.I.I.I.I.I.I.I.I.D.`.6X6X6X6X6X6X6X6X6X6X6X6X6X6X6XQ.S.Q.D.Q.9X6X6X6X6X6X6X6XeXI < t 3 2 t t 7.D.z.S.r.1.1.1.>.] p.S.c.S.S.S.S.c.S.t.>XAXAXAXZXZXZXFXVXgXsXaXaXsXdXdXdXgXgXkXdXdXdXdXdXdXrX8X*X*X*X>X1XsXaXsXsXsXsXsXsXsXsXaX1X(.(.&X(.(.(.(.`.`.`.>XrXrXsXaXrX>X(.(.`.9XrX9X9X9X9XrX9X(.&X<XsXrXrXrXsXdXdXdXdX9X<X<X<X<X<X<XdXdXdXsXsXrX9X`.(.Y.(.xX8XL - t 1 6.S.z.z.B.S.r.1.1.>.>.t.S.c.x.BXAXdX,X6X6X6X6X9XI.I.I.I.I.K.|.rX6X6X6X6X6X6X9XI.H.I.K.>XrX6X6X6X6X6X6X6X9XQ.H.I.I.I.I.`.wX6X6X6X6X6X6X6XwX`.S.I.I.I.I.I.I.I.I.T.I.I.I.I.I.I.I.'.6X6X6X6X6X6X>XI.I.I.I.I.I.I.I.I.I.I.Q.9X9X6X6X6X6X6X6X,XI.K.Y.I.I.I.rX$.# u t t < F i.>.>.p.S.S.B.S.z.c.BXFXAXsX>X9X9X|.H.I.I.D.|.6X,X6X6X6X6X9X}.D.D.K.Q.6X6X6X6X6X",
"I.I.K.H.H.H.H.H.H.H.H.H.H.H.H.|.wX6X6X9X9X9X9X9XrXrX>XQ.&X&X<XsXsXsXgXdXaXhXgXcXvXbXZXSXvXvXvXgXgXkXgXgXaXaX3X%X(.Q.H.I.`.`.`.`.(.Q.`.`.K.5.N 4 < < < < < w t t t > S D.z.c.S.S.c.S.B.S.r.>.1._ -XcXD.K.`.wX6X6X6X6X6X>XI.I.I.K.H.Q.9X9X9X9X9X6X6X6XeX'.I.(.5X6X6X9X6X6X6X6X6X6XwX`.K.Q.I.K.I.H.I.|.6X9X6X6X6X6X6X6X6X6X6X6X6X6X`.D.I.Y.Y.Y.I.I.I.I.I.I.I.I.S.(.6X6X6X6X6X6X6X6X6X6X6X6X6X6X6X(.K.Y.I.D.>X9X6X6X6X6X6X6X6X+XS w t 2 2 2 t 7.S.c.S.r.1.1.1.>.] p.S.c.c.c.c.c.c.c.D.kXFXAXAXZXZXZXZXAXFXFXFXFXFXAXFXFXFXAXAXAXAXAXAXAXAXAXAXAXAXAXAXAXAXFXFXFXFXFXFXFXFXFXAXAXZXZXZXZXZXDXFXFXFXFXFXDXFXFXFXFXFXFXFXFXDXDXDXDXFXDXDXFXZXZXFXZXZXZXbXvXvXcXcXcXrX,X,X>X&X&XrX,X>X>X>XY.u.y.i.6.i.].Q.m ; t t 3 6.S.z.z.S.S.r.1.1.1.>.r.S.c.z.vXFXdX,X6X6X6X6X6XQ.I.I.I.I.K.`.rX6XwX6X6X6X6X9XI.K.I.K.>XwX6X6X6X6X6X6X6X9XQ.I.I.I.I.I.`.wX6X6X6X6X6X6X6X6X`.S.I.I.I.I.I.I.I.I.I.I.I.I.I.I.I.I.%X9X6X6X6X6X6X0X`.I.I.I.I.I.I.I.I.I.I.K.'.rX6X6X6X6X6X6X6X`.K.Y.K.I.S.9X&.O u t t ; F i.>.1.p.S.S.S.S.z.c.BXFXAXBX6X6X9X|.D.I.K.D.>XwX6X6X6X6X6X9X|.D.K.K.K.9X6X,X6X6X",
":X:X:X:X:X>X>X1X9X9XaXaXaXsXgXvXbXvXVXZXZXAXZXZXDXFXFXFXGXFXDXDXZXAXSXSXNXmXMXfXaXpX-X;XP.s.s.p.I.`.`.`.(.H.1.;.;.` ..K.I.K.Q.Q.Q.`.%Xi.T 5 4 t t w t t t t t t t > V S.z.c.c.S.c.c.B.S.t.1.1._ -XcXD.K.Q.6X6X6X6X6X6X5XQ.K.I.K.H.K.>X9X6X6X6X6X6X6X6X6X'.5X6X6X6X9X9X6X6X6X6X6X>XS.I.I.I.K.I.Q.>X6X6X6X6X6X6X6X6X6X6X6X6X6X6X(.S.K.Y.Y.Y.H.I.I.I.I.I.I.I.H.Q.6X6X6X6X6X6X6X9X9X6X6X6X6X6X9XQ.H.I.I.D.}.rX6X6X6X6X6X6X6X6X+XF w t 2 2 2 t 7.S.z.B.r.1.1.1.>.] p.S.c.c.c.c.S.S.t.>XAXAXZXZXZXZXZXDXZXZXAXAXAXAXAXAXAXAXAXAXAXFXFXFXFXFXFXFXFXFXFXFXFXFXFXFXAXAXAXAXAXAXAXAXAXAXAXZXAXVXVXBXBXvXkXMXSXBXMXBXfX8XiX8X8X0XsXrX9X9X9X(.S.S.H.*X&X`.`.(.(.(.(.`.H.] ` ` ` ] c.K.Q.Q.Q.j.>.>.1.:.r.-Xm.t - t 2 t > ' S.z.z.z.S.t.1.1.1.>.r.S.c.z.kXFXdX,X6X6X6X6X9XQ.K.I.I.I.I.`.rXwX6X6X6X6X6X9XI.K.I.K.,X9X6X6X6X6X6X6X6X9XQ.I.I.I.I.I.'.6X6X6X6X6X6X6X6X6X(.S.I.I.I.I.I.I.K.I.I.I.I.).'.'.'.*X>X9X9X6X6X6X6X9X5X(.I.I.I.I.I.I.I.I.I.I.Q.6X9X6X6X6X6X6X6X5XI.I.I.I.S.*X&.O u t t ; F i.>.>.p.S.S.z.S.z.K.SXFXAXAXvX9X9XQ.S.H.K.D.|.6X,X,X6X6X6X9X`.D.D.K.Q.9X6X6XrXrX",
"AXFXFXFXFXFXFXFXFXKXKXLXKXKXKXFXFXFXAXAXZXBXvXvXkXrX>X`.!.}.}.).}.W.6.] _ r.Q.Q.Q.s.;.,.;.1.;.H.Q.Q.(.&XY.r.>.3.3.d.(.(.Q.Q.Q.Q.^.m.~ c 1 t t t < < t t t t t t t < N S.z.z.S.S.c.c.B.S.t.>.1.` -XvXK.K.Q.6X6X6X6X6X6X6X(.K.I.K.K.K.>X9X6X6X6X6X6X6X6X6XeX6X6X7X6X6X9X6X6X6X6X6XK.S.I.I.K.I.I.|.wX6X6X6X6X6X6X6X6X6X6X6X6X6X(.S.K.Y.Y.I.H.Y.Y.I.I.I.I.I.I.I.6XrX6X6X9X6X9X9X9X9X6X6X6X6X6XQ.K.I.S.I.`.rX9X6X6X6X6X6X6X6X6XoXB i t t 2 2 t 7.S.z.B.r.1.1.1.1.] p.S.c.S.S.S.S.z.&XAXAXAXFXFXKXKXAXAXAXAXZXAXAXAXAXAXAXAXAXBXBXBXBXBXkXfXfX0XiXiXsXfXaXaXaX9X1X1X1X1X>X<X<XQ.c.c.p.t.t.r.r.....| | I.`.Q.(.(.e.` _ o...I.Q.Q.Q.(.H._ _ 1.g.(.(.(.(.(.(.(.%XH.3.3.3.1.>.P.(.%XQ.Q.H.1.3.y.3.r.%X5.< ; 0 t t t > ^ D.z.z.z.S.t.1.1.1.>.r.S.S.b.gXFXjX,X6X6X6X6X9XQ.K.I.I.I.I.`.rXwX6X6X6X6X6X9XK.K.K.K.,X9X6X6X6X6X6X6X6X9XI.I.I.I.I.I.|.6X6X6X6X6X6X6X6X6X(.K.I.I.I.I.I.I.I.I.I.Q.5XrX6X6X6X6X9X9X9X6X6X6X6X6X9X>XI.I.I.I.I.I.I.I.I.I.I.|.9X6X6X6X6X6X6X9X`.K.Y.Y.H.%X&.# u t t ; F i.>.1.p.S.S.c.S.r.&XAXAXFXAXFXZXsX>X>X>X>X,XdXdXdXdXvXvXvXkXkXkXBXBXVXZXbXbXZXZX",
"KXFXFXFXFXZXZXvXkXkXgX9X9X9X9X9X,X}.}.`.^.!.`.Q.t.] ` ` u.T.%X(.l.r.y.] c.(.(.(.I.1.3.y.1.r.H.%X(.Q.(.Y.y.>.3.3.u.I.(.(.Q.Q.`.Q.5.M 1 t t t < < w w t t t t t t t < N S.z.z.S.S.c.c.z.S.p.>.1._ -XBXK.K.I.,XwX6X6X6X6X6X`.K.I.K.K.K.&X9X6X6X9X6X6X6X6X6X6X6X6X6X6X6X6X6X6X6X9X`.K.I.K.Q.I.S.`.6X6X6X6X6X6X6X6X6X6X6X6X6X5XQ.K.K.K.K.K.K.I.I.I.I.I.I.I.K.I.,XrX6X6X6X6X6X6X9X9X9X6X6X6X9X(.S.I.I.D.Q.9XrX9X6X6X6X6X6X6X6X6XoXn i t t t 2 t 7.S.z.B.r.1.1.1.] ] p.H.S.S.S.c.D.rXAXAXFXAXdX`.Q.I.K.S.p.z.Q.`.`.`.`.`.`.`.`.Q.Q.(.I.u.1.1.1.` 1.H.Q.Q.Q.Q.Q.Q.Q.Q.Q.Q.I.K.p.{ } } } { { 1.2.2.1.e.H.*X%X(.%Xj.1.u.{ t.(.(.(.Q.`.I.{ e.e.p.(.(.&X(.Q.(.(.Y.p.>.>.y.y.1.H.Q.Q.Q.Q.H.r.1.1.1.d.T.~ ; t i w t t t < ~ K.z.z.z.B.t.1.1.1.>.r.c.D.b.gXFXkX,X6X6X6X6X9X`.K.I.I.I.I.Q.9XwX6X6X6X6X6X6XK.K.K.K.,X9X6X6X6X6X6X6X6X5XI.I.I.I.I.I.>X6X6X6X6X6X6X6X6X6XQ.K.I.I.I.I.I.I.I.I.Q. XeX6X6X6X6X6X6X9X9X6X6X6X6X6X6X9X'.I.I.I.I.I.I.I.I.I.I.Q.6X6X6X6X6X6X6X9X>XI.I.Y.I.(.^ # u t t ; D 0.>.1.p.H.S.S.S.t.aXFXZXZXZXFXDXDXDXDXDXDXDXFXDXDXDXDXFXFXFXKXKXFXKXFXFXDXFXFXKX",
":X&X%XU.P.s.y.y.8.,.:.[ K.Q.Q.Q.Q.Q.W.Q.Q.^.Q.r.3.3.>.H.).).`.K.>.3.1.H.(.(.(.H.r.1.3.3.r.H.(.(.(.(.I.u.1.3.,.1.I.(.(.(.].{.K.V < < t t 2 w t t < < 2 2 2 w t w t ; F S.B.S.S.S.S.S.S.S.p.r.r.` &XBXK.K.I.|.6X6X6X6X6X6X'.H.Y.Y.I.K.Q.6X6X6X9X9X6X6X6X6X6X6X6X6X6X6X6X6X6X6X`.I.I.K.K.I.S.Q.6X6X6X6X6X6X6X6X6X6X6X6X9X>XQ.K.I.I.I.K.K.I.I.I.I.I.I.I.I.Q.>XwXwX6X6X6X6X6X6X6X6X6XwXrX>XQ.S.I.I.S.Q.,X9X9X9X6X6X6X6X6X6X6XrX.X1 i t t t 2 t 7.S.z.B.e.1.1.1.1.] p.H.K.H.r.K.gXKXFXAXhXn.] _ ` ] >.` { S.Q.Q.Q.Q.Q.Q.Q.Q.Q.Q.Q.H.r.>.1.r.>.r.I.`.`.`.`.`.`.`.(.Q.`.`.I.u.1.r.3.u.y.3.y.1.3.1.r.Y.(.`.(.(.H.3.3.;.u.Q.(.Q.Q.(.Y.1.1.3.p.(.(.(.Q.(.`.(.H.>.` 1.1.1.1.K.(.Q.Q.(.H.1.1.1.>.u.j.S # t t < t t t w < T D.z.B.B.S.c.r.>.3.>.>.c.D.b.dXKXvX,X6X6X6X6XwX`.K.I.I.I.I.I.9X6X6X6X6X6X6X>XK.K.K.K.,X9X6X6X6X6X6X6X6X5XI.I.I.I.K.H.>XwX6X6X6X6X6X6X6XoXQ.K.I.I.I.I.I.I.I.I.'.rXwXoXwX6X6X6X9X9X9X6X6X6X6X6X6X6X6X(.I.I.I.I.I.I.I.I.I.I.|.wX6X9X6X6X6X6X9XQ.I.I.K.Q.^ - i t t < F 0.>.1.p.j.j.c.c.:XAXAXZXAXAXAXDXDXDXDXDXDXDXFXFXDXDXFXFXFXFXFXSXBXBXBXvXvXvXiX<X",
"_ _ _ >.>.-.>.>.,.8.y.Y.`.Q.Q.Q.Q.`.`.!.`.Q.r.>.3.1.S.(.(.`.S.>.3.1.H.(.Q.Q.Y.y.1.3.;.r.H.(.(.Q.(.I.y.1.3.3.y.Y.(.(.(.].%X%.5 > t t 2 < t t t t < 2 < < t w t w t ; F D.B.c.S.S.S.S.S.S.c.r.1.` &XBXK.I.I.|.wX6X6X6X6XwX>XK.Y.Y.K.K.Y.6X9X6X9X9X6X6X6X6X6X6X6X6X6X6X6X6X9X>XI.I.I.K.I.S.I.6X6X6X6X6X6X6X6X6X6X6X6X9X5XI.K.K.H.K.K.I.I.I.I.I.I.I.I.I.I.|.rXwX6X6X6X6X6X6X6X6X6X6X9X'.D.I.I.I.H.I.9X9X6X9X6X6X6X6X6X6X6X6XrX.X1 i t t 2 2 t r.S.z.B.e.1.1.1.r.] i.H.c.c.<XZXKXKXfXn._ >.1.3.y.;.] S.(.&X(.`.(.Q.Q.(.(.(.`.(.p.] >.r.y.>.p.I.`.^.(.Q.Q.Q.Q.Q.Q.Q.Q.c.>.1.r.1.1.1.1.1.1.3.>.] I.(.Q.Q.(.n.3.3.>.p.Q.(.Q.Q.&XY.1.3.1.r.Y.(.(.(.(.(.I.r.] 1.r.1.1.] S.`.`.Q.(.S.] 1.1.1.u.8.c < t t w t t t t t < I D.B.B.B.S.S.r.1.3.>.>.p.D.z.aXKXvX6X6X6X6X6XwX|.I.I.I.I.I.I.6X6X6X6X6X6X6X>XK.K.K.I.,X9X6X6X6X6X6X6X6X>XI.I.I.I.K.H.>XwX6X6X6X6X6X6X6X6XQ.K.I.I.I.I.I.I.I.I.>XrX6X6X6X6X6X6X6X6X6X6X6X6X6X6X6X6X9X>XQ.I.I.I.I.I.I.I.I.K.(.6X6X9X9X6X6X6X6X'.I.I.I.Q.%.> t t t < F 8.>.1.u.j.H.p.I.BXFXFXFXAXAXVXBXBXvXvXvXvXvXdXdXsXaXiX<XQ.H.p.K.`.^.^.Q.`.p.' ' ",
"3.3.y.y.y.3.3.3.,.y.H.(.Q.Q.Q.Q.Q.Q.Q.`.I.r.1.3.1.H.(.Q.(.c.1.3.1.H.`.Q.Q.I.r.3.3.>.>.H.(.(.(.Q.I.y.>.3.1.y.I.(.(.(.(.b.j < t t t < < 2 t 2 t t t t t t t t t w t ; F D.z.c.c.c.c.c.c.S.c.r.r.` &XSXK.I.I.`.wX6X6X6X6XwX>XK.Y.Y.K.K.K.>X9X6X9X6X6X6X6X6X6X6X6X6X6X6X6X6X6XQ.H.I.I.I.D.D.>X6X6X6X6X6X6X6X6X6XoX6XrX6XI.K.H.H.H.K.I.I.I.I.I.I.I.I.I.I.'.6XwX,X6X6X6X6X6X6X6X6XrX6X(.S.I.I.I.S.I.9X9X6X9X9X6X6X6X6X6X6X6X6XrX.X1 i t 1 2 2 t r.S.z.B.e.1.1.1.] 1.p.p.K.gXKXFXgXK.>.` >.1.;.1.>.u.I.(.(.Q.(.(.(.(.Q.(.(.(.Y.u.;.1.1.>.r.H.Q.`.^.Q.^.^.^.^.Q.Q.(.Q.r.1.1.1.1.1.1.1.1.1.1.1.1.I.`.Q.Q.Q.s.3.3.;.p.Q.!.Q.(.`.K.1.3.1.y.Y.Q.Q.Q.Q.(.H.r.>.1.1.1.r.] S.`.Q.(.(.p.1.1.;.1.y./ 6 ; t t t t t t t t t < L D.B.B.B.S.S.r.1.3.>.>.t.D.z.aXKXvX6X6X6X6X6XwX,XI.I.I.I.I.I.>X6X6X6X6X6XwX>XK.K.I.I.,X9X6X6X6X6X6X6X6X>XI.I.I.I.K.H.>XwX6X6X6X6X6X6X6XoXQ.K.I.I.I.I.I.I.K.Q.9XwX6X6X9X6X6X6X6X6X6X6X6X6X6X6X6X6X6X6X|.I.I.I.I.I.I.I.I.I.I.|.wX9X6X6X6X6X6X6XQ.K.I.Y.*.> t t t < n 8.>.1.u.H.p.K.BXFXAXgX1X&Xc.r.r.| t.Q.Q.Q.Q.Q.Q.Q.Q.c.] ] ` r.Y.(.(.Q.`.K.>.>.>.",
"y.3.,.,.,.3.3.3.y.H.(.(.(.(.Q.Q.Q.(.(.I.r.1.1.1.H.(.(.(.p.>.>.3.I.(.Q.Q.I.y.,.3.3.1.H.Q.Q.(.Q.I.u.1.3.3.y.K.I.(.'.I.Q 2 ; t t < < < < 2 2 2 t t t t t t t t t t t < F S.z.c.z.c.c.c.c.S.S.r.1._ &XSXK.I.I.(.rX6X6X6X6XwX,XK.U.I.K.K.K.>XrX6X6X6X6X6X6X6X6X6X6X6X6X6X6X9X(.I.I.K.I.I.D.>X6X6X6X6X6X6X6X6X6X6X6XwX6XQ.H.H.H.H.Y.Y.I.I.I.I.I.I.I.I.I.`.6XwX,X6X6X6X6XrX6X6X6X6X5XI.I.I.I.I.I.K.1X9X6X6X6X9X9X6X9X6X6X6X6X6XrX!.* i t 1 2 2 t r.S.z.S.e.1.1.1.1.] r.:XFXLXcXQ.>.;.1.y.1.1.1.1.H.(.(.(.Q.Q.Q.(.Q.(.`.(.(.H.1.1.3.1.>.r.K.^.!.Q.Q.Q.Q.Q.Q.Q.^.`.K.r.>.>.1.r.1.1.1.1.1.1.;.1.Y.(.Q.Q.(.p.3.3.,.p.Q.Q.Q.`.(.H.r.,.;.3.Y.%XQ.Q.(.K.y.>.1.1.>.1.1.1.S.`.Q.Q.Q.g.1.1.3.u.1.S 3 t t t t t t t t w w t < V S.B.B.B.B.S.t.1.3.1.>.r.D.z.rXKXVX6X6X6X6X6X6X6XI.I.I.I.I.I.>X6X6X6X6X6XwX>XK.K.I.I.,X9X6X6X6X6X6X6X6X>XI.I.I.I.I.H.>XwX6X6X6X6X6X6X6X6XQ.K.I.I.I.I.I.I.D.(.rX6X6X6X9X9X6X6X6X6X6X6X6X6X6X6X6X6X6X6X6X`.I.I.I.I.I.I.I.I.K.`.wX9X6X6X6X6X6XrX`.K.I.Y.8.< t t t < n 8.>.1.u.H.K.BXFXBX<X(.Y.u.} 1.{ t.Q.(.(.Q.Q.Q.Q.&XI...] ] i.%X`.Q.Q.(.K.r.>.1.1.",
"3.3.3.>.,.3.,.r.n.Q.(.(.(.(.(.Q.Q.(.I.1.1.1.>.H.Q.(.(.p.1.1.r.I.`.Q.Q.I.y.;.3.3.1.c.Q.Q.Q.Q.I.y.1.3.3.1.I.(.(.U.*.x > 2 t t < < < < 2 t t t t < < < t t t w w w t < n S.B.c.c.S.S.c.S.S.S.t.r._ &XBXK.I.K.Q.6X6X6X6X6X6X6XI.K.I.K.K.H.`.rX6X6X6X9X6X6X6X6X6X6X6X6X6X0X*XD.I.K.K.I.D.`.9X6X6X6X6X6X6X6X6X6X6X6X>XD.S.I.K.K.I.Y.I.I.K.I.K.I.I.I.K.`.6XwX,X,X6X6X6X6X6XwXwX9X>XI.I.I.I.I.I.I.5X9X,X,X6X6X6X6X6X6X9X6X6X9X6XrXG.& i t 3 2 2 t r.S.z.c.p.1.1.1.[ r.aXKXSX&Xr.` 1.3.1.1.1.1.u.Y.%X(.Q.(.(.(.(.Q.Q.Q.Q.(.j.1.1.3.1.>.r.Q.Q.Q.Q.Q.Q.!.Q.!.Q.Q.Q.n.>.>.1.>.1.3.>.1.1.1.y.1.r.I.(.Q.Q.Y.p.3.3.>.p.Q.Q.Q.^.(.s.3.3.1.y.Y.(.Q.%XY.s.1.3.1.>.>.3.1.1.S.`.Q.Q.Q.p.{ 1.1.2.:.x - < t t t t t t t t w w t < M c.B.S.S.B.S.t.1.3.1.>...D.z.1XKXVX6X6X6X6X6X6X9XQ.D.I.I.I.I.'.wX6X6X6X6XwX|.D.K.I.I.6X9X6X6X6X6X6X6X6X>XI.I.I.I.I.I.>XwX6X6X6X6X6X6X6X6XQ.D.I.I.I.I.I.I.D.(.0X,X6X9X9X6X6X6X6X6X6X6X6X6X6X6X6X6X6X6X9X5XQ.I.I.I.I.I.I.I.I.Q.6X6X6X6X6X6X6X9X>XI.I.Y.a.> t t t < n 8.1.1.r.H.BXKXkX`.Q.Q.s.>.r.r.p.Q.(.Q.Q.Q.Q.(.(.K.| ] ] r.(.(.(.Q.(.I.r.1.1.1.1.",
">.3.3.>.,.>.>.p.I.(.Q.Q.Q.Q.Q.Q.(.I.{ ] ] { H.(.(.(.p.] ` r.Y.(.Q.(.I.i.8.8.y.y.H.*X`.*X*X(.t.3.y.y.y.Q.&X&X0.m & w t t t w t w w w t t t t t w 2 < t t t t t t t < F S.S.c.c.S.c.z.c.S.S.p.r._ %XSXK.K.K.I.6XwX6X6X6X6XwXQ.K.I.K.K.H.`.9X6X6X6X9X6X6X6X6X6X6X6X6X0X5XD.I.I.K.K.K.D.>X6X6X6X6X6X6X6X6X6X6X6X>XI.K.I.H.K.I.I.I.K.I.I.I.I.I.I.I.`.6XwX6X,X,X6X6X6X6X6X6X6X`.I.I.I.I.I.I.I.5X9X,X,X,X6X6X6X6X6X6X6X6X6X9X6XrXG.& u t 1 2 2 t r.S.c.S.p.1.` [ K.SXKX1X6._ 1.1.1.1.1.1.1.g.%X%XQ.Q.(.Q.Q.(.(.Q.(.(.H.y.1.3.3.1.r.H.Q.(.Q.Q.Q.Q.Q.`.Q.Q.`.K.y.;.1.3.3.1.>.>.>.1.1.1.>.p.(.(.Q.(.Y.r.1.3.1.H.(.Q.Q.`.Q.p.3.3.>.p.%X`.Q.&XK.r.1.3.3.1.1.3.>.1.H.(.(.Q.Q.p.1.r.>.,.&.a ; t t t t t t t t t t w t t < M c.B.B.S.B.S.t.r.3.3.>...S.z.1XKXVX6X6X6X6X6X6X9X`.D.I.I.I.I.`.wX6X6X6X6XwX|.D.K.I.I.6X9X6X6X6X6X6X6X9X>XI.I.I.I.I.I.>XwX6X6X6X6X6X6X6X6XQ.K.I.I.I.I.I.I.S.`.6X6X6X6X6X6X6X6X6X6X6X6X6X6X6X6X6X6X6X6X6X9X*XI.I.I.I.I.I.I.I.D.|.6X6X6X6X6X6X6X6XQ.K.Y.0.4 t t t < n y.3.] r.VXAX9XQ.&XY.y.] r.>.p.(.(.(.(.(.(.(.*XK.| 6.| r.(.`.(.(.(.(.t.1.1.1.1.1.",
"1.1.>.,.,.>.s.Q.(.(.&X`.(.`.`.`.I.r.r.r.p.].xX*X-Xp.6.6.i.%X%X;X%XY.6.%.5.^ ^ 6.p.t.r.6.] _ L W H L K K L k < w t t t t t w w w t t t t t t t t 2 2 t t 2 t t t t < Z c.S.c.c.S.c.z.z.z.S.S.e._ %XZXI.K.I.I.,XwX6X6X6X6XwXQ.K.I.I.I.H.Q.9X9X6X6X6X9X9X9X6X6X9X6X6X6XI.I.I.I.I.K.K.Q.6X6X6X6X6X6X6X6X6X6XwX|.I.I.I.K.K.I.I.I.I.I.I.I.I.I.I.S.'.9XwXwX6X6X6XrXrX,XrX9X>XQ.K.I.I.I.I.I.Q.6X6X6X6X6X6X6X6X6X6X6X6X6X9X9X9X6XsXx.& u t 1 2 2 t 7.S.c.S.p._ 1.iXHXsXc.' >.1.1.3.3.1.1.1.I.(.(.(.Q.Q.Q.Q.(.(.Q.Q.Q.c.>.1.1.1.>.r.I.&XQ.Q.Q.Q.Q.(.(.(.`.Q.p.r.>.3.1.1.1.>.>.1.1.1.1.;.p.Q.Q.(.(.S.r.1.>.y.I.`.`.Q.Q.Q.y.,.,.3.n.(.Q.Q.Q.p.r.1.1.3.;.1.1.1.>.S.(.(.(.Q.t.>.r.1.,.W w 9 t e t t t t t t t t t w w t < n c.B.B.S.B.S.z.r.1.3.>.] c.z.>XKXVXwX6X6X6X6X6X9X`.I.I.I.I.I.(.wX6X6X6X6XwX|.D.I.I.I.6X9X6X6X6X6X6X6X9X>XI.I.I.I.I.I.>XwX6X6X6X6X6X6X6X6XQ.K.I.I.I.I.I.I.D.5X6X6X6X6X6X6X6X6X6X6X6X6X6X6X6X6X6X6X6X6X6X6X6X(.I.I.I.I.I.I.I.D.(.6X6X6X6X6X6X6X6X|.D.Y.0.4 t t t < F y.;.r.gXcX).W.(.Y.r.>.>.>.s.(.(.(.Q.Q.(.(.].I.>.>.>.r.(.(.Q.(.(.(.r.>.1.>.1.>.>.",
"e.r.1.y.>.p.(.].(.K.I.K.n.n.m.7.) T Y T %.:.~ ~ Y N M n S S B M n x l t t t t 9 < ; ; % % ; 9 < ; ; ; ; ; < t t t t t t t w w w w w t t t t t 2 2 2 t t 2 t t t t < Z c.S.c.c.c.c.z.z.z.c.S.t._ %XZXI.K.I.K.|.wX6X6X6X6X6X`.K.K.K.I.H.I.9X9X6X6X6X9X9X9X6X6X6X6X9X(.I.I.I.I.I.D.I.|.9X6X6X6X6X6X6X6X6XwX|.I.K.K.K.K.K.I.I.I.I.I.I.I.I.I.I.`.6X6X6X6X6X6X6X,XwXrX6X`.I.I.I.I.I.K.S.Q.6X6X6X6X6X6X6X6X6X6X6X6X6X6X9X6X9X6XdXb.* u w 1 2 2 t 7.S.c.S.e.S.vXkXQ.| >.1.1.1.1.1.1.;.u.Y.(.(.Q.(.(.Q.Q.Q.Y.(.(.H.y.1.>.3.3.` p.Q.^.Q.Q.Q.Q.Q.Q.(.`.`.I.y.>.>.1.1.3.3.1.1.1.1.3.1.>.c.(.Q.(.Q.u.>.1.>.1.I.(.(.^.(.H.3.3.3.y.H.&XQ.Q.I.p.1.1.1.3.;.;.1.1.1.K.(.I.(.I.r.' >.1.,.N 9 t t t t t t t t t t t t t < < t < b c.B.B.B.B.S.c.r.1.3.>.] t.z.:XFXZXrX,X6X6X6X6X6X|.I.I.I.I.I.(.wX6X6X6X6X6X>XK.K.I.I.6X6X6X6X6X6X6X6X9X>XK.I.I.I.I.I.>XwX6X6X6X6X6X6X6X6XQ.K.I.I.I.I.I.I.Q.6X6X6X6X6X6X6X6X6X,X>X6X6X6X6X6X6X6X6X6X6X6X6X6X>XI.I.I.I.I.I.I.I.Q. XwX6X6X6X6X,X6X6XI.Y.a.4 t t t < F ,.r.sXsXQ.Q.(.I.,.>.3.;.g.(.(.I.I.Q.Y.T.(.I.>.y.>.t.(.`.`.`.`.`.t.| r.r.r.y.y.y.",
"A A M n n c c a 5 3 3 3 3 1 > > 1 1 1 1 & & + & & < > > & # & & # < w t t t t t t t t t u t t t t t t t t t t w t t t e e w w w w w t t t t 2 2 t 2 2 2 2 t t t t < b c.B.S.S.S.c.z.z.z.c.S.p._ %XAXI.K.I.H.`.wX6X6X6X6X6X`.I.I.I.I.H.K.8X9X6X6X6X6X9X9X9X9X6X0X*XS.I.I.I.I.I.D.Q.6X6X6X6X6X6X6X6X6X6X|.I.K.I.K.K.K.K.I.I.I.I.I.I.I.A.I.>X6X6X6X6X6X6X6X,X,XrX,XQ.I.K.I.I.Y.I.H.).6X6X6X6X6X6X6X6X6X6X6X6X6X6X6X9X9X6X6XsX7.* u t 2 2 2 t r.S.z.S.9XkX<Xp.] 1.3.1.1.1.u.1.` e.Y.(.(.(.Q.(.`.`.Q.Q.(.Y.p.>.>.>.>.3.>.c.(.Q.Q.Q.Q.Q.Q.(.(.(.&XK.1.` 1.3.1.1.1.>.>.>.1.3.1.r.H.(.`.`.Y.1.>.3.` r.Y.Q.Q.(.Q.p.3.3.3.y.I.`.Q.(.K.r.>.y.1.1.1.3.3.1.r.Y.`.Q.(.I.r.6.' i.&.n < t t t t t t t t t t t t t t w < t < t r.B.B.B.B.B.S.e.1.3.>.>.r.z.:XFXZXrX,X6X6X6X6X6X,XI.I.I.I.I.Q.9X6X6X6X6X6X5XI.I.I.I.6X6X6X6X6X6X6X6XwX|.D.I.I.I.I.K.>XwX6X6X6X6X6X6X6X6XQ.K.I.I.I.I.I.I.).eX6X6X6X6X6X6X6X6X(.H.&X9X6X6X6X6X6X6X6X6X6X6X6X9X`.I.I.I.I.I.I.I.D.|.wX6X6X6X6X6X6X6X).Y.m.4 t t t < b r.0X9XQ.`.*XQ.i.y.y.y.Y.*X&X$X&X&X$XQ.Q.U.<.<.<.8.m.m.m.m.a.M.&.Y Q T T T P S A ",
"w w w w w w 9 w w w w t t t t t t t t w t t t t t t t t t t t t t t t t t t t t t t t t t t t w t t t t w w w w t t t t e w w w w w t t t t < < t 2 2 2 2 t t t t < b c.B.S.S.S.c.z.c.z.c.S.p._ %XAXI.K.I.H.).wX6X6X6X6X6X>XI.K.I.I.K.D.>X9X6X6X6X6X9X6X6X9X9X5XD.I.I.I.I.I.I.I.>X9X6X6X6X6X6X6X6XwX|.I.K.I.K.K.K.K.K.I.I.I.I.K.I.I.(.5XrX6X6X6X6X6X6X6X9X9X`.K.I.Q.I.I.I.H.I.&X6X6X6X6X6X6X6X6X6X6X6X6X6X6X6X9X9X9X6X>X9X^ * u t t t 2 t 7.c.I.0X8XQ.p.] 1.1.1.1.1.1.1.1.g.(.(.Q.(.Q.(.(.(.(.(.(.H.1.1.1.r.y.>.r.K.Q.Q.Q.Q.Q.Q.Q.Q.Q.(.Q.p.>.1.1.1.1.3.1.3.1.>.3.>.>.p.I.Q.(.Q.c.>.1.u.>.p.%XQ.Q.Q.H.y.3.,.3.s.Q.(.Q.(.c.>.3.1.>.3.1.>.>.>.y.Y.`.Q.Q.c.] >.>.8.E a < t t t t t t t t t t t t t t t w < t t t r.B.B.B.B.B.S.e.1.3.1.>.r.z.&XAXZXrX,X6X6X6X6X6X6XI.I.I.I.I.I.6X6X6X6X6X6X6XI.I.I.I.5X6X6X6X6X6X6X6XrX|.D.I.I.I.I.K.>XwX6X6X6X6X6X6X6X6XQ.K.I.I.I.I.I.I.).wX6X6X6X6X6X6XrX>XY.H.Y.*X6X6X6X6X6X6X6X6X6X6X6X6X6XQ.I.I.I.I.I.I.D.`.6X6X6X6X6X6X6X6X>XQ.m.1 w t t w b N.N.b.m.m.8.~ Y R W R / ~ T I I V V C C c a s 5 5 5 4 > > & > > < < < < < < w w ",
"t t t t t t t e t t t t t w w t t 1 w w < < 1 1 1 1 1 < < < < w t t t t t t t t t t t t t t t t t t t t w w w w t t e t e w w w w w w t t 2 2 < t t 2 2 w t t t t < b z.B.S.c.S.c.c.c.c.c.S.g._ %XAXQ.K.I.H.Q.6X6X6X6X6X6X>XI.K.I.I.I.H.'.9X6X6X6X6X6X6X6X9X0X(.S.I.I.I.I.I.D.Q.9X9X6X6X6X6X6X6X6X>XI.K.I.K.K.K.K.K.K.I.I.I.I.K.I.`.6X6X6X6X6X6X6X6X6X9X>XQ.K.K.I.I.I.I.H.I.>X6X6X6X6X6X6X6X6X6X6X6X6X6X6X6X6X6X9X6X6X>X<XT * u t t t 2 t c.*X8X&XI.u.2.e.1.1.1.1.3.1.u.I.`.Q.Q.Q.Q.(.(.(.Q.Q.H.y.;.;.>.;.>.;.6.K.^.Q.Q.Q.Q.Q.Q.Q.Q.Q.Q.u.>.>.>.1.1.>.>.>.>.,.,.>.>.p.K.Q.Q.H.r.;.1.>.>.H.`.Q.Q.Q.s.,.,.,.y.K.`.`.Q.I.p.>.,.y.3.>.3.1.>.3.p.%X`.`.`.D.r.6.r.6.W 5 ; t t t t t t t t t t t t t t t t t w t t < 7.S.z.B.B.B.S.p.1.1.3.>.| z.^.AXZXrX,X6X6X6X6X6X6X(.K.I.I.I.I.6X6X6X6X6X6X6XI.I.I.I.6X9X6X6X6X6X6X6XrX`.D.I.I.I.I.K.>XwX6X6X6X6X6X6X6X6XQ.K.I.I.I.I.I.I.|.6X6X6X6X6X6X6XrX,XY.H.Y.Y.`.6X6X6X6X6X6X6X6X6X6X6X9X>XI.I.I.I.I.I.I.Q.6X6X6X6X6XwX6X6X6XQ.m.3 < t t w t t t t w w w w w w w w $ q q q : : : q q 9 t t e w w t t t t t t t t t t t t t t ",
"t t w w t t t w t t t t t t t t t t t t t t e e t t e e t t t t t t t t t t t t t t t t t t t t t t t t t t w w t t e t t t t e t t t t t t w w t t t t w t t t t < b z.B.c.c.c.S.S.S.S.c.c.H.{ (.FXI.K.I.K.Q.6XwX6X6X6X6X,XQ.K.I.I.I.I.(.6X6X6X6X6X6X6X6X9X'.I.I.I.I.I.I.I.D.,XrX6X6X6X6X6X6X6X|.Q.K.I.K.K.K.K.I.I.I.I.I.I.I.I.'.6X6X6X6X6X6X6X6X6X6X`.K.H.K.K.I.I.I.H.Q.>XrX6X6X6X6X6X6X6X6X6X6X6X6X6X6X6X6X6X6X9X9XD.Q.I w u t t t t t *.0.0.5.^ ) ^ ^ ^ :.5.5.5.8.#X$X$X$X$X*X{.{.{.].I.H.i.r.r.r.r.6.r.g.T.{.{.{.{.{.{.'.'.*X(.S...........................e.I.%X(.(.h.....e...t.(.*X*X*XT.t.r.u.d.j.%X{.].].I.p.r.1.1.y.1.1.>.>.>.s.;X;Xm.m.,./ ~ R R n < 1 t t t t t t t t t t t t t t t t t t t t t < ' S.B.S.B.B.S.S.1.1.1.>.6.z.^.AXZXdX,X6X6X6X6X6X6X'.D.I.I.I.S.>X6X6X6X6X6X6XI.I.I.I.>X6X6X6X6X6X6X6XrX`.D.I.I.I.I.K.>XwX6X6X6X6X6X6X6X6XQ.K.I.I.I.I.S.I.6XoX6X6X6X6X6X6XwX,XY.H.Y.H.I.5X6X6X6X6X6X6X6X6X6X6X6X9X`.I.I.I.I.I.I.I.|.rX6X6X6X6X6X6X6X`.b.5 w t t t 2 < < < < w w t t t t t t t t u t t t t t t t t t t t t t w t t t w t t w t t t t ",
"t t w w t t t t t t w w w t t t t t t t t t t t t t t t t t t t t t t t t t t t t t t t t t t t t t t w w t t t t e e e t t t t t t t t w t t t e e t t t t t t t < b c.S.S.c.c.c.c.S.S.c.c.H...(.DXQ.K.I.K.I.,XwX6X6X6X6X6XQ.K.I.I.I.I.D.|.wX6X6X6X6X6X6X`.D.I.I.I.I.I.I.D.}.rX6X6X6X6X6X6X6X>XQ.K.K.K.K.K.H.K.I.I.I.I.I.I.(.>X9X6X6X6X6X6X6X6X6X6X`.K.I.I.K.I.Y.I.D.(.9X9X6X6X6X6X6X6X6X6X6X6X6X6X6X6X6X6X6X6X9X5XI.S.Q.I < u t t t t t > + > > > 4 4 4 3 5 5 h x c n n n n m N H L L V N N N V V P P S I ~ %.^ 5.8.5.5.5.5.%.%.~ Q T Y Q Q Q Q Q Q Q Q Q Q T *.a.8.%.Q I T T T T &.%.%.%.~ V L P P T +.Y W P L N c c c c c c s s s s s s 5 5 1 1 1 4 4 4 < 2 2 w t t t t t t t t t t t t t t t t t t t t < ( S.B.B.B.B.S.S.r.1.>.>.6.t.Q.AXAXdX,X6X6X6X6X6X6X|.D.I.I.I.S.>X6X6X6X6X6X6XQ.K.I.D.|.6X6X6X6X6X6X6XrX`.D.I.I.I.I.I.>XwX6X6X6X6X6X6X6X6XQ.D.I.I.I.I.S.I.6X6X6X6X6X6X6X6X6X,XY.H.K.I.I.`.6X6X6X6X6X6X6X6X6X6X6X6X9XQ.K.I.I.K.I.I.).rX6X6X6X6X6X6X6X,Xm.3 w t t t t t t t t t t t t t t t t w w w e t t e e w e t t w e w w t t t t t t t t t t t t ",
"t w w w t t t t t t w w t t t t w w t t t t t t t t t t t t t t t t t t t t t t t t t t t t t t t t t t t t t t t e e e t t t t t t t t w t t t e e t t t t t t t < b c.S.S.c.c.c.S.S.S.c.c.S...(.DXQ.K.I.K.I.>XwX6X6X6X6X6X(.K.I.I.I.I.I.(.6X6X6X6X6X6X(.I.I.I.I.I.I.I.H.(.rX6X6X6X6X6X6X6X6X`.D.K.K.I.K.K.I.I.Y.I.I.I.I.`.5X9X6X6X6X6X6X6X6X6X|.I.K.Y.I.K.I.Y.H.K.`.9XrX6X9X6X6X6X6X6X6X6X6X6X6X6X6X6X6X6X6X6X>XI.H.I.Q.S < u t t t t t t u t u t t t t w w w < < < ; ; ; ; ; ; ; ; ; ; ; ; < < < < ; ; ; ; ; < ; ; ; ; ; ; ; ; ; < ; ; ; ; ; ; ; ; ; ; ; ; ; ; ; ; ; ; ; ; ; ; ; ; ; ; ; ; ; ; ; ; ; ; ; ; ; 9 9 w w 9 9 w 9 w w w w w w w w t t t t t t t 3 2 t t t t t t t t t t t t t t t t t t t t t < ) S.B.B.B.B.B.S.r.>.1.1.r.r.Q.AXAXjX,X6X6X6X6X6X6X>XD.I.I.I.S.'.6X6X6X6X6X6X(.D.I.S.'.9X6X6X6X6X6X6XrX`.D.I.I.I.I.I.>XwX6X6X6X6X6X6X6X6XQ.D.I.I.I.I.S.(.6X6X6X6X6X6X6X6X6X,XY.K.K.I.I.Q.6X6XoX6X6X6X6X6X6X6X6X6X9X|.I.K.I.I.I.I.D.6X6X6X6X6X6X6X6X9XW.3 w t t t t t t t t t t t t t t t t e t t t t t t t t t t t e t w w t w t t t t t t w w w t ",
"t t t w t t w t t t t w t t t t w w t t t t t t t t t t t t t t t t t t t t t t t t t t t t t t t t t t t t t t t t t e t t e t t t e e t t t t e t t t e t t t t < l z.S.c.c.c.c.c.S.S.S.S.S.r.(.DXQ.K.I.I.D.>XwX6X6X6X6X6X(.K.I.I.I.I.I.I.5XwXoX6X5X(.I.I.I.I.I.I.I.K.I.9XrX6X6X6X6X6X6X9X`.K.K.I.I.K.K.K.I.I.K.K.I.Q.|.6X6X6X6X9X6X6X6X6X6X`.K.K.I.I.H.K.I.I.Q.|.9X6X6X6X9X6X6X6X6X6X6X6X6X6X6X6X6X6X6X6XrX>XI.I.I.I.Y.A < t t t t t t t t t t t t t t t t t t t t t t t t t t t t t t t t t t t t t t t t t t t t t t t t t t t t t t t t t t t t t t t t t t t t t t t t t t t t t t t t t t t t t t t t t t t t t t t t t t t t t t t t t t t t t t 2 2 2 2 t t t t t t t t t t t t t t t t t t t t t < E S.B.B.B.B.B.B.t.>.1.1.1.r.Q.AXFXjX,X6X6X6X6X6X6X6XQ.K.I.I.D.`.6X6X6X6X6X9X`.D.I.S.`.9X6X6X6X6X6X6X9X`.D.I.I.I.I.I.>XwX6X6X6X6X6X6X6X6XQ.D.I.I.I.I.A.`.6X6X6X6X6X6X6X6X6X,XY.K.K.I.I.I.>X6X6X6X6X6X6X6X6X6X6X6X6X6X(.I.I.I.K.I.S.'.6X6X6X6X6X6X6X9X`.h w t t t t t t t t t w t t t t t t e e t t t t t t t t t t t t t t t t t t t w t t w t t t ",
"t t t t t t w w t t t t t t t t w w t t t t t e t t t t t t t t t t t t t t t t t t t t t t t t t t t t t t t t t t e t t t t e t t e e e e t t e t t t w t t t t < t z.S.c.c.c.c.c.c.S.S.S.S.r.`.DXQ.H.I.I.D.|.wX6X6X6X6X6X`.K.I.I.I.I.I.I.(.>X5X>X(.D.I.I.I.I.I.I.I.D.|.rX6X6X6X6X6X6X6X>XI.K.I.I.K.K.K.K.I.H.S.K.(.>X6X6X6X6X6X6X6X9X9X9XQ.D.I.Y.I.I.I.K.I.`.>X9X6X6X6X6X6X6X6X6X6X6X6X6X6X6X6X6X6X6X6X9X|.Q.K.I.I.I.U.M < t t t t t t t t t t t t t t t t t t t t t 2 2 2 2 t t t t t t t t t t t t t t t t t t t t t t t t t t t t t t t t t t t t t t t t t t t t t t t t t t t t t t t t t t t t t t w w t t t t t e e e w w w w t t t t w e t t t 2 2 2 2 t t t t t t t t t t t t t t t t t t t t t < W p.B.B.B.B.z.B.t.>.1.1.1.r.K.VXFXjX,X6X6X6X6X6X6X6XQ.K.I.I.K.(.6X6X6X6X6X6X'.D.I.D.(.6X6X6X6X6X6X6X9X`.D.I.I.I.I.I.>XwX6X6X6X6X6X6X6XoXQ.D.I.I.I.I.I.|.wX6X6X6X6X6X6X6X6X,XY.K.I.I.I.I.(.6XwX6X6X6X6X6X6X6X6X6X6X6X|.I.K.I.I.I.D.Q.6X6X6X6X6X6X6X9X,Xc w t t t t t t t t w w t t e e t t t e t t t t t t t t t t t t t t t t t t w w t t t t t t ",
"t t t t t t t w w w t t t w w w t t t t t t t t t w t t t t t t t t t t t t t t t t t t t t t t t t t t t t t t t t t t t t t e t t e e t t t t t t t t w t t t t < t z.B.c.z.c.c.c.c.S.S.S.S.t.&XDXQ.H.I.I.D.`.6X6X6X6X6X6X*XK.I.I.I.I.I.I.S.D.I.I.I.I.I.I.I.I.I.I.D.).wX6X6X6X6X6X6X9X>XQ.K.K.I.K.K.K.K.I.I.I.Q.'.6X6X6X6X6X6X6X6X6X9X>XD.I.I.I.I.I.Y.H.I.'.6X6X6X6X6X6X6X6X6X6X6X6X6X6X6X6X6X6X6XwXwX6X`.D.D.I.I.I.I.U.n 9 u w t t t t t t t t t t t t t t t t t t t t 2 2 2 2 t t t t t t t t t t t t t t t t t t t t t t t t t t t t t t t t t t t t t t t t t t t t t t t t t t t t t t t t t t t t t w t t t t t t t t t t e e e e e t t e e e w t 2 2 2 2 t t t t t t t t t t t t t t t t t t t t t < W i.S.S.B.B.z.B.p.>.1.1.1.r.D.VXFXjX,X6X6X6X6X6X6XwX).K.I.I.I.Q.6X6X6X6X6X9X|.D.I.K.Q.6X6X6X6X6X6X6XwX`.D.I.I.I.I.K.>XwX6X6X6X6X6X6X6X6XQ.K.I.I.I.I.I.5XeX6X6X6X6X6X6X6XwX>XI.I.I.H.I.I.I.5X6X6X6X6X6X6X6X6X6X6X6X6X6X(.K.I.I.I.I.I.>X9X6X6X6X6X6X6XwXm w t t t t t t t t t t t t e e e e t t t t t t t t t t w e t t t t t t w w w t t t t t t t ",
"t t t t t t w w w w w t w w t w t t t t t t t t t t w w t t t t t t t t t t t t t t t t t t t t t t t t t t t t t t t e e e e e 3 < w t t t t t t t t t w t t t t 2 t z.S.c.c.c.c.c.c.S.S.S.S.t.&XDXQ.H.I.I.D.`.6X6X6X6X6X6X>XI.I.I.I.I.I.I.I.I.I.I.I.I.I.I.I.I.I.K.(.wX6X6X6X6X6X6X6X,XQ.K.K.K.K.K.K.K.I.I.I.(.>X6X6X6X6X6X6X6X6X9X6X`.K.S.I.I.I.I.I.I.Q.>XrX6X6X6X6X6X6X6X6X6X6X6X6X6X6X6X6X6X6X6XrX,X!.D.D.K.I.I.I.I.P.n w u w 2 2 2 t t t t t t t t t t t t t t t t t t 2 2 t t t t t t t t t t t t t t t t t t t t t t t t t t t t t t t t t t t t t t t t t t t t t t t t t t t t t t t t t t t t t t w w t t t e t t t t t t e e e e e t e e t e t t e e t t t t t t t t t t t t t t t t t t t t t t < H y.c.S.B.B.z.B.S.1.1.1.1.6.c.VXFXkX,X6X6X6X6X6X6XwX`.D.I.I.I.I.6XwX6X6X6X9X>XI.I.K.Q.6X6X6X6X6X6X6XwX`.D.I.I.I.I.K.>XwX6X6X6X6X6X6X6X6XQ.K.I.I.I.I.I.6XwX6X6X6X6X6X6XwX6XI.I.I.I.K.K.I.K.(.9X6X6X6X6X6X6X6X6X6X6X6XrX>XI.K.I.I.I.K.*X9X6X6X6X6X6X9XwXV w t t t t t t t t t t t t t e t t w w t t t t t t w w w w e e t t t t e e w w t t t t t t ",
"w w t w t t t t w t t t t t t t t t w w t t t t t w w w t t t t t t t 2 2 2 t t t t t t t t t t t t t t t t t t t e e e e t t t t t t t t t t t e e t t t t t t t 2 t t.S.z.S.c.S.S.S.S.c.S.S.t.&XFXQ.H.I.I.D.Q.6X6X6X6X6X6X6XQ.I.I.I.I.I.I.I.I.I.I.I.I.I.I.I.K.D.Q.6X6X6X6X6X6X6X6X6X`.K.K.K.K.K.K.K.I.K.I.(.>X6X6X6X6X6X6X6X6X6X6X`.I.K.K.I.I.I.I.I.`.6XrX6X6X6X6X6X6X6X6X6X6X6X6X6X6X6X6X6X6X6X6X}.Q.K.K.K.I.I.I.I.I.P.b w t w 2 t t t t t t t t t t t t t t t t t t t t 2 2 t t t t t t t t t t t t t t t t t t t t t t t t t t t t t t t t t t t t t t t t t t t t t t t t t t t t t t t t t t t t t t t t t t w e e t t t t t t t t t t t t t t t t t t t t t t t t t t t t t t t t t t t t t t t t t < B >.t.S.B.B.z.B.S.r.>.1.1.] z.BXFXvX,X6X6X6X6X6X6XwX|.D.I.I.I.I.|.wX6X6X6X0X5XI.I.K.Y. X6X6X6X6X6X6XwX`.D.I.I.I.I.I.>XwX6X6X6X6X6X6X6X XI.K.I.K.I.D.(.6X6X6X6X6X6X6X6X6XQ.K.I.I.I.I.H.I.I.D.5X7X6X6X6X6X6X6X6X6X6X6X6X9X`.S.I.I.I.K.(.9X6X6X6X6X6X6XeXV w t t t t t t t t t t t t t t t t t t t t t t t t t t w w t t t t t t t w t t t t t t t w ",
"t w w w t t t t t t t t t t t t t t w w w w t t t t t t t t t t t t t 2 t t t t t t t t t t t t t t t t t t i i w w w w w < < < # O o < t t t t e e t t t t t t t t t X.D.z.c.S.z.S.S.S.c.S.S.t.&XFXQ.H.I.I.K.I.,X6X6X6X6X6X6X`.I.I.I.I.I.I.I.I.I.I.I.I.I.I.I.K.Q.,X6X6X6X6X6X6X6X6X`.K.K.K.K.K.K.K.I.Y.K.(.8X6X6X6X6X6X6X6X6X6X,X(.K.K.I.I.I.I.H.I.>X9X6X6X6X6X6X6X6X6X6X6X6X6X6X6X6X6X6X6X6X6X>X`.K.K.K.I.I.I.I.I.I.(.Q.a w t w 2 t t t t t t t t t t t t t t t t t t t t t t 0 0 0 t t t t t t t t t t t t t t t t t t t t t t t t t t t t t t t t t t t t t t t t t t t t t t t t t t t t t t t t t t t t t t t w e e t t t t t t t t t t t t t t t t t t t t t t t t t t t t t t t t t t t t t t t t t < B >.t.S.B.B.B.B.S.r.>.1.1.] r.BXFXvX6X6X6X6X6X6X6XwX>XI.I.I.I.I.|.wX6X6X6X6X9XQ.K.Y.K.|.6X6X6X6X6X6XrX`.D.I.I.I.I.K.>XwX6X6X6X6X6X6X6X,XI.K.I.K.I.D.(.wX6X6X6X6X6X6X>X(.K.I.K.I.I.I.K.H.I.I.I.5XeX6X6X6X6X6X6X6X6X6X6XrX>XI.K.I.I.K.I.6X9X9X6X6X6X6XeXI < t t t t t t t t t t w t t t w t t t t t t t t t t t t t t t t t t t t t t t t t t t t t ",
"t t t t t t t t t t t t t t t t t t t t t t t w w w w < < < < < < < < > # # # - - ; < < > > > > > > < > - - # < t a x n F F T $.*.a.=.1 t t t t t t t t t t t t t t 2 X.D.c.c.S.z.S.S.c.c.S.S.t.&XFXQ.H.I.I.I.I.>X6X6X6X6X,XrX}.H.I.I.I.I.I.I.I.I.I.I.I.I.I.I.I.>X6X6XwX6X6X6X6X6X,XQ.K.K.K.K.K.K.K.K.H.`.9X6X6X6X6X6X6X6X6X6X6X(.K.K.I.I.I.K.K.(.9X9X6X6X6X6X6X6X6X6X6X6X6X6X6X6X6X6X6X6X6X6X|.Q.K.K.K.K.K.K.K.K.I.`.7X:Xu w t t 2 t t t t t t t t t t t t t t t t t t t t t < 2 < < < > # # o # - > < t 3 t t t t t t t t t t t t t t t t t t t t t t t t t t t t t t t t t t t t t t t t t t t t t t t t t t t t t t t t t t t t e e e t t t t t t t t t t t t t t t t t t t t t t t t t t t t t t t t t < d ,.r.S.B.B.B.B.S.t.>.1.1.>.r.MXFXvX6X6X6X6X6X6X6X6X6XI.K.I.I.K.`.6X6X6X6X6X9XQ.H.Y.H.}.wX6X6X6X6X6XrX`.D.I.I.I.I.I.|.wX6X6X6X6X6X6X6X XI.K.I.I.I.D.'.rX6X6X6X6X6X6X(.K.I.I.I.I.I.I.I.D.I.I.D.(.6X6X6X6X6X6X6X6X6X6X6X6X6X`.H.I.I.I.I.|.9X9X6X6X6X6XeXQ < t t t t t t t t < < & & > > > > & & & > > # # # > < < < < < < < < < < < < < < < w t t w ",
"w w w w w w w w w w w w w w w w w w w w w w w t u u u u u u l l u l b n n F F F F F S I Y %.a.8.%.5.*.m./.^.XX}.,X!.G.G.G.G.D.).eXuX2X4 < t t t t t t t w t t t t t 2 X.S.c.S.S.c.S.S.c.c.S.S.t.&XFXQ.H.I.I.I.K.|.6X6X6X6X,XwX>XK.I.I.I.I.I.I.I.I.I.I.I.I.I.D.`.9X6X6X6X6X6X6X6X6X&XK.K.K.K.K.K.K.I.K.Q.6XwX6X6X6X6X6X6X6X6X5X(.I.I.I.I.I.K.Q.|.0X9X6X6X6X6X6X6X6X6X6X6X6X6X6X6X6X6X6X6X6X6X`.I.K.K.K.K.K.K.H.K.(.|.+XeX}.u w t t 2 t t t t t t t t t t t t t t t t t t t t ; L n.c.p.p.i.5.^ Y S M n x t t < ; ; % % $ ; ; ; < < < 2 t t t t t t t t t t t t t t t t t t t t t t t t t t t t t t t t t t t t t t t t t t t t t t t e e t t t t t t t t t t t t t t t t t t t t t t t t t t t t t t t t t t < s ,.r.S.S.S.B.z.S.t.>.1.1.>.r.MXFXvX6X6X6X6X6X6X6X6X6XQ.D.I.I.H.`.6X6X6X6X6X9X(.H.Y.H.`.6X6X6X6X6X6XrX`.D.I.I.I.I.K.|.wX6X6X6X6X6X6X6X|.I.I.I.I.D.D.>XrX6X6X6X6X,X`.K.I.I.I.I.I.I.I.I.K.D.I.I.I.'.0X6X6X6X6X6X6X6X6X6X6X9X5XI.I.I.I.K.`.9X6X6X6X6X6XeXQ < t t t t t t t < t 5.}.^.m.x.v.b.7. . .! L I T V M M n n n F F F Z Z b u u u u t t t w w ",
"6.r.r.r.6.6.6.r.r.r. .r.K.K.W.W.W.W.W.G.Q.r.r.p.i.n.:X}.:X&Xn.n.n.n.n.K.,X4XrX,XU.Y.Y.Q.`.sXdX9XQ.Q.Q.9XrXrXrXwXrX`.I.I.I.I.H.(.6XoX$X4 2 t t t t t t t t t t t t t 2 ..S.c.S.S.c.S.S.S.S.S.S.t.&XFX`.H.I.I.I.K.`.6X6X6X6X6X6X,XQ.K.I.I.I.I.I.I.I.I.I.I.I.D.`.6X6X6X6X6X6X6X6XwX}.Y.Y.K.I.I.I.K.K.I.Q.,X9X,X6X6X6X6X6X6X6X6XQ.K.I.K.I.K.D.`.9X9X6X6X6X6X6X6X6X6X6X6X6X6X6X6X6X6X6X6X6XwX>XI.H.I.I.K.K.I.I.H.I.>X6X6X6XwX^.t < t t t t t t t t t t t t t t t t t t t t 2 t < N m.Q.Y.Y.Q.9XsXsXrXsXrX9X,X}.K.6.:.:.) ) ) L C j h 4 > + & ; ; ; ; ; ; $ 9 9 9 9 w w t u u u u t t u u t t t t t t t t t t t t t t t t t 2 w w e e e e e e t 2 3 3 3 t t t t w w w t t t t t t t 2 2 2 2 2 t t t t t t t t t t 2 5 ,.{ h.S.B.B.B.B.z.1.1.3.>.>.gXFXVX6X6X6X6X6X6X6X,X6X`.D.I.I.H.Q.9X6X6X6X6XrX`.K.I.K.Q.9X6X6X6X6X6X9X`.D.I.I.I.I.K.|.wX6X6X6X6X6X6XwX,XI.I.I.I.D.I.5XrX6X6X6X6X>XI.I.I.I.I.I.I.I.I.I.I.I.I.I.I.I.|.rX6X6X6X6X6X6X6X6X6X6X9X`.D.I.I.K.Q.6X9X6X6X6X6XrX&.$ t t < t t t < M 0.W.rXrXrXrXrXrXrXsXsX<XK.<XdX>XK.U.U.U.K.:X1X>X>X>X:X:X:X}.`.`.`.!.Q.z.",
"I.I.I.I.I.I.I.I.I.I.D.(.9X6XrX7X7XeX7XwXrX(.I.I.I.(.eXwXeX6XI.I.I.I.I.I.oX+X6X|.K.I.I.K.(.6XoX|.D.K.K.>X6X6X6XoX6X(.I.I.I.I.I.(.6XwX:X4 < t t t t t t t t t t t t t 2  .S.c.c.S.c.S.S.S.S.S.S.t.&XFX&XS.I.I.I.K.`.6X6X6X6X6X6XwX`.K.I.I.I.I.I.I.I.I.I.I.D.`.6X6X6X6X6X6X6X6XwX6XQ.I.I.I.I.I.I.I.K.K.>X6X6X6X6X6X6X6X6X6X6X(.K.I.I.Y.K.K.`.9X6X6X6X6X6X6X6X6X6X6X6X6X6X6X6X6X6X6X6X6X9X>XD.K.I.I.I.I.I.K.H.Q.>X6X6X6X,XwX!.t < t t t t t t t t t t t t t t t t t t t < t > c 8.6.K.K.K.H.I.9X6XoX6X6X6X6XwX`.I.(.(.Q.8XsXrX4X1X4X2X-Xm.8.*.&.&.Q S V V M m c h 5 4 > > > # o o o o o # - ; 2 2 t t t t t t t t u u u t t t t u u u u t t t t t t t t t t t t t t t t t t t t t 2 2 2 2 2 t t t t t t t t t t 2 1 :.{ t.S.S.B.B.B.z.r.1.3.1.>.fXFXZX6X6X6X6X6X6X6X6X6X>XD.I.I.K.Q.6X6X6X6X6X9X>XK.I.K.I.5X6X6X6X6X6XrX`.K.I.I.I.I.K.}.wX6X6X6X6X6X6XwX|.I.I.I.I.D.Q.6XrX6X6X6X6X>XI.I.I.I.I.I.I.I.I.I.I.I.I.I.I.I.I.>XrX6X6X6X6X6X6X6X6X6XrX>XI.K.I.I.D.>X9X6X6X6X6XrX*.$ t t t t < 4 P 8.c.D.9X6X6XoX6X6X6X6X9X'.D.'.wX>XD.I.I.Y.I.|.7X6X6X6X6X6X7X7X7X7X7X7XrX.X",
"K.K.K.K.K.K.K.K.K.K.D.Q.8X6X9X6X6X6X6XoX6XQ.S.I.K.(.6X6X6X>XD.I.I.K.K.I. XwXwX|.K.I.I.K.(.6XwX|.D.I.K.6X6X6X6XwXwXQ.I.I.I.I.H.`.6XwX:X4 < t t t t t t t t t t t t t 2 7.D.z.c.z.z.z.c.c.S.S.S.t.&XFX>XS.I.I.I.K.Q.6X6X6X6X6X6X9X>XI.I.I.I.I.I.I.I.I.I.S.`.rX6X6X6X6X6X6X6X6XwX}.K.I.K.I.I.I.I.I.I.`.6X6X6X6X6X6X6X6X6X6X).I.I.I.I.K.I.>X6X6X6X6X6X6X6X6X6X6X6X6X6X6X6X6X6X6X6X6XwX6X`.K.K.K.I.I.I.I.K.I.`.9X9X6X6X6X,XeXW.w t t w t t t t t t t t t t t t t t t t t t ; g m.r.6.K.K.K.Y.K.`.6X6X6XoX,X6X6X(.D.K.D.D.>X6X6XwXwXeXrXrX'.Q.I.I.I.Y.I.`.rX6X1X1X:X:X$XN.m.m.M.a.*.&.^ I S F n n x x t 3 3 < # # # # # # # < < < < < < < < < $ $ $ $ < < < < < < < < < t 2 2 2 2 2 2 2 2 2 2 t t t t t t t t t t t 1 &.1.e.S.c.B.B.B.S.r.1.3.1.1.fXFXZXrX,X6X6X6X6X6X6X6X6XD.K.I.I.D.5X6X6X6X6X6X>XI.I.I.K.>X9X6X6X6X6XwX|.I.I.I.I.I.K.`.rX6X6X6X6X6X6XwX|.I.I.I.I.D.(.9XwX6X6X6X6X>XI.I.I.I.I.I.I.I.I.I.I.I.I.I.I.I.Y.I.>X6X6X6X6X6X6X6X6X6X6X9X(.K.I.I.K.`.9X6X6X6X6XdX*.# t t t < x :.n.r.t.K.9X6X6X6X6X6X6X6X9X|.D.|.wX>XI.I.I.I.K.'.6X6X6X6X6X6X6X6X6X6X6X6X6X5X",
"I.I.I.I.I.I.I.I.I.I.D.`.9X9X9X6X6X6X6X6X6XQ.H.I.K.`.6X6XwX|.D.I.I.I.K.I.oX+XwX|.K.I.I.I.(.6X6X'.D.K.I.6X6X6X6XwX6X(.I.I.I.I.H.`.6XwX:X4 < t t t t t t t t t t t t t 2 7.D.B.c.z.z.z.c.c.S.c.S.t.&XFX1XK.I.I.Y.K.I.5X6X6X6X6X6X6X6XQ.I.I.I.I.I.I.I.I.H.^.rXwX6X6X6X6X6X6X,X6X9XQ.K.K.I.I.I.I.I.K.Q.,X,X6X6X6X6X6X6X6X0X).I.I.I.I.K.Q.5X9X6X6X6X6X6X6X6X6X6X6X6X6X6X6X6X6X6X6X6X9X>XI.K.I.I.I.I.I.I.K.Q.>X9X6X6X6X6X6X,XrXx.; t t t t t t t t t t t t t t t t t t t t < 4 0.U.i.r.Y.K.I.I.I.I.oXeX6X6X6X6XoXQ.K.I.K.Q.9X6X6XwXwX6X6X6XQ.D.H.H.H.K.K.`.9X6X6X6X6XrXrXrXrXrXrXrXrXrXrX,XQ.D.I.K.I.D.p.p.c.Y.I.D.x.b.b.7. ./ / / K k C C C m m c x 5 5 5 4 3 3 3 2 t t < ; ; ; ; ; ; ; ; < 2 t t t t t t t t t t t 1 &.1.1.H.S.B.B.B.S.p.1.1.3.>.aXFXZXrX6X6X6X6X6X6X6X6X6XD.D.I.I.K.>XrX6X6X6X6X6XI.K.I.K.`.9X6X6X6X6XwX|.I.I.I.I.I.K.`.rX6X6X6X6X6X6XwX|.K.I.I.I.D.`.0X6X6X6X6X6X'.S.I.I.I.I.I.I.I.I.I.I.I.I.I.I.I.I.I.I.5XwX6X6X6X6X6X6X6X6XrX|.K.I.I.K.Q.9X9X6X6X6XrXa.# t < & S S.K.r.6.i.K.9X6X6X6X6X6X6X6X9X>XD.'.wX6XI.I.I.Y.K.`.6X6X6X6X6X6X6X6X6X6X6X6X6X6X",
"I.I.I.I.I.I.I.I.I.I.I.'.9X9X9X6X6X6X6XoX6XI.K.I.K.`.6X6XwX'.S.I.I.I.K.Q.oX+XwX}.K.I.I.I.).6XwX'.D.K.Q.6X6X6X6XwX6XQ.I.I.I.I.H.`.6XwX:X6 w t t t t t t t t t t t t t < 7.D.B.c.c.z.c.c.c.S.S.S.t.&XFXaXK.K.I.I.K.K.8X9X6X6X6X6X6XwX`.K.I.I.I.I.I.I.K.(.9X6X6XwX6X6X6X6X6X6XwX>XK.K.K.I.I.I.I.I.K.>X6X6X6X6X6X6X6X6X6X6XQ.K.K.I.K.Q.5X9X6X6X6X6X6X6X6X6X6X6X6X6X6X6X6X6X6X6X9X5XQ.D.K.I.I.I.I.I.H.S.`.9X9X6X6X6X6X6X6X6XrXb.$ t < w t t t t t t t t t t t t t t t t t < 8.n.c.n.p.Y.K.I.I.I.I.).wXwX6X6X6X|.K.K.K.K.Q.6X6X6X6X6X6X6X6XQ.I.K.I.K.K.K.>XrXwXwX6X6X6X6X6X6X,X,X,X6X,X9X,XD.D.D.K.K.K.I.I.I.8X0XsXsXsXrXrXrXsXdXdX}.W.W.W.W.^.aXaX3X1XXXm.c.b.m.m.i.Y.(.Y.c.6.5.5.5.0.b.v.C $ t t t t t t t t t t t 1 ~ 1.>.S.S.B.B.B.S.t.>.3.3.>.iXFXZXrX,X6X6X6X6X6X6X6X6XQ.S.I.I.D.'.9X6X6X6X9X6XQ.H.I.K.Q.6X6X6X6X6XwX|.D.I.I.I.I.H.`.rX6X6X6X6X6X6X6X`.K.I.I.I.D.'.0X6X6X6X6XwX`.S.I.I.I.I.I.I.I.I.I.I.I.I.I.I.I.I.I.I.I.5XrX6X6X6X6X6X6X6X6X6XQ.K.I.I.I.>X9X6X6X6XeXa.$ < w $.H.H.p.p.] r.K.9X6X6X6X6X6X6X6X6X>XD.`.wX6XQ.I.I.Y.K.(.6X6X6X6X6X6X6X6X6X6X6X6X6X6X",
"Q.I.I.I.I.I.I.I.I.I.I.>X0X9X9X6X6X6X6X6X6XI.K.I.K.'.9X6XwX`.S.I.I.I.K.(.oX+XwX`.K.I.I.H.).6X6X'.D.D.Q.6X6X6X6X6X6XI.I.Y.I.I.H.'.6XwX2X6 w t t t t t t t t t t t t t < 6.D.B.S.c.z.c.S.S.S.S.S.t.&XFXsXK.K.Y.I.K.K.>X9X6X6X6X6X6X6X,XQ.I.I.I.I.K.K.`.9X6X6X6X6X9X6X6X6X6X6XwXQ.K.K.I.I.I.K.I.K.Q.6X6X6X6X6X6X6X6X6X6XQ.D.K.I.K.K.>X9X,X6X6X6X6X6X6X6X6X6X6X6X6X6X6X6X6X6X0X*XI.S.I.I.I.I.I.K.K.I.>X9X,X6X6X6X6X6X6X6X,XrX7.$ t < w t t t t t t t t t t t t t t t t < Q U.c.c.c.n.Q.K.I.I.I.I.G. XwX6X6X6X).H.K.K.K.Q.6X6X6X6X6X6X6X6XQ.I.K.K.I.K.I.5X6X6X6X6X6X6X6X6X6X6X6X6X6X6XrX9XQ.D.K.K.K.K.H.I.S.`.6X6X6X6X6X6X6XoX6X6X!.D.D.D.D.G.6X6X6XrX,XD.D.I.I.I.T.xXzXzX{.T.T.Q.Q.,XeXdX) % t t t t t t t t t t t < Y 1.] p.S.B.B.B.S.z.1.3.3.;.3XFXAXrX,X6X6X6X6X6X6X6X6X`.S.I.I.S.(.9X6X6X6X6X6X(.H.I.I.K.>X6X6X6X6XwX>XD.I.I.I.I.H.`.rX6X6X6X6X6X6X6X).K.I.I.I.D.>X9X6X6X6X6XwX(.S.I.I.I.I.I.I.I.I.I.I.I.I.I.I.I.I.I.I.I.(.6X6X6X6X6X6X6X6X6X9X`.K.I.I.K.&X9X6X6X6XeXa.# c =.m.A.c.S.r.>.r.K.9X6X6X6X6X6X6X6X6X>XD.`.6X6XQ.I.I.I.I.(.6X6X6X6X6X6X6X6X6X6X6X6X6X6X",
"*XK.Y.Y.I.Y.I.I.I.I.I.5X0X9X9X6X6X6X6X6X6XI.I.I.D.'.6X6XwXQ.H.I.K.I.K.(.oXwXwX`.K.I.I.H.).6X6X(.D.D.(.6X6X6X6X6X6XI.I.Y.I.I.H.'.6X+X2X6 < t t t t t t t t t t t t t < | D.B.c.c.z.c.c.c.S.S.S.t.&XFXdX(.K.Y.I.I.K.&X9X6X6X6X6X6X6X6X>XQ.S.S.K.I.>XrX9X6X6X6X9X9X6X6X6X6X9X|.K.K.K.K.I.I.I.I.I.6X6X6X6X6X6X6X6X6X6X`.I.I.I.I.K.>XrX6X6X6X6X6X9X9X9X6X6X6X6X6X6X6X6X6X9X6X(.I.I.I.I.I.I.I.K.K.(.8X9X6X6X6X6X6X6X6X6X6X,XrX .$ t < w t t t t t t t t t t t w w t t 2 L D.c.x.c.c.x.Q.K.I.I.I.I.D.Q.rXwX6X6XQ.K.I.I.K.`.6X6X6XoXoX6X6X>XI.I.K.H.I.I.(.6X6X6X6X6X6X6X6X6X6X6X6X6X6X6X6X6X`.D.I.I.I.I.I.I.H.(.6X6X6X6X6X6X6X6XoX6X'.D.K.I.K.K.|.oX XoX6XI.H.I.I.I.H.Q.wX6X*XI.Y.Y.D.}.6XrXL % t t t t t t t t t t t < T r.] r.S.S.S.B.B.B.1.>.3.;.<XFXAXdX6X6X6X6X6X6X6X6XrX:XS.I.I.D.Q.9X6X6X6X6X6X*XK.I.I.S.'.6X6X6X6X9X>XK.I.I.I.I.H.).wX6X6X6X6X6X6X9X(.K.I.I.I.D.5X6X6X6X6X6XrXQ.H.I.I.I.I.I.I.I.I.I.I.I.I.I.I.I.I.I.I.I.I.(.OXwX6X6X6X6X6X6X9X5XI.I.I.I.(.6X9X6X6XeXM.5 y.K.c.x.c.K.i.,.t.K.9X6X6X6X6X6X6X6X6X5XS.(.6X6XQ.I.I.I.I.Q.5X6X6X6X6X6X6X6X6X6X6X6X6X6X",
"'.I.Y.I.I.I.I.I.I.I.Q.6X0X9X9X6X6X6X6XwX6XI.I.I.K.|.6X6X6XI.K.I.K.I.K.`.oXwXwX).K.I.I.H.).6X6X(.K.D.`.6X6X6X6XoXoXI.I.Y.I.I.H.'.6X+X1X6 < t t t t t t t t t t t t t <  .D.z.S.c.c.c.S.c.S.S.S.t.&XFXkX*XD.I.Y.I.K.Q.9X6X6X6X6X6X6X6X6X>XQ.Q.`.>X9X9X6X6X6X6X6X6X6X6X9X9X9X`.K.K.I.K.I.I.I.I.`.wX6X6X6X6X6X6X6X,X,XK.K.I.Y.H.'.rX6X6X6X6X6X6X9X9X9X6X6X6X6X6X6X6X6X9X>XY.K.I.I.I.I.I.I.K.I.&X6X6X6X6X6X6X6X6X6X6X6X6X,XrX .$ t w w t t t t t t t t t t t w w t t L x.x.z.x.x.z.D.*XH.K.I.I.I.K.D.>XrX6X6XQ.I.I.I.I.'.6X6X6XoXoX6X6X|.I.I.H.H.I.K.`.6X6X6X6X6X6X6X6X6X6X6X6X6X6X6X6X6X|.D.I.I.I.I.I.I.I.Y. X6X6X6X6X6X6X6X6X6X|.I.K.K.K.K.|.oX6X6X6XQ.K.I.I.I.K.Q.9X6X>XI.I.Y.D.}.wXsXK % t t t t t t t t t t t 2 I r.] { S.S.S.B.B.B.r.>.3.;.2XFXAXdX,X6X6X6X6X6X6X6X6X>XK.I.I.D.I.6X6X6X6X6X6X>XK.I.I.S.(.6X6X6X6X9X5XK.I.I.I.I.H.Q.9X6X6X6X6X6X6X9XQ.K.I.I.I.I.9X6X6X6X6X6X6XI.I.I.I.I.I.I.I.I.I.I.I.I.I.I.I.I.I.I.I.I.I.I.(.OX6X6X6X6X6X6X6X9X(.I.I.I.I.5X9X6X6XwXQ.' i.n.c.x.c.D.i.,.t.K.9X6X6X6X6X6X6X6X6X5XD.(.6X6XQ.I.I.I.I.I.5X6X6X6X6X6X6X6X6X6X6X6X6X6X",
">XI.I.I.I.I.I.I.I.K.(.6X6X6X6X6X6X6X6XwX XI.I.I.I.|.6X6X,XI.H.I.K.I.D.`.6XwXwX(.K.I.I.H.`.6X6X(.D.D.`.9X6X6X6XoXoXI.I.Y.I.I.I.'.6X+X1Xg < t t t t t t t t t t t t t < ' D.z.S.c.S.S.c.c.c.S.S.t.`.DXdX8XQ.H.Y.I.I.I.>X6X6X6X6X6X6X6X6X6X9X9X9X6X6X6X6X6X9X6X6X6X9X9X6XrX,XI.K.K.I.I.I.Y.K.I.6XoX6X6X6X6X6X6X,X,X`.K.I.I.K.(.9X6X6X6X6X6X6X6X6X6X6X6X6X6X6X6X6X6X9X`.I.I.I.I.I.I.I.I.H.Q.>X9X6X6X6X6X6X6X6X6X6X6X6X6X,XrX^ $ t < t t t t t t t t t t t t t u < m c.x.z.z.z.c.z.D.9XI.H.I.I.K.K.I.Q.,XrX>XI.I.I.I.I.>X6X6X6X6X6X6XwX`.I.I.I.I.I.I.`.6X6X6X6X6X6X6X6X6X6X6X6X6X6X6X6X6X>XD.I.I.I.I.I.I.I.I.|.6X6X6X6X6X6X6X6X6X6XI.K.K.K.K.`.oX6X6XrX`.D.I.I.I.I.Q.6XwX5XQ.I.Y.K.`.6XsXK % t t t t t t t t t t t ; S r.>.] p.S.B.B.B.B.u.>.3.;.-XFXAXdX,X6X6X6X6X6X6X,X6X,XI.K.I.K.D.>XwX6X6X6X6X9XQ.K.I.H.I.6X6X6X6X9X9XI.I.I.I.I.H.Q.9X6X6X6X6X6X6X6XQ.K.I.I.I.I.9X6X6X6X6X6X6XI.I.I.I.I.I.I.I.I.I.I.I.I.I.I.I.I.I.I.I.I.I.I.I.(.5X6X6X6X6X6X6X9X>XI.I.I.I.*X6X6X6XeX*X' r.n.c.D.c.D.p.,.r.K.9X6X6X6X6X6X6X6X6X6XD.(.6X6X).H.I.I.K.K.>X9X6X6X6X6X6X6X6X6X6X6X6X6X",
"6XQ.I.I.I.I.H.I.I.K.`.9X6X6X6X6X6X6X6X6X|.D.I.I.I.,X6XwX|.H.I.I.K.I.D.`.6X6XwX(.K.I.I.H.`.6X6X(.D.D.`.9X6X6X6XoXoXI.I.Y.I.I.I.'.6X+X1Xg < t t t t t t t t t t t t t ; / D.z.S.c.S.S.S.c.c.c.S.t.`.DXdX9X`.H.Y.I.I.I.>X6X6X6X6X6X6X6X6X6X6X6X6X6X6X6X6X6X6X6X6X6X9X6XwXrX`.K.K.I.I.I.I.Y.H.`.9XoX6X6X6X6X6X6X6X|.K.I.K.K.Q.9X6X6X6X6X6X6X6X6X6X6X6X6X6X6X6X6X7X6XQ.H.I.I.I.I.I.I.I.K.Q.6X9X6X6X6X6X6X6X6X6X6X6X6X6X6X,XaX! $ t < t t t t t t t t t t t t t < c c.D.z.z.z.z.c.z.D.rXQ.I.I.I.I.I.I.K.`.rX>XD.I.I.I.I.>X6X6X6X6X6X6X6X(.I.I.I.I.Y.I.|.6X6X6X6X6X6X6X6X6X6X6X6X6X6X6X6X6X6XQ.K.I.I.I.I.I.I.I.`.6X6X6X6X6X6X6X6X6X6X(.K.I.I.H.).oX6X6XrX|.D.I.I.I.I.D.>XrX6X(.I.Y.K.).6XsXK # t t t t t t t t t t t ; V r.1.] p.S.B.B.B.B.p.>.3.;.&XFXFXkX,X6X6X6X6X6X6X,X,XwXQ.K.I.K.D.|.wX6X6X6X6X9X(.H.Y.I.D.>X6X6X6X6X9XI.I.I.I.I.K.Q.6X6X6X6X6X6X6X6XI.K.I.I.I.Q.0X6X6X6X6X6X5XI.I.I.I.I.I.I.I.I.I.I.I.I.I.I.I.I.I.I.I.I.I.I.I.I.(.5X6X6X6X6X6X6X9X(.K.I.K.`.6X6X6XeX&X] y.c.c.D.c.x.p.,.r.K.9X6X6X6X6X6X6X6X6X6XK.Q.6X6X`.H.I.I.K.D.*X9X6X6X6X6X6X6X6X6X6X6X6X6X",
"6X(.H.I.I.H.H.I.I.S.'.rX6X6X9X0X6XwXwXwX|.S.I.I.I.,X6XrX|.H.I.K.K.I.S.'.6XoXwX(.K.I.I.K.`.6X6X(.I.D.'.rX6X6X6XoXoXI.I.Y.I.I.I.'.6X+X1Xg < t t t t t t t t t t t t t - ( D.z.S.c.S.S.c.c.c.c.S.t.`.DXdX9X>XI.K.I.I.K.(.6X6X6X6X6X6X6X6X6X6X6X6X6X6X6X6X6X6X9X9X9X6X6X6X9XI.K.K.I.I.I.I.K.I.6X6X6X6X6X6X6X6X,X6XQ.K.I.K.I.6XwX6X6X6X6X6X6X6X6X6X6X6X9X6X6X6X0X5XI.I.I.I.I.I.I.I.I.H.Q.9X9X6XrX9X6X6X6X6X6X6X6X6X6X6X6X XaX! $ t < t t t t t t t t t t t t t 6 8.K.c.c.c.c.c.c.z.D.rX).I.I.I.I.I.K.K.I.9X(.K.I.I.K.Q.5X6X6X6X6X6X6X6X(.I.I.I.I.I.Y.>X6X6X6X6X6X6X6X6X6X6X6X6X6X6X6X6X6X6X).K.I.I.I.I.I.I.I.(.6X6X6X6X6X6X6X6X6X6X`.D.I.I.H.Q.oX6X6XwX6XK.I.I.I.I.D.|.rX6X`.I.I.K.).6XsXK # t t t t t t t t t t t ; M r.1.] e.S.B.B.B.S.p.>.3.;.%XFXFXkX,X6X6X6X6X6X6X,X,XwX(.K.I.K.D.`.9X6X6X6X6XrX`.H.Y.I.S.`.6X6X6X6X9XI.I.I.I.I.K.Q.6X6X6X6X6X6X6X6XD.K.I.I.D.(.0X6X6X6X6X9X>XD.I.I.I.I.I.I.I.I.I.I.I.I.I.I.I.I.I.I.I.I.I.I.I.I.I.'.6X6X6X6X6X6X9X'.I.I.I.Q.5X6X6XwX&X] y.c.c.c.c.x.c.8.r.D.9X6X6X6X6X6X6X6X6X6XK.Y.oXwX`.H.I.I.I.H.'.6X6X6X6X6X6X6X6X6X6X6X6X6X",
"6X`.H.I.Y.I.H.I.I.I.>X7X6X6X9X6X6X6X6XwX`.H.I.I.I.6X6X6X`.H.I.K.I.I.D.|.6X6X6XI.K.I.I.K.'.6XoXI.I.D.>XrX6X6X6XoXoXI.I.I.I.I.I.'.6X+X1Xg < t t t t t t t t t t t t t < ) c.S.S.S.S.S.c.c.c.c.S.t.`.DXdX6X6XI.K.I.I.I.Q.6X6X6X6X6X6X6X6X6X6X6X6X6X6X6X6X6X9X6X6X6X6X6X6X`.K.K.K.I.I.I.I.D.`.eXoX6X6X6X6X6X6X9X`.K.I.K.K.8X9X6X6X6X6X6X6X6X6X6X6X6X9X9X6X6X6X*XI.I.I.I.I.I.I.I.I.I.`.9XrX6X9X9X6X6X6X6X6X6X6X6X6X6X6X6X6XaXK $ t w t w t t t t t t t t t < < 5.S.c.c.c.c.c.c.S.z.D.rX|.I.I.I.I.I.I.I.I.Q.I.I.I.I.H.`.9X6X6X6X6X6X6XoXQ.I.I.I.I.I.Y.>X6X6X6X6X6X6X6X6X6X6X6X6X6X6X6X6X6X6X`.K.I.I.I.I.I.I.I.Q.6X6X6X6X6X6X6X6X6X6X>XD.I.I.K.Q.6X6X6X6XwXI.I.I.I.I.D.`.rX6X*XY.Y.I.Q.6XsXK # t 2 t t 2 2 t t t t t ; M r.1.] r.S.B.B.S.S.p.r.1.` Y.KXFXvX6X6X6X6X6X6X6X,X,XwX&XK.K.K.K.(.9X6X6X6X6X6X|.H.I.I.I.Q.6X6X6X6X9XI.I.I.I.I.K.Q.6XwX6X6X6X6X6X,XD.K.I.I.D.`.rX6X6X6X6X6X>XS.I.I.I.I.I.I.I.I.I.I.I.I.I.I.I.I.I.I.I.I.I.I.I.I.I.I.'.6X6X6X6X6X6X,XQ.I.I.K.'.9X6XwX:X] r.c.c.c.c.c.n.8.r.D.9X6X6X6X6X6X6X6X6X6XI.Y.oX6X'.H.I.I.I.H.`.9X6X6X6X6X6X6X6X6X6X6X6X6X",
"wX>XH.I.Y.I.H.I.I.I.6X6X6X6X6X6X6X6X6X6X`.I.I.I.Q.6X6X6XQ.H.I.K.I.H.K.>X6X6X6XI.K.I.I.K.'.rX XI.I.D.>XrX6X6X6XoXoXI.I.I.I.I.I.'.6XoX3Xg < t t t t t t t t t t t t t < E r.S.S.c.S.c.c.c.S.S.S.t.`.DXdX6X6X(.K.I.I.I.Q.6X6X6X6X6X6X6X6X6X6X6X6X6X6X6X9X6X9X6X6X6X6X6X5XK.K.K.K.I.I.I.I.I.9XwXoX6X6X6X6X6X6X>XK.K.Q.K.`.9X6X6X6X6X6X6X6X6X6X6X6X6X6X6X6X5X(.I.I.I.I.I.I.I.I.I.I.>X9X9X9X9X6X6X6X6X6X9X9X9X9X6X9X6X6X6XrXaXL ; t w t t t e e e t t t t 2 > &.m.B.S.c.c.c.c.c.S.z.K.6X6XY.I.I.I.I.I.I.I.K.I.I.I.I.H.>X9X6X6X6X6X6X6X6XQ.I.I.I.I.I.(.6XoX6X6X6X6X6X6X6X6X6X6X6X6X6X6X6X6X6X>XK.K.I.I.I.I.I.I.I.5X6X6X6X6X6X6X6X6X6X5XD.K.I.K.I.6X6X6X6XwX(.I.I.I.I.D.(.9X9X>XY.I.I.D.|.sXK $ t 1 1 1 2 2 t t e e t ; M 1.1.>.r.S.B.B.S.S.S.r.1.` K.KXFXvX6X6X6X6X6X6X6X6X,XwX>XK.K.K.K.Q.6X6X6X6X6X6X>XI.K.I.I.D.6X6X6X6X9XI.I.I.I.I.K.Q.6XwX6X6X6X6X6X>XD.K.I.K.D.'.0X6X6X6X6X6X>XS.I.I.I.I.I.I.I.I.I.I.I.I.I.I.I.I.I.I.I.I.I.I.I.I.I.I.I.5X6X6X6X6X6X9X`.I.I.D.(.6X6XwX>X] r.c.c.c.c.z.c.8.X.D.9X6X6X6X6X6X6X6X6X6XI.I.oX6X|.H.K.I.I.H.(.9X6X6X6X6X6X6X6X6X6X6X6X6X",
"wX>XH.I.Y.I.I.I.I.I.6X9X6X6X6X6X6X6X6X9X`.I.I.I.Q.6X6X6XQ.H.I.K.I.H.D.>X6X6X,XI.I.I.I.K.'.rX XI.I.K.>XrX6X6X6XoXoXI.I.I.I.I.I.'.6XoX3Xg < t t t t t t t t t t t t t < E r.c.S.c.S.c.c.c.S.S.S.t.`.DXdX6X6X'.D.I.I.I.I.,X6X6X6X6X6X6X6X6X6X6X6X6X6X6X6X6X9X6X6X6X6X6X`.D.K.K.K.K.I.I.K.&X0XoXoX6X6X6X6X9X9XQ.c.K.K.K.9X6X6X6X6X6X6X6X6X6X6X6X6X6X6X6X9X`.H.I.I.I.I.I.I.I.A.I.>XwX9X9X9X6X6X6X6X6X6X6X6X9X6X6X9X6X6X9X}.^.j ; t w t t t t e e t t t t < $.I.c.c.S.S.S.S.c.c.S.z.K.9X6X(.I.I.I.I.I.I.I.I.I.I.I.I.I.5X6X6X6X6X6X6X6X6XI.I.I.I.I.I.(.6XoX6X6X6X6X6X6X6X6X6X6X6X6X6X6X6X6X6X9XQ.K.I.I.I.I.I.I.D.>X6X6X6X6X6X6X6X6X6X6XI.K.I.K.I.5X6X6X6XwX&XH.I.I.I.I.Q.9X9X5XY.I.I.D.].sXK % t 1 1 1 2 2 t t e e t 9 c 1.1.1.r.p.S.B.S.S.S.r.1.` K.KXFXvX6X6X6X6X6X6X6X6X,XwX<XK.K.K.K.Q.6X9X6X6X6X6X9XQ.K.I.I.D.|.6X6X6X9XQ.K.I.I.I.K.I.6XwX6X6X6X6X6X>XD.I.I.I.D.>XrX6X6X6X6X6X'.S.I.I.I.I.I.I.I.I.I.I.I.I.I.I.I.I.I.I.I.I.I.I.I.I.I.I.I.'.6X6X6X6X6XrX>XK.I.K.G.6X6XwX>X| r.c.c.z.z.z.c.8.X.D.9X6X6X6X6X6X6X6X6X6XI.I.oX6X>XK.K.I.I.H.(.9X6X6X6X6X6X6X6X6X6X6X6X6X"
};
