/* XPM */
static char *cartoon_bark[] = {
/* columns rows colors chars-per-pixel */
"512 512 256 2 ",
"   c #140E0C",
".  c #14120E",
"X  c #1B130E",
"o  c #181908",
"O  c #151213",
"+  c #1B1513",
"@  c #1D1915",
"#  c #1B1619",
"$  c #1D1A1B",
"%  c #161915",
"&  c #100F0D",
"*  c #25180C",
"=  c #221612",
"-  c #241914",
";  c #2B1B14",
":  c #231C1B",
">  c #2A1E1C",
",  c #241716",
"<  c #321E14",
"1  c #341E18",
"2  c #341A0B",
"3  c #1B2715",
"4  c #1A2A0E",
"5  c #282608",
"6  c #2C211D",
"7  c #272518",
"8  c #342115",
"9  c #3B2215",
"0  c #33231C",
"q  c #3B241B",
"w  c #3A2A1C",
"e  c #253818",
"r  c #34330F",
"t  c #231E21",
"y  c #291F21",
"u  c #311F21",
"i  c #262123",
"p  c #2C2323",
"a  c #2D2629",
"s  c #332523",
"d  c #3B2623",
"f  c #352924",
"g  c #3C2B24",
"h  c #342A2B",
"j  c #3B2C2B",
"k  c #322729",
"l  c #3C3328",
"z  c #3A2E31",
"x  c #3D3132",
"c  c #263A24",
"v  c #1E1E21",
"b  c #42261A",
"n  c #442A1D",
"m  c #4B2B1C",
"M  c #462615",
"N  c #532D1A",
"B  c #58331D",
"V  c #473317",
"C  c #432B24",
"Z  c #4B2D24",
"A  c #432D2B",
"S  c #4A2E2A",
"D  c #412722",
"F  c #44322C",
"G  c #4C322C",
"H  c #493527",
"J  c #533324",
"K  c #53342C",
"L  c #5A362D",
"P  c #543B2C",
"I  c #5C3B2C",
"U  c #5A3724",
"Y  c #443333",
"T  c #4B3533",
"R  c #4B3A37",
"E  c #543631",
"W  c #543B34",
"Q  c #5C3B33",
"!  c #533C3A",
"~  c #5A3B36",
"^  c #4C2F29",
"/  c #633C2C",
"(  c #663B26",
")  c #633D33",
"_  c #653F35",
"`  c #713F25",
"'  c #62361C",
"]  c #2A441B",
"[  c #364C15",
"{  c #2A4628",
"}  c #34522C",
"|  c #396134",
" . c #4B4F17",
".. c #526B18",
"X. c #5B432C",
"o. c #5C4333",
"O. c #594439",
"+. c #4D502A",
"@. c #64432D",
"#. c #6B432D",
"$. c #6A482B",
"%. c #74472C",
"&. c #644333",
"*. c #6B4433",
"=. c #6C4B34",
"-. c #6C4C3B",
";. c #654839",
":. c #734633",
">. c #744A34",
",. c #7B4C35",
"<. c #734C3A",
"1. c #7C4E3A",
"2. c #764635",
"3. c #6C523B",
"4. c #74533C",
"5. c #7C533B",
"6. c #795538",
"7. c #70572A",
"8. c #506E2D",
"9. c #716F30",
"0. c #68691B",
"q. c #5A4542",
"w. c #4F4D45",
"e. c #664A43",
"r. c #6C5344",
"t. c #745442",
"y. c #7C5B43",
"u. c #795845",
"i. c #735248",
"p. c #7C6248",
"a. c #72724A",
"s. c #58704C",
"d. c #494A41",
"f. c #814E37",
"g. c #84533C",
"h. c #89563D",
"j. c #845A3C",
"k. c #8C5A3D",
"l. c #845535",
"z. c #915D3D",
"x. c #82502D",
"c. c #8A633C",
"v. c #95653D",
"b. c #897636",
"n. c #A46D3D",
"m. c #845641",
"M. c #845C43",
"N. c #8C5B42",
"B. c #875B46",
"V. c #925E43",
"C. c #925E47",
"Z. c #825C51",
"A. c #8C6244",
"S. c #84644A",
"D. c #8B644A",
"F. c #8B6A4D",
"G. c #856447",
"H. c #946244",
"J. c #9A6545",
"K. c #9C6A45",
"L. c #94644A",
"P. c #9B6649",
"I. c #946A4C",
"U. c #9D6A4B",
"Y. c #946A44",
"T. c #99744A",
"R. c #8B6B52",
"E. c #976D53",
"W. c #947354",
"Q. c #9B7354",
"!. c #9C7B5B",
"~. c #997659",
"^. c #8C734F",
"/. c #A26C4C",
"(. c #A26B45",
"). c #A5724D",
"_. c #A9754B",
"`. c #A46F50",
"'. c #A86F51",
"]. c #A57252",
"[. c #AA7554",
"{. c #AD7955",
"}. c #AD7B5A",
"|. c #A4795A",
" X c #B17C56",
".X c #B27D5A",
"XX c #B37958",
"oX c #B37C4B",
"OX c #997865",
"+X c #A77C63",
"@X c #AF7F64",
"#X c #73902F",
"$X c #72922C",
"%X c #748D48",
"&X c #729947",
"*X c #8A9334",
"=X c #89A937",
"-X c #95AA39",
";X c #96B43B",
":X c #89A930",
">X c #A4B63C",
",X c #93962C",
"<X c #91924A",
"1X c #A8835B",
"2X c #B5825C",
"3X c #B9845E",
"4X c #B9885A",
"5X c #AF8F50",
"6X c #99B646",
"7X c #91AC4B",
"8X c #A5BB48",
"9X c #AAB152",
"0X c #AB8563",
"qX c #AA8765",
"wX c #B58462",
"eX c #BA8661",
"rX c #BD8A63",
"tX c #BC8D6A",
"yX c #B38B68",
"uX c #BB936C",
"iX c #B8936A",
"pX c #BC9573",
"aX c #B38C73",
"sX c #AFB568",
"dX c #9A9A68",
"fX c #C18D65",
"gX c #C18E69",
"hX c #C39265",
"jX c #C4936B",
"kX c #CA9A6E",
"lX c #C7976C",
"zX c #CB9C73",
"xX c #C59975",
"cX c #D09D73",
"vX c #CCA278",
"bX c #D2A47B",
"nX c #D4A779",
"mX c #CEAB72",
"MX c #C38E5A",
"NX c #A9C34A",
"BX c #AAC555",
"VX c #B5C957",
"CX c #B5CB53",
"ZX c #B7CA67",
"AX c #9EC34D",
"SX c #C8D568",
"DX c #CCD472",
"FX c #CAD766",
"GX c #A5C03F",
"HX c #B19B92",
"JX c #D6AB83",
"KX c #DBB285",
"LX c #CDA88A",
"PX c #D6B499",
"IX c #D7CF95",
"UX c #BFC982",
/* pixels */
"7 +.a.w.3 - - - = = + + + + + O O + + : : > > s s s j j j A A A S G K ~ <.B.H.(.(._.[._._.(.(.(.P.m.M J E.J.J.K.l.b.VXFXFXVXFXCXVXVXVXVXVXVXVXBX8X8X8X6X6X=X=X-X8X8X8X8X8X6X6X8X6X6X6X6X-X-X-X-X-X-X=X-X6X6X6X6X7X7X6X6X=X7X=X7X7X#X .7.j.%.{.1X{.).P.L.D.R.R.i.;.~ R R T T x x x x f f f a a p i : # O t i t p a a a i p a f f f j F G T K E ~ ~ ~ ) -.:.1.m.C.P.(.`.`.`.`.P.(.(.].].].[.[.[.(.).).).].P.).[.[.[.[.[.[.[..X{.2X3X.X X X X.X2X.X2X2X2X2X2X2X2X2X2XeXwXwXyXE.;.! ! ! ! R T T x x z f : p f j T T T E E ~ <.B.L.P.(.(.(.(.].A.A.`.P.P.P.P.P.P.P.P.P.P.P.P.P.P.P.I.m.5.5.t.&.U E.vXrX.X.X X{. X.X{.{.{.{.{.(.[.[.[.[.[.}.}.[.].].[.@XD.-.e.! R F F f p : @ - F P @.$.=.<.<.A.Y.l.v.).[.K.H.H.H.P.H.B.V.V.V.B.V.B.B.B.V.B.V.B.B.h.B.h.g.g.g.m.5.5.5.5.5.<.<.) < N `.3XK.H.V.V.V.B.B.V.V.V.B.V.B.h.B.l.B.V.B.h.B.V.B.V.V.H.H.V.H.H.B.B.B.B.B.g.m.U / R.B.m.m.m.m.u.u.i.i.e.i.~ ! T x a # # # # : t y y p s d j A A A A S S S S G G G K ) *.:.1.5.g.g.g.g.g.g.1.,.1.<.<.#.*.J M &.n q q 8 8 0 u 0 5 *XZXBX8XBX8X=X$X9XDXSXFXFXSXsX9.5 o o o 5  .#X<X..",
"7 @ 3 7 - - : = = - = + + O + O O + # : : > p s s s j j A A A A G G G K &.5.V.K.(.)._._._.(.(.(.P.A.m m I.K.v.c.<XDXSXVXVXSXSXVX8X8XVXVXVXVXVXVXBX8XBXBXBX8X6X-X8X8X8X8X8X8X8X8X8X8X8X8X6X-X=X-X7X6X6X6X7X6X6X6X6X6X7X7X7X7X6X6X7X7X<X7.B j.wX{.P.H.H.B.m.B.D.u.;.~ R R R T Y x x j f f f a a p i $ + O i t i p a a a t p f f f f j F G E K E ~ ~ ~ ) *.:.1.g.C.P.(.`.`.(.].P.`.].].].].[.[.[.].[.[.].].(.].[.[.[.[.{.[.{..X{.3X3X2X X X X2X3X3X3X2X2X2X2X2X2X2X2XeXeXwXtXE.;.~ ! ! ! R T T x j z f : p f j Y T T E K I <.m.L.P.(.(.(.(.].h.B.].P.P.P.P.P.P.P.P.P.P.(.P.P.P.P.I.m.y.5.<.&.U ~.zX3X.X2X.X X X.X X{.{.{.[.].[.{.{.[.[.}.}.}.].].}.@XE.e.e.! R F l f p : @ - g P @.#.=.6.6.A.I.l.H.{.{.K.J.H.H.P.H.V.V.V.V.B.V.V.V.B.V.V.B.V.B.B.B.h.g.g.g.m.5.5.5.g.5.<.<.&.q m J.3X(.H.V.V.V.B.B.B.V.V.V.V.B.h.B.g.h.V.V.V.V.V.V.V.H.L.H.H.L.H.B.B.B.B.B.m.B./ / L.B.B.m.m.m.m.u.u.i.e.i.~ ! R x z # # # # $ : y p p s j g C C C A S S S S G G G K I *.<.1.,.g.j.g.h.j.g.g.,.5.,.%.#.#.N m o.b 1 q 8 8 0 0 8  .9XVXBXBXBX6X*X#X<XDXSXDXDXsX+.o o * + + X   4  . .",
"; ; - - - = = = = = = + + O O & O + # : : > p s s s j j A A A A S S G K I <.h.J.K.(._._._.(.(.(.(.L.J M A.v.x.5XDXVXVXVXDXDX9X-X-XVXVXVXVXVXVXVXBXVXVXVXBXBXBX8X8XNX8XBX8XNXNX8X8X8X8X8X8X8X6X7X=X7X6X6X6X6X6X6X6X6X6X7X=X&X&X&X7X7X7X<X7.A.~.E.A.j.g.5.m.u.Z.Z.;.~ ! R R T Y x x x f f a a a p i : # O i : p a a a p i a a f f s j T G E E E ~ ~ ~ ) &.*.1.g.L.P.(.(.`.`.].P.(.].].].].[.[.[.[.[.[.].].).).[.[.[.[.[.{. X.X.XeX3X3X.X.X.X3X3X3X2X2X3X2X3X3X3X2X2XeXrXrXtX~.;.~ ~ E ! R T T x j x f : p f j T T T E E I *.g.H.P.(.(.(.(.E.l.B.[.P.P.P.P.P.P.P.P.P.P.P.P.P.P.P.P.m.y.5.<.&.B |.zX3X2X2X.X.X X.X.X{.{.{.}.[.[.{.{.{.{.}.}.}.[.[.}.@X~.e.e.! R T F j p : @ @ 0 P @.$.<.6.7.c.T.l.K.{.{.K.H.H.H.P.H.V.V.V.V.V.V.V.V.B.V.V.B.V.B.B.B.B.m.g.g.m.5.5.5.5.u.4.<.&.q M h.3X).J.H.L.C.V.B.V.V.V.H.V.B.B.B.g.g.V.V.V.V.V.V.V.V.H.L.L.L.L.A.A.B.B.B.B.B.#.U E.B.B.m.m.m.m.u.u.u.t.i.;.~ R j x : # $ # # : > > p s d j A A A A S S S G G G G K L ) :.,.5.g.h.h.h.h.g.g.1.5.g.%.#.*.J J J q q 0 8 8 0 0 2 9.ZXVXBXBX9X7X<X9. .ZXDXUXdX+.o - - + + # + X o   7 ",
"> > > - : - = = = = + + + O & & O + # : : > p s s s j j A A A A S S G K K @.5.B.K.(._._._.(.(.).(.I.U M 6.b.5XDXVXSXDXSX9X*Xb.9XSXZXVXZXZXVXVXVXZXZXVXVXVXNXCXNXNXNXVX6XBXBXNX8X8X8X8X8X8X8X8X6X6X7X6X6X6X6X6X6X6X6X6X6X6X7X7X&X#X#X#X<X#X9.G.B.m.5.5.<.i.i.u.Z.e.~ ! R R T T x x j f f a a a p i : + # t t p a a a p i a f f f d A G G E E E ~ ~ ) ) &.*.<.g.L.P.P.(.(.].(.].].].].].].[.[.[.[.[.[.[.[.(.).[.[.{.[.{.{.{..X.X3X3X3X.X.X2X3X3X3X3X3X3X3X3X3X3X3X2XrXrXrXtX+X-.~ ~ ! ! R T T x x f f : p f j Y T T E E L &.5.B.P.P.(.(.P.E.%.l.}.P.P.P.P.P.P.P.P.P.P.P.P.P.P.P.I.m.m.u.t.&.B |.zX3X2X2X2X.X X.X.X{.{.{.}.[.[.{.{.{.{.{.}.}.{.[.}.@X+Xu.e.q.! T T x s : # + 0 P X.$.6.6.7.j.Y.l.K.{.{.K.H.H.H.P.H.V.V.H.V.V.V.H.V.V.V.V.V.V.V.V.V.V.h.g.m.g.5.5.g.g.5.4.<.*.b M l.3X_.J.J.H.L.V.B.V.H.H.V.V.B.B.B.g.g.H.V.V.V.V.V.V.H.L.L.L.L.L.H.H.B.C.B.B.B.<.U E.H.m.B.m.m.m.m.m.u.u.u.r.~ ! j x t # # # # : : y p s d j A A C A S S S G G G G K L / *.<.5.g.h.h.h.h.h.g.%.g.g.1.<.*.L m m q q 0 8 8 0 0 5 <XSXVXBXBXZXdX9.5 * <XUX<X .* * * - * X + + X X X X ",
"> > > - - - - - = + + + + O & O + @ $ : : > p s s s j j A A A A S G G G K I <.m.H.K.)._._.(.(.).).I./ 2 @.5XDXDXDX9X5Xb.b.*XmXDXZXZXZXZXVXVXVXZXZXZXVXVXVXVXVX8XBXVX*X#XVXNXNXNX8X8X8X8X8X8X8X6X6X6X6X6X6X6X6X6X6X6X6X6X6X6X6X7X7X&X&X&X&X9.6.5.u.<.<.<.<.e.u.u.e.! R R R T T x x x f f a a a p i : + $ : i p a a a i t a f f f j A T T E E E ~ ~ ~ ) &.*.:.g.L.P.(.(.(.].(.].].`.].].[.[.[.[.[.[.[.[.[.).].[.[.{.{.{. X X X.X3X3X3X.X.X2X3X3X3X3X3X3XeX3X3X3X3X3XeXeXrXtX+X-.~ ! ! ! R T T x x x f : p f j A T E E E ~ ) 5.B.H.P.P.P.E.L.' 1.}.P.P.P.P.P.J.P.P.P.P.P.P.P.P.P.I.m.m.5.4.&.B }.lX3X2X2X2X X{..X.X X{.{.}.[.).{.{.{.}.{.}.}.}.].}.}.@XZ.-.q.! T T l s 6 $ @ 6 P X.$.=.6.7.6.H.x.K. X{.K.P.H.H.P.P.V.V.H.H.H.V.H.V.V.V.V.V.V.V.h.B.V.B.g.g.m.g.5.5.g.5.4.1.*.n M ,.3X[.J.J.H.L.V.V.V.V.H.V.V.B.B.B.m.g.V.V.V.V.H.V.V.H.L.P.L.L.L.H.H.H.B.B.B.B.<.B L.L.B.B.m.m.m.m.m.m.u.y.r.~ q.j x a + # # # : > > p s d j A A C S S S S S S G G K K L &.<.5.g.h.h.h.h.h.g.,.g.l.1.<.*.I N b q 0 0 8 0 0 8 5 9XSXVXZXZX9X+.5 * o 9.a.r * ; * * * X X + + X X X X ",
": > > - - @ - - = + + + + O & O + @ $ : : > p s s s j j A A A A S G G G K L / 1.B.K.).)._.).).).(.I.@.2 7.KXmX5X5Xc.c.b.5XDXDXSXSXZXZXZXZXZXSXZXZXZXVXVXVXBXBXBXBX#X .7XZXCXVXNXNXNX8XNX8X8X8X8X6X6X6X7X6X6X6X6X6X6X6X6X6X7X7X7X7X7X7X7X&X#X9.=.<.<.<.<.-.e.e.u.r.E R R R T T x x x f f a a a p i t # $ : i a a a a i i a f f f j F T T E E E ~ ~ ~ &.;.*.:.g.H.P.(.(.(.].(.].].].].[.[.[.[.[.[.[.[.[.[.)._.{.{. X X X.X.X.X.X3XeX3X.X2X2X3X3X3X3X3X3X3X3X3X3X3X3XeXrXrXtX+Xr.~ ! ! ! R T T x j j f : p f j A T K E E E ~ <.m.H.J.K.P.E.g.B A.}.P.P.P.P.P.P.P.P.P.P.P.P.P.P.E.I.j.g.u.4.&.B }.zX3X2X2X2X.X{. X.X.X{.{.}.}.[.{.{.{.}..X.X}.{.[.}.}.@XE.-.;.! T A x f p : + - F X.$.=.6.6.1.j.l.).2X{.K.P.H.H.P.P.V.V.H.H.H.V.V.V.V.V.H.V.V.V.V.V.B.B.g.m.m.5.5.5.5.5.5.<.-.C M %..X XJ.J.P.P.H.V.B.V.H.V.V.B.B.B.B.1.V.V.H.H.H.C.H.H.L.L.L.L.L.L.H.H.C.V.B.B.5.N L.L.B.B.m.m.m.m.m.m.u.y.t.~ q.T f f # # # # : : > p s d j A A C S S S S G S G G K K L ) *.1.g.h.h.h.h.h.h.g.g.l.1.,./ / J M 8 0 0 0 0 0 8 9 sXDXZXsX%Xr * * = X 8 8 * ; ; ; = = = + + + + + + X ",
": > > > - - - = + @ + + O O & O + $ $ : : > p s s d j j A A A A S G G G K K L *.g.L.P.)._._._.(.).E.#.2 =.1X7.x.K._._.mXDXmXSXSXSXSXSXSXSXSXSXSXSXSXVXVXVXBXZX9X#X . .7XZXCXCXVXVXBXBXBXBXBX8X8X6X6X6X6X6X6X6X6X6X6X6X6X6X6X#X7X7X7X7X7X7X&X9.7.=.-.<.<.-.-.e.u.e.~ R R R T T x x j f f f a a p i t $ $ : i p a a p t i a f f s A F G E E E E ~ ~ ~ &.;.*.:.g.H.P.(.(.(.(.(.].].].[.].[.[.[.[.[.[.{.{.{.).).{.{. X X.X.X.X.X.XeXeXeX2X.X3X3X3X3X3XrXrX3X3X3X3X3X3XeXrXrXtXqXe.~ ! ! ! R T T x f j f : p f j A T E E E E ~ =.g.H.J.J.P.I.#.( |.}.P.P.P.P.P.P.`.P.P.`.P.P.(.P.~.P.m.m.5.u.&.B }.zXrX2X2X2X.X X{..X.X X}..X}.].[.{.{.{.}..X}.}.{.{.}.wXQ.e.e.! T T T f p : $ : F P @.$.=.%.1.l.h.).2X{.P.P.H.H.P.P.V.V.L.H.H.V.H.H.V.H.H.H.V.V.V.B.V.B.B.m.g.g.5.5.5.u.5.,.-.J 8 %. X.XP.J.P.P.L.H.V.H.H.H.V.V.B.B.B.5.V.H.H.V.H.L.H.H.L.L.L.L.L.L.H.H.L.V.B.D.u.N L.P.B.B.m.m.m.m.m.Z.m.u.t.O.q.T s f : + $ # : : > p s d j A A A S S S S G G G S K K K ~ *.1.g.h.z.h.l.h.h.g.l.l.l.,.:./ U m 8 8 0 0 0 1 0 2 <XUX<X .5 * * - = X = - ; ; = = = = = = + + + + + + ",
"- ; > > - - - = = + + + O . & O + @ $ : : p p s s j j j A A A S S G T G G K L ) 1.B.P.(._._.).).).E.=.2 U 6.` v.2X_.lXmXmXSXSXSXSXSXSXSXDXDXSXSXSXSXVXVXZXZX7X..[ [ [ 7XSXCXCXVXVXVXVXBXVXBX8XBX8X7X6X6X6X6X6X6X6X6X6X6X6X6X#X..#X<XdX7X7X7X%X9.=.=.<.<.-.-.-.t.t.~ T R R T T T x x f f f a a p i t $ $ t i p a a p t p a f f f A G T E E E ~ ~ ~ ~ ) ;.-.:.5.H.P.(.(.`.`.(.].[.].[.[.[.[.[.[.[.[.[.[.{.[._.{.{. X.X.X.X.X.X.X3XrX3X2X2X3X3X3X3XrXrXrXrX3X3XrX3X3X2XrXrXtXqXe.O.~ ! ! R T T x f j f : p f j A T E E E E ~ *.g.V.H.P.P.D.( #.yX}.P.P.P.P.P.P.`.].].].(.(.(.P.].P.m.m.u.u.*.B }.zXrX2X2X2X.X.X X.X2X X{.}.}.[.[.{.{. X.X}.}.}.{.[..XwX+Xt.e.O.T Y T f p : $ - g P @.=.6.6.6.%.c.P.2X{.P.P.H.H.H.P.V.V.H.H.H.V.V.H.V.H.H.H.H.V.V.B.V.B.g.g.m.g.5.5.5.5.5.1.-.J 8 $.{.3X(.J.P.P.P.H.H.V.V.H.H.V.B.B.B.5.B.L.H.H.H.L.H.H.L.P.L.L.L.L.H.L.L.L.B.D.Z.N B.P.B.B.B.m.m.m.m.m.m.u.y.O.O.R s f y # $ $ : : > p s d g A A S S S S S S G K G K K K L &.<.g.h.h.h.h.h.h.h.g.l.l.5.,.#./ J n 8 1 1 0 1 0 ; +.a.r 2 ; ; = = + X = ; - - - - = = = * * * + + + + ",
"- > > : - - - = + + + + O & & O # $ : : > 6 s s d j j j A F A A G T T T G K K ) <.m.P.(.).).).).).(.6.2 m B.%.v.1XiXmXsXSXDXSXSXSXSXSXDXDXDXDXDXDXZXZXZX6X#X..[ r r 5 *XDXVXVXVXVXVXVXVXVXVXVXVXBX6X6X6X6X7X6X6X6X6X7X7X6X6X7X..[  .8.%X%XdX<X#X=.;.-.e.-.-.r.r.t.~ R R R R T T x x j f f a p p i : $ $ i p a a a p t a a f s j A F G E E E E E ~ ~ ) _ -.-.5.V.P.(.`.].(.(.].[.[.[.[.[.[.[.[.{.{.{.[.{.[.).{. X X2X2X2X2X2X2X3XrX3X2X3X3X3X3X3XrXrX3XrXeXeXrXrXeXeXrXrXtXqXt.O.~ ! ! R T T T j j f : p f j A T G E E ~ ~ &.5.B.H.H.P.u.U l.rX[.P.P.P.P.P.P.(.].].P.).(.`.E.].I.m.m.5.u.*.B |.zXrX3X2X2X.X.X X2X2X{.{.{.{.[.[..X X X.X X.X.X{.[.}.@X@Xu.;.q.R Y T f p : $ @ 0 P X.$.6.6.<.$.H.P.rX[.(.P.J.J.H.P.V.V.L.H.H.V.V.H.V.H.J.H.J.V.V.V.H.V.B.B.m.m.5.5.5.5.5.4.4.J M / _.3X).J.P.P.P.H.H.C.C.L.L.H.V.B.B.g.B.P.H.H.H.L.L.L.P.P.P.L.P.L.L.L.L.L.B.L.B.B j.E.B.B.B.B.m.m.B.B.B.u.Z.;.q.! s f p # # $ : : > p s d g G S S S S G S G G K K K K K L ) <.g.h.h.h.h.h.h.h.h.g.l.l.,.%.#.U J b 1 1 1 1 1 0 8 8 q 8 ; ; - = + X + - ; - ; - = = = = = = + + + X ",
"; ; : : : - - = - + + + O & & + + $ : : > p s s s j j A A A A A G T T T T K K ~ *.g.H.(.).).).).).(.5.2 M g.x.v.5XmXmXZXSXDXSXSXSXDXDXDXDXDXDXDXDXDXZX7X.. .[ r 5 7 5 #XDXSXSXSXFXVXVXZXZXVXVXVX8X6X6X7X6X6X6X6X6X6X7X7X7X6X7X#X .+.[ [ +.9.a.%Xp.o.-.e.e.-.-.e.e.O.R R R R T T x j f f f a p p i : $ : i p a a p i p a a f s j A G G E E E E E ~ ) ) _ ;.) <.B.P.P.`.`.(.(.].[.[.[.[.[.[.[.{.{.[.{.{.{.{._.{. X X2X2X2X2X2X2X3XrXrX3X3X3XrX3X3XrXrXrXrXrXrXeXrXeXeXrXrXtXyXt.O.~ ! ! R T T T x x f t p f j A T T E E ~ ~ &.<.B.V.H.I.*.B H.rX).P.P.P.P.P.P.).].{.).).].`.P.].I.m.m.5.4.=.B |.zX3X3X2X2X.X.X X.X2X.X{.{.}.{.[..X X{. X.X.X.X.X[.}.@XyXD.-.q.R Y T j p : $ @ 0 G I =.<.<.6.$.H.).rX[.(.P.P.J.P.P.H.H.L.L.H.H.V.H.V.H.J.J.J.V.H.V.H.V.B.B.m.m.m.5.5.5.5.4.4.I M / (.3X_.K.J.P.P.H.H.L.L.H.H.H.V.H.A.g.h.P.H.H.H.L.L.L.P.P.P.L.P.P.P.L.L.L.H.B.D.U g.E.V.V.B.B.m.B.B.B.B.m.Z.r.q.q.j p a $ $ $ $ : : p s d g T K G G G G G G G K K K K K K / *.1.g.h.h.h.h.h.B.B.g.g.g.l.,.#.@.I m q < < 0 0 1 0 q 0 1 ; ; - - - + + - ; ; ; = - - = = - = + + + + ",
"; ; > > : : - = - + + + O & & # # $ : : > p s s j j j A A A A G G G G T G K K ~ *.g.H.P.).).).).).).5.M 2 6.l.).5XmXmXVXDXSXSXSXDXSXDXDXDXDXDXDXDX7X8.....[ r 5 5 8 5 9.DXDXDXSXSXFXVXSXZXVXVX8X8X6X6X7X=X7X7X6X6X6X7X7X7X7X6X7X+.+.+. .r e H +.p.;.~ e.e.-.-.e.t.;.! R R R R T x x f f f a p p i : $ i i p a a p : p a f p f A F G T E E E E E ~ ) ) ;.;.L :.B.P.P.(.].(.`.`.[.[.[.[.[.{.{.{..X{.{.{.{.{.)..X X2X2X2X3X3X3X3XeXrXrXrX3X3XrX3X3XrXrXrXrXrXrXrXrXeXrXrXrXtXyXy.O.~ ! ! R T T T x x f : p f j A T E E E E ~ ) <.m.V.L.B.( U ~.rX).P.P.P.(.P.`.].[.{.{.].].(.].].P.B.m.6.4.=.B ~.zXfX3X3X2X.X.X X.X2X2X{.{..X.X[..X X X.X.X.X.X.X{.}.}.yXE.-.e.! T T j s i $ @ 6 F I $.<.6.1.%.K.).fX].(.P.P.P.P.P.H.H.L.L.H.H.H.H.H.H.J.J.J.H.H.V.H.H.B.B.B.m.m.5.m.g.5.4.4.o.2 ( K.fX_.(.P.P.P.L.L.L.H.L.H.H.V.B.H.B.g.P.H.H.J.P.L.L.L.P.P.L.P.P.P.L.L.L.L.H.L.( ,.|.V.V.B.B.B.B.B.L.L.m.Z.i.O.q.T p f t # # $ t : p s d g G ~ P K K K K G K E K K K K K L *.,.g.h.h.z.h.h.h.h.g.g.g.g.1.,.#.@.U Z 8 < < 0 0 1 0 1 1 ; ; ; - - + + : ; ; ; ; - - - = - = = = + + ",
"> - : : - - - - - + + + O & O # # : : : > p s s j j j A A A A G G G G E G K K ~ *.1.V.P.).).).(.).(.g.M 2 #.,.K.lXmXsXSXDXSXSXDXDXDXDXDXDXDXUXsX%X .[  .[ 5 5 8 8 8 5 r sXDXSXSXDXSXSXSXVXVXVX8X8X6X6X6X7X&X7X7X6X6X7X7X7X7X7X7X9.r e +.H l g w P E ~ ;.-.-.-.e.e.;.! R R R R T x x f f f a p p i : $ i i p p a p : p a a p j A F G T E E E E E ~ ) &.;.;.L *.D.P.P.(.(.(.(.(.[.[.[.[.[.{.{.{.{.{. X X X{.).2X.X2X2X2X3X3X3X3XrXrXrX3X3X3XfXrX3XrXfXfXrXrXrXrXrXrXrXrXrXtXyXy.;.~ ! ! R R T T x x f : p j j j A T E E ~ ~ ) *.5.B.L.g.B ( |.2X).`.P.P.P.(.P.].[.].{.].(.].].].P.m.m.5.4.=.N P.zXfX3X3X.X.X.X.X.X2X2X X X.X.X[.{..X X.X.X.X.X.X}.}.2XyX+Xt.e.! T T T f p : $ : C P @.<.1.1.1.Y._.rX).(.P.P.P.L.P.L.H.L.L.L.L.H.P.H.L.P.J.P.P.L.H.V.H.B.B.B.m.m.5.u.g.5.5.t.&.M U H.eX X(.P.P.P.P.L.L.H.L.L.H.H.H.H.B.,.P.P.H.J.L.P.P.P.P.E.P.P.P.L.L.L.L.L.H.R./ %.|.L.V.L.D.B.B.L.L.L.D.B.S.;.e.! s s t $ $ $ : t y p s g G o.~ P P P K K K E E K K K K L ) <.g.h.V.H.z.h.B.B.h.g.g.g.l.,.%.#.#.I Z b 8 1 1 0 0 1 1 1 > > > - = + : ; ; ; ; ; - - - - = = = + + ",
"> - - : : : - - - + + O O & & # # : : : y s s s j j j A A G S S G G T E T K K ) *.1.B.P.(.).[.).).(.h.m 2 U %._.mXmXsXSXSXSXDXDXDXDXDXDXDXDX7X0.[ 5 5 r 5 5 8 8 8 8 5 5 9.IXDXDXDXSXSXSXVXZXVX8X6X6X7X7X=X#X&X7X7X6X7X=X7X7X7X7X%X[ 7 w F F F F C G E ~ ;.;.-.e.r.~ ! R R T R Y x x f f f p a p i t $ t p a a p i t a f a p j A F G G E E E E E ~ _ &.&.;.L / B.P.P.(.(.].].(.[.[.{.{.{.{.{. X X X X X X X[.2X.X2X2X3X3X3X3X3XeXrXrX3X3X3XfXfX3XrXfXfXrXrXrXrXrXfXrXrXtXtXyXZ.;.~ ! ! R R R T x x f y p j j A Y T E E ~ ~ ~ *.5.Z.g.<.( / 1X}.(.].P.`.(.(.(.].].P.].[.].).].].P.A.m.6.4.-.B L.zXfX3X3X.X.X2X.X.X2X2X.X.X.X.X[.{..X.X.X.X.X.X.X.X}.2XwX0Xu.r.O.T T T j p i $ : g P @.<.<.1.1.v.{.rX).(.P.P.P.P.P.P.H.P.P.P.L.V.L.H.P.P.J.J.P.H.H.H.H.V.B.B.m.m.6.y.g.5.5.t.;.M U z.eX X(.(.P.P.P.P.P.L.P.L.L.H.H.H.L.,.L.P.H.J.P.P.P.P.P.P.P.P.P.P.L.L.I.P.L.E.<.%.@XL.H.H.B.D.C.L.L.L.L.B.E.e.;.O.g p p $ $ $ : y y p s g G o.&.~ I ~ I I L K K K K K K L / *.1.g.h.H.V.h.H.V.h.g.g.g.l.1.,.%.%.#.U m b 8 < 0 1 < < 1 > > > > - + ; ; ; ; ; ; ; - - = = = = = + ",
"> ; - > : : - - = + + O O & O # # : : > p s s s d j A A A G S G G G E E K K L ) *.1.B.P.).)._.).).(.V.B 2 m ,.5XmXsXsXSXSXSXDXSXDXIXIXDXsX#X .r 5 2 8 8 8 8 8 8 8 5 ; 5 r sXDXDXDXDXDXSXVXZXVX8X6X7X7X#X#X#X#X&X7X7X7X=X7X7X7X7X&X[ 7 7 l F R F C S G E ~ ;.-.e.e.~ ! R R T R Y x x j f f f p p i t $ t p p a a t i a f a s j A F G G E E E E E ~ ;.&.&.;.I I B.P.P.(.`.].].(.[.{.{. X{.{..X X.X X.X.X.X X_.2XeX2X3X3X3X3X3X3XrXrXrXrX3X3XfXfXrXrXfXrXfXrXrXfXrXrXrXrXrXgXtXR.;.~ ! E ! R R T x x f y p f j A T T E ~ ~ ~ ~ &.<.u.#.<.*.%.wX].(.].P.`.).].].].].P.].}.].].].].P.A.m.6.4.-.B A.zXhX3X3X2X.X.X.X.X2X3X2X.X.X.X{.[..X.X.X2X.X.X.X.X}..XwXyXZ.r.e.R T T x p i $ : s J @.=.<.1.1.c.{.gX].(.P.P.P.P.P.P.L.P.P.L.P.H.L.H.P.P.P.J.J.P.H.H.H.H.B.B.m.m.6.m.m.5.5.t.-.M B h.eX.X(.(.(.P.P.P.P.H.P.L.L.H.H.H.L.1.B.P.H.P.P.P.P.P.P.E.P.P.P.P.L.I.P.P.P.P.5.#.@XP.H.H.H.L.L.L.P.E.E.D.~.S.-.e.T s p : $ $ : > p p s g C o.-.&./ &.&.I I L L L L L L L / *.1.g.h.V.H.h.H.H.B.j.g.h.l.l.1.,.,.<.#./ J n 0 1 1 < < < 1 > > > - = - > ; ; ; ; ; ; - - - - = = = ",
"> > - : : : : - + + + O O & O # $ : : > p s s d j j A A G S G T G G K E K K ~ ) :.m.V.P.).)._._.).).J.U 2 M %.5XmX9XSXSXSXDXDXDXDXIXDX9X9. .5 2 2 8 8 8 8 8 8 < 8 5 ; 8 5 9.IXDXDXDXDXSXZXZXVX8X9X7X=X#X$X$X$X#X&X7X7X7X7X7X&X7X&X .7 0 l F F C C S G E E O.;.e.e.O.! R T T R Y x x x f f f p p i t $ : p p a p i p f f p s A A F G T E E E E E ~ ;.;.&.;.) U B.P.P.(.`.).].(.].{.{. X X.X.X.X.X2X2X2X.X.X[.2X2X2X3XrX3X3X3X3XrXrXfXrX3X3XrXhXrXrXfXfXfXfXrXfXrXrXrXtXrXtXtXR.;.~ ! ! R R T T x j f y p j j A S T E ~ ~ ~ ~ ) -.e.U <.*.<.wX).`.`.E.`.].].].].`.P.P.[.].].].].P.A.m.6.t.3.U j.zXlX3X3X3X.X2X2X.X2X2X2X.X.X.X{.[..X.X.X2X.X.X.X.X}.}.wXtXE.r.e.! T T T f i : : 6 F X.=.<.1.1.l.2XjX].).(.P.P.P.P.P.L.P.P.P.L.L.L.H.P.P.P.P.P.P.J.H.H.L.B.B.B.m.m.y.m.g.5.4.-.m m l.eX3X_.(.(.P.P.P.J.H.P.L.L.H.H.H.L.g.g.].P.P.P.P.P.P.E.`.`.P.P.P.L.E.P.P.P.E.B.#.@X`.H.H.L.L.P.P.E.E.E.E.~.OX<.e.! g s i $ $ : > 6 p s j C ~ -.-.*.=.-.*./ ) / / I ~ I L / _ <.g.B.B.H.H.H.V.h.h.g.h.h.g.l.1.5.,.,.*./ J n q 1 1 1 1 > > > > ; = - > ; ; ; ; ; ; - - - - = = = ",
"6 > - : : : : = + + + O O & O # $ : : > p s s j j j A A G G G T G K E E K K ~ &.<.m.V.P.).)._._.).).J.@.2 2 $.5XiX9XDXSXSXDXUXsX9.<XdX9. .5 8 8 8 8 8 8 8 8 8 > < 8 ; 1 8 5 dXIXDXDXDXSXSXSXVX8X9X7X#X$X#X$X#X#X#X7X=X7X7X7X&X&X#X .7 l l P F g C S S G E ~ ;.e.e.e.! ! T T R Y x x j f f a a i i i $ : p p a i i p a f p s A A G G G E E E E E ~ ;.-.&.;.&.U m.P.P.(.(.].[.(.(..X X.X.X.X.X.X.X2X2X2X.X2X[.2XeX2X3XeXrXeXrXrXrXrXhXfXrX3XrXjXrXrXfXfXfXfXfXfXfXgXrXtXfXtXpXE.;.O.! ! ! R T T x j f y p j j A T T E ~ ~ ~ ~ ) -.-.J <.*.g.wX).(.`.`.(.].].].].`.E.P.].[.].].].P.A.m.6.4.4.U ,.jXlX3X3X3X.X.X3X.X2X3X2X.X.X.X.X[..X.X.X2X.X.X.X.X.X}.wXtXOXe.e.O.T T T j p : : 6 F X.$.<.1.1.h.2XjX[.].(.(.P.P.P.P.L.P.P.P.P.L.H.L.P.P.P.P.P.P.P.J.L.L.B.B.B.m.m.m.m.5.5.4.-.Z M x..X3X_.(.(.P.P.P.P.P.P.P.P.L.H.H.L.B.,.].P.P.P.P.P.P.`.`.`.P.`.E.P.P.P.P.P.E.L.%.|.].J.P.L.L.L.P.E.`.`.E.E.qXZ.r.e.F s i $ : : : 6 p s g C K r.<.<.<.<.<.=.*.*.&.) ) ) ) / *.:.g.h.B.H.v.V.H.H.B.j.h.h.g.g.g.g.l.1.,.*./ J n q 0 1 1 > > > > > = - > ; ; ; ; ; ; - ; - - = = = ",
"0 > - - : - : - @ + + O O & O $ $ : : y p s d j j j j A G G G G K K K E K ~ &.*.1.B.H.(.)._._._.).).K.#.< 2 B 1X9XmXDXDXDXDX<X .2 B 7.V 2 2 8 8 8 8 8 8 8 8 8 8 8 8 2 < 8 5 V sXIXDXDXSXSXSXZX9X7X0...9.#X$X$X#X#X#X&X7X7X&X&X#X#X+.e l l F F C Z Z G G T ~ O.;.;.;.! ! R Y Y Y Y x x f f a p i i i $ $ p i a t i a a f s p j T F G G E E E E E ~ ;.*.*.-.*.U m.P.P.(.(.).[.(.]..X.X X.X.X.X.X2X2X2X2X2X2X{..XeX2XeXeXrXrXeXrXfXrXjXfXrX3XrXjXrXfXfXgXfXfXfXfXfXrXrXtXgXtXxXE.-.O.! ! R R R T x f f y p j j A Y T E E ~ ~ ~ ) ;.;.Z -.#.B.wX(.`.(.(.(.].].].[.(.`.P.].}.[.].].E.A.m.m.6.4.U #.jXkX3X3X3X2X.X2X.X2X2X2X.X.X.X.X[. X.X.X.X.X.X.X.X.X.XwXtX+Xu.r.q.T R Y x p : : > g P ;.=.1.6.c.rXjX{.[.`.(.P.P.E.P.P.P.P.P.P.P.L.P.P.P.(.P.P.P.P.P.P.L.B.B.B.m.m.m.m.6.5.5.t.J b ,..XfX_.(.P.P.P.P.P.P.P.P.P.P.L.L.L.B.%.E.`.P.(.P.P.P.`.].`.P.(.`.P.P.P.P.`.E.P.<.|.}.P.P.P.P.P.P.`.].].].E.qX~.<.r.R f p $ : : t y p s g A G -.4.4.<.u.5.6.<.:.<.*.*.*.*.*.*.:.1.h.B.V.H.V.H.H.H.h.h.h.h.h.g.g.g.l.1.,.*./ J n q 0 1 > > > > > ; = ; ; ; ; ; ; ; ; ; - - - - = ",
"0 6 > - - - : - @ + + O O & O $ $ : > y s s d j j j j F G G G G K K E E E ) *.<.m.L.P.].[._._._.].).K.<.M * M T.sXDXDXDX9X7.M M M M 2 2 2 2 8 8 8 8 8 8 8 8 8 < 8 8 < < ; 8 5 +.IXIXDXDXSXZXZXsX9.5 r 8.#X#X#X#X#X#X&X#X#X&X&X#X#X .l l H F g C C Z A G T E ~ ;.;.;.~ ! R R Y Y Y x x f f f p p i t $ : a a i t p a a f f s s j F T T T E E E E ~ ;.-.-.-.-.U m.P.P.(.(.).[.).]..X.X X2X2X2X2X2X3X3X3X2X3X X.XeX3XrXrXrXrXrXrXrXrXjXfXfXrXfXjXhXfXfXgXfXfXfXfXfXfXgXjXjXrXxX~.r.O.! ! R R R T x f f p p j j A T T E E ~ ~ ~ ~ ;.;.Z &./ L..X(.].`.(.].].[.[.].(.].P.(.}.}.[.].].A.Z.m.6.4./ ( rXkXrX3X3X2X.X3X.X.X3X2X2X.X.X.X[. X.X.X2X.X.X.X.X2X.XwXtXyXZ.r.e.R T R x f : : : g P ;.=.6.1.c.rXjX{.[.].`.(.P.E.E.P.P.P.P.P.P.P.P.P.(.(.P.P.P.P.P.P.P.A.B.B.B.m.m.m.6.6.5.u.I b %.{.fXoX(.E.P.(.P.P.P.P.P.P.L.L.L.L.L.%.P.[.P.(.(.(.(.`.].].`.`.`.P.P.P.`.].].].g.P.wX(.(.(.E.E.P.].].].|.|.+XqXu.r.O.x a : : : t p p s g A G &.6.4.5.u.m.j.5.1.1.,.<.<.<.:.:.1.g.h.V.V.H.H.H.H.H.B.h.B.h.h.h.h.j.g.g.,.<.*.I J n q 0 0 > > > > > - ; ; ; ; > > ; ; ; ; - - - - ",
"0 6 > - - : : - @ + + O O & O $ : : y p s d j j j j A G G G K K K E E E ~ *.<.u.B.I.(.)._._._.).).).K.1.n * 2 c.mXmXiX9.V M M M M M M M 8 8 8 8 8 8 8 8 8 8 < < > ; 8 < ; < 2 5 a.IXDXDXSXZXsX9.5 5 * l 8.#X#X#X#X#X&X&X#X&X&X#X#X[ [ +.H F q C C S S G G E ~ ~ ;.e.q.! ! R R Y Y x x z f f a p i i $ t a a i t a a a f f f s s j T T T E E E L ~ ;.-.-.-.<.U 5.P.(.].).).[.].)..X2X2X2X2X2X2X2X3X3X3X2X2X2X.XrX3XeXrXrXrXrXrXfXfXjXfXfXfXfXjXjXfXgXjXgXgXfXfXgXfXgXjXgXjXxX+Xr.e.! ! ! R T T x f f p a f j A T T E E ~ ~ ) ) ;.;.Z L / E.}.(.].].`.`.`.[.[.`.(.].H.P.}.[.[.}.].D.S.m.6.4.*.U 1XcXfX3X3X3X.X3X3X X3X3X2X.X.X.X{.{..X.X2X3X2X.X.X2X.XwXtXyXD.r.e.! T Y T f : : : 0 H @.=.6.1.c.rXjX{.[.].(.(.(.(.(.P.P.P.P.P.P.P.P.P.P.(.(.P.P.P.P.P.P.L.A.B.m.m.m.m.6.5.u.t.o.b ( ].fX X(.`.(.(.(.P.P.P.P.P.L.L.L.L.L.,.B.}.(.(.(.`.(.].].].].].].`.P.`.`.].].].B.B.tX(.(.(.E.E.`.].}.}.|.|.|.aXE.e.e.T f t : : t p p s f A G ~ y.5.u.m.A.A.B.g.g.g.5.1.1.1.1.1.g.h.V.H.H.H.H.H.H.V.h.h.h.h.h.h.h.h.g.g.,.<.*.I J n q q 0 0 0 0 > = > ; ; 1 < > ; ; ; ; > - - - ",
"0 > > - : : : - @ + # O O & + $ : : 6 p s d j A A j A T G G K K E E E ~ ) -.1.m.H.P.]._._._._.).).).P.g.m 2 2 $.T.6.B M M M M b M M M 8 8 8 8 8 8 8 8 8 < < < < > < 8 < < < < 8 5 dXIXDXZXsX9.5 2 0 ; * [ 8.#X#X#X#X#X#X#X#X#X#X8.[ } X.H w q C C C S S G E E ~ O.O.q.A R R Y T Y x x f f a a a i i $ t i a t t a f f f f f f f p s j T T E E ~ ~ -.<.<.<.<./ 5.(.(.).[.[.[.).)..X.X2X2X2X3X2X2X3XeX3X3XeX2X XrXeXeXrXfXrXrXfXfXjXjXjXfXfXfXjXjXgXgXjXgXgXfXgXgXfXgXxXjXjXxX+Xr.e.! ! ! R T T x f a p p j j A Y T E E ~ ~ ~ ~ ;.;.Z Z #.|.[.(.`.`.].`.[.[.[.].(.].P.P.}.[.{.}.].D.D.m.6.5.*.U [.cXfXrX3X2X2X3X3X X2XeX2X2X2X.X.X{..X.X.X2X2X.X.X.X.X.XtXpXE.r.e.O.T T T f > : : 0 H X.=.6.1.h.rXjX{.[.].`.(.(.(.`.P.P.P.P.P.P.P.P.P.(.(.(.(.P.P.P.P.E.L.B.B.B.m.m.m.y.y.u.u.;.b ( (.gX X).].(.(.(.P.P.P.P.E.P.L.L.L.L.g.,.wX].(.(.`.`.].[.[.].`.].`.E.`.].].].].L.l.eX[.).].].].].].}.}.}.}.|.yXqXu.e.O.j t : t t p p s s j G P 4.m.m.m.A.H.B.B.h.h.g.g.g.g.g.g.j.B.H.H.J.H.H.H.H.H.h.h.h.h.h.h.h.h.h.g.,.,.<.#.I J Z n q 0 0 0 6 - 6 ; 1 0 1 1 > ; ; ; > : - - ",
"0 6 > : : : : - @ + + O O O + $ : : p p s d j A A j F T G G G K E E L ~ *.1.m.C.P.).[.[._._._._.).).(.j.J < * m B M N M M M M M M 8 8 8 8 8 8 8 8 8 8 8 8 8 < < < < 8 8 < < < < 2 r sXIXsX9.5 2 2 8 8 7 5  .8.#X#X#X$X#X#X#X#X#X8.r +.X.H 0 q C C C S S S E E ~ ~ O.q.A Y ! R T Y x x f f a p a i i $ t i a t i a f f f f f f f f p s g G E E E ~ -.<.1.1.i./ 5.(.(.].[.[.{.[.[.2X2X2X2X3X3X3X3X3XrXeX3X3XeX.XrXrXrXrXrXrXrXfXfXhXjXjXfXfXfXjXjXgXgXjXjXjXjXjXgXfXjXjXjXjXxXqXe.O.! ! R R T T x f a a a j j A T T E ~ ~ ~ ~ ~ _ O.Z m <.}.[.(.(.`.].`.[.[.[.].].].P.P.{.{.[.{.].D.D.G.y.6.<.U I.zXjXrX3X3X3X3XeX2X2XeX2X2X2X.X.X X.X2X.X2X2X.X2X2X.X.XeXtX~.t.e.q.T T x f p : : 0 J X.=.6.1.h.rXjX{.{.).(.].(.`.].(.P.P.P.P.P.P.P.P.(.`.(.(.(.P.P.P.E.L.A.D.B.m.m.m.y.y.u.t.-.m U P.fX X_.`.(.(.(.P.P.P.P.E.P.P.I.L.L.m.%.}.[.(.`.].].].].].].].].].`.`.].].].].`.x.wX.X].].].].].}.}.}.}.}.|.0XaXR.i.e.Y y t t t p p s s j G K =.m.m.j.A.I.H.V.V.B.B.B.B.B.B.B.B.V.H.J.J.J.H.H.H.H.h.V.V.h.h.h.h.h.h.h.l.,.,.:./ L J Z C C q q 0 ; 1 0 0 0 1 < > > ; ; ; > ; - ",
"0 > > : : : : - @ + + O O & + $ : : p s s g j A A j F T G G K K E E ~ &.<.g.B.P.P.].[.[.{.{._._.)._.(.B.U < * < =.N N M M M M M 8 8 8 8 8 8 2 8 8 8 < 8 8 8 < < < < 8 8 2 8 < < 8 2  .<X9.5 2 ; ; 8 8 8 * 5 +.9.#X#X#X$X#X#X#X#X+.r +.X.F 0 q b D C C S G G E E ~ O.q.! T R R T Y x x z f a p i i i $ t a i v i a f z f f f f f l f f s 0 C E E ;.-.u.m.u.m./ m.`.].[.{.[.{.[.[.2X3X3X2X3X3X3X3XrXrXrXrX3XeX2XrXrXrXrXfXfXrXrXfXhXjXjXjXfXhXjXjXjXjXjXlXjXjXgXgXgXjXxXjXjXxXqXe.e.! E ! R Y Y x f a a f f j A T T E E ~ ~ ~ ~ ~ O.G m u.|.].P.(.].`.].[.[.[.[.[.[.].P.[.{.{.}.].I.S.m.m.5.<.U A.zXlXrX3X3X2X3XeX2X2X3X3X2X.X.X.X X.X2X2X3X2X.X2X2XwX.XeXgX+Xu.r.q.R T T l p : : 6 F X.;.6.1.h.2XjX X{._.(.].`.].].(.P.P.P.P.P.P.P.P.P.`.(.(.(.P.P.P.P.E.L.D.D.m.m.m.y.y.u.u.-.m B H.fX3X_.).].(.(.`.E.P.P.E.P.L.I.I.L.A.( P.2X).(.].].].[.[.].].].[.].].].].[.].|.l.[.rX].].].[.}.}.}.2X}.}.@X}.pX+Xu.r.R f : t t p s s s j F K &.Z.B.h.A.I.H.H.H.H.H.A.B.H.H.V.B.B.H.J.J.J.H.H.J.H.V.h.V.h.h.h.h.h.h.h.l.1.,.,.:./ L J Z Z C C d ; 0 q 8 0 1 1 > > ; ; > > ; ; ",
"0 > > > : : : - @ + + O O & # $ : : > s d d j A j A T T G E K K K ~ &.<.5.B.H.P.).[.{. X{.{.{._.]._.(.B.U 8 * * G.@.M M M M M M 8 8 8 8 8 8 8 8 8 < < 8 8 8 8 < < < ; 8 8 2 < < 8 8 2 2 2 2 8 1 ; ; 6 6 ; * r 8.#X%X#X$X#X#X#X9.+.l X.P w g 0 q d C C Z G G T E ~ ~ ! q.R R R T x x x z f a p i i t $ i i t v a f f z x x x x x l l x l g f g E ;.<.m.B.m.m.%.B.].[.{..X X X{.{.3X3X3X3XrXrXrXrXrXrXrXrXrXeX2XrXfXrXfXfXfXfXfXjXhXjXjXjXjXjXlXlXjXlXlXjXjXjXjXgXjXjXxXjXjXxXqXt.;.! ! ! R T T x f p a f f j A Y T E E ~ ~ _ _ ~ O.G Z Z.|.].P.].].].].[.[.[.[.[.{.{.).{.{.}.}.].L.B.m.m.y.t.I 6.kXkXrX3X3X3X2XeX3X2XeXeX2X.X.X.X{..X2X.X.X2X.X.XwXwX.X2XtXyXy.r.e.! T R x p : : 6 F X.;.6.1.l.2XkX2X{.[.].].].].].].(.P.P.P.P.P.L.P.P.`.(.`.(.P.P.P.E.E.L.D.B.m.Z.m.y.y.y.u.t.J m g.fX3X_.].].(.(.`.`.P.P.E.P.L.L.L.D.D.( h.eX[.].].].].].}.[.].].}.].].[.[.[.}.@Xh.K.jX{.{.{.}.}.}..X2X2XwXwX}.yXpXR.r.q.j p : t p s s f j F G ~ y.m.B.B.L.P.J.H.H.L.L.H.H.H.P.H.H.H.J.J.J.J.J.P.J.H.h.H.V.V.h.B.h.h.h.g.g.1.,.<.*./ I K K Z Z C q 8 C 0 0 1 1 > > > > > > ; ; ",
"0 0 6 > : : : : @ + + O O O $ $ : 6 p s g j A A j A T T E E K E ~ ~ *.5.m.H.P.).].{.{. X{.[.{.{.[._.(.A.U 2 * * I.T.M M M M M M 8 8 8 8 8 8 8 8 8 8 < < < 8 8 < < < ; < 8 8 8 < < 8 8 8 8 8 < 1 ; ; 6 > 1 < 5 r 8.#X#X$X$X#X#X8.+.+.X.H 8 g 0 q d D C Z S G G E E ! ! ! ! R R T Y x x z f a a i i t $ i i t t a f f z x x x x x T T Y R Y T j C P t.D.L.L.L.<.B.}.}..X2X X.X.X{.3X3XrXrXrXrXrXrXfXfXrXrXrXrX3XrXfXfXfXfXfXfXfXjXjXjXjXjXjXjXlXkXjXlXlXlXlXjXjXjXjXjXxXxXjXcXaXt.e.! ! ! R T T T f p a f f j T T T E E ~ ~ ~ ~ ~ O.G m Z.|.`.P.].].[.].[.[.[.[.[.}.}.{.}.{.}.}.}.I.D.D.j.y.t./ <.jXkXfX3X3X3X3X3X3X.X3XeX2X.X.X.X X X2X.X.X2X.X.X.XwX.X3XgXaXS.r.e.! T T x f : : 6 F P ;.=.1.l.{.kX2X X[.[.[.].].].].(.(.(.(.`.P.P.P.J.`.`.`.(.(.P.P.E.E.L.D.B.m.Z.m.m.y.u.u.t.P m 1.eX3X[.].(.(.(.`.`.P.P.E.P.P.I.L.L.D.#.%.eX{.[.[.[.[.[.}.}.{.[.}.}.].].}.}.}.@XP.h.jX}.}.}.}.}.}.2X2XwXwXwX1XyXxX+Xt.e.T p t t p s f s j A G E 4.D.B.B.L.P.K.H.H.L.L.L.L.P.P.P.H.H.J.K.J.J.P.P.P.H.h.V.z.z.z.h.V.h.h.g.g.1.,.,.:.*./ I K K K G n 8 G w 0 0 1 1 > > > > > ; ; ",
"0 0 6 > : : : : - @ + + O O $ $ : 6 s s g A A A j F E E T E E ~ ) *.<.m.L.P.`.].[.{.{..X{.{.{.{.[._.(.h.U < * * j.uXB 2 M b 8 2 8 8 8 8 8 8 < < 8 8 8 < < < < < < ; 8 ; < < ; < < < < < < < < < < ; ; 8 8 8 8 5 r 8.#X#X$X#X#X8.l F X.w 8 d q q d d C Z S S E E E ! ! ! ! R R Y Y x x f f a a i i v $ i i $ i a f f x x j j x T T Y R O.O.O.E P K t.R.E.E.~.1.H.}.2X2XeX2X2X2X.X2XrXrXrXrXrXrXrXfXrXrXrXrXrXeXrXfXrXrXfXfXfXjXjXjXjXjXjXjXjXlXzXjXjXjXjXjXjXjXjXjXxXxXxXzXcXaXu.e.! ! R R Y Y x f y a f f j T F T E E ~ ~ ~ ~ ~ O.E b m.].`.E.].].].].[.[.[.[.[.}.}.{.{.{.{.}.}.I.A.D.m.6.4.@.#.tXzXfX3X3X2X2X3XeX.X.XwXeX2X.X.X.X X.X.X.X.X.X.X.X2X2X3XtXtXR.r.e.O.T R T f : : 6 l P ;.=.4.1.T.jX2X X[.[.[.].].[.].(.(.`.`.`.(.P.P.H.(.].(.`.(.].(.P.P.L.A.D.m.G.m.m.y.y.u.t.o.m <.2XfX{.].(.(.(.`.`.`.E.E.E.P.I.I.L.L.<.( 2X2X[.[.[.[.[.}.}.[.}.}.}.].].}.}.}.}.}.g.tXwX{..X.X.X.X2XwXwXwXwXwXyXtXaXS.r.! f t : p p f f j A T P &.D.B.B.A.P.P.H.H.P.P.P.P.P.P.P.J.H.P.P.P.P.P.J.J.J.h.H.V.z.z.z.v.v.h.h.g.l.l.,.<.:.#./ L L L K K n K Z 8 0 1 0 > > > > ; - - ",
"s 0 p > : : : : - + + + O O $ $ : p s g j A A A j T E K E E E ~ &.<.u.B.P.`.].].{.{.{. X{. X{.{.[.[.).h.U < 2 * 1.xXA.2 2 8 8 2 8 < < 8 < 8 8 8 8 8 < < < < < < 8 8 8 < 8 8 ; ; < < < < < < < < 8 ; ; 8 8 8 8 8 5 r 8.#X#X8.9. .8 w w 8 8 q q q q d D C S S E E E ! ! ! R R R R Y x x f f a a i i v v i i $ i a f z x x x T T T Y R O.O.O.O.O.O.o.=.G.~.~.|.1.Y.eX2XeXeX2X2XeX2XrXrXrXrXrXrXrXrXfXfXfXrXfXfXrXrXjXjXfXjXfXgXjXjXjXjXjXjXjXjXlXzXjXjXjXjXjXjXjXjXjXxXxXxXzXcXaXu.e.~ ! R R T T x f y f f f j T F T E E ~ ~ ~ ~ ~ O.G b G.].`.E.].[.].].[.[.[.[.[.}..X{.{.{. X}.{.I.A.D.m.y.5.*./ wXcXhX3X3X2X2X3XeX2X.XeXeX2X.X.X X{..X2X.X.X.X2X.X2XeX2XrXxX~.t.e.O.T R T j 6 : 6 g P &.=.4.1.H.jXrX X{.[.[.[.].[.[.`.(.`.`.(.(.P.`.P.P.].(.(.`.].).P.(.P.D.D.S.G.m.m.m.y.t.t.&.m $.}.fX X].].).(.`.`.`.`.E.`.P.P.P.L.L.m.B T.rX[.[.[.[.[.}..X}.}.}.}.}.}.}.}.}.}.@Xh.}.jX2X2X.X2X2X2XwXwXwXwXwX0XyXxX+Xe.q.x p : i p f f j j F P o.m.A.h.c.I.P.P.P.P.P.P.P.P.P.P.P.P.P.P.P.P.J.P.P.P.H.V.H.H.z.v.v.v.V.h.h.g.l.5.,.<.*./ / I I I I N P K n q 0 0 6 1 > > > > - ",
"s 0 p > : : : : $ + + O O O $ : : p s d j A A A j R E K E E E &.*.5.B.I.].].[.{.{.{. X X{.{.{.{.{._.(.g.N < * * j.uX{.$.2 8 8 8 8 8 8 < < 8 8 8 8 < < < < < < < 8 8 < < 8 8 < ; < < < < < < < < 1 0 ; ; 8 8 8 8 8 5 l 9.#X8.8.r 8 8 8 8 8 q q q q d d D C S G E E E ! ! R R R R T x x f f a p p i $ t i v $ p f f z x x x T T R R O.O.O.e.;.r.r.r.4.=.6.~.0XI.Y.rXrXrXrX2X3XrXrXuXuXuXuXjXrXrXrXjXjXjXfXrXfXfXfXjXjXjXjXjXjXjXjXjXjXlXjXjXjXlXcXlXlXjXlXjXjXjXjXjXjXxXzXzXcXaXu.;.~ ! ! R Y T x f y f f j j T F T T E ~ ~ ~ ~ ~ O.E b m.].E.E.].[.].[.[.[.[.[.{.}..X.X{.{.{.}.}.P.D.D.Z.m.6.=.U }.mXlXrX3XeX2X3XeX2X{.2X2X2X2X2X.X{..X.X.X.XeXeX2XeXwX3XeXxX+Xt.e.q.R T R j p : : g P o.=.4.1.c.rXjX2X X{.[.[.[.[.}.].(.`.].].(.P.P.P.P.[.].].].].].(.].P.L.D.D.G.m.m.m.y.y.t.-.J ( {.jX.X[.[.).`.`.`.`.P.E.E.L.E.P.L.D.D.' h.gX.X{.{.[.[.}.}..X.X}..X}.}.}.}.}.}.wXP.H.zX2X2X2X2XwXwXwXwXeXyXwXyXwXpXpXZ.e.T f : t p f f j j F E ~ t.D.A.A.H.P.P.P.P.P.P.P.P.P.(.P.P.P.P.P.P.P.P.P.P.H.V.H.H.H.V.H.H.H.h.h.h.g.g.,.,.<.*.*.) / / I K I I n w q 0 0 1 > > > > : ",
"s s p > > : : : $ + + O O O $ : > p s g j A F A F E E E E E ~ *.<.m.A.P.].[.[.[.{.{. X X{. X{.{. X_.(.1.m < ; * A.lX{.Y.M 5 8 < 8 8 8 < < < 8 < < < < < < < < < < 8 < < < 8 < < < < < < < < < < < 0 8 ; < 0 < 8 8 8 ; [ 9.8.+.8 8 8 8 8 0 8 q q q q q C C S S E E T ! ! R R R R T x x x f a i i i $ i i $ t p f z x x x T T R ! O.O.O.e.r.r.r.t.u.S.p.6.6.F.T.[.uXjXrXrX3XrXrXrXjXjXjXuXjXjXjXjXjXjXjXjXjXjXfXfXjXjXjXjXjXjXjXjXjXjXkXjXjXjXlXzXkXkXlXlXzXzXlXjXlXxXxXzXzXcXpXy.e.~ ! ! R Y T x f t f f j j T F G E E ~ ~ ~ ~ ~ O.E b m.~.P.E.].[.].].[.}.{.[.{.}..X{. X{. X.X}.P.A.D.S.m.y.<.U T.zXlX3XeXeXeX3XeXeX{..X2X2X2X2X.X{..X.X.X.XwXwX3XeXeXwXeXxXyXu.r.e.! T R j p : : g P X.3.4.5.j.2XlX2X.X.X{.[.[.}.}.].`.].].].(.P.P.P.H.[.].].].].].].].E.L.D.A.m.m.m.m.y.y.t.t.L B ].jX3X[.[.).].].`.`.P.E.E.L.E.P.L.L.D.( %.tXwX{.{.{.}.}..X.X.X}..X}.}.}.}.2X.XwX}.h.xXrX2X3XwXwXwXwXwXrXyXwXyXwXyXxXOXr.! j t t p p s j j A T ~ -.D.A.A.H.P.P.P.P.P.P.P.P.P.(.P.P.P.(.(.(.P.P.P.P.P.h.H.H.H.V.H.H.H.B.h.j.j.g.1.,.<.:.*.*./ / ) I I &.m n q 0 0 1 1 1 > > > ",
"0 0 6 6 > : : : $ $ O O O # $ : p s s j j A A j T E E E E ~ ) *.5.B.I.).[.[.[.[.{.{. X X X X X{.{._.P.,.m < * 2 1XlX_.).6.2 8 < 8 8 8 8 < < < < < < < < < < < < < 8 8 < ; < 8 < < < < < < < < < ; < 8 ; ; 8 8 8 8 < 1 5 [ 8.w < 0 8 < < 0 0 q q q q q D C S S G T E E ! R R R R Y x x f f p p i t t i i $ i a f j x T T T R ! O.O.;.e.r.r.r.t.t.p.R.W.F.G.G.A.4XlXlXjXrX3XrXjXjXjXlXjXjXjXjXjXjXjXjXjXjXjXjXrXrXjXhXjXjXjXjXjXjXjXjXkXjXjXjXjXmXzXkXzXlXzXzXzXlXlXxXzXzXzXcXpXZ.e.O.! ! R Y T x a p f x j j F T T E E ~ ~ ~ ~ ~ O.E b m.E.P.E.].].].].[.}.{.[.{.}..X{. X{..X.X}.~.D.D.S.m.6.4.U A.nXlXfXeX2XeX2XeXeX X.XeX2X2X2X.X{..X2X.X.XwX2X2X2XwXeXeXgXtXZ.r.e.! T R x p : : g P X.=.4.5.j.[.xX2X.X.X{.{.[.[.}.[.].`.].].(.P.E.(.H.].].(.).].].].].].L.A.A.S.m.m.m.y.u.t.t.I N H.jX3X{.[.].].].].`.P.P.].E.E.I.L.D.D.#.( @XrX X{.}.}.}..X.X}..X}.}.}.}..X2X2X2XwXh.wXlX2XeXeXeXyXyXeXrXyXyXtXyXyXpXaXt.O.Y p : p p f f j j T ~ &.Z.D.A.A.P.P.P.P.P.P.P.P.P.`.(.P.P.(.(.(.(.(.(.P.P.V.H.H.H.V.V.H.H.B.h.h.g.g.1.1.1.<.:.*.*.#.) ) / =.J Z C q 1 1 1 > > > > ",
"s s p p > : : : $ $ + O O $ : : p s g A A F A C E E E E E ~ &.<.g.B.P.].[._._.{.{.{. X X X X X X{.[.P.<.b 8 2 2 uXrX_.).T.U 2 < < < < < < < < < < < < < < < < < < < 8 ; ; ; < < < < < < < < < < < ; 8 < ; ; ; < 8 1 < 8 5 l 8 8 8 8 < 8 0 0 q q q q q q C S S G G T T R R R R R Y x x f f p i i t i i : $ i f j x T T R R E O.O.;.r.r.t.t.t.t.y.S.R.^.~.W.^.A.yXlXlXlXjXrXrXjXjXjXjXlXjXjXjXjXjXjXjXjXjXjXjXrXrXjXjXjXjXjXjXjXjXkXjXlXkXjXjXlXmXzXkXzXkXzXzXzXzXzXlXzXcXcXcXpXZ.e.q.! ! R T T x p p z x j j A T T E E ~ _ ~ ~ ~ O.E D m.E.P.E.].[.[.].[.[.{.}.{.}..X.X.X{. X.X}.|.L.D.Z.m.6.5./ 1.cXzXfXrXeX2X3XeXeX2X.XeX2X2X2XwX.X.X2X2X.XwXwX2X2XwXwXeXgXxXD.;.e.q.T T x p : : f G X.;.4.5.1.T.xXtX2X.X X{.[.{.}.}.[.`.].[.].P.P.(.H.].[.).].[.[.[.].].P.L.D.S.S.m.m.y.y.t.t.&.N g.gXrX{.[.[.].].].].(.`.E.E.E.P.I.D.D.4.B ].gX2X.X.X}..X.X.X.X.X.X.X}.}..X2X2X2XwXH.P.zXrXeXwXrXrXrXrXrXrXrXyXtXwXtXxXE.e.T f t p p f f j j T E ;.u.L.L.H.L.`.P.P.P.P.P.P.P.`.`.P.P.P.(.(.(.P.(.(.P.H.H.P.H.H.H.H.H.V.h.h.j.g.g.5.1.<.<.:.:.*.*.*./ =./ Z Z q q 1 1 1 > > > ",
"s s p 6 > : : : $ $ # O O $ : : s s j A A T A A E E E E ~ ~ *.1.g.L.P.[.{._._.{.{. X X2X X2X X X{.].H./ b 8 * X.vX4X_.K.K.H.M 2 2 ; < < < < < < < < < < < < < < ; ; 8 8 < ; < < < < < < < < < < < < 8 8 ; ; 0 1 0 8 8 8 8 8 8 8 8 < < < 8 0 0 0 q q q q C C S G S E T T T R R R T x x f f p i t $ t i : $ p f x T T R R O.O.O.r.r.t.u.y.p.S.G.p.p.F.^.W.!.~.c.yXvXvXkXlXuXrXjXjXjXjXjXjXjXjXjXjXlXjXjXjXjXjXfXfXjXjXjXjXjXjXlXlXjXkXkXkXjXjXjXmXzXkXzXkXzXzXxXzXlXxXzXbXcXcXpXZ.e.O.! R R T T x p p z f x j A T T E E E ~ _ ~ ~ O.E D Z.E.L.P.].[.[.].[.[.{.{.}.}..X.X X X X.X.X|.L.D.D.m.m.u.@.%.xXcXfXrXeXwX3X2X3XeX{.rX2X2X3XwX.X.X.X2X.XwXeX2X2XwX2XeXtXxX~.r.e.q.T T T f t : f G X.=.4.4.5.Y.uXjX2X.X.X{.{.}..X.X[.].[.[.[.P.P.(.H.(.{.[.[.[.[.[.[.].~.I.D.S.S.m.m.m.y.t.t.-.N %.tXhX X[.[.).].].(.(.].].].E.P.I.I.D.y.B B.gXeX2X.X.X.X.X.X.X.X.X.X}..X.X2X2X2XeX].h.zXfXrXrXrXrXrXrXtXtXtXtXtXyXtXxXqXt.~ j p p p f f j j T E &.<.L.H.H.L.`.`.(.P.(.P.P.P.`.`.(.P.P.(.(.(.(.(.(.P.P.H.J.H.H.H.H.H.H.h.h.h.g.g.g.g.,.,.<.:.:.*.:./ =.*.J Z D q 0 1 1 > > > ",
"s 0 p p > > : : $ $ # O O : : 6 s f j F G T C T E ~ ~ ~ ~ ) *.1.B.P.(._._._.[.[. X X2X2X2X X X X{.[.H.U M < 2 F.cX2X_.K.K.(.6.2 ; ; ; ; < < < ; < ; ; < < < < < < < ; 8 < ; ; ; < < < ; < < < < < < < 8 ; ; ; < 1 1 8 8 1 1 < 8 8 < 8 < 0 1 1 0 q q q q g C S S S G T T T R R R T T j f f p i : $ i i $ : p j T Y R O.O.O.e.r.r.u.u.p.p.p.F.S.S.S.S.F.W.!.1XA.yXvXvXzXlXjXrXjXlXlXjXlXjXjXjXjXjXjXlXjXjXjXjXjXjXjXjXjXjXjXjXzXzXkXzXkXzXlXjXlXmXmXzXzXzXzXzXzXzXzXzXcXnXcXcXpXZ.e.O.! R R Y T j p p z f x T A T T E E E ~ _ ~ ~ O.E D y.E.L.P.].].].].[.[.{.{..X.X.X.X.X.X X.X}.|.L.D.D.G.m.y.=.$.tXnXlX3XrXwX2X3XeXrX X3X3X2X3XeX.X}.2X2X2XeXwX2XwXwXeXeXrXxX@Xt.r.q.R l T f t : s G X.;.4.5.5.A.yXjX2X.X2X.X}.{..X.X[.[.[.[.[.(.J.(.H.P..X[.].[.[.[.[.].].I.D.S.S.m.m.y.u.u.t.-.B ( wXlX X{.[.].].].].].].].].E.E.I.I.D.m.( ,.rXgX2X.X.X.X.X.X2X.X.X.X.X}.2X2X2XwXwXwXl.rXzXeXrXrXrXrXrXrXtXtXtXtXpXyXxXxXR.;.T p t p a f j j T R o.-.B.L.H.H.P.].(.(.(.`.P.(.`.(.(.P.P.(.(.`.(.(.(.P.P.h.H.K.H.H.H.H.H.h.h.h.g.g.g.g.,.,.,.<.:.:.:.*.<.<.I N J q q 1 0 > > > ",
"s s s p > > : : $ $ O O O : : 6 s j A F G G C E E ~ ~ ~ ~ &.:.5.B.H.P._._._._.[. X X2X2X2X X2X X.X).l.N q 2 2 yXhX5X_.K.K.K.Y.@.2 ; ; ; ; 2 < ; < < ; < ; < ; < < ; ; 8 < < < ; < < ; ; < < < < < < < 8 0 ; ; ; ; ; 8 8 < < 8 8 < < < < 1 1 1 0 q q q q d C C A S S T T T T T T T Y j f f p i $ $ i v $ p f T T R O.O.e.r.r.u.p.p.p.S.S.S.R.^.^.R.R.F.R.^.!.A.rXmXmXzXzXjXjXzXzXkXlXkXkXjXlXlXjXjXjXjXjXzXjXjXjXjXlXjXjXlXjXlXzXzXzXzXzXlXjXlXnXnXzXzXzXzXzXzXzXzXzXzXbXcXcXpXZ.r.~ ! ! R T T j p p f x j T A T T E E E ~ ~ ~ ~ ~ E n y.E.P.P.`.].].].[.[.[.{.{..X.X.X.X.X.X.X.X}.I.D.S.G.m.y.<.( }.nXhX3XrXeXeX2XeXrX.X.XeX2XeXeXeX.X2X2X2X3XeXwXwXeXwXeXrXxXyXu.r.e.! j T f t : s G o.;.4.5.5.A.2XlX3X2X2X}.{.}..X.X}.].].[.].].H.P.J.J..X{.).[.[.[.[.].].E.D.S.G.m.m.m.y.u.u.3.U B }.lX4X{.[.].].].].].].].].].E.P.L.D.D.#.#.}.jX3X2X2X2X.X3X2X.X2X2X2X}.wXwXwXeXeXrXH.].nXrXrXrXfXfXtXtXtXtXrXrXxXtXpXxX+Xe.! s y p p f j j F R O.-.y.L.H.H.P.].(.(.(.`.(.`.`.`.(.(.P.(.`.(.(.(.].].P.h.H.P.H.J.H.H.H.h.B.B.h.g.g.g.5.,.,.,.<.:.<.#.<.<.&.U K n q 0 s 1 1 1 ",
"0 s s > > > : : $ $ O O $ : 7 p f j F G T G G E E ~ ~ ~ ) *.<.5.h.H.P.).).)._.{. X2X2X2X2X2X2X2X.X(.%.M q ; B vX3X_.).(.K.K.Y.c.V 2 ; - ; ; ; ; < < ; ; ; ; ; ; ; < < ; < < < ; ; < < ; ; ; ; < < < ; < 0 8 ; ; ; ; ; ; < < < 8 < < < < 1 1 1 0 1 q q q d D C C A S S T T T T T T x x f a p i $ : t $ $ p j R O.O.;.r.r.t.p.p.S.R.R.W.S.R.^.W.W.W.W.^.R.R.^.G.uXnXmXvXzXzXjXzXzXzXzXxXlXxXxXxXlXjXzXzXxXzXjXjXjXjXzXjXlXzXzXzXzXzXzXzXzXlXlXzXnXnXzXzXzXzXcXzXzXzXzXzXbXbXbXpXZ.e.~ ! ! ! T T j p a f x j T A T T E E E ~ ~ ~ ~ ~ E n y.E.P.P.`.].].].[.[.[.{..X.X.X.X.X.X.X.X.X}.I.D.S.D.m.y.4.( E.nXlXrXrXeX3XwXeXrXwX[.rX2X2XeXeX.X.X2X2XeXeXwXwXeXeXeXrXjXxXZ.r.e.q.T x f t : 0 G o.;.4.6.5.c.}.kX3X2X2X2X2X}.}.2X}.[.[.[.[.].H.P.P.H.}.{.[.[.].[.[.[.{.E.I.D.S.G.G.m.y.y.y.4.X.N E.zX3X{.{.[.].].].].].].].].E.P.L.D.A.<.( P.jXrX3X2X.X.X2X2X2XwXwX2X2X2XwXwXwXwXrX].H.nXjXrXrXrXrXtXrXrXtXrXrXxXpXtXpXpXZ.O.j y p p s f x F T o.;.4.D.H.H.P.`.(.(.(.`.(.`.].`.(.(.P.(.].`.(.(.].`.~.H.h.P.J.J.J.H.H.B.V.B.h.g.g.g.g.5.1.1.,.<.<.#.<.5.<.I I J b d 0 0 0 > ",
"s s s p y > : : $ $ O O $ t p p j j F T T G E E E ~ ~ ~ ) *.<.5.B.H.P.(.(.(.).{. X2X3X3X2X2X2X2X{.P.%.M b 2 6.vX2X_.).(.).K.v.v.j.2 2 ; - ; ; ; ; ; ; ; ; ; ; ; ; < < ; ; < < ; ; ; < < ; ; ; < < < ; ; < 0 ; ; ; ; ; ; < < < < < < < < 1 < < 0 1 q d q d D C C A A A T T T T T T x x f a p t $ : t $ $ p F O.r.3.t.p.p.p.S.S.R.W.R.qXqX^.^.W.!.W.W.W.W.R.F.c.uXnXmXmXvXzXzXzXzXzXzXzXzXzXzXzXzXzXzXzXzXzXzXjXjXjXxXxXlXzXzXzXzXzXzXzXzXzXjXzXnXnXzXzXzXzXzXzXzXzXzXzXbXbXbXpXZ.e.O.! R R R T f p f f x j T T F T E E E ~ ~ ~ ~ ~ E n u.R.H.P.`.].].].}.[.[.{..X.X.X.X.X.X.X.X.X}.E.D.S.G.G.m.4.( B.nXzXfXrXrXeXeXeXeXeX[.eX2X2XeXeX2X.X3X2X2XeXeXeXeXwXwXrXgXxXR.r.r.q.T j x t : 6 G E ;.4.6.5.j.[.kXfX2X2X2X2X.X}.wX2X{.}.{.].].P.H.P.z.}..X{.[.[.[.[.}.].].I.D.S.G.m.m.m.y.y.t.*.N A.zXrX X{.}.[.[.].].].].].].].E.L.D.D.5.( h.tXjX3X2XwX2X2X2XwXwXwXwXwX2XwXeXwXwXrXwXh.jXzXrXfXrXrXjXtXrXrXrXtXuXxXuXpXLX+Xr.T p a p s f x F F o.-.4.D.L.H.P.(.].].].`.(.(.].].`.(.(.(.`.].(.(.).).].P.h.P.J.J.J.H.H.V.B.h.B.h.g.g.g.5.g.1.,.1.1.:.<.5.<./ I I Z q q 0 0 6 ",
"s 0 p p p > : : $ $ O O : i p s j F T R G G E ~ ~ ~ ~ ~ ) *.<.5.h.V.P.(.(.(._.{. X2X3X3X2X2X3X2X{.H.( n 8 2 1XlX{._.).).(.K.K.v.H.$.2 ; - - ; ; ; ; ; ; ; ; ; ; ; ; ; ; ; ; < < ; ; < < < ; ; ; ; < ; < ; 0 < ; ; ; ; ; < < ; < 8 < < < < 1 1 < 1 1 q q q d D C C A A A T T T T Y x j f a p t $ t v # $ f R r.p.p.p.p.S.R.^.^.W.W.^.W.qXW.W.W.!.W.W.W.W.W.F.j.lXnXvXmXmXzXvXzXvXzXzXzXzXzXzXzXzXzXzXzXzXzXzXjXxXzXzXzXjXzXzXzXzXzXzXzXzXzXxXzXbXnXzXzXzXzXzXcXzXzXzXzXbXLXLXpXZ.;.O.! R R R T f p f f x j T T A T E ! E ~ ~ ~ ~ ~ ~ C t.R.L.P.`.].].].}.[.[.{. X.X.X.X.X.X.X.X.X.X~.D.D.D.G.y.u.@.,.zXcXfXrXrX3XeXeXeXrX[.2XeX2X3XeX3X{.2X2X2XeXwXeXeXeXwXrXtXxX~.-.r.q.R j f p : 6 G E ;.4.6.6.j.].jXfX3X2X2X2X2X.X2X2X}.}.{.].].P.B.P.V.]..X{.[.[.[.{.{.[.].P.D.D.G.m.m.m.y.u.t.-.N 5.zXfX X}.}.[.[.].].].].].].].E.I.D.S.m.( ,.wXjXrX2XwX2X2X2X3X2XwXwX2XwXwXeXeXrXrXtXH.{.nXfXfXrXfXjXjXjXtXrXtXtXxXuXuXxXpXy.~ s p a f f x T F E -.<.B.P.H.P.P.].].].].(.(.].[.].`.(.(.].].(.(.).).].`.h.P.P.J.J.J.J.V.B.V.B.h.j.g.g.g.g.1.1.1.1.<.:.1.5.<.U =.I C g d 0 0 ",
"0 0 s 6 p p : : $ $ O # i p p s j F T E K E ~ ~ ~ ~ ~ ~ ) *.<.5.g.B.H.P.(.(._. X2X2X3X3X3X3X3X2X_.h.B b 2 B vX3X{.).).(.(.(.K.v.v.A.B * * - - ; ; ; ; ; ; ; ; ; ; ; ; ; ; ; < ; ; ; ; < < ; ; ; ; ; ; ; ; < 0 < ; ; ; ; ; ; ; < < 8 < < ; 1 < < 1 1 0 d q d C C C C A A A Y T T T Y j f a i t $ t $ + : f X.t.R.R.S.R.R.R.W.W.!.!.W.!.!.W.!.W.W.!.~.Q.W.W.A.c.vXbXmXvXvXvXvXvXvXvXvXvXvXvXzXzXzXzXzXzXzXxXzXxXxXzXzXzXzXzXzXzXzXzXzXzXzXzXzXzXzXnXzXzXzXzXzXcXzXzXzXcXbXLXLXpXZ.e.O.! R R T T f p f f x x T T G T ! ~ E ~ ~ ~ ~ ~ ~ C t.R.L.P.`.].].].[.}.[.}. X.X.X.X.X.X.X.X.X.X].D.D.D.G.y.y.=.#.jXmXhXrXrXeXeXeXrXrX X{.rX.X3XeXrX X.X2XeX3XwXeXeXeXeXeXtXxX+X<.r.e.R j j p : 6 R o.;.4.6.6.j.).jXhX3X2X2X2X2X}.2X2X.X}.{.{.].].H.H.H.P..X{.[.[.[.[.}.}.].E.D.D.D.m.m.m.y.y.t.-.B <.jXhX X{.{.[.[.].].].[.[.[.].~.I.D.G.m.#.$.].zXjXeXwXwX2X3XeX2XwXwXwXwXwXwXeXrXrXtX].K.nXjXrXrXfXjXjXjXjXtXtXtXuXxXuXxXLXOXr.A p a p f x T F E -.4.m.I.L.P.P.].].).).(.(.].[.].].(.(.(.].].(.).).).].h.H.(.J.J.H.H.H.h.H.B.h.h.g.g.g.g.5.5.1.1.,.:.1.5.1.( =.*.J Z w 0 0 ",
"0 s p 6 p p : : $ $ O $ 7 6 s g F G E E ~ ~ ~ ~ ~ ~ ~ ~ ) *.<.5.m.B.H.P.(.).[. X2X3X3X3X3X3X3X2X_.1.m n 2 c.vX2X{.).).(.).K.K.v.v.h.j.M * - = * ; ; ; ; ; ; ; ; ; ; ; ; ; ; ; ; ; ; ; ; < ; ; ; ; ; ; ; < ; 0 < ; ; ; ; ; ; ; < ; ; < ; < 1 < < < 1 1 d q q d C C C A A A A T T Y Y x f a i $ $ t $ + : l O.4.F.^.S.y.y.G.W.!.W.!.~.~.!.~.~.!.~.~.~.~.~.W.G.A.KXKXnXbXnXbXvXvXvXbXbXbXbXbXbXvXvXvXbXzXvXzXzXzXzXzXzXzXzXzXzXzXzXzXzXzXzXzXzXzXzXbXzXzXzXzXzXcXzXzXzXcXbXLXLXpXZ.e.O.! R R T Y f p f f x x T T T T E ~ E ~ ~ ~ ~ ~ ~ C e.D.V.L.E.].].].}.}.{.}. X.X.X.X.X.X.X.X}..X}.I.D.D.A.m.y.-.( wXnXjXrXrXeXeXeXrXrX2X[.rX2X2XeXrX2X XeX3X2XwXeXeXeXwXwXrXjXaXu.r.e.q.j f p : 6 P o.;.4.6.6.j.T.jXhX3X2X2X2X2X.X2X2X}.}.}.[.].~.E.A.B.P..X X[.[.{.[.{.{.[.].I.D.D.S.m.Z.y.y.4.4.U #.rXkX2X X{.[.[.[.[.].].[.[.].].I.D.S.S.6.$.H.jXlXrX2X2X2X3X3X3XeXeXwXwXwXeXrXrXrXrXwXH.jXmXfXjXfXjXjXjXjXrXtXtXpXxXuXpXcXpXy.T p a p f f T F E r.t.m.I.L.P.P.].].).).).(.(.[.[.].].(.(.].[.).).).).].H.h.P.J.J.H.H.H.V.V.V.B.B.B.B.g.g.g.g.g.g.,.:.1.g.5.#.#.4.@.J Z g q ",
"s s p 6 p > : : $ $ O : 6 s 0 F G E E ~ o.~ ~ ~ ~ ~ ~ ) &.*.<.5.h.V.P.(.(.[. X2X3X3X3X3X3XrX3X2X).%.n 8 2 4XhX X_.).).).).K.K.K.v.z.h.%.2 * = * * * ; ; ; ; ; ; ; ; ; ; ; ; ; ; < ; ; ; ; ; ; ; ; ; ; ; ; ; < 8 ; ; ; ; ; ; ; ; ; ; < ; ; ; ; < < 1 1 0 d q q C C C C A A A Y Y Y x j f p t $ t : + O i l O.y.F.F.p.p.S.F.W.W.!.!.~.~.~.!.!.~.~.~.~.~.~.~.A.T.KXKXKXbXbXnXnXvXnXnXnXnXnXbXbXbXvXbXbXbXbXbXbXzXzXzXlXzXzXzXzXzXzXvXzXzXzXzXzXzXvXbXvXvXvXcXzXbXnXcXzXzXcXnXLXpXu.e.O.! R R T x s p f f x x T T T T E ~ E E ~ ~ ~ ~ ~ C e.D.V.H.P.].].].}.}.}.}..X.X.X.X.X.X.X.X.X.X}.I.D.D.A.m.y.t.( T.nXlXrXrXrXrXrXrXrX3X_.rX3X2XeXrXeX{.2XeX3XeXeXeXeXeXwXrXuXpXS.r.e.q.x f a : > R o.;.6.6.j.j.P.hXlXeXeX3X2X2X2X2XwX2X}.[.].].~.~.L.g.H..X.X{.[.[.[.[.{.{.].E.D.D.Z.Z.m.y.y.t.t.I ( 2XcX3X X{.[.[.[.[.[.[.[.[.].].E.D.D.S.y.@.1.rXzXrX2XwXeX3X3XeXeXrXeXwXwXeXrXrXrXrXtXP.2XnXhXhXjXjXjXjXjXjXgXtXuXxXxXuXxXLXOXO.s p p s f j T E ;.u.u.I.P.P.P.).].).).].).(.).[.[.].).].[.[.].[.[.[.[.P.h.(.P.J.J.J.H.V.H.V.B.h.B.B.g.g.g.g.g.g.1.,.5.g.g.:./ 5.<./ J Z C ",
"s 0 p 6 p > : : $ $ + 7 6 f F P o.o.o.&.-.&.) &.) ) ) ) *.:.<.g.B.H.P.(.[.{..X3X3XrXrXrXrXrXrX2X).( M 2 @.vX3X X_._.).).).).K.K.v.v.l.l.X.* * * * * * ; ; ; ; ; ; ; ; ; ; ; ; ; ; ; ; ; ; ; ; ; ; ; ; ; ; ; ; 8 < ; ; ; ; ; ; ; ; ; ; ; ; ; ; < < < 1 0 q q q d C C C C A A Y A Y x j f p t $ t $ O O p F O.y.F.G.6.S.W.!.!.~.~.~.~.~.!.~.0X0X1X0X|.1X|.~.A.Q.zXvXbXKXKXJXbXbXbXbXnXnXnXnXnXbXbXbXnXbXbXbXbXbXvXzXxXzXbXzXcXbXbXbXbXvXzXzXzXzXvXbXvXvXbXcXzXcXnXcXcXvXnXnXJXpXm.e.O.! ! R T x s p f f x x T T T T E ~ E E ~ ~ ~ ~ ~ C r.D.B.V.P.].].].[.}.{.}..X.X.X.X.X.X.X.X.X.X}.E.D.D.A.G.y.t.( h.nXkXrXrXrXeXrXrXrXrX_.2XeX2X2XeXrX.X.XeXeXeXeXeXeXeXwXrXtXpXE.-.e.q.T f f : > G P ;.=.6.j.j.Y.rXlXrXwX2X2XwX.X2XwX.X}.}.].T.E.E.E.g.l.{..X.X{.[.[.[.{.{.].E.D.B.Z.Z.m.y.y.u.t.I B }.cX3X X.X{.[.[.[.].[.{.[.{.].E.D.D.S.m.#.%.1XzXjXrXwXwX3X3XeXeXrXrXwXwXwXrXrXrXtXtX}.).nXkXhXjXjXjXjXjXjXjXtXtXjXxXpXpXcXpXi.j p s p f j T R ;.u.m.L.E.P.P.P.].[.).].).(.].[.[.].].].].].[._._.[.[.].h.K.(.J.J.J.H.H.V.V.V.B.h.B.g.g.g.g.g.g.g.,.,.g.5.1./ 1.5.=.@.K J ",
"p p p 6 6 > > : : @ @ 6 0 F O.o.;.-.;.-.<.-.*.;.&.&.&.&.-.<.5.h.H.P.(.[.{. X2XrXrXrXfXrXfXfX3X2XY.B M 2 I.vX2X5X_._._.).).).K.K.v.v.v.l.j.B * * * * * = ; ; ; ; ; ; ; ; ; ; ; ; ; ; ; ; ; ; ; ; ; ; ; ; ; ; ; < < ; ; ; ; ; ; ; ; ; ; ; ; ; ; ; < < < < q q q q d D d D D A A A Y j j f p : $ t $ O + p G ;.G.F.G.p.W.1X1X~.~.~.~.!.!.0X~.1X0X0X0X0X0X~.~.T.A.T.1X4XxXJXKXKXbXbXbXbXbXbXbXbXnXnXnXnXbXvXvXbXvXnXzXzXzXbXbXbXbXbXbXbXbXzXbXzXzXzXbXbXvXbXbXcXbXbXbXbXcXnXnXLXpXu.e.~ ! ! R T Y s p f f x j T T E E E ~ E E ~ ~ ~ ~ ~ C r.B.B.V.P.`.].].}.}.{.{..X.X.X.X.X.X.X.X.X.X@X].D.D.D.S.y.5./ 5.zXmXfXfXrXrXrXrXrXrX{..XrX2X2XeXrX3X XeXeXwXwXeXwXeXwXeXtXpX+Xr.r.e.T f f : > F O.;.4.5.6.j.Y.3XlXrX2XwX2X2X.X2XwX}.}.|.].P.E.R.R.Z.,.]..X{.{.{.{.[.[.}.].~.D.A.Z.Z.m.m.y.u.t.&.B ].mXrX X X{.[.[.[.[.[.[.}.].].~.I.D.S.G.=.#.~.zXlX3X2XeXeXeXeXeXrXrXwX2XwXrXrXrXtXtXrXK.zXnXjXjXjXjXjXjXjXgXgXtXpXxXxXxXxXLXOXE 6 a a a f T R O.u.m.D.E.P.P.P.].].].].].).].[.[.[.[.].].[.[.[.[.[.].[.z.v.).J.J.J.J.V.V.L.V.B.h.h.j.g.h.g.g.g.5.1.,.5.g.5.#.<.m.4.*.@.L ",
"p p 6 6 6 > > : : @ : f F E o.-.4.4.4.m.y.4.4.<.-.-.*.-.<.g.B.H.P.].{.{.2X2XrXrXrXhXfXfXfXrX3X2Xh.N 2 M uXhX5X_._._._._._.).).).v.v.v.c.l.5.w X * X * * = ; ; ; ; ; ; ; ; ; ; ; ; ; ; ; ; ; ; ; ; ; ; ; ; ; ; ; ; ; ; ; ; ; ; ; ; ; ; ; ; ; ; ; ; < < < 0 q q q d d d d C A A A j j j s p : $ v # O @ f P =.G.A.c.W.1X1X1X0X|.|.~.0X0X0X1X~.0X0X0X0X0X|.~.Q.A.1.%.,.Y.1XjXJXKXKXKXKXbXJXbXbXbXbXbXnXbXbXbXbXbXbXbXzXzXbXbXbXbXbXnXbXbXzXbXzXzXzXbXnXbXnXnXbXbXbXbXbXnXnXnXJXpXu.e.~ ~ ! R T x p p f f f j Y T E E E E E E ~ ~ ~ ~ ~ D -.Z.m.B.P.`.`.].}.}.{.{..X.X.X.X.X.X.X.X.X.X@X|.L.D.S.G.y.5.*.*.uXmXhXfXrXrXrXrXrXrX}.[.rX3X2XeXrXrX{.3XeXwXwXeXeXwXwXeXtXtXyXu.r.e.R f f : > F O.&.-.4.y.j.A.2XlXfX2XwXeX2X2XwXwX.X[.].].~.I.u.=.*.#.P..X{.{.{.[.[.[.}.].~.I.D.m.Z.m.m.y.y.t.&.B I.nXhX2X X{.{.}.}.}.[.}.}.[.].].E.D.D.G.5.@.A.xXzX3XeXeXeXeXeXeXrXrXrXeXwXrXrXrXtXtXgX).3XKXjXjXjXjXjXjXjXgXjXtXuXxXxXpXxXLXaXr.s a a p f x R E t.Z.B.E.P.P.P.].[.].].[.].].[.[.[.[.].].[.[.[._.[.).[.P.h.].P.K.J.J.H.B.V.H.B.h.h.j.j.h.g.g.g.5.5.,.g.g.g.<.#.m.6.<.*./ ",
"p p 6 6 p > > : : $ 6 l P ;.3.t.y.6.F.E.A.B.m.y.5.5.<.5.m.H.P.(.].{.2X2X2XrXrXhXhXhXhXhXhXfX3X{.5.M 2 6.bX4X2X2X X X_._._.).).).K.K.K.v.c.j.=.;   X X * = * * ; ; ; ; ; ; ; ; ; ; ; ; ; ; ; ; ; ; ; ; ; ; ; ; ; ; ; ; ; ; ; ; ; ; ; ; ; ; ; ; ; ; ; ; < < q q q d d d d d g j j j j f p i $ $ v + O @ g P 3.G.A.Y.5X1X1XqX0X+X|.~.qX0X0X0X~.qX0X0X0X0X0X0X~.Q.T.j.$.` ,.A.1XxXnXKXKXKXKXKXJXbXbXJXnXbXbXbXbXbXLXnXzXzXbXnXnXnXbXnXnXbXzXbXzXbXbXnXnXbXnXnXnXbXnXLXLXnXbXLXJXaXu.e.~ ! ! R T x p p a f j j T T E E E E ~ E ~ ~ ~ ~ ~ Z r.Z.m.B.L.`.].].[.}.{.{..X.X.X.X.X.X.X2X.X.X.X}.L.D.D.G.m.5.-./ yXmXlXfXrXrXrXrXrXrX2X].rXeX2XeXrXrX.X2XrXeXeXwXeXwXwXeXrXtXaXS.e.e.! j f y > F o.&.3.4.y.j.c.{.kXhXrXeX2XwX2X.XeXwX}.{.].~.~.y.-.U U D.@X{.[.{.{.}.[.}.].~.I.D.m.Z.Z.m.y.y.t.-.B h.zXlX2X.X{.{.}.}.}.[.}.}.}.].].E.D.D.G.y.$.l.tXcXrXwXeXrXeXeXeXrXrXrXeXeXrXrXrXtXtXgX}.).nXzXjXjXjXjXjXjXjXjXtXpXxXxXxXxXLXLXR.F p a a f f R O.-.S.m.I.~.P.P.].[.].].[.[.[.[.[.[.[.].].[.[.[._.[.[.[.].h.(.).J.J.H.H.H.c.H.A.B.B.h.j.j.h.g.g.5.5.,.5.g.g.5.#.5.m.5.<.:.",
"p p p 6 p > > : : 7 0 O.o.3.4.m.G.A.|.[.P.P.I.I.L.A.B.L.P.].[. X2X2X3XrXrXhXjXjXhXjXjXhXhXfX3X[.#.M M 1XcX2X2X2X2X2X X{._._._.).).K.v.v.v.j.4.n   X X X + = = * = ; ; ; ; ; ; ; ; ; ; ; ; ; ; ; ; ; ; ; ; ; ; ; ; ; ; ; ; ; ; ; ; ; ; ; ; ; ; ; ; ; ; < < q 0 0 q d d d d d g j j j f p t $ : $ + . - l X.4.G.c.<X5X5X1XqX0X+X|.~.0X!.0X0X~.0XqXyXqXyX0X0X1X1X1X|.~.c.%.` %.v.2X2XwXzXnXJXKXKXKXJXbXJXbXbXbXbXLXnXbXbXnXnXnXnXbXnXnXnXzXnXbXnXnXbXnXbXnXnXnXbXnXLXJXnXLXLXJXaXt.e.~ ! ! T T x p p f f j T T T E E E E E E ~ ~ ~ ~ ~ Z -.m.g.B.L.E.`.].}..X}.}..X.X.X.X.X.X.X.X.X.X}.}.I.D.D.G.m.5.-.U 1XmXlXfXrXrXrXrXrXeXeX[.wXrX2X3XeXrXeX{.eXrXrXwXwXeXwXwXrXtXtXE.r.e.q.j f p : A o.&.3.4.6.j.c.{.kXlXrXeX2XwX2X.XeXwX}.}.].].|.F.=.@.@.m.@X.X{.}..X}.[.}.}.].P.D.Z.Z.m.m.y.y.t.-.B 1.jXzX2X.X{.{.}.}.}.[.{.}.[.].].E.D.D.G.m.#.%.}.vXhX3XeXrXrXrXrXeXrXrXrXeXrXrXtXgXtXgXeXK.zXnXjXjXjXjXjXjXjXjXjXpXpXpXxXxXxXLXqXO.p f f f f T O.;.y.m.L.].P.P.P.].[.[.[.[.].[.}.[.[.[.].[.[.[.[.[.[.[.[.z.H.].J.J.J.H.H.A.H.H.V.V.B.g.h.h.h.g.g.,.g.1.j.j.g.%.,.m.j.5.<.",
"p p p p p 6 > : p 7 F O.3.4.G.D.c.Q.yX1X[.{.[.].].T.T.[.}..X2X3X3XrXhXhXhXjXlXjXlXhXhXlXhXfX3X).( M ( bXhX4X4X2X2X2X X{.{._.{._.).K.v.v.v.j.*.n = X X + + X = * = = = ; ; ; ; ; ; ; ; ; ; ; ; ; ; ; ; ; ; ; ; ; ; ; ; ; ; ; ; ; - - - - ; ; ; ; ; ; ; ; < 0 0 0 q d d d d d g j j j f p t : : $ + . - F X.6.A.Y.9X9X5X5X5X<X1X1X1X1X0XqX0X~.0XqX0XyX0X0XyXyXyXqX0X0X0X~.A.%.` %.j.j.I.[.1XrXxXbXnXbXJXJXJXJXLXbXLXbXbXJXJXbXnXbXnXnXnXbXnXnXnXnXbXbXnXnXnXnXnXnXbXJXbXLXJXJXyX<.e.~ ! ! R T x p p f f x x T T E E E E ! E ~ ~ ~ ~ ~ C -.u.g.m.L.P.].].}.}..X}..X.X.X.X.X2X.X.X.X.X.X}.E.D.D.G.m.y.<.U [.mXlXrXrXrXrXrXrXeXrX{..XrX2XeXeXrXrX.X3XrXeXeXeXeXwXwXtXeXtX+Xe.r.e.j f p : g O.o.-.4.y.m.h.).lXlXrXeX2XwX2X.XrXeX}.}.}.}.}.0XW.6.%.l.}..X{.}.}.}.{.}.}.].P.L.D.Z.Z.m.m.y.u.-.J <.rXzX3X.X.X}.}.}.}.{.}.}.}.[.}.~.L.D.G.m.<.#.P.zXjXrXeXrXrXrXrXrXrXrXrXrXrXtXrXtXtXgXgX).rXKXjXjXjXjXjXjXjXjXxXxXxXxXxXpXxXLXaXu.s s a f f j R O.t.D.D.].].P.P.].[.[.[.[.[.[.}.}.[.[.].[.[.[.[.].].].{.P.h.{.(.P.J.H.H.V.V.V.V.H.B.B.h.h.j.j.g.,.g.,.j.g.g.,.%.B.h.g.5.",
"p p p 6 > > > > f 0 O.3.4.y.F.F.Y.4XrX4X2X2X2X2X2X1X1XwXrXrXrXrXrXhXhXhXhXlXkXkXkXjXjXlXhXhX2XH.N M T.bX3X4X3X3X2X2X2X2X2X{.{.{._.).K.v.v.1.m < - X   & + X * * = = - - ; ; ; ; ; - = ; ; ; ; ; ; ; ; ; ; ; ; ; ; ; ; ; - ; ; ; - - - - ; ; ; ; ; ; ; ; ; < 0 0 0 q q d d d d g f f s p t t i $ + + 6 F X.6.A.Y.9X9X9X9X9X9X5X5X5X1X1XqX0X0XyXqX0X0XyXyXyXyXqXyX0X0X0X0X0X|.T.c.6.B B $.%.j.H.T.[.1XtXuXxXxXbXLXLXLXLXLXJXJXJXJXbXnXnXbXnXnXnXbXbXJXnXbXbXLXnXnXbXJXJXJXJXJXqX-.e.~ ! R R T x p p f f x x T T E E E E ~ ! ! ~ ~ ~ ~ D -.u.g.m.B.P.(.].[.}.}..X.X.X.X.X.X.X.X.X2X.X.X}.E.D.D.A.m.5.e.U ~.nXkXrXrXrXrXrXrXrXrX2X}.rX2X3XeXrXgX2X.XrXrXeXwXeXwXwXeXeXtXqXu.r.e.T f a : g O.o.-.4.y.6.c.K.hXkXrXeXeXwXwX.XeXeX2X}.}..X{.wXjXtX1XP.P.2X{. X{.}.}.{.}.].].I.D.S.Z.m.m.y.y.t.U #.wXcXrX.X.X.X.X}.}.}.}.}.}.}.}.].L.A.G.m.5.#.A.xXzXrXeXeXrXrXeXrXrXtXrXrXrXrXrXtXtXtXjX}.{.KXzXjXjXjXjXjXjXjXxXxXxXpXxXqXpXLXLXR.F p f f s f T O.r.S.D.~.|.].).].[.[.[.[.[.[.}.}.}.[.].].[.[.[.{.].].[.].h.].).K.J.H.H.V.V.h.j.c.c.B.h.j.j.j.j.l.j.1.1.j.j.g.%.j.h.j.g.",
"p p 6 > > > : p 0 w 3.t.p.G.I.I.T.uXrX3XrXrXrXrXrXrXrXuXrXrXhXhXjXlXlXlXkXkXkXkXkXlXlXlXjXrXwXl.M B zXkX3X3X3X3X3X2X2X2X2X2X{.{._.).K.Y.A.@.q ; = X X & . X X * = = = * = ; ; ; = - ; ; ; = ; - ; ; - - - - - ; ; ; - = ; = = ; - - - - - - ; ; ; ; ; ; ; ; 0 1 < 0 q q d d s s f f s p : t t $ # + 6 P &.6.A.c.5X9X9X9X9X9X9X9X9XiX1X0X0X0XyXyX0X0XyXyXyXyXiXyXyXyXyXyXyXyXyXyX0XI.1.$.B B B ( #.<.6.m.I.~.].1XyXwXxXLXJXJXJXJXJXJXJXbXLXLXnXbXbXKXnXnXLXLXnXLXJXJXJXJXJXLXOXr.e.! ! ! R T x p p f f j Y T T E E E E ~ E E ~ ~ ~ ~ D -.i.1.m.B.L.(.`.}.}..X}..X.X.X.X2X2X2X2X.X.X.X@X~.L.D.A.m.y.e.U T.nXlXfXrXrXrXfXrXrXeXeX{.rXrXeXrXrXrXrX XrXrXrXeXwXrXrXwXeXtXaXZ.-.r.R s f : g O.o.-.4.4.y.c.K.rXcXrXeXeXwX2X.XwXrX2X2X}.}.}..XrXxXxX}.Y.2X{.}.}..X.X{.}.{.].I.D.S.Z.m.m.y.y.t.I @.1XzXrX.X.X.X.X}.}.}.{.}.}.}.}.].I.D.G.Z.y.#.l.rXnXfXrXrXrXrXrXrXrXtXtXtXrXrXrXtXtXtXjXrX).nXnXjXjXjXjXjXjXxXxXxXxXxXxXaX0XLXLXOXq.p f f f f j T r.S.R.I.}.].~.].}.[.[.}.}.[.[.}.}.}.[.].{.{.{.[.{.[.{.}.H.H.[.(.K.H.H.H.A.Y.T.b.7.l.j.j.h.h.j.l.g.j.,.j.g.g.<.1.h.h.g.",
"p 6 6 > : : > f 0 P t.y.G.F.W.I.1XlXjXrXhXhXjXjXjXrXjXlXjXjXjXjXkXzXkXkXkXzXkXkXzXkXzXkXjXrX}.%.M c.KXhX3X3X3X3X3X3X3X2X2X2X2X1X_._.T.P.j.J 8 ; = X X & & . X X = = = * * * ; ; - = = = = * - = ; = = ; = - - = = ; = = = = = - - - = = = - - ; ; ; ; ; ; ; < 0 < 0 0 q d 0 0 s s s s p : i t # # + 0 P ;.j.H.Y.Y.5X5X9X9X9X9XiX5X5XyXqXyXyXiXyXiXiXiXiXiX0X0XyXyXyXyXyXqXyXyXyXyXyXqX0XW.S.6.U B N N B B @.$.<.5.5.A.|.xXbXLXJXJXJXJXLXLXJXnXnXJXKXbXbXJXJXnXJXJXJXJXJXLXaXZ.e.e.! ! R T T j p p f f f x T T E E E E ~ ~ ~ ~ ~ ~ E D -.i.1.g.B.H.P.].[..X.X.X.X.X.X.X2X2X.X.X.X.X.X@X|.L.D.D.m.y.4.U I.nXzXfXfXfXrXrXrXrXeXeX{.2XrXeXeXeXrXgX2X2XrXrXrXeXeXrXtXeXyXtXE.-.r.O.j f y f O.o.=.3.4.y.c.Y.3XcXfXrX3XeX2X.XwXtXwXwX}.}.}..X2XgXxX1XH.2X.X{..X.X.X{.{.{.~.I.D.S.S.m.m.y.y.t.I B [.cXfX2X.X.X.X}.}.}.[.}.}.{.}.].I.F.D.G.m.<.%.1XnXjXrXrXrXrXrXrXrXrXtXtXtXrXrXrXtXtXgXjX).rXKXlXjXjXlXjXjXxXxXxXxXxXxXpXqXxXLXaXi.j a f f f x j E i.R.D.|.}.].].].[.[.}.}.[.}.}.}.[.[.[.{.{.{.{.{.[.{.}.`.h.[.(.P.K.H.H.c.5XsX9X<Xb.c.6.l.j.h.g.g.B.1.l.g.g.5.%.h.B.j.",
"p p > > 7 : p f 0 o.p.G.F.T.T.I.rXlXhXhXjXlXjXjXlXlXkXlXjXjXjXlXzXzXzXkXzXzXzXzXzXzXzXkXlXrXT.' M yXnXhXhX3X3X3X3X3X3X4X2X2X2X1X1X{.{.T.5.m 0 : = + + . & . & X X = = = = = ; ; - - - = - - - - = = - - - = = = - - - = - = = = = = = = = = - = - ; ; ; ; ; ; 1 < < 0 0 0 s s s s p p t 7 i i $ # + 0 P =.j.c.T.pXiXT.<X<X5X5XiXiXiXiXiXpXpXpXpXpXpXiXpXpXiXiXpXpXpXiXyXyXyXyXyXyXyXyXyXqXqXqX~.^.6.=.X.B M M M N U #.=.m.yXuXxXxXbXJXLXJXJXJXnXbXJXJXLXJXJXJXJXJXLXpX0XF.5.<.-.O.! ! R R T f p p a f j x T E E E E E E ~ ~ ~ ~ ~ E C -.t.<.1.B.V.P.`.[..X.X X.X.X2X2X2X2X2X.X.X.X.X2X}.L.D.D.m.y.4.U I.nXzXfXfXfXrXrXrXrXrXrX.X}.rX2XeXeXrXfXeX.XtXrXrXeXeXeXtXrXwXaXOX-.r.q.A a y s O.o.;.-.4.y.j.Y.1XmXhXrXeX3X3X2X2XtXwXwX2X}.}.}.}.2XrX}.B..X2X.X X X{.{.{.{.].P.D.D.Z.m.m.y.y.y.@.B ~.zXfX2X.X.X.X}.}.}.}.}.}.}.}.|.E.D.D.G.y.<.#.T.vXzXrXrXrXrXrXrXrXtXtXrXrXrXrXrXtXtXjXjX2X{.KXzXjXjXlXxXxXxXxXxXxXxXxXpXaXyXJXpXR.T p a f z x x T R u.R.~.@X].).].{.{.[.}.[.[..X.X{.[.[.[..X{.}.{.[.[.{.{.v.P.).K.K.H.H.c.<XsX7X7X7XdX<Xb.7.l.l.l.h.g.l.h.j.j.1.j.h.j.",
"p > > : : : p f F t.S.F.Q.Q.T.[.lXlXlXlXlXlXlXlXlXzXvXlXkXzXkXkXzXzXzXzXcXzXzXzXlXzXzXkXlX3Xj.N $.bXlXhXhXfXrXrX3X3X3X3X3X3X2X2X2X2X{.P.@.n 0 > - + + . & & . X X X = = = = = = = - - - - = - - = = = = = = = = - - - = = = = = = = = = = = = = - - - - ; ; ; < < ; < 0 0 0 s 0 s p p : i p i $ O + 0 P =.j.c.1XvXbXpX4X4XiXpXpXpXpXiXpXpXpXvXvXvXvXpXpXpXvXvXpXpXpXpXpXyXyXyXyXyXyXyXyX0XyXyXyXyX1X0X~.W.S.4.X.B B M B B $.h.T.}.}.0XwXyXxXnXLXJXKXJXLXLXxXtX@XE.m.<.@.I &.r.e.O.! ! R R x f p p a f x Y T E E E E E ~ ~ ~ ~ ~ ~ E C r.e.<.1.m.B.P.`.[..X.X X2X.X2X2X2X2X2XwX.XwX.X2X}.I.D.D.D.m.4.B D.nXcXfXfXfXrXrXrXrXeXrX.X[.rXrXeX3XrXfXfX.XrXtXrXeXeXeXeXrXwXyX+Xt.r.e.T f y j O.X.;.;.3.6.m.A.{.mXlX3XrXeXeX2X2XtXwXwX2X}.}.}.}.}.}.}.H.}.wX.X X X X X{.}.].~.I.D.S.m.m.y.u.t.&.B L.zXhX2X2X.X.X}.}.}.}.}.}.}.}.|.E.D.D.G.m.5.#.A.jXnXhXrXrXrXrXrXrXrXrXtXrXrXrXtXtXtXjXfXgX).nXnXjXlXjXxXjXxXxXxXxXxXpXpXpXpXLXLXOXO.p a f z x T T F P r.R.+X@X].).{.{.[.{.{.[.{..X X{.[.[.{.{.}.{.{.{.{.}.P.v.{.P.P.H.A.c.c.9X8X7X7X7X7X9X<Xb.6.7.h.h.l.B.m.m.g.g.B.B.",
"p p > : : 7 s 0 X.p.F.T.1XQ.Y.4XkXkXlXlXzXkXkXkXlXvXvXzXkXzXkXzXmXzXzXzXmXcXzXzXkXvXzXkXjX{.$.M T.nXhXhXhXfXhXhXhXhX3X3X3X3X3X3X3X2X1XA.U n 0 > : + + . . & . . X X X = = = = = = = = = = = = = = = = = = = = = = = - - = = = = = = = = = = = = - = = - ; ; ; ; ; ; ; ; 1 0 0 6 p p p : p p i $ O + 0 P =.j.v.1XvXbXvXlXpXpXpXxXpXpXpXpXvXvXvXLXLXLXLXvXvXvXvXvXvXvXpXvXpXiXyXyXyXyXyXyXyX0XyXyX0X1X0X0X0X0X0X|.^.6.6.@.B N N B ' $.%.,.1.j.I.E.~.].E.H.g.<.( ' B m m m m &.e.e.O.! ! R R x f p p f f x Y T T E E E E ! E ~ ~ ~ ~ E C r.t.<.1.m.B.L.P.]..X.X X2X.X2X2X3X3X2X2X.X2X.X.X}.I.D.D.G.m.4.U D.nXzXfXfXfXrXrXrXrXrXrXeX[.eXrX3XrXrXgXgXwXwXtXrXrXeXtXeXrXyXyXaXy.r.e.R f p d E o.;.J ;.y.j.A._.zXkXrXeXeXeX2X.XrXwX2X2X}.}.}.}.}.2X}.H.}.wX.X.X.X.X X X}.].~.I.D.S.Z.m.y.y.y.*.B B.xXlX3X2X2X.X}.}.}.}.}.}.}.}.}.~.D.D.S.m.y.<.l.rXnXjXrXrXrXrXrXrXtXtXgXgXrXrXtXtXjXjXgXjX}.jXKXkXkXlXzXzXlXxXxXxXxXxXpXpXpXpXPXaXq.s a a x x T R R R P o.E.qX|.T.].}.{.{.{.{.{..X.X}.[.[..X}.{.{.{.}.{.{.2XK.).).Y.H.A.A.6.<X9X8X6X7X=X7X7X7X<X9.7.A.f.g.j.h.g.g.B.B.",
"> > > : : p f w 3.S.^.1XyXT.T.lXkXkXlXkXzXkXkXkXvXvXvXzXzXzXzXmXmXzXzXmXmXmXcXzXvXvXzXzXrXH.B B vXmXhXhXhXhXhXhXhXhXhXrX3X3XrXrX3XrX}.6.J q 0 > : + + . . . & & . X X + = = = = = = = = = = = = = = = = = = = = * = = = = = = = = = = = = = = = = = = = - - - ; ; ; ; ; ; 0 > 6 p p > : p p i $ O X 0 P <.l.c.1XvXnXnXvXvXpXpXvXvXpXvXLXLXKXKXKXKXKXKXJXLXLXLXvXLXLXLXLXvXpXiXiXiXqXyXyXyXyXyXyXyXyXyXyXyXyX0XyXuXyX0X|.W.F.G.6.$.B N N N M V N B B N N M M M M M N B U U &.r.;.O.! ! ! R T f y p f f x Y T E E E E E ~ E ~ ~ ~ ~ E C t.t.<.1.g.m.L.P.].{..X{..X2X2X2X2X2X2X2X.X2X.X.X@XE.D.D.A.m.4.U A.nXcXfXfXfXrXfXfXrXeXeXeX{..XrX4XrXrXjXgXrX2XrXtXrXeXeXtXrXtXyXaXR.r.i.O.j u s O.o.O.n o.y.6.c.).kXzXrXrXeXeX2X}.rXeX2X2X.X}.}.}.}.}.}.H.].eX.X X.X X X X.X}.~.E.D.S.Z.Z.y.y.t.=.B g.jXlX3X2X2X.X.X}.}.}.}.}.}.}.}.~.L.D.D.m.y.4.,.{.nXzXrXrXrXrXrXrXrXtXgXgXrXrXtXtXjXtXtXxXtX2XKXvXkXzXkXzXlXxXxXxXxXxXpXpXpXaXHXqXO.f f a z x x T R ! O.R ~ E.0X~.].}.{. X{.{.{.}.}.}.{.[.{..X.X{.{.}..X{.xXuXY.].Y.H.B.B.6.b.9X8X6X6X7X=X=X=X7X7Xb.b.l.7.7.7.7.7.6.G.",
"> : : : 7 s 0 F t.F.T.1XiXT.[.vXvXkXlXkXzXzXzXkXvXvXzXzXzXzXzXmXmXmXvXnXmXmXmXzXvXvXvXxXwX%.M j.KXlXhXhXhXhXlXhXhXhXrXhXrXhXhXrXrXrX~.#.Z d s > : + + . . . & & . . X + + = = = = = = = = = = = = = = = = = = = * * = = = = = + = = + + + + + + = = = = = = - - ; ; ; ; > > > > p p : p p p i $ O X w X.<.j.v.2XlXvXzXbXvXxXvXbXLXJXJXKXKXKXKXJXKXPXPXKXJXKXPXKXPXPXPXJXLXLXvXpXpXpXiXiXiXyXiXiXyXyXqXyXyXyXiXiXxXxXxXxXuXpXiXyXyX0X~.F.G.6.7.$.$.%.7.6.G.S.W.~.|.0XqX~.D.4.-.;.O.! ! ! Y x f y p f f x Y T E E E E E ~ ~ ~ ~ ~ ~ E C i.u.:.1.1.m.L.P.].{..X{. X2X2X2X2X2XeXeX2XwX.X.XwX~.F.D.D.m.4.U A.nXmXfXrXfXrXrXfXrXrXrXeX}.}.rXrX3XrXfXjXjXrXrXrXrXtXtXtXtXrXyXaXOX-.i.e.F s s R O.O.J o.4.6.c.K.jXcXrXrXeXeX2X}.eXrX2X2X.X}.}.}.}.1X.XP.(.rX.X X X X X.X2X{.].E.D.D.S.Z.Z.y.y.-.B ,.tXkX3X2X2X2X.X}.}.}.}.}.}.}.}.].L.D.D.S.y.5.%.T.nXzXrXrXrXrXrXrXrXgXgXtXtXtXtXtXjXtXgXgXgX2XnXnXzXzXlXzXzXxXxXxXpXxXpXpXaX!.R.r.! s f a f x x Y R R O.O.P o.R.+XE.|.{..X}.{.{.}.}.}..X[.{..X.X{.{.}. X{.rXJXK.).P.H.A.m.j.7.7X8X8X6X6X6X=X:X=X7X7X*X9.0.9.9.b.9.9.7.",
"> : : : 7 6 0 O.p.F.T.4XiXK.4XvXvXkXkXkXzXcXkXcXmXmXzXzXzXzXvXmXmXmXmXnXnXnXmXmXmXmXvXjXP.` B yXKXhXkXhXhXlXkXlXlXhXhXhXhXjXlXrXrXrXA.I Z d s > : = + + . O . . . . O . + + = * * = = = = = = = = = = X = = = + = = = = = = = + + = + + + + + + + + = = = = = = - - - - - - > > y p : p p p i $ O + w X.6.j.v.{.hXcXvXbXJXbXcXxXtXwX1X1X1X[.~.T.[.}.wX2XwXwXtXuXyXtXuXxXxXbXLXLXLXLXvXvXxXpXiXiXiXiXiXiXiXiXiXiXpXpXxXxXpXxXxXxXxXxXxXLXcXxXxXxXxXcXLXLXLXLXLXxXLXpXaXaXOXu.e.e.~ ! ! ! R T f t p f f x Y T E E E E ~ ~ ~ ~ ~ ~ ~ E D i.u.:.1.i.m.B.P.(.[..X X.X3X2X2X2X2X2XwX2XwX.X.XwX~.F.D.D.m.4.U A.nXcXhXfXfXfXfXrXrXrXrXeX}.{.2XrX3XrXfXjXjXrXrXrXrXrXrXtXtXeXtXyXqXt.i.r.G s > F O.e.J o.4.6.c.K.hXmXfXrXeXeXeX.XwXrXwX2X2X.X.X}..X.X.X`.P.rX.X X X X{..X.X{.].E.I.S.S.Z.Z.y.y.4.J <.wXzXrX2X2X2X.X.X}.}.}.}..X}.}.].I.D.A.G.y.y.%.H.zXnXjXrXrXrXrXrXrXtXjXgXtXtXtXtXjXjXtXtXxX2XjXKXzXzXzXxXxXxXxXpXxXaX+XE.u.*.) E T : f f f f x T Y R O.q.O.~ I p.W.E.[.}.}..X}.}.2X{..X{.{..X{.{.{.{..X.X2XbX1XK.).Y.A.A.m.7.b.9X7X7X7X7X6X6X=X=X=X7X<X<X7X7X7X<X9...",
": : : : p 6 w ;.p.F.1XmXmX1XlXvXkXkXzXvXzXzXkXmXmXmXzXzXzXzXmXmXmXmXnXnXnXnXmXnXnXmXzXrXl.' %.KXvXkXkXlXkXkXkXkXlXhXlXjXhXlXlXlXjXyX5.J C d s > : - + + . . . & & & . . X + X X + + X X + + + + + + = X X X + + X + + + + + + + + + + + + + + + + + + + = = = = = = = - = = : : : : t p p p p $ + + g X.1.l.v.{.rXnXjX2X2X].H.h.l.x.l.h.h.j.l.l.l.h.V.h.h.z.z.H.x.h.H.h.h.H.~.|.yXpXxXLXLXLXLXvXvXpXpXpXxXpXpXpXLXpXaXaXqX~.0XtXpXxXaXyXxXLXLXbXcXLXLXxXyX|.E.C.B.m.u.<.-.-.;.~ ! ! ! R R x f t p a f x Y T E E E E ~ ~ ~ ~ ~ ~ ~ E b r.u.<.<.i.5.B.L.(.[. X X X3X2X2X3X2X2X2X.X2X.X2XwX|.F.D.D.G.t.U A.zXmXjXfXfXfXfXrXrXfXrXeX.X}.2XrXrXrXjXjXjXjXrXrXtXrXtXtXtXeXwXyXaXy.r.p.R j > F X.O.~ -.4.6.c.K.rXmXfXrXrXeXeX2XwXtXwX2XwX.X.X}..X.X.X].P.rX.X.X X X.X.X.X{.].~.E.D.S.m.y.y.y.t.U #.1XcXrX3X2X2X2X.X}.}.}.}.}.}.}.].I.A.A.m.y.y.6.l.jXbXjXrXrXrXrXtXrXtXjXgXgXtXtXtXtXtXtXtXjXrXrXKXbXzXxXxXxXxXLXpX+XZ.*./ L K K E A , t f f f f x R R O.q.e.e.O.P t.E.~.|.}.}.}..X}.2X.X{.{..X2X X{. X}..X}.rXrXv.T.T.c.A.u.6.7.dX7X7X7X7X7X6X6X=X:X=X=X7X7X<X&X#X8.8.",
": : : : 6 6 n ;.p.^.1XiXmX4XcXmXvXkXvXvXmXzXkXnXmXvXvXzXvXvXnXnXnXmXnXnXnXmXmXnXnXmXzX].$.' {.KXzXzXkXkXkXkXkXkXlXlXlXlXkXkXlXlXjX1X=.J C d s 6 > : @ + O . O O & & & . . X X + X + X X X X X + + + + + + X + + + X + X + + + + + + + + + + + + + + + + + X X = = = = = = = = - : : p s f f p $ + + g X.1.l.K.2XmX3Xl.x.x.x.x.%.%.%.x.x.%.x.%.%.%.x.x.x.x.%.x.x.%.` x.%.%.%.%.%.,.g.j.L.E.].@XyXyXpXxXpXxXxXaXtXxXyX~.E.R.-.4.S.S.y.*.#.B.xXxXpXxXyX|.j.:.( ( ( ' B U U U J o.~ ! ! ! R R T f t p a f x Y T E E E E ~ ~ ~ ~ ~ ~ ~ E q r.u.<.:.1.1.m.L.P.[..X.X[.2X2X2X3X3X3X2X.X2X.X.XwX|.I.D.D.m.4.U m.bXmXhXrXfXfXfXfXrXrXrXrXwX}.2X2XhX3XrXjXjXjXjXrXtXrXrXtXtXtXwXyXyXR.&.i.q.l > g P E ;.;.4.y.j.Y.3XmXjXrXrXeXeX2X2XtXwX2XwX.X}..X}.2X.X}.K.eX2X.X X X X.X.X{.].~.E.D.S.m.Z.y.y.4.I @.].zXfX3X2X2X.X.X.X}.}.}.}.}.}.].I.A.D.S.y.y.5.1.2XbXzXrXrXrXrXrXrXtXgXgXgXgXtXtXtXjXuXtXuXuX2XJXnXxXcXxXxXqXE.u./ U U I L K K T s + : t f f l x T R O.q.e.e.e.O.o.-.W.|.].}.{.{..X.X2X.X{.{.2X2X X.X.X}.1X1X4XK.Y._.c.G.m.6.7.9.9.0.$X$X$X#X$X$X$X$X:X#X#X$X....$X#X",
": : : : 7 6 F ;.p.Q.1X1XpXiXvXmXcXzXmXmXmXkXkXmXmXvXvXvXvXmXnXnXmXmXnXnXnXmXnXbXmXvXjXg.` %.nXbXzXzXkXkXkXkXzXkXlXkXlXlXkXkXkXjXxX~.I G A d 0 6 > : @ + O O O O . & . & &   + + X X X X X X X X + + + + X X + + + X + + + + + X + + + + + + + + X + + X + + + + + + + + + + + $ : : p s f f p : + X C X.1.l.K.cXlXv.z.%.( ( %.%.%.( ` %.` %.` ( ( %.%.%.%.%.%.` ( B #.( ( ( ` ( ( %.( %.%.%.%.x.l.B.L.H.L.L.B.B.m.5.<.<.&.J I ~ J m N ( %.H.|.~.B.%.( ( ( ( U U U J N N J J ~ ~ ! ! ! R T T s i a f f j Y T E E ~ ~ E ~ ~ ~ ~ ~ ~ E q r.u.<.<.<.1.m.B.P.].{..X{.2X3X2X2X3X3X2X2X2X2X.X2X}.I.D.D.m.5.U j.vXmXhXfXrXrXrXrXrXrXrXrXwX}.2X2XjXrXrXjXjXjXjXrXtXtXrXtXtXtXrXwXqXW.&.r.r.T p p F E o.=.4.y.c.Y.2XnXlXrXrX3XrX2X2XtXwX2XwX.X}..X}.}..X}.P.wX2X.X X X X.X X.X].~.E.R.S.Z.y.y.y.t.I ( T.zXfX2X2X2X2X.X}.}.}..X}.}.}.].E.D.D.S.y.y.u.,.[.nXzXrXrXrXtXtXtXtXtXgXjXjXtXtXtXjXgXtXtXtX@XLXLXxXyXQ.u./ U N N N J K Z Z G T s + $ : p f j x T R O.O.q.r.r.r.e.E 3.R.~.|.{.{.2X2X2X.X}.}.}.2X.X X{.5X5X<X<X*Xb.<Xb.9.9.9.9.0.8.........8.$X$X#X$X$X$X$X$X#X#X7X7X",
": : : : : 6 F ;.p.1X[.Y.yXiXvXcXzXcXmXmXmXhXmXmXmXvXvXvXvXbXnXnXmXnXbXnXnXmXbXbXmXvX}.$.' K.KXmXcXzXzXzXkXzXzXkXkXvXzXvXkXcXzXzXxXm.J G C g s 6 > : - + + O O O O & & & & & & + . X + + X X X X + + + + X X X + + X X + + + X X + X X X X X X X X X + + + + + + X X + + + O + $ : p p f f f p : + X F @.1.l._.kXv.l.v.%.' ' ' ( ( ' ( ( ( ( ( ( ' ( ( ( ( ( ( ( ( N ( ( ' B ' ' ' ' ' ( ( ( ( ( ( / %.%.%.%.#./ ( ( / U U n Z J n b m B %.g.%.( ( ( U J N N N N N N m m Z N K ~ E ! ! R T T s y a f f x T T E E ~ ~ E ~ ~ ~ ~ ~ ~ E q e.y.<.<.<.1.g.B.L.`.{..X X2X3X3X3X3X3X2X2X2X.X.X2X}.I.F.D.G.u.( j.zXmXlXfXrXrXrXrXrXrXrXrXwX}.2X2XrXjX2XtXjXjXjXfXrXtXtXtXtXtXrXwX0XqXt.;.i.O.s > l P o.;.4.6.c.v.2XnXlXrXrXrXrXeX2XtXtX2X2X2X}..X}.}.}.}.P.wXwX.X.X X.X X X.X[.~.E.F.D.Z.y.y.y.t.&.U I.kXhX3XwX2X2X2X.X}.}.2X.X}.}.|.E.D.D.S.G.y.u.,.P.nXnXhXrXgXgXtXtXtXtXjXuXtXtXtXtXtXtXtXtXyX+XaX+Xg.#.U N N N N Z Z Z Z m Z G T > + + $ $ p f x T T R O.q.r.r.r.r.e.E ;.R.~.[.{.}.2X2X.X}.{.1X1X1X1X5X9X9X9X9X9X7X7X<X*X#X#X#X#X#X#X$X#X#X#X$X$X$X$X$X$X=X=X7X&X&X=X",
"$ : : : : 6 F ;.F.yX4Xc.Y.rXbXmXcXcXmXmXmXhXnXmXmXvXvXvXnXbXnXnXnXnXnXbXnXnXbXbXmXxXj.' ` lXKXvXcXzXzXzXzXmXzXzXvXvXvXvXvXvXzXzXyX<.J S A g s 6 6 : : + + O O O O O & & & & . O . . O O + + + + + + + X + X X + + O O + X X X X X X . O . . . . + . . X + . + . . . . . + @ : p p f f f l f p : + X C @.1.l.{.K.x.%.%.( B B B B ' ' B B ( ' B B B ( ( ( ' B B B B N B U B B B B B B B B B B B B B ( ( ( ( ( ( ( U B B N m b C n 8 8 M N #.<.( U U N N N n m m m n n n n m Z Z K E E ! R T x p y a f f x T T E E E E ~ ~ ~ ~ ~ ~ ~ E q ;.y.<.<.<.1.g.B.L.(.}..X{..X3X3X3X3XeX3X2XwXwX.X2X2X~.D.D.S.u.( 1.zXmXlXfXrXrXrXfXrXrXrXrXwX.X2X2XrXjXrX2XlXjXjXjXgXtXtXtXtXtXtXyX0XaXR.;.i.e.l > f P X.;.4.y.c.c.{.mXzXrXrXrXeXwX}.rXrX2XwXwX.X.X.X.X.X}.P.}.wX2X2X X X X X.X[.].E.E.S.Z.m.y.y.t.&.U A.kXkX3X2X2X2X2X}.}.}.}.2X2X}.|.~.D.D.G.G.y.y.5.H.zXnXjXrXtXgXtXtXtXtXtXpXpXpXpXaXyXqX|.L.#.<.<.U N N N N m m b n Z Z Z b C C F : + $ $ $ : p j T T R q.q.e.r.r.r.r.e.o.;.R.~.|.{.2X.X2X X{.1X5XiXiXsX9X8X6X6X6X8X8X6X6X7X=X#X0...0.$X#X=X=X7X7X=X=X&X$X$X$X#X#X$X$X",
"@ - - : : 6 H =.A.yXiXc.c.iXnXmXcXmXmXnXzXjXnXmXmXvXmXmXbXnXbXnXnXbXnXnXnXbXnXnXnX1X$.' v.KXmXmXmXcXcXzXmXmXmXvXmXvXvXvXvXvXzXzXE.I K A A j d p p : : + + O O O O O O & & & & & . . O O O O O O O O + + O + + + O O O O O O O O O O O O O O . & O . O O O O O O . O @ : 7 p p s f f l x x f p : + X C @.1.l.K.l.%.%.( B B N N B B B B B B B B B N B U B B B B B N m N N N N N N N N N N N N N N N N N N N N N N N m m m n 8 n w < < 8 m / U B N m m n n n b n n b b b b n Z Z S E T E R T x p y a f f x T T E E ~ ~ ~ ~ ~ ~ ~ E ~ E q ;.y.<.<.<.1.5.m.H.P.[.}. X.X3X3X3XeXeX2X2XwXwX.X2XwX~.F.D.G.u.( 1.xXmXlXfXfXfXfXfXfXrXrXrXeX.X}.2XrXrXjX{.hXkXjXjXfXrXtXtXtXtXtXyXyXaX+X-.r.r.R p 0 F o.;.3.6.c.c.[.vXzXrXrXrXeXeX.XyXtX2XwX2X}..X2X.X.X.X(.{.wX2X2X X.X X X X].].E.E.R.m.y.y.y.u.=.B h.jXkX3XeX2X2X2X.X}.}.}.2X.X{.[.~.L.A.A.G.m.m.5.A.jXnXjXtXpXpXtXtXyXyX0X@X|.E.D.u.:./ U N M N m m m m n n b b b b b C b q b C j = + # $ $ $ : f x T T O.q.e.r.r.r.u.i.e.E ;.R.~.].}.1X2X X_.rXmXiX<X<X7X7X7X7X7X-X;X;X;X6X6X=X$X$X=X=X=X=X=X=X=X7X7X7X7X#X..$X#X#X#X",
"@ @ @ : : 6 F 3.T.yXpXT.l.4XbXmXmXmXmXnXkXkXnXmXmXmXnXnXbXnXnXnXbXnXbXbXnXbXbXnXcXH.` ` jXKXmXmXmXmXmXmXmXmXvXmXmXvXnXmXvXvXbXpXu.K G A C j g s 6 > : + + + O O O O O O O O O O O O & & O O O O O O . O O O O O O O O O O O O O O O & O O . & O O O & . O O O + @ : 7 p p p s f f l x R x f p : + X F @.<.l.l.,.%.( B N N N N N B N N N B B N N N N B B B N N B N m M N m m m m m m m m m M m m m m m m m m m m m m n n q 8 q q < < < n J N m m b b b M M M M b b b b b b b Z Z G E E R T x p t a f f x T T E E ~ ~ ~ ~ ~ ~ ~ E ~ E q ~ p.i.<.<.1.1.m.B.P.].{.{.2X3X3X2XeXeX3X2X2X2X.X2XwX~.F.D.G.u./ <.jXmXlXfXfXrXfXfXrXrXrXrXeX2X}.2XwXrXjXrX2XzXkXhXhXjXtXtXtXtXtXtXyXqXaXy.;.r.O.f : g o.;.3.6.j.c.).vXmXrXrXrXeXrX2XwXuX2XwXwX.X.X2X2X.X2X].].eX2X2X X.X.X X.X{.].~.E.W.D.y.m.y.y.-.U g.jXcXrXeX2X2X2X2X2X}..X2X.X}.}.~.L.A.G.m.y.y.m.m.yXLXuX}.|.E.B.g.<.#.( U B N m m n b b M M b b b b b b b b q q q b C q q d g s + O + $ $ $ $ p f x T R q.q.e.r.r.r.u.r.e.E ;.R.~.].1X2X{._.K.6.X.V V V +.9.<X7X-X:X-X-X-X;X7X$X=X7X=X=X=X:X$X$X$X#X#X#X&X8. ...8.8.",
"@ @ $ $ : 6 H 3.W.4XuX[.l.1XbXmXmXmXmXnXjXzXnXmXmXmXnXbXbXbXnXnXnXbXbXbXbXbXbXnXtX%.` v.KXbXmXmXmXmXmXmXmXmXvXnXmXnXbXnXbXbXxX~.) K G A C g g s p : : $ # + O O O O # # # $ $ $ $ # # O O O O O . . & & O . O O O O O . & . . . . O O & . . . O . O O + + $ : 7 : p p p p s f j j l T R x f p : + X C @.6.l.1.%.#.B B N N m N N N N N N N N N N m m N N N m m m m m n m M M m M n n m m n n n n n b b m b n m b b b b b q < 0 0 ; ; < n m m b b M 8 8 8 8 8 8 8 8 q q q q b n C A T E T T x y y a f f x T T E ~ ~ ~ ~ ~ ~ ~ ~ E ~ ~ q E p.e.1.:.<.1.m.B.P.`.[.[..X2X3X3XeXeXeX2X2X2X.X.XwX].D.G.G.4./ %.gXmXlXfXfXfXfXfXfXrXrXrXeX2X}..X2XrXrXlX1XrXzXkXhXjXjXtXtXtXtXtX0X@XaXE.-.r.e.j - f O.;.-.4.j.c.T.kXmXhXrX3XrXeXwXwXuXwX2XwX2X.X2X2X2X2X].].eX2X2X.X.X.X X.X{.].].E.E.F.m.y.y.y.t.U 1.jXmXfX3X3X2X2X2X2X}.}.2X2X}.}.].I.F.S.m.y.y.Z.5.|.@X1.( U B N m M M m m M b b b b b 8 < < q b b q q b q q q q q d d q q d g > + O + # $ $ : : p x T R O.q.e.r.r.i.u.u.u.e.P ;.F.~.}.1X{.K.7.X.V V w 8 2 5 r #X=X:X=X=X=X=X=X$X&X=X&X$X$X$X#X$X8.....8.#X8.[  .[ [ ",
"@ $ $ $ : 0 H =.T.4XrX_.c.1XnXmXmXmXnXnXhXnXnXnXnXnXnXnXbXbXnXbXKXKXKXbXbXbXnXnX].` ` jXKXmXnXnXmXcXmXmXmXmXnXbXbXbXbXbXbXbXaX5.I K G A C g g s 6 > : $ $ + O O O + $ $ $ $ : : $ $ $ : : : : $ + + + + O . . . . . . . . . . O O + + + + @ @ @ $ : : : i p i p p p p s f f j j l T R R x f p : + X C $.6.1.%.%.( N N m m m m m N N N m N m N m m m m m m m m m m m n b M M M M M M M M M M M M M M M M b b b b b b 8 q 8 < 0 0 ; ; ; q M M b q 8 8 8 8 8 8 8 8 8 8 8 q q q q q C G T T T x y t a f f j Y T E E ~ ~ ~ ~ ~ ~ ~ ~ ~ ~ D K Z.i.<.:.:.1.m.B.L.P.[.[..X3X2X3XeXeX3X3X2X2X2X}.wX|.F.S.G.y./ #.rXmXkXhXfXfXfXfXfXrXrXrXrX2X}.}.2XrXrXhXhX{.zXmXjXhXjXtXtXgXtXtXyX0XyX+Xt.r.e.Y : 6 E &.-.4.c.c.K.lXnXhXrXrXwXwXwX2XjXrX2XwX2X2X2X2X2X2X}.].eX2X2X.X.X.X.X.X}.].~.~.E.D.Z.y.y.y.t.( <.rXnXfX3X3X2X2X2X2X}.}..X2X}.}.].I.D.S.S.y.t.&.J 5.<.B M m m n b b b b b b b b 8 8 q 8 < 8 8 8 8 8 q q 1 1 q 1 q q 0 0 0 d s : + O # # $ $ $ : : f T R O.q.e.r.u.i.y.y.y.u.r.I =.R.~.{.1Xb.b.9. . . . . .V r 9.7X*X=X=X=X=X=X$X$X=X$X$X..8.8.8............. .....8.",
". . $ $ : 0 H 4.T.4XyXK.Y.4XvXmXmXnXnXnXfXnXnXnXnXnXnXnXbXbXnXbXKXKXbXJXJXbXnXxXh.' v.KXbXbXnXnXmXmXnXmXmXmXbXbXbXbXbXbXbXvXE.*.I G S A C d g s p > : : # + O O O + $ $ $ : : : : : 7 7 7 : : : : : : : : : $ @ @ @ @ $ $ $ : : : : : 7 7 7 p 7 p p p p p p p p s s f f j j j l T T O.R x f p $ + X n @.%.%.%.#.U N m m m M m m m m m m m M m M M M m m M m m n n M M M M M M M M M M M M M 8 M M M M M b b b b 8 8 8 q 8 < < 1 ; ; ; q 8 8 < q 8 8 < < < < < < < < < < 1 8 8 8 d A T T T x y t a f f j T T E ~ ~ ~ ~ ~ ~ ~ ~ ~ ~ ~ D G Z.u.<.:.:.1.1.B.L.P.[.[..X3X3X2XeXeX3X2X2X2X2X}.wX|.F.S.G.y.@.#.wXmXkXfXfXfXrXfXfXfXrXrXrX2X}..X2XeXrX3XzX2X4XmXkXhXjXtXtXtXtXtXtXyXqXaXR.-.e.R : : E ;.3.6.G.c.K.jXnXhXrXrXeXeXeX2XtXrXwXwXwX2X2XwX2X2X}.].wX2X2X.X.X.X.X.X}.[.].~.F.F.S.y.y.u.t./ %.wXmXhX3X3X2X2X2X2X.X}..X.X{.}.].I.D.S.t.o.J 8 M U N M M M 8 b q b 8 8 q q 8 q < < < < < 8 8 8 8 < < 1 1 < < 1 0 q 1 1 1 0 s - O O # # $ $ $ : : p T O.! O.e.r.i.u.y.p.y.p.y.-.I -.P.[._.<X*X9.9.#X$X#X#X9.0.8.#X<X*X:X:X#X$X$X*X#X$X..8.8.8.8.8.8.....[ ..8.$X#X7X",
"s.e o % : s G t.^.4XyXv.T.iXvXmXmXnXnXkXhXnXbXnXmXbXbXbXbXbXbXKXnXbXbXbXbXbXbXyX%.` jXKXnXnXbXbXnXbXnXnXnXbXbXbXbXbXbXbXJXyX5.) K G G A C g g s p > : : # + O O O # $ $ $ : : t i i i i p p p p i p 6 6 6 6 7 7 i i i i i i i p p p p p p p p s f f f f f f f s f f j j l l l l T R O.O.l f p $ + X w @.%.%.#.@.B m M b M M m m M m m m m m m m n b m m m M m M M M M M b M M M M M M b M 8 8 8 8 8 8 8 8 q q 8 8 8 q q 0 < 1 1 ; ; ; 8 8 < < < < < < < < < < < < < < < < < q q q C T T T x t t a f f j T T E ~ ~ ~ ~ ~ ~ ~ ;.~ ~ ~ C C u.u.<.2.<.1.m.B.L.P.].]..XwX3X3X3XeX3X2X3XwXwX.X2X}.I.D.S.y.&.( }.mXkXfXfXfXrXfXfXfXeXrXrX3X{.}.2XeXrX3XtXjX{.jXmXjXuXuXuXtXtXtXtXyXyXaX!.3.;.q.f > R ;.3.4.G.c.K.hXbXjXrXrXeXrXeX2XtXtXwX2X2X2X.XwX2XwX.X[.wX2X2X2X.X X X.X{.{.].~.E.R.S.y.y.u.u.#.%.wXmXhX3X3X2X3X2X2X.X{..X.X}.@X~.E.R.-.J q < < < M 8 8 8 8 8 8 8 8 8 8 8 < < < < < < ; < < < < < < < < < < < < 0 0 < < 0 s > : O O O # # $ : : : p j O.r.o.O.;.r.i.u.p.p.p.S.p.3.I 4.T.<X,X*X*X=X*X*X#X9. . .[ [ 0.$X$X$X$X:X=X=X$X$X#X#X$X$X$X$X8.....[ 8.#X#X=X-X",
"&X%X8.4 o 0 H 4.T.yX4Xc.T.uXmXmXmXbXnXhXlXnXnXnXbXbXbXbXbXbXKXKXKXbXbXbXbXnXvX).' c.KXbXnXbXnXbXbXbXnXnXbXbXnXbXJXKXbXJXxXF.-.~ K G G A j j g s p > : : # + O O O # $ $ : : : t i p p p p p p p p p p p p p p p p p p p p p p p p p f s s f f f f f j j f f f f j j l l l l T T T R R R l s y $ + . w @.$.%.#.U m M M M M M M b M M M M n n M M M M M M M M M M M M M 8 M b M 8 8 8 8 M 8 8 8 8 8 8 8 8 8 8 8 8 8 8 q 0 1 ; > > ; ; ; < < < < < < < < < < < < < < < < < < < < 1 0 q A T T j : t a f f j T T E ~ ~ ~ ~ ~ ~ ~ ;.~ ~ ~ G q i.u.<.2.:.1.i.m.D.P.].]..XwXeX2X3XeX3X3X3XwXwX.X.X}.E.D.S.y.*.( ].nXkXhXfXfXfXfXfXrXeXrXrXrX}.}..X2XrXrXwXxX2X2XzXzXjXuXuXtXtXtXtXyXyXyXqXy.;.q.l > F ;.3.4.G.c.K.rXnXjXrXrXrXrXeX2XtXjXwX2X2X2X2XwXwXwXwX[..X2X2X2X.X X.X.X.X{.].|.~.E.R.m.y.y.u.=.#.}.nXlX3X3X2X3X3XwX}.}.}..X}.@X~.m.&.n < < ; ; < < < < < < < < < < < < < < < < < < < ; ; < < < < < ; ; ; ; ; ; 0 < < ; > 6 : + O O + + $ $ $ $ : p g O.W.S.3.3.r.t.t.y.p.S.S.R.p.3.I 6.5X,X,X-X*X#X#X9... . .....:X;X6X6X=X6X6X6X6X=X=X=X=X=X&X#X#X8.[ [ 8.#X:X:X-X",
"&X&X%Xa.e 5 H 4.T.yX4Xv.1XlXbXvXnXbXnX4XkXnXbXbXbXbXbXbXbXbXKXKXKXbXbXbXbXbXxXc.' jXKXbXbXbXbXbXbXbXbXbXnXbXnXKXJXJXJXJX0Xu.;.~ K G G A j j g s p > > : # + O O O $ $ $ : t t i i p p p p p p p p p p p p p p p p p p p p p p p s f f f f j j j j l l l l l l j l l F T F Y T Y Y R R R T f y $ + & 8 @.#.$.( B M M 8 8 M M M M M M M b b b M M M M M b M M M M M M 8 8 8 8 8 8 8 8 8 8 8 8 8 8 8 8 8 8 8 8 8 8 8 < < < < ; ; ; = = ; < < ; ; ; ; ; ; ; ; ; ; ; ; ; ; ; < < 1 < 8 0 C T T j : t a f f j T E E ~ ~ ~ ~ ~ ~ ~ ;.~ ~ O.G q r.y.<.2.:.<.i.m.B.P.].].}.wXeX2XeXeX3X3X3XeXwX.X.X}.E.D.G.y.=.( ~.mXkXhXfXfXrXfXfXrXrXrXrXrX}.{..XwXrXeXwXrXjX).rXvXjXuXuXuXtXtXpXtXyXyXaXR.-.q.Y ; g O.=.4.G.Y.K.rXnXlXrXrXrXrXrX2XrXjXwX2X2X2X.X.XwXwXwX[.}.wX2X2X.X.X.X.X}.}.].|.~.W.E.S.y.y.u.4.#.|.mXlXrX3X2X2X2X2X.X}.}.}.@X~.4.J b 1 ; ; ; ; ; < < < < < < < < < ; < ; ; < < < ; ; ; ; ; ; ; ; ; ; ; ; ; ; ; > ; ; ; > > - $ O O + + # $ $ $ : 6 g X.W.yXT.F.p.p.y.y.S.S.R.R.R.S.3.9.7X-X-X*X#X#X0.0.0.0.#X#X8XNXNX6X;X6XAX6XNXNX;XGX6X6X7X6X7X#X .] ] [ #X7X=X-X",
"%X%X%X%Xa.l V 3.A.5X4Xv.1XmXbXvXnXnXnX2XmXnXmXbXbXbXbXbXbXbXKXKXJXJXbXbXbXvXuX,.x.KXKXbXbXbXbXbXbXnXnXbXnXbXbXnXbXKXJXLXI.<.) E E G S A A j g s p > > : # + O O O $ $ : : : t p p p p p p p p p p p s s s f s f s f s p p f f f f j j j j l l l l l F F T F l l F F F F Y F F R R R R R l f p $ + . 8 @.#.$.( M M 8 8 8 8 8 8 8 8 8 8 8 b b M M 8 8 8 8 8 8 8 8 8 8 8 8 8 8 8 8 8 8 < < < < < < 8 8 < < < < < < < < < < ; ; ; ; = = ; ; ; ; ; ; ; ; ; ; ; ; ; ; ; ; ; ; ; ; ; ; < 0 d A T f : i a f f j T E ~ ~ ~ ~ ~ ~ ~ ~ ;.~ ~ O.E q ~ y.<.<.:.1.i.m.B.P.`.].}.wX2X2X2XeXeX3X3X2X2X.X.X.X~.D.S.y.=.U I.mXcXjXfXfXfXfXfXfXrXrXrXrX.X{.2X2XrXrXwXwXjX2X).zXzXuXxXuXtXtXtXtXtXyXaX~.t.O.R > w o.=.6.G.Y.K.4XnXkXrXrXrXrXrXwXwXjXrX2X2X2X.X2X2XwXwX}.{.2X2X2X2X.X.X.X.X}.].|.~.W.W.D.m.y.t.4.%.].mXkXrX3X2XwXwXwX}.}.}.@XD.@.m b < ; ; = = = ; ; ; ; ; ; ; ; ; ; ; ; ; ; ; ; ; ; ; ; ; ; ; ; ; ; ; - = - ; ; ; - - - > : + # O O + O # $ $ + : p g ;.A.4X4XQ.!.!.W.R.W.R.R.F.R.S.9.<X8X:X*X*X#X0.0.#X7X=X:X7XBX8X;X;X;XGXNXNX8XNX=X#X7X7X7X#X..] e e ] ] [ 8.#X7X",
"%X%X%X%X%Xa. .=.c.4X4XK.4XvXnXmXnXnXmX2XbXnXmXbXbXbXbXbXbXbXJXKXJXbXbXbXbXvX4X` 1XKXnXbXbXbXbXbXbXnXbXbXKXKXKXKXbXbXKXtXm.*.~ E T G S A j j d s p y : : $ + O O O $ $ $ t : t p p p p p p s s s f s f f f f f f f f f f f f f f j j j j F T F F F F F F F F F F Y F F F R F R R R E O.R l f i $ O & 8 X.$.( B M 8 < < 8 8 < 8 < 8 8 8 8 8 8 8 8 8 8 8 8 8 8 8 8 8 8 8 < < < < 8 < < < < < < < < < < < < < < < < < ; ; ; ; - ; - = = ; ; ; = - - = * * * * * * = = = = - ; ; ; ; ; 1 0 g j f : p a f f j T T ! ~ ~ ~ ~ ~ ~ ~ ;.~ ~ O.~ b K y.<.<.:.1.u.m.B.P.].].{.2X3XeX2X3X3X3X3X3X2X.X.X2X~.D.G.y.<.U H.cXcXhXfXfXrXrXfXfXrXrXrXrX2X}.2X2XrXrXrX2XrXjXv.2XnXjXuXuXtXuXuXtXtXyXyX+Xy.;.O.6 0 O.=.6.c.Y.K.2XnXkXrXrXrXrXeX2XwXjXrXwXwX2X2X2XwXwXwX.X}.2X2X2X.X.X.X.X}.}.].|.~.~.W.F.m.y.y.4.%.P.cXkX3X2X2X2XwXwX@X+X~.4.J n 8 < ; * * + + + = = = = = = = ; ; ; = ; ; = = ; ; = = = ; ; = = = = = = = = = - - - = = : + + + O O O # $ $ # $ : 6 F ;.j._.rX1X~.~.W.W.W.W.W.F.F.p.b.8X-X,X*X#X$X*X7X7X-X=X=X6XNX6X;X;XGXNXNXNXNXBX8.] [ [ ] 4 4 4 ] e ] ] [ [ ..$X",
"%X%X%Xs.%X%X8.+.6.1X4XT.rXvXnXnXnXnXhX1XnXbXbXnXbXbXbXbXbXnXKXKXbXbXJXbXnXzX{.` vXKXnXbXbXnXbXbXbXbXbXJXKXKXKXKXbXbXJX~.4.&.~ K T G A A A j d s p y : : # + O O O $ $ : : t p p p p s s s s s f f f g j g g f g g g f f g g j j F l l l T T F T F F R R R R F F R P P R R R R O.O.O.O.R l f i $ O & ; I @.U M < < < < < < < < < < 8 8 < 8 8 8 8 8 8 8 8 8 < < < 8 8 < < < < < < < < < < < < ; ; < < ; < < ; ; ; ; ; ; ; ; - - = * = - = = = = = = = = = * = = * = = = = = = - ; ; ; 0 s j f : p a f f x T E ~ ~ ~ ~ ~ ~ ~ ~ ;._ ~ ~ ~ D C u.u.<.:.1.m.m.B.P.`.].[.2X3X3X3XeXeX3X3XeXwX.X.X2X|.D.G.Z.4.U h.zXcXhXfXfXrXrXrXfXrXrXrXrXwX}.2X2XeXrXrX2X2XjX].c.zXxXuXxXuXtXuXpXtXtXyXyXR.e.O.f > P ;.6.c.Y.K.2XnXzXrXrXrXrXrXrXwXtXgXeX2X2X2X2XwXwXwX2X{.2XwX2X.X.X2X2X}.}.}.].|.~.W.E.S.y.y.5.<.I.kXkXrX2X2XwX0XwX+Xm./ m b < ; ; * X X X X X X + X = = = = = = = = = = = = = = = = = = = = = = = = = = + = = + + + + + + $ O & O O # # $ # $ : 6 F =.6.Y.4XyX1X|.Q.W.W.W.W.F.S.9.*X9X-X*X#X#X-X-X6X6X-X7X*XNXNX6XGXNXNXNXNXNXVX7X[ ] e e e e e e ] ] ] ] [ | ..8.",
"%X%X%X%X%Xa.a.+.=.T.4X_.rXbXnXnXnXnX3X2XnXnXbXbXbXbXbXbXbXbXKXJXJXJXJXbXvXxXv.x.KXKXbXbXnXnXbXbXnXbXbXKXKXKXKXKXnXKXxXG.-.~ E E G G A A j j d s s > : : # # O O # $ $ : i p p p p f f f f f g g g j j j g l l l j j j j j j l F F F F F R R T T P P R R R P P P R P P E E E O.O.O.O.O.R l f p $ # & ; P @.m 2 ; ; ; ; ; ; ; < < < < < < 8 8 < < < < < < < < < < < < < < < ; ; ; ; ; ; ; ; ; ; ; ; ; ; ; ; ; ; ; ; ; ; ; - = = = X = = * = = = = = = = = + + + = = = = = = = = - - ; > 6 j f : p a f f x T T E ~ ~ _ ~ _ ~ ~ ;.;.~ ~ O.S b e.u.<.1.1.m.m.B.P.`.].[.2X2X2XeX3X3XrX3X3XwX.X.X.X|.D.G.Z.4.U l.jXmXlXfXfXrX3XfXfXrXrXrXrXeX}..X2XeXrXeXwX}.wXyXl.2XzXxXtXxXjXuXpXpXtXtXaX~.r.q.j > F ;.=.c.Y.K.{.nXvXfXjXtXrXrXrXwXtXgXeXwX2XwX2XwXwXeXwX[..X2X2X2X.X2X2X2X}.}.|.|.~.W.E.D.m.y.5.<.I.zXzXrXwXwXyX@XD.*.N M 8 < ; = = +     & &       X X + X + X X = + = = = = X + X + X = X X X X X + X X + + + + + + + + + $ O & O O # # % + : : s G =.5.l.[.uX4X1XQ.~.W.W.W.F.F.Y.5X9X*X*X*X-X8X6X6X6X6X=X#XVXNX6XNXNXBXBXNXBX6X..[ ] ] ] ] ] ] e ] +.[ [ [ 8.8.$X",
"s.s.s.s.%X%Xa.3.X.F.1X1XlXbXnXnXbXnX_.3XnXbXbXbXnXnXbXbXnXKXKXKXJXJXJXbXxXjXx.K.KXnXbXbXKXKXbXbXnXnXKXJXKXKXKXKXKXJX0Xu.-.~ E E G S A A j j d s s > : : # + O O # $ $ : i p p p f f f f f j j j l F F F F F F F F l j l F F F T R R F R R F T P P R R R R R P R R R R E O.O.O.O.O.O.O.R F f p $ # & * P U 2 ; = ; ; ; ; ; ; ; < < < < < < < < < < < < < ; ; < < < < < ; ; ; ; ; ; ; ; ; ; ; ; ; ; ; ; ; ; ; ; ; - - = = = = = X X = X X X + + + X X X X X X X X X X X X + + + = = = ; > s s t a f f f x T E ~ ~ ~ ~ _ ;.~ _ ;.;.~ ~ O.G 1 ;.y.<.1.1.i.m.B.P.`.].[..X2X2X3X3X3XeX3X3XeX.X.X}.|.D.G.y.4.U 1.jXmXlXfXfXrX3XfXfXrXrXrXrXrX.X}.2XeXrXeX2X}.}.uXH.H.uXtXxXxXxXpXpXpXpXpXpX+Xi.q.T > g o.3.j.Y.K._.nXmXjXrXtXtXrXrXwXtXjXrXwX2XwX2XwXwX2XeX.X.X2X2X2X.X2X.X.X}.}.|.|.~.~.E.F.S.y.u.<.I.zXzXtXyX@XE.:.N n 8 < < ; = = + +   & & & & &       + + + + + + + = = = = = = + + X + X X X X X + + X X X X X + + @ + $ $ O O O O O # # + : > 0 P =.6.l.Y.iXyX1X1XQ.~.W.W.F.F.F.5X9.0.<X6X-X6X8X8X6X9X0.0.ZX6X8XBXBXBXBXVXBX$X[ [ ] ] ] ] [ ] ] [ %X&X#X#X#X#X#X",
"+.+.+.w.+.s.s.+.V 4.Q.5XkXbXnXnXnXnXv.kXnXbXnXbXbXnXbXbXKXKXKXKXKXJXbXbXxXrX%.4XKXKXbXKXKXKXnXbXKXKXKXKXJXKXJXJXKXLXR.<.&.~ E E G G A A j j d s p > : $ # + # O $ $ $ t t p p p f f j l l F F G P P R R R R P P F F F F F F Y R R R R R Y F Y F P R R R R P R R R E O.o.o.O.O.O.O.O.O.R Y f p : O & * F n ; * * * * - ; ; ; ; ; ; < ; ; ; ; ; < ; ; ; ; ; ; ; ; ; ; ; ; ; ; ; ; ; ; ; - - - - - * * * - - - - * = = = = = + X X + + + X X + X X + X X X X + + X X X + + + + + + + = = - : p p a p f f j T E ~ ~ ~ _ ~ ~ ~ ~ ;._ ~ ~ O.T q ~ Z.1.1.1.m.m.B.L.E.].[..XwXwX3XeX3XeX3X3X3X.X.X}.|.L.D.m.4.I <.rXmXlXfXfXrX3XfXfXrX3X3XrXrX.X}.2XeXrXrX2X2X[.eX|.l.0X}.yXpXpXpXpXpXpXpXtXaXy.e.R > s E -.m.Y.K._.mXvXrXhXrXrXrXrXwXrXjXrXwXwXwX2XwXeX2X2X2X}.wX2X2X2X2X2X2X}.}.|.|.~.~.W.R.S.S.Z.5.I.cXbXyXE.<.J m 8 < < ; = = + +   . & & & & & & & O & . . & . . &         & X X + X X     .   X + + X   . . . @ : t p p : $ O O O O O O O # : > 0 P =.6.6.c.1XjX4X1X|.Q.W.W.W.F.S.4.V 9.7X-X6X8X8X8XsX<X[  .sXZXVXZXZXZXZX7X8... .[ ] [ [ [ [ [ [ ] 8.7X7X7X6X=X=X",
"o o o o 4 7 l l w X.T.1XcXnXnXnXKXhXv.bXnXbXnXbXnXnXbXbXKXKXKXKXJXKXbXbXjX1X` zXKXKXbXKXKXKXbXKXKXKXKXKXKXKXJXKXLXF.u.-.~ E E G G A A j d d d s p > : $ # # # O $ $ $ t p p p f g F Y R O.R O.O.o.o.O.O.O.O.o.O.R R P P P P R R R R R P P P P P R R O.O.E O.O.O.O.O.o.o.O.;.e.O.;.O.O.R R j p : O &   q ; * * X X X * * * * - - ; ; ; ; ; ; ; ; ; ; ; ; ; ; ; ; * - - = = = = = = = - - = = = = * * = = = = = * = = + X X + + + + X X X . . . . . . . . . . . . . X X X O O + + + + + = + : p a f f j j T E ~ ~ _ _ _ O.~ ;.;.;.~ ~ ~ E q K Z.m.1.i.m.m.B.I.`.].].}.wXwX3X3XeXeXeXeX3X2X.X}.|.L.G.y.4.I #.rXnXlXfXfXfX3XfXfXfX3X3XeXrX2X{.2XwXrXrXwX2X{.}.yXg.~.].L.~.yXpXpXtXtXtXtXaXu.e.R s 6 P ;.m.Y.K._.vXmXjXrXrXrXrXrXrXrXjXrXeXwXwX2X2XeXwXwXwX}.wXwX2X2X2X2X2X}.}.|.|.~.~.~.E.R.R.S.m.D.xXtX5.B m M < < ; = * * X X   & & & X + - @ @ o o * 5 5 5 5 5 5 4 [  .[ [ 5 o o o 5 l r 5 o &   . . + @ : 7 6 p p f p i : O & O O O + O $ : > w I ;.6.6.l.K.uXrX1X1X|.Q.W.R.R.S.4.X.9.<X9XZXZXZX7X9.[ [ [ ..<X<X&X#X<X8.[ 4 +...[ [ [ [ [ [ .. .] 5 } %X7X9X6X6X",
"- @ O % @ X - 0 w H F.1XcXbXmXnXKX_.).KXnXnXnXnXnXnXbXKXKXKXKXKXKXJXbXzXxXP.7.KXKXJXJXKXKXKXbXKXKXKXKXKXKXKXPXcXA.#.=.&.~ E K G G A A A d d s s p : : # + # # # $ $ $ i p p f F P R O.O.O.;.;.3.3.3.r.3.3.3.3.;.O.O.O.P P O.O.R P O.P P P P P O.O.O.O.O.O.o.o.o.X.X.3.3.3.3.r.3.;.;.O.E R l p : + . X ; * X X X X X X X * * * * * * * * * * ; ; ; ; ; * * * * * - * * = = * = = = = = = * X X X = = + = + = = X + + + + X + + . . . . . & & & & & & & & & & & & & & & & & . . O . . + + + $ t a f f j j T E ~ ~ _ _ ;.~ ~ ;.;.;.~ ~ ~ E d Z Z.m.1.1.m.m.D.P.`.].].}.wXwX2X3X3XeXeX3X3X2X}.}.|.E.G.y.4./ #.2XmXlXfXfXfX3XeXfXfXrX3XeXrXeX}..XeXeXrXeX2X}.].tXL.A.].B.g.D.Q.+XqXqXyXaXOX;.e.O.s > G ;.y.T.K._.vXnXjXrXrXrXrXrXrXwXjXtXrXwXwXwXwXwXwXeXwX}.wXwXwX2X2X2X2X}.}.}.|.|.|.~.~.E.R.S.4.=.D.#.N m 8 < ; * = = X X X     & O $ : ; 8 w  .o.4.p.G.S.S.S.S.p.3.<X*X*X*X<X9.r r 7.a.%X0.+.+.r * 6 p f f j f f p p p p : $ O & O O O O $ : > C X.=.6.1.l.c.4XlXyX1X1XQ.W.^.^.S.p.$.+.<XsXsX<X9.r 5 r  .[ [ r r r 5 r 5 5 5 r +...[ [ ......8.8.} e e e +.%X7XsX",
"- @ + + + + = 6 0 V 6.4XcXnXnXbXbXc.4XKXbXnXnXnXnXbXnXKXKXKXKXKXKXbXbXxXjXl.c.PXKXJXKXKXKXbXbXKXKXKXKXKXKXPXpXg.( / / ~ K K K G S A A g d s s s > > : # # # # # $ $ $ i p f F O.O.;.r.r.t.3.4.t.t.t.t.t.t.t.t.3.;.;.o.o.O.O.O.O.O.O.P P O.O.E O.O.o.o.o.o.;.;.;.3.=.3.3.3.3.3.3.=.3.;.O.R l p : + . . + X X . . . . . X X X X X * * * * * * * = = = = = = * * * * * * = = = = = = = X X X X X X + + + + + + + + + + + + . + O . . . . . & & . & & . & . & . O O . . . . O O O O O + + : p $ t a f f j A T ! ~ ~ _ _ ;.~ ~ ;.;.;.~ ~ ~ E C b y.Z.f.m.m.B.C.P.].].[.}.wXwX2X2X3XeXrX3X3X2X}.}.}.E.D.y.4./ #.{.nXkXfXfXfX3XeXfXfXrX3XeXeXrX.X{.2XeXrXwX.X.X[.wX}.g.E.B.1.u.m.m.D.D.E.R.-.G q.O.j : F o.6.I.K._.vXbXjXjXrXrXtXtXtXwXjXjXrXwXwXwXwXwXwXwXwX.X2XwXwX2X2X2XwX2X@X|.|.!.+X~.W.y.-.I Z b m m M < < ; = * X X X & & & + : @ 3 8 J -.D.I.wXgXgXrX.X}.}.}.|.A.b.*X9X9X<X<X9.0.9.9.#X<Xa.^.6.+.V F F Y R R R T f s p i $ O O O O O O $ : 6 F X.$.<.1.l.l._.uXyX4X1X1XQ.W.W.^.R.p. .9.9.r 5 * 8 8 w +.[ [ [ [ [ r e e e e 5 [ ........8.8.8.8.8.] e e 5 r [ 9.",
": @ + + + + + : 0 w 4.yXvXnXnXbXlXx.zXKXbXnXnXKXnXbXnXKXKXKXKXKXKXbXbXjXuX%._.IXKXJXJXKXKXbXKXKXKXJXKXKXJX0X<.( U U U I K K G G A A j d d s s s p > : # # # + # $ $ : p f l O.r.r.3.t.y.p.p.p.p.G.S.S.S.S.p.p.y.t.3.3.3.;.o.o.o.o.O.O.O.O.O.O.o.o.;.;.3.3.t.4.p.p.p.6.6.9.b.T.b.9.6.t.;.R j p : @ O . . X . . . . . . . . X X + X X X X * * * * = = = = + = = X X X X + X + + + + + + + + + + + + + + + + + + + + O . O O O O O O + + + $ # $ O O + # $ $ $ : : $ : 7 i i p p a a s f x a $ i a f f j Y T ! ~ ~ _ _ ;.~ ~ ;.;.;.~ ~ ~ E A q t.B.g.m.m.B.L.P.`.].[.}.wX2X2X2X3X3XrXrX3X2X}.[.}.E.D.y.4.@.( {.nXlXfXfXfXrXrXfXfXrXeXeX3XeX2X{.wXwXwXwX2X.X}.}.tXg.A.D.1.u.5.5.u.u.u.-.P F O.O.l : g o.4.Y.K._.kXbXkXjXjXrXgXtXrXwXjXjXrXwXwXwXwXwXwXeXwX2X.XwXwXwXwXwXwX0X@X+XOXW.S.<.I m b q 8 < < 1 < ; = X X   o & & & O + : - r +.p.~.}.[.k.{.fXfXeX].].~.~.~.b. .9.,X,X8X-X,X,X*X0.*X*X .7.Y.~.R.3.&.X.O.O.O.R Y l f p : O O O O O O $ : 0 J X.$.<.1.l.l.v.yXuXyX1X1X1X~.W.W.W.^.4.V 2 ; 8 6 1 6 w [ [ [ [ [ [ r [ e e r 5 5 [ 8.8.8.....8.#X8.[ ] c e e e e ",
"@ @ + + + + + @ 6 8 ;.yXvXvXnXKX1Xl.KXKXKXnXnXKXnXbXnXKXKXbXJXKXJXbXbXjX2X` uXIXKXJXKXKXKXJXKXKXKXKXPXLXI.( ( U U J J K K K G G A C g g d s s 0 > > : + # $ # # $ $ t p f F o.p.p.p.S.S.S.G.S.F.F.^.^.F.F.F.F.G.S.p.p.t.t.3.3.3.;.o.o.o.o.;.;.3.3.4.p.p.p.p.F.^.F.<X<Xb.b.<X5X<X<X^.6.;.R j p 7 @ O O + + X       & & . . . . + X X X X X X X X X X X X + + + X X X + + + + + + + + + + + + + + + + + + + O + + . . . O O + @ : : : : : : : $ # O $ $ : : : t t : i p p p f x x l f R R a # i a f f j Y T ! ~ _ _ _ _ ~ O.;.;._ ~ ~ ~ ! G 1 -.R.m.m.m.V.L.P.P.].[.}.2XwX2X2X2X3XrXrX3X3X.X}.}.~.D.y.4.&.( ).mXkXfXfXfXrXeXrXfXfXeXeXeXrX3X{.2XeXwXeXwX.X}.].tXH.1.D.1.<.u.5.u.i.t.O.G F ! ! j 6 0 O.3.Y.K._.kXbXzXjXjXjXjXtXtXwXtXjXrXrXwXwXwXwXwXwXwXwX1XyXwXwXwXwXyXqX+XE.-.I m b b q 8 < < ; ; ; =   X X X     & X + = ; w $.T.yXrX.X[.(.l.P.fXrX3X_.K.T.Y.Y.c.7.<X8X0.<X9X8X9X-X,X-X-Xb.7.6.l.I.qXqXW.p.t.r.e.O.T j f i $ O O O O O $ - 0 P X.@.=.6.l.l.c._.lXrXyX1X1X1X~.~.Q.W.F.4.P w 0 > 1 0 8 r  .[ [ [ [ [ ] e e e e 5 5 [ 8.9.$X#X$X$X#X..[ { { { e { ",
"- - + + + + + + 7 0 U 1XcXcXnXnXv.).KXKXKXKXKXnXnXbXbXKXKXKXKXKXJXKXmXjXP.%.JXPXJXJXKXKXnXKXKXKXPXPXyX5.( ( U U J J N Z K G G G A g g d d s 0 6 > : : + # $ # $ $ : i p g P 4.R.F.F.F.^.F.^.W.W.W.W.W.W.W.W.W.W.W.F.S.S.S.p.y.y.3.3.3.3.4.t.p.p.S.S.^.^.^.T.^.^.<X<XsX9X,X9X<X*X*X9.7.;.G j s : $ O + + : f 0 8 * o         & & & . X X + + X + + X + + + + + X X X X X + + + + + + X X X . . . . . . . . . . . O + + $ : i i p i i t t i i $ # O $ : : t t y t p p p f f x R R T x ! R a $ i a f f j Y T ! ~ _ _ _ ~ ~ o.;.;._ ;.~ ~ ! E q &.E.B.B.C.L.L.P.].].{.}.2XeX2X2X2X3XrXrX3X2X.X}.|.~.D.G.4.&.( P.mXcXfXfXfXrXeXrXfXfXeX3XeXeX3X{..XeX3XrX2X.X}.].yX].%.m.<.<.4.4.<.e.r.E F F R ! j 7 0 P =.A.K._.kXbXzXjXjXuXuXtXtXwXyXjXuXrXrXwXwXwXwXwXwXwX0XyXyXyXyXqX~.Z.=.J n n q q 0 ; ; ; ; = = X X     X X X & + X * w =.|.pXgXfX X_.(.P.1.h.3X3X3X{.).T.K.Y.c.7.<XVXb. .9.0.9.9.*X-X<X<Xc.A.A.H.I.}.uXxXaXS.u.i.q.R l p $ O O O O O + - w P X.@.=.6.l.l.c.Y.rXlXrX4X4X1X1X1XQ.W.W.S.3.F 0 6 0 0 8 8 +. .[ [ [ [ [ e e e r 5 4 4 [ 9.&X&X#X#X#X8.[ } { { { { ",
"- - + + # + + + : 0 n Q.cXcXbXxXx.rXKXKXKXKXKXnXbXnXKXKXKXKXKXKXKXKXkXjXl.c.PXKXKXKXKXKXbXKXKXPXLX~.#.( B B B J N Z Z Z Z G S A C g g s s s s 6 > : : + + $ # $ $ t p s F o.S.W.W.W.T.W.W.Q.Q.~.~.~.~.~.~.~.~.Q.~.Q.T.F.E.R.R.R.S.S.S.S.F.^.^.^.^.^.^.T.<X<X<X<X*X<X9X-X-X-X-X<X<X<Xc.p.e.F s : $ O + @ : l O.O.O.H w 8 * o X . . & & & & & X + X X X + + X X X X . . . . . O O O O O O O & & . . & & . . + + @ : 7 i 6 p p p p p p i i i i $ # $ : : t t t y p p p f f f Y w.w.w.R ! Y t $ i a f f x Y T ! ~ _ _ _ _ ~ ;.;.;._ ;.~ ~ ! E b L E.L.C.L.P.P.P.(.[.}.}..XeX2X2X3XeXrXrX3XeX2X}.|.~.D.G.y.=.( K.cXcXfXfXrXrX3X3XfXrXeXeXeX3XrX.X.XeXeXeXwX.X.X}.@X0X<.m.1.<.<.<.<.<.;.R F F T R j 6 6 P &.c.K.1XvXKXvXlXjXuXuXuXtXyXyXxXuXrXrXeXwXwXwXyXyXyXqXqXqX~.m.=.U m M b q q 0 < ; ; ; = = = + X X     X X + X o 8 3.1XxXlXgX.X[.[.).(.P.g.5.2XfXrX{.).T.I.I.b.0.,X>X-X7.@.X.c.Y.c.b.7.Y.~.E.E.~.P.P.{.tXyXQ.e.i.i.i.q.f p @ O O O O + - g P X.$.$.6.1.l.c.v._.lXrX4X4X1X1X~.Q.Q.W.R.;.F 0 6 6 0 0 0 H +.[ [ [ [ [ e e e e e 7 4 o 5 8.<X7X7X#X#X..| | | +.| ",
": : - + + + + + @ 6 8 G.vXcXnX1X7.mXKXnXnXnXnXnXbXKXKXKXKXKXKXKXKXKXzXrX%.1XIXKXKXKXKXKXKXPXKX0X5.( U U B N N m Z Z n C C C A C g g d s s s p > > : : # # $ # $ $ t p f F ;.R.1X1XQ.W.Q.Q.~.~.|.1X1X1X1X1X1X1X1X~.~.~.W.~.T.~.T.T.~.~.~.~.T.T.T.T.<X<X<X<X9X9X9X8X8X>X-X>X8X8X8X9X*XT.S.-.C s : $ + + @ 6 F ;.-.3.;.;.o.E P g 0 ; - @ + + . . . & & X . . . O O . . . . . . & & & . . . . . . . O + + $ : : p p p p p p p f f s p p p p i i $ # $ t : t y p p p p f f f l R w.w.q.q.! x t : p a f f j A T ! ~ _ _ ;.~ ~ ;.;.;.;._ ~ ~ ~ ! C Z R.P.L.P.P.P.E.`.].{.}..XwXeX2X3XeXrXeXeXwXwX|.].~.F.G.y.-.B H.zXkXfXfXrX3X3X3XfXfXeX3XeXrXrX2X{.3X2XeX2X.X2X}.}.yXm.5.4.<.<.<.<.e.;.T T F T R f p > G &.6.K.1XbXKXnXlXjXjXrXuXuXyXwXxXuXtXtXwXwXyXyXqX@X+XS.4.@.B m b M b q q 0 1 ; ; ; - = = + +     X X X + X o r =.0XxXlXfX2X}.[.].].`.(.P.g.%.}.jXeX[.).Y.v.c.b.9X9X8X5Xn.c.I.Y.c.H.A.1.%.A.|.E.~.P.P.E.|.@X~.<.-.r.e.i.q.p : O O O O + - F P X.$.$.6.1.l.h.v.K.hXlXrX4X4X1X1XQ.Q.W.R.;.F 0 0 8 0 f 0 l +.[ [ [ [ [ ] e e e e 4 4 3 o 4  .%X7X7X<X8...8.8.8.8.",
": : - + + + + + + 6 8 =.uXvXvXc.v.KXKXKXKXKXKXKXnXKXKXKXKXKXKXbXKXnXzX1X` bXIXKXKXKXKXJXJXxXA.( B U B N N m m m Z m n C C C C C g d d s s p p > > : $ # # v # $ $ i p f G t.~.yX1XQ.Q.Q.Q.1X1X1X0XyXyX0X0X0X1X0X1X1XQ.Q.T.T.T.T.v.v.T.T.<X<X5X5X9X9X9X*X<X8X8X8XNXNX-X>X>X-X9X<X5X<X^.4.~ C s : $ + O @ 6 F ;.-.3.-.-.3.3.3.;.o.H w 0 6 6 6 : : = + X X . . . & . . . & . & & & & O O + + + # : : : : y p p p p p a f s f f j f f f p p p i # # v t t p p p p p p f f f x O.q.w.q.q.R f # : a a f f x Y T ~ ~ _ ;.;.~ ;.;.;.;.;.;.~ ~ ~ ! A b R.E.P.P.`.`.`.].[.}.}.2XwXwX2XeX3XeXeXeX2XwX}.].~.F.S.t.-.U A.zXcXfXfXrXrX3X3XfXfXrX3X3XrX3XeX X2X2X2XwX2X.X}.].yXL.<.4.-.<.<.<.-.~ F T T R R f : > F o.1.Y.4XnXKXbXxXxXjXjXuXuXtXwXxXuXyXtXyXyX@XE.:./ U N m M M b b 8 8 8 < < ; ; ; - = = + +   &     X X o 8 =.0XxXxXgXeX2X{.{.[.[.[.(.(.P.B.( ~.jX3X_.).T.<Xb.*X9X<X*X0.b.).H.c.c.H.P.I.g.%.E.].P.E.`.E.|.@X~.t.;.e.e.e.e.x 7 O O O O + ; F X.X.@.$.7.1.l.h.v.v.1XvXlXiXyXyX1XQ.Q.W.p.;.F f 0 0 0 g 0 8  . .[ [ [ [ ] e e r 4 4 4 4 4 4 4 5 +.%X<X%X| 8.8.8.8.",
": : - + + + + + O : ; J 0XvX2X%.1XKXKXKXKXKXKXKXnXKXKXKXKXKXKXKXKXlXkXv.,.KXPXKXKXKXKXxXE./ B B N N N N m m n n n n n b q g g g g d s 0 p p > > : : $ # $ v # $ : : s g P p.|.yXyX1X1X1X1X0X1X0X0XyXyXyX1XyX1XyX4X1X1X1X<X<X<X<X<X<X9X9X8X8X9X9X8X8X-X*X,X>X>X>X-X,X,X>X-X*X9.0.7.9.p.;.G g p : + O + $ 6 F ;.3.3.4.3.3.4.4.4.y.y.$.U n w 0 s p 6 6 > : : = = + + + + + + + + : : : : : : : t p p p p p p p f f f f f j j j Y j f f p p p i O $ t t i p p p f f f f j x T w.! q.q.q.R f # t a f f f x Y T ~ ~ ;.;.;._ ;.;.-.;.;.;.;.~ ~ ! G 8 y.|.E.P.`.].].].[.}.}..XwXeX2X2XeXrXeX3XwXwX}.].~.E.S.y.-.U A.zXcXfXrXrXrX3XeXfXfXrX3X3XeXrXeX X2XeX2XwX2X2X.X}.wXL.=.t.-.<.<.<.-.E F T j T R f : : g o.6.Y.1XnXKXbXzXxXjXjXjXjXjXwXuXpXtXyXE.5.#.B N m n b b M 8 8 8 8 < < < ; ; - - = + + +   & O X * * 5 o.0XcXcXjXeX2X X{.[.].].].`.(.(.`.L.#.L.lXfX{._.5X*Xb.b.b.7.9.7.l.P.P.H.A.I.~.|.E.j.j.|.E.E.].E.].@X|.u.&.e.e.q.q.R p $ O O O + 8 F P X.@.$.%.1.l.l.l.v.).lXvXrXiXyX1X|.~.W.p.;.F g s f g g w 0 r  . .[ [ [ ] ] e 4 4 4 4 4 3 3 7 5 5 5 [ [ e +.8.8.8.",
": : - + + + + + O + > 8 S.yXc.` xXPXKXKXKXKXKXKXKXKXKXKXKXKXKXKXbXkXzXx.T.IXPXKXKXJX0X,.( B B N N m m m n n n n b b b q d q q d d d s 0 > p > > : : # # $ v # : t p s g o.G.Q.{.1XyXyXiXuXyX4XyX1X1X1X4X4X4X4X5X5X5X5X5X5X5X*X*X8X8X8X>X>X>X,X,X,X,X,X*X,X>X>X>X-X-X-X>X8X8X9X<X7.6.t.P A f p $ O O $ $ 6 F ;.3.3.3.4.4.6.6.6.D.T.A.6.=.P C q 0 0 6 6 p p > > > : : : : : : : > y p p p p p p p p s s s s f j f f j j T T T T j f f a p p t # $ i t p a p f f f z x x T Y ! ! q.e.q.R a # t a f f f x Y T ~ _ ;.;._ ~ _ ;.-.;.;.;.;.~ ~ ! E b t.}.].`.].].].].[.}..X.XwXeX2X2XeXrXrXeX2XwX}.].~.E.S.y.-.B A.zXcXhXrXrXrX3X3XrXfXfX3X3XeXeXeX.X.X2X2XwX2X.X}.}.wXE.*.<.-.<.<.r.;.E F F l T R f : : g ~ 6.c.).hXKXJXxXxXxXxXjXtXpX0XtXqXD.#.U N m m b b b q q q q 8 < < < < ; ; - - + + + O & & X X + * r ^.xXzXlXfX3X.X X{.{.[.[.].].].`.(.(.P.%.h.jXgX X_.T.b.b.c.c.c.,._.H.J.K.H.I.P.].].].~.B.P.].`.].].].}.@XZ.~ e.q.O.q.R f : O O O + 6 G P X.@.$.<.1.l.j.c.v.K.1XvXlXlXrX4X1X~.W.p.;.G g g g F F C g 0 V +. .[ [ [ ] 4 4 4 4 4 3 3 4 7 7 e e 5 e e 5 +.8.8.",
": - : + + + + + O O - * X.m.$.B I.yXyXuXzXnXJXKXKXKXKXKXKXKXKXKXxXzXyX%.uXIXPXKX0Xj.( B B B N N m m m n b b n q q q q q q 0 q q s s s 6 > > > : : : $ # t t # : : p s C &.G.~.[.{.1X4XuXuXyXyXyX4X4X5X5XiXiX4X<X*X<X5X5X*X*X#X,X,X,X-X>X>X-X:X-X>X8X>X>X8X>X8X8X-X>X>X,X-X>X8X9X1XG.;.G j f p $ O O $ $ 6 F 3.4.3.3.4.t.y.6.j.~.}.P.I.A.5.;.U m g s 0 s s s s p p 6 p 6 6 p p p s s s s s s s s s s f f j j j j j F T T T T T T j f f p p : + : i i p p f f f f j x x T R q.q.e.e.q.Y a # t a f f x x Y T ~ ~ _ _ _ ~ _ ;.-.-.-.-.;.) ~ ~ ! b -.@X].].].[.].].{.}..X}.wXeX3X3XeXeXeXeX2X2X}.].~.E.D.y.-.B A.zXkXhXfXrXrXrXeXrXgXrX3X3XrXeXeX2X.XwXwXwX2X.X.X}.wX+X<.*.-.<.<.-.;.T F F l T Y f : : s E 6.c.).3XnXnXxXpXpXpXxXpX|.m.5.@.B m m m n b b q q q 0 0 1 < < ; ; ; ; - = + + + O & O O O + * m |.zXlXhX3X3X3X X{.{.[.[.[.[.].].].(.(.P.%.1.tXlX2X{.T.K.K.K.K.h.,.P.T.(.(.H.L.].].[.].].~.P.].].].].].|.@XZ.) e.q.~ O.R x p + O O + 6 G P X.@.$.$.6.l.l.c.v.v.).hXvXhXrXiXyX1X~.S.3.P F l F F F F j g 8  .+. .[ [ e 4 4 4 4 4 4 3 4 e e e e e [ ] 5 4 [ 8.",
": : - + + @ + + O . . o 8 I ( N N ( $.%.%.,.c.Y.[.0XyXpXxXbXLXxXpXcX[.%.JXIXLXI.$.B B B N N m M b n n b b b q q q q q q 0 0 0 0 0 0 0 > > > > : : : # : i $ $ t t p g F &.G.~.).1X2X2XrXyX1X4XyXrXiXmX9X9XsXiX5X*X*X*X#X#X,X6X-X-X-XNX>X>X>X>X>X-X8X-X,X>X,X,X-X,X>X9X9X-X*X<Xb.A.y.o.F g f p $ O O $ : > F r.t.t.t.t.t.y.m.m.|.wX).).P.I.A.6.=.o.J C g g g s s s s s s s s s s s s s s s s f j f f j j j j j T F T T R T T T T x f f a p $ # i i p p f f f f x x T T R R ! e.i.e.q.x p # t a f f x x Y ! ~ _ _ _ _ _ _ ;.-.-.-.-.-.&.~ O.O.C / @X}.[.{.{.{.{.].}.2X}.wXeXeX2X3XeXrXeX2X2X}.|.~.W.D.y.-.B A.mXkXhXfXrXrX3XeXrXfXrXeX3X3X3XeX3X.XwXwXwX2X2X.X.XwXyX<.*.-.<.<.-.o.G T j j T T f : - 0 E 4.c.).4X3X{.}.@X@XyXyX~./ N N m m m n b b q q q 0 0 1 1 > ; ; ; ; - - - = + O O . . O . + o w }.cXfX3X3X4X2X2X2X{.{.[.[.[.[.].].].(.P.E.,.%.yXlX3X.X[.`.(.).).H.c.,.K.[.).P.P.].[.[.].].].].].].].].].|.@XR.) ;.e.O.! R x s $ O O + 0 G P X.@.$.$.6.1.l.h.v.K.).2XvXcXlXhXrXyX|.F.t.o.G F F P F F F e l [ [ +.[ r 5 5 e e 7 4 4 4 e e e e ] e e { [ ] e [ ",
": : - - @ @ + + O O . X * q m m M B N ' ' ' ' ' ( ( ( $.#.%.,.1.5.A.,.%.xX+X1.( B B N N m m n n b b b b q q q q q 0 0 0 0 0 0 0 0 0 0 > > > : : : $ $ t i $ $ t p p g F =.A.).).{.2X4XrX2X2X4X4XrX4X4X5X5X9X9X*X,X9X6X6X-X-X8X8X-X>X>X>X-X>X-X,X$X$X-X8X>X>X>X>X-X8X*X0.0.7.7.6.S.3.E F j f p $ O O $ : p C t.R.t.t.t.t.y.G.G.0XwX).).).P.P.L.A.m.<.@.I J C C g g d d s d d d d d d g g f g g j j j j A A Y T T T T E E E R T F x j f a p # $ i p p f f f j j x x T T R ! q.i.r.e.O.x i # t a f f j x Y T ~ _ _ _ _ _ _ -.-.-.-.r.-.;.;.;.O.Z J }.wX}.{.}.{.{.}.}.2X.X2XeX3X3X3XeXfX3X3X2X}.].~.~.R.y.-.B A.mXkXhXrXfXrX3X3XeXfXfXrX2X3X3XeXeX XwXwXwX2XwX.X2X.XyXD.#.=.<.-.-.O.G T j j T l f t - 0 P 6.c.n.oXoXz.l.l.h.B.j.( m Z Z m b b b q 8 8 8 < < < < ; ; ; ; - - - = + + + & & O . . + + ; S.lXfX3X2X2X3X3X X.X}.[.[.[.[.[.[.].).).P.`.g.$.1XlXeX.X}.`.(.`.].P.P.H.h.].(.].(.).].[.}.].].].].].].].].|.@XR.) ;.e.O.! R T f : O O + 6 J U U @.@.$.7.1.l.l.c.v.K._.hXnXcXhXrXyX1XW.S.-.P H H P G F w  .8. .[ r e 5 e 5 e e e 4 5 e e ] [ [ ] ] ] [ } { ] e ",
": : - - - @ + + O O . O + = q n M m M N N B B B B ' B B B B B B B B B B B M N ( B N n n n b b b M b b q q 1 1 q 0 0 0 1 0 0 > 0 1 > > > > : : : : + $ i i $ $ i p s s F =.A.].{.1X2X3X3X2X2XyX4XrX4X1X5X5X<X*X*X9X9X9X8X-X,X,X,X,X,X-X-X>X>X>X>X8X9X9X9...,X8X>X>X>X,Xb.b.5X5X1XS.;.T j f s p # O O $ : p F p.W.m.6.y.y.y.G.A.yX2X).).).(.(.P.P.J.H.B.5.=.I K J C g g g g j g g j j j j g j j j j A A A T T T T T E E E E E R F x f f f p + : p p p f f j j x x T T R O.q.r.r.e.e.R x t # t a f f j x Y E ~ _ _ _ _ _ ;.-.-.-.-.r.<.-.;.;.O.K m ].eX}.{..X}.}.}.}.2X.X2XeXeXeX3XeXfXrX2X2XwX|.~.~.E.y.-.B H.nXlXfXfXrXrXrXeX3XfXfXrX3X3XeXeXeX.X2XwXwX2XwXwX.X}.wX0X<.*.-.-.;.o.T T l x T l f : - 6 P 4.c.n.oX(.x.` ( ( ( B M n C b b b b 8 8 8 8 < < < ; ; ; ; - - = = + + + + O O & O + + @ - #.tXtX3X X X X2X.X X.X.X}.[.[.].[.[.[.].).).].B.$.].lXrX}.}.].].].].T.P.T.H.P.].].).(.].[.}.[.].].].].].].].|.@XE.&.;.e.O.! R Y s p + O + 6 J J U X.@.$.%.1.l.l.v.v.K.).2XcXcXkXlXrXyXQ.R.p.;.X.P P R F V 8.8. . .[ e e e e e e e e e e ] { [ [ [ [ [ ] } } { ] ",
": : - - - - + + + O O O + = > w q M n M m m N N N N N N N N N N N N m m m 8 8 m N n n b b b b b q q q q q q 0 0 0 1 0 0 > > > > ; ; > > : : : : $ # t i i $ : i p p f F =.A.].{.1X2X3X3X2X2XrX3X2X1X1X5X5X5X9X9X,X,X-X-X-X-X-X-X-X8X9X9X8X8X-X-X,X#X.. .9.*X-X,X*X9X9X5X*X5XiX1XS.&.G j f s i # O + $ : p F W.0XF.y.6.m.y.G.I.yX2X).[.].(.(.(.(.(.(.P.H.m.5.<./ P J Z Z A A A A A A A A j A A A A A F F T G G T E E ~ ~ E E T T l f f a i # t p a f f f j F T T R R O.e.r.r.r.r.e.R x t # t a f f x x Y T ~ _ _ ;._ _ -.-.-.-.-.<.<.-.-.;.;.E m E.tX2X X.X.X}..X.X2X2X2XeXeX2X2XeXrXeX2X2X2X|.|.E.E.y.=.B P.nXlXfXfXrXrXeX3X3XfXfXrX3X3X3XeXeX2X.XwX.X.XwX@X.X.X2XtXB.@.-.;.;.E T T F T l l f : : > P 4.c.n.oXv.%.' B N N m b b b b q q q 8 8 < < ; ; ; ; ; - - - = = + + + + O & O + + # + * n ).hX3X3X2X X X X.X}.}..X[.[.{.[.[.[.[.[.].`.`.H.( P.lXfX X{.[.].].].].`.(.P.P.].[.[.].[.[.[.[.[.].].].[.].].{.@X~.-.;.e.~ ! R R f p @ O + > F U U @.@.$.%.1.1.l.v.K.(.)._.3XnXcXcXuXyX0XQ.T.G.=.X.P P H +.0....... .[ [ r e e e e e e e ] } [ [ [ | | [ [ | } [ ",
": : - - - - + + + O O O O @ = 0 q < b 8 M M M M M M M m m m m N M m M M Z 8 * < m n M M M 8 8 8 q q 8 8 8 0 0 1 < < 0 > ; > > ; ; ; ; : : : : $ # $ i i v $ : p p p f F =.A.].{.1X2X3X3X2XrXrX4X1X1XT.b.b.b.*X,X,X,X8X-X-X,X,X-X8X<Xb.0. .0.*X,X,X,X-X8X8X8X8X,X0.9.9.9.b.5X4XT.u.I G j f s i + O O $ : p G S.iXW.G.m.y.y.G.T.rX2X{.{.].).(.(.(.(.(.P.P.L.L.B.5.=.&.I P K G A A A A A A A A A A A A G G T T T E E ~ ~ ~ ~ ! T l j f f a t # t p a f f l F T R O.O.q.e.;.;.;.e.e.e.T x t # t a f z x x Y T ~ _ _ ;.;._ -.-.-.-.-.<.e.-.-.;.;.o.b m.tX2X X.X.X.X.X2X2X2X2XeXrXeX3XrXrX3X3X2XwX|.~.E.E.p.3.B ~.nXlXfXfXrXrX3X3X3XrXgXrX3X3X3XeXeX3X.XwX2X.X@X@X.X.X}.yX~.@.;.;.;.E T T j l l j s , : > F 6.c.n._.x.' B N m m n b b q 8 q 8 < < < < ; ; ; ; ; - - = = = = + X + . & O + + + $ : 8 4.fXfX4X3X2X X X X.X}.}..X{.{.}.[.[.[.[.].].`.`.P.` z.lXfX2X{.[.].].].].`.].].P.].[.[.].[.[.[.[.[.].].].[.].}.].}.~.-.;.e.~ ! R R j p : O + - C P U X.@.$.<.%.1.l.v.v.K.)._.2XcXmXlXlXpXyX|.~.W.F.p.-.;.+.9.0...8.8.8. .[ ] ] ] e e e e ] ] [ +. .......[ [ +.| [ ",
": : : : : : + + + O O O O @ - ; 8 < 8 8 2 M M M M M M M M m m M M M M M 8 n 2 2 < n b M 8 8 8 8 8 < 8 < < < < 1 ; ; ; ; ; > > ; ; ; - : : : $ $ $ t i i t $ t p p s f G =.A.].{.1X2X3X3X2XrXrX2X1X5X1X1X5X*X*X,X,X-X-X-X-X-X8X-X0. .0.0.0.*X-X8X8XCX8X>XNX>X8XVX9Xb.b.9.b.T.1XE.-.P A j f f t # # O $ : s G t.iXyXA.G.m.S.G.[.rX{.{.{.].].(.(.(.(.(.(.P.P.P.L.L.m.5.<.*.~ I K G G S A F F A G G G G G T E E E E ~ ~ ~ ~ E ! T l j j f a : # i a f f l T T ! O.e.O.O.O.;.;.r.r.e.q.T f t # t p f f x Y Y T ~ _ _ ;.;._ e.-.-.<.<.u.u.e.r.r.-.;.m 1.tXwX X2X2X.X.X2X2X2X2X3XeXeX2XeXrXeX3X2XwX|.E.~.E.S.3.B ].nXhXfXrXfXrXrX3X3XeXfXrX3X3X3XeX3X3X.XwX2X.XwX@X.X.X}.wX+X=.&.;.;.E T T j j l j s , - > F =.h.n.K.%.B N n b M 8 8 q q 8 < < < < ; ; ; ; ; ; - - = = + + + + & O O O + + = : : 0 U ~.fXhX4X2X2X X X.X.X{.{..X}.{..X[.[.}.[.[.[.].`.`.%.l.jXfX3X{.].].].].].].].].[.[.}.[.[.[.[.[.}.[.].].[.[.[.}.].}.+X<.;.e.~ ~ R R x s 7 O + - g P U X.@.#.<.7.1.l.c.v.K.(.)._.hXmX1XT.].|.@X+X0X+X~.R.G.9.9.$X8.8.8.8...[ [ ] ] ] ] ] [ [ [ [ ....8.8.8...[ ..8.[ ",
": : : : : : + + + + O O O @ : - < q 2 8 < < 8 M M M M M M M M M M M M b 8 q n * ; 8 q 8 8 < 8 8 < < < < < < < < ; ; ; ; ; > : - - : - - : - $ + : i i i t : i p p s f F ;.A.].{.2X2X3X2X2XrX3X4X4X4X4X4X4X5X9X<X-X-X-X>X>X>X-X,X,X-X9X9X9X9X*X,X,X,X8X8X9X9X9X<X9X9X9X9XiX5XW.u.~ G A j f f t # # # $ : s G 3.qXpXQ.G.G.S.G.}.rX{.{.{.].].(.(.(.).).(.(.(.P.P.P.P.H.B.g.<.=.&.I K K G G G G G G G E K E E E ~ ~ ~ ~ ~ ~ ! R T x x f f p $ $ p f f j T R O.;.;.O.o.&.;.;.;.e.r.e.q.Y f t $ t p f f x Y Y T ~ _ _ ;.;._ e.e.-.:.<.u.m.t.e.e.r.r.J #.tXrX X2X2X.X.X2X3XeX2X2XeXeX2XeXeXeX3X2XwX}.~.~.E.S.4.( ].mXfXfXfXrXfXeX3X3XeXfXrXeX3X3XeX3X3XeX.X.X.X@X@X@X.X}.@XqX4.I ;.O.E T T A j j j p # = : C =.h.K.z.' N n b b q 8 < 1 < < < ; ; ; ; ; ; ; - = - = + + + + + O . & O + + - : 6 p g U P.fXhX4X2X X X X.X.X{.[..X{.{..X{.[.[.[.[.[.[.].`.,.%.fXfX3X X[.].[.[.[.].[.[.[.[.[.[.[.[.[.[.}.[.[.[.[.[.[.].].}.+Xu.;.e.~ q.R Y T p p @ + + 0 G U X.@.@.<.%.1.l.h.v.v.(.)._.2XrXP.1.%.%.<.5.D.R.E.W.W.T.*X#X$X$X8.8.....[ [ [ [ [ [ [ [ [ [  .8.8...8.8.8...8.[ ",
"> > : : : : - + + + O O O @ : 6 ; 0 < < < 2 < 8 M M M M M M M M M M M M 8 8 q < * ; q q q < 8 8 < < < ; ; ; ; ; ; ; ; ; > : : - : : - - - @ + $ i a a i $ : p p s s g G ;.A.].{.2X2X3X2X2XrX4X2X3XrX4X5X5X5X9X8X8X8X-X>X-X-X,X-X>X8X-X*X*X9.0.0.0.,X*X9.9.0.0. .b.9X9X9X5XT.E.e.~ G j f f f t # # # $ : f F o.S.pXiXT.G.S.A.wX3X{.{.{.[.].(.(.`.).].(.(.(.(.(.P.P.P.P.L.B.g.1.*.&.I I K K K K K K K K ~ ~ ~ ~ ~ ~ ~ ~ ~ ~ T T x x f f 7 $ : p f j T O.O.O.o.~ ~ ~ ~ ) _ ;.;.r.e.! j j t # t p f f j Y Y T ~ _ _ ;.-._ -.e.e.:.1.m.Z.u.t.t.r.r.I U wXjX2X2X2X.X2X2X2XeX2X2XrXeX3XeXfXrX3X2XwX}.~.~.E.S.4.( ].nXhXfXrXrXrXeX3X3X3XfXfX3X3X3XeX3X2X2X2X.X.X@XwX.X.X[.@XyXm.I O.O.E T F A j j j p + = > C =.h.J.%.B m M q 1 8 8 < 1 < ; ; ; ; ; ; ; - - = = = + + + + O O . O O + + $ 7 6 p f q B H.fXrX3X X X.X.X.X}.{.[..X.X{..X{.}.}.[.[.[.[.[.].j.%.wXjX2X X[.].].[.[.].[.[.[.[.[.}.[.[.[.[.}.[.[.[.[.[.[.[.].}.+Xy.;.e.~ q.! Y T f p @ # + ; F U X.X.@.%.7.,.l.h.v.v.(.)._._.).h.%.( ( U B B U I @. .9.7X=X*X#X$X0.$X$X8.8.8...[ [ [ [ [ [ ] 8.8.8.8.8.8.8.8...",
"> : : : : : : @ + O O O O @ : 6 ; ; 0 * < < < < 8 8 8 8 8 8 8 8 M 8 8 8 8 8 < q ; * ; q 0 < < < < < ; ; ; ; ; ; ; ; ; - - : : - : : - @ + + + i p a a t $ t p p s f j G =.A.].{.2X2X4X2X2XrX3X3X3X4X5X5X5X9X9X9X9X9X8X-X,X8X8X>X-X*X9.,X,X,X-X-X9X9Xb.0.9.T.b.7.7.<XT.T.T.I.F.=.E A j f f f t # # $ @ : f F o.3.~.vX0XF.G.F.yX3X{.{.{.[.[.[.).`.].].(.(.(.(.(.(.K.K.(.P.P.L.B.g.5.<.*./ I I L I I I ~ ~ ~ ~ ) ) ) ) ~ ~ ~ T T x x f p : : : f j F ! O.~ ~ ~ ~ ~ ~ ~ ) ) ) ;.e.e.T j j : # t a f f j Y Y T ~ _ _ -.-.-.-.e.<.<.1.B.B.m.u.t.-.-.I B |.lX2X3X2X2X2X2X2XeX2XeXeXeX3XeXrXeXeX2XwX@X~.E.W.D.4.( ].mXhXfXrXrXrXeX3X3X3XfXfX3X3X3XeX3X2X.X.X.X.X.X@X.X.X}.}.yXD.I o.O.R T F A j j j p + + : g =.h.z.( N M < 1 1 < < ; ; ; ; ; ; - - - - = = = = + + + O O O . O + + + : i p s j R q m g.3XhX3X X X X X.X}.}.[..X.X.X}..X}.}.[.{.[.[.[.].A.$.{.lX3X X{.].].[.[.].[.[.[.[.}.}.}.[.}.}.[.}.[.[.[.[.}.].}.}.@XZ.) e.~ ~ ! T T f p : + + - l P I X.$.$.1.1.l.h.c.v.(.(.)._.J.1.( U J N m m Z n n 9 9.9X-X6X=X:X#X=X=X$X$X$X8...[ [ [ } ] o ] 8.8.8.8.8.8.8...",
"> > > : : : : @ @ O O O O @ : 6 0 ; ; ; * ; ; ; < < < < < 8 < 8 8 < < 8 < < < < 0 * * ; 0 1 < < < ; ; ; ; ; ; ; ; ; - - : : - = - @ + + + + : p a a p t t i p p s f j G =.I.{.{.{.2X2X2X2X3X2X3X3X2X4XrXlXmX5X*X9.*X9X*X*X-X,X-X8X,X*X*X8X8XCXCX9Xb.b.v.1X4X1X4XyXyXwX].}.|.R.&.E A j s f f t # # $ @ 7 f F O.;.y.aXxX~.A.T.tX2X X{.{.[.[.).).[.[.[.].).].).).(.P.P.(.P.P.P.P.H.B.j.5.<.*.&./ / ~ ) ) ) ) ) ) ) &.&.&.O.E T T x x f 7 7 s p f T E E E E ~ ~ ~ ~ ~ ~ ) ) ) _ e.e.T T j : $ t a f f x Y Y E ~ _ _ -.-.-.-.e.1.1.m.L.L.m.u.u.t.-.&.B E.zX3X X2X2X2X2X3XeX3X2XeXeXeXeXrXrX3X2XwX}.].E.E.F.5.( ].cXhXfXfXeXrX3X3X3X3XfXfX3X3X3XeX3X.X.X.X.X.X.X.X.X.X}.}.yXR.P ~ ! R T T j j j j p + + : g =.h.l.B M 8 < < < ; ; ; ; ; ; = = - = = = = + + + + + O & O O O O + , : p p f F ;.e.C m <.3XhX3X X X X X X}..X{..X.X.X.X.X}.[.}.{.[.[.[.[.I.$.K.lX3X X{.[.].[.[.[.[.[.[.[.[.[.}.[.}.[.}.}.[.[.[.[.[.].}.}.@XR.) e.~ ~ ! T T j p i # + @ f H U X.$.$.%.1.l.h.c.v.K.(._.).v.%.B N N m m Z n q n 9 9.9X;X6X6X-X-X6X=X:X#X#X#X$X..[ +.} 5 o o [ 8.8.8.8.8.8.8.",
"> > > : : : : @ @ O O O O @ - 6 g 0 ; ; * * * * 2 < < < < < < < < < < < < < < ; 0 0 * * ; < < < ; ; ; ; ; ; ; ; - - - - - - - + + + + + + : p a a a a t t p p p s s g P =.P.{.{.2X2X2X2X3XrX2X3X3X4X4X1X1Xn.c.c.b.*X5X*X*X9.0.-X8X9X9X9X9X9XsX*X9.b.T.1XrX3X4X3X3XrXeX2X2X}.Z.~ T A j f f p t # # $ @ p f F E ;.4.W.vXiXT.[.uX2X.X{.{.{.[.].].[.[._.].).].].].(.P.P.).(.P.(.P.P.K.H.B.g.5.<.*.*.*.&.&.&.&.) -.-.&.&.;.~ T T T x f p 7 7 7 6 l R T E E E L ~ ~ ~ ~ ~ ~ ) ) ;.i.e.R T j t # t a f f x Y Y E ~ _ _ -.-.-.:.<.1.m.B.L.E.B.m.u.t.e.-.B B.cXfX X2X2X2X2X3XeXeX2XeXrX3XeXfXrX3X2XwX.X].~.E.R.y.( P.cXfXfXfX3X3X3X3X3X3XfXfX3X3X3XeX3X.X.X.X.X.X.X.X.X.X}.}.yXR.I E ! R T F j j j j p + + : q &.j.%.N M < < < ; ; ; ; = ; = = = = = + X + + X X . O & O O O + + : : p s f G -.t.&.m m #.{.jX3X X X X X X.X{.[..X.X{..X.X}.[.{.{.{.[.[.[.E.%.v.lXfX2X{.[.[.[.[.[.[..X[.[.[.}.}.[.}.[.}.}.}.}.[.[.}.}.}.}.@XE.&.e.q.~ ! R T j p i $ + @ 6 J P X.@.$.7.1.l.h.c.v.K.(.).(.l.( B N Z Z C n q q n 9 9.sX8X8X6X6X8X8X-X=X7X7X#X#X$X....e 4 4 4 4 ] 8.8.8.8.#X8.",
"6 > > : : : : $ + + O O O + : 6 g l 8 * ; * = = * ; < < 2 < < < < < < < < < < ; ; 8 ; * * ; ; ; ; ; ; ; ; - - - - = = - = + @ + + + + + i a a a a a a t t p p s f f g P 4.T.{.{..X2X3X3XrX3X3X3X3XrXrX3X1XT.5XiXsX5X<X*X9X9X9X*Xb.b.5X5Xb.b.c.7.v.1XrXrX4X3XrXrXrXfX3X2X{.|.u.~ G A d f f f t # # $ $ p j F R O.-.y.qXpX[.1XuX2X2X{.{.{.[.].[.[.[.[.)._.[.].[.(.(.(.`.`.(.`.P.P.P.P.L.B.B.m.5.1.<.<.<.:.*.*.=.-.-.-.;.E T T T x f 6 e e l l F T E K E ~ ~ ) ) ) ) ) ~ ) ) -.i.e.T T x p # t a a f j Y S E ~ _ ;.-.-.-.:.i.m.B.L.P.~.D.m.y.t.t.-.U 5.zXhX3XwX2X.X3X3XeXeX2XeXeXeX2XrXrXeX2X2XwX].E.W.E.m.( P.cXrXfXrXrXeX3X3X3X3XrXfX3X3XeXeX2X.X}.}..X.X}.}.}.}.|.}.0XE./ E ! R T F j j j f : + + - 0 o.5.( M 1 ; ; ; ; - * = * = = = = + + X + + O .   . . . O . + + : : p f g P -.y.4.o.C m #.).lXrX2X X X{. X{.{.{. X.X X.X X{.[.[.{.[.[.[.[.].%.l.xXfX3X X}.[.[.}.[.`..X[.[.[..X{.{.{.{.[..X[.[.[.[.[.[.[.}.}.Q.*.r.e.! ! R T x p p : @ @ : F P X.@.$.%.1.l.j.c.v.v.(.).H.%.U N N m Z C n 8 w g 8 0.9X8X8X6X8XNXBX;X-X7X7X7X#X#X8.+.4 4 4 4 4 5 ] 8.8.8.8.8.",
"6 6 6 : : : : : # + O O O + - 0 g F F 8 ; * * + = * ; ; 2 < < < < < < < < < < < ; ; ; * X = ; ; ; ; ; ; = - = - - = = = = + + + + + + i p a f f f a i t i p p s s f C P 5.].{.{..X2X3X2XrXrX3XrX3X3X3X2X2X2X5X4X<Xc.c.7.b.5X5Xb.b.b.b.b.b.c.x._.K._.4X1XK.{.rXrXfXrX2X2X2X|.<.E G A d f f f t # # t : p f F R O.&.=.F.pXyXyXrX2X.X X{.{.[.[.[.[.[.[._.[.].`.[.(.(.(.`.].`.`.(.(.(.(.P.L.L.B.B.m.m.5.5.5.5.<.<.<.<.-.o.E T T x f p 7 l [ +.l F E E K ~ ~ ) &.&.&.) ) &.;.-.e.i.e.T T x a # t a a f j A T E _ ;.-.-.-.:.e.i.m.B.P.].~.I.m.y.u.t.e.L %.jXlX3X2X2X3X3X3XeXeX2XeXrXeX2XrXrX3X2X2XwX].E.W.F.m.( H.cXhXfXfXrX3X3X3X2X2XrXfX3X3XeXeX2X.X.X}.}.}..X}.}.}.|.|.0X~.*.K R R T F j j f f : + + : f ~ #.B M ; ; - = = = = * X X X X X .           o 4 7 7 o . + : > 6 p f F O.r.y.y.-.o.F b #.K.lXfX2X X}.{. X X X{..X.X.X.X X}.[.[.}.[.{.[.[.[.l.%.tXfX3X X}.[.[.[.[.`..X[.[.[.{..X X{.{..X.X[.[.[.[.[.[.}.[.}.~.<.r.e.! ! R T T s p i @ - = g P I @.$.6.,.l.l.c.v.v.(.K.h.( B m m m n n n 8 w g 8  .sXVX8X8XBXBXBX6X6X6X6X7X=X#X9.} o o 7 4 4 4 4 e +.8.8.8.",
"p 6 6 : : : : : , + + O O @ - 0 l F X.P 8 * * X = = = ; * ; ; ; ; < ; ; ; ; ; ; ; ; ; ; * * ; ; - - ; - - = = = = = + + + + + + + : i p a a f f f a i t p p s f f j F I m.[.{.{.2X2X3X2XrX3X3XfXrX3X2X3X3XrX1XT.v.v.T.1XT.n._.T.1X4XiX1X4Xv.[.zX1X_.1X4X2X3XrXfXfXrX{.2XtX~.*.E G A j f f f t # $ : : p f j T E o.;.4.0XuXrXrX2X X.X X{.[.[.[.[.[.[.[.[.[.[.].(.(.`.].].(.(.(.(.(.(.(.P.P.L.L.A.B.B.B.B.g.m.m.u.u.<.o.E T T l f 6 e +.+.+.H H ~ ~ ) &.&.*.-.-.-.*.*.-.-.<.e.u.e.R T x a $ t p f f j Y T E _ ;.-.-.<.<.1.m.B.P.(.].].~.D.m.y.u.e.I ( tXcX3X2X2X3X3XeXeXeX3X3XeXeX2XrXrX3X2X2XwX].~.W.E.D.( h.cXhXfXfX3X3X3X3X3X2XeXfX3X3X3XeX.X.X.X.X}.}..X.X}.}.|.}.wX+X<.E R R T l j j j s : + + : s P U M 2 ; * * * * + = + X 7 5 o   o 7 7 7 5 r l l l l l e : p s g g F o.t.y.y.4.-.O.G q / v.jXhX4X X{. X X.X.X{. X2X{..X X.X{.[.}.{.[.[.[.}.h.%.wXjX3X.X[.[.[.[.[.`..X X[.{. X.X.X.X{.{..X}.}.}.[.}.}.}.[.}.|.e.r.e.E ! R T T f t p : - - 0 G I @.$.6.7.l.l.c.v.v.K.H.,.B N m m m n n q q q q 0 9 <XZX8XBXVXBXBX6X8X8X6X6X-X=X9.] o o 4 4 3 4 e 4 4 e e 4 ",
"p p 6 > > : : : : + + O O @ - 0 l P X.O.P 8 * X + X = = = ; ; ; ; ; ; ; ; ; ; ; ; ; ; ; - X * - - - - - = = = = = = + + + + + + : i p p f f f f f a t t p p s f f g G &.A.}.{.{.2X3X3X3XfX3XrXfXrX3XhXhX3X2X_.K.K.1XjXuX2X_.{.3X3XrXrXrXyXK.lXzXhXhXrXrXrXrXfXjXfXrX2XwXyXE.&.E G A j j z f t # $ : : p f j T E o.;.=.G.yXuX2X X.X.X X}.{.[.[.[.[.[.[.[.[.[.`.(.(.`.].].].`.(.].`.].(.P.P.P.P.L.H.L.L.L.A.L.D.D.m.4.o.E R F l e [  .8.+. .V @.=.*.<.<.<.5.5.5.1.1.<.1.1.1.u.p.e.! T T a $ t p f f j A T L _ -.-.-.e.i.u.B.L.P.].].].~.D.m.y.u.t.) U 2XcX3X3X3X3X3XeXeXrX2X3XeXeX2XeXrXrXeX2X2X}.E.E.E.D.#.%.zXhXfXrX3XeX3X3X2X.X3XfXeX3X3XeX.X.X}.}..X}.}..X}.}.}.}.wX0Xy.~ T T T l j f f p @ O + : s G n 2 * = * X X X X X X 6 l e 0 5 7 l l l l l l l r r e l l g g F P 3.p.S.y.4.<.-.O.G 8 I j.fXlX4X X X X.X X.X{.{..X.X.X X.X{.[.{.{.{.{.[.}.V.$.].lX3X.X}.[.[.[.[.(.}..X[.{..X.X.X.X.X.X.X}.}.}.}.}.}.}.[.}.+Xu.r.r.! ! ! T T j p p 7 : + > F P I $.%.6.1.l.c.v.v.K.j.( N Z m m m n n q 0 q 0 8 2 7.ZXVXBXVXVXVX8X8X8X8X6X-X7X8.5 3 3 o e e 4 e e e e e 4 ",
"p p 6 > 6 > : : : + + O O @ - f F P X.o.;.P ; * X X X = * * = = = ; ; ; ; ; ; ; ; ; - - - = X = - - = = - - + + + + + + + + + : p p p f f f f f f a t i p p f j j j G =.I.2X{.{.2X2X3X3XfXrX3XfX3XrXhX3X4X).{.rX3XhXrXrXrX3XrXhX3XrXrXuX{.1XmXkXlXhXhXrXrXfXjXjXjXrX2XrXyXm.~ E F j j x z a t # # : : a f j T E O.o.;.6.1XjX2X2X2X X.X}.{.[.[.[.[.[.[.[.[.[.[.`.].[.[.].].].].].[.[.(.P.P.P.P.P.P.P.P.P.I.L.L.L.D.4.;.O.R F w +.8.9.+. .w U 4.j.j.A.A.B.A.B.m.m.m.m.m.m.m.Z.Z.r.! T T f t t p f f j A T ~ -.-.:.<.1.5.m.V.P.(.[.[.].].L.G.m.y.t.&.B ].nX3X3X2X3X3XeXeXeX3XeXeXrX2XrXrXeXeX2XwX}.~.~.E.R.<.$.uXlXfX3X3X3X3X3X2X.X3XfXeX3XeXeX.X.X.X}..X}.}.}.}.}.].}.wX0XD.o.R T T j j f f p + O + : s F 8 * + # + + + X X X o 5 e e l e r l [ l l [ l [  . . . . .P o.&.3.p.S.m.5.5.<.-.;.P q I 1.rXlX4X X.X.X.X.X.X{. X.X.X X X.X}.[.{.}.{.{.[.}.H.( P.lX3X2X.X[.[.[.}.`.[..X[.{.{..X{..X.X{..X.X}.}.}.}.}.].].}.|.Z.r.e.! ! ! R T j p : p : @ - g P X.@.$.6.1.l.h.h.H.H.%.U N Z Z m n n n q 0 0 8 8 8 r <XSXVXVXVXVX8X8X8X8X6X7X&X[ 4 3 3 3 4 e 4 e e e e 4 4 ",
"p p 6 > 6 > : : : + + O O @ : f F X.o.;.3.3.F * * X X X X = = = * * - - = ; = * - = * * - - X X = - - = + + + + + + + + O @ 7 6 p p a f f f f f f p i p p p f j l F P =.].2X2X2X2X3X3X3XrXrXrXfXhXhXhX3X_._.rXrX3XrX3XrXhXhXrX3X3XrXrXrXT.rXnXkXhXhXfXfXrXhXjXjXjXrX2XtXwX5.~ E F j j x z a t # # : t p f l T R E O.=.5.1XjX2X2X.X.X{..X{.[.[.[.[.[.[.[.[.[.].(.].].].].].].].].].].].(.P.P.P.(.P.(.P.P.P.P.P.P.I.4.;.O.O.P 0 +.9.9.V V J X.D.T.P.P.~.P.P.I.L.L.L.D.D.B.B.R.R.r.! T T f t t p f f j A G _ -.:.<.1.m.m.B.L.P.].[.[.{.[.I.A.m.y.t.-.B I.nXrX2X2XeX3XeXeXrXeX2XeXrX2XeXrXrXeX2XwX}.~.~.E.R.5.( }.kXrX3X3X3X3X3X2X.X3XfXrX3XeXeX.X X.X}..X.X.X.X}.}.}.}.tX0XE.;.G T T j j j f p + O @ > g F ; X + + + X X   o 7 e 7 l +.l l r r l r r l +.+.+.7.3.7.X.=.y.m.y.S.Z.u.u.5.4.-.-.~ b J 1.2XlX3X X.X.X.X.X X X X.X.X X X.X.X{.[.{.{.{.[.[.P.( B.lXfX3X X{.[.[.}.[.[..X[.{..X{..X.X X{..X.X}.}.}.}.}.}.].[.}.Z.r.r.E ! ! R T x p : p i - - 0 J I @.$.<.1.l.l.h.H.g.( J Z Z m n n n w q 0 0 < < 8 5  .sXZXVXZXBX8X8X8X9X7X<X+.4 4 7 3 4 3 4 e e e e e e 4 ",
"s p 6 > > > : : : $ + O O + : f P X.o.;.4.t.o.w - X X X X + * * X * * = = = = * = = * * = = = X X + = + + + + + + . . + : i p p a a f f f f x f f p y p p s j j F F P 5.}.2X X2XeXrXrX3XfXfXrXhXrX3X3X1X2XrXhXfXrX3X3XhXhXhXrXrXrXhXrX2XK.vXvXlXhXfXhXrXfXhXjXjXjXrXeXtX0X<.~ E T j j x z a t # $ : i p f T T R E ;.-.4.~.uX2X2X.X.X X.X{.[.[.[.[.[.[.[.[.[.[.(.].].[.].].].].].[.].`.P.P.P.`.].(.).).P.(.].`.E.L.4.-.;.O.P 0 H 9.V V X.&.<.~.{.{.}.}.{.[.].].].E.E.E.P.P.E.E.i.~ T T f t t p f j j F E ;.<.1.5.g.m.B.L.P.`.[.}.[.[.}.P.A.m.y.y.-.U B.nXhX3X3XeX3X3XeXrXeXeXrXrXwXeXrXrX3X2X2X}.].E.E.R.y.B I.jXrXrX3X3X3X3X2X.X3XfXrX3X3XeX2X.X.X}..X.X.X.X.X.X}.[.eX0X~.r.G T T j j j f p + O @ > C P 8 o o o       o 5 5 7 l r [ [ l l r r r l r V V H X.X.X.=.m.m.D.Z.m.m.m.5.t.4.-.-.&.n Z %.}.lX3X X.X.X.X.X.X X X.X.X X X.X.X.X{..X{.}.[.}.E.$.l.jXhX3X.X.X[.[.}.[.[.3X{.{..X.X.X.X.X.X.X.X}.}.}.}.}.}.].[.}.B.e.r.! ! ! T T x f : i s : @ 6 J U X.#.<.1.l.l.h.h.%.U m Z Z Z n n n q 0 1 ; ; 8 ; 8 * 9.DXZXZXVXVXBX9X9X7X8.5 4 3 e 7 4 4 4 4 e e e e e e ",
"s p 6 > 6 > : : : @ + O O + : l P O.;.=.6.p.;.o.l * X X X X X X X X X X * * * * + + X X * * = + X X + + + + + . . + @ 7 i p p p a f f j x x x f f p p p p f j j F P o.G.yX3X2X2XeX3X3XrXfXfXfXhXrX2X2X3XhXfXfXrXfXhXhXhXjXjXhXrXrXhXjX_._.nXzXlXhXhXhXrXhXhXhXhXjXrXrXuX|.*.~ T T j j x f a t $ : : i p f j T R E ;.-.4.A.1XrX.X.X.X.X.X[.[.[.[.[.[.[.[.[.[.[.(.].].[.].].].].[.].].P.P.(.P.].].].].].).].].].].L.<.3.;.O.E l 7 H ;.;.;.4.6.P.2X.X2X2X}.}.}.}.|.].].|.].].|.OXi.~ T T x t t p f j j T ~ -.u.m.m.m.D.L.L.P.].}.}.{.[.}.P.D.Z.y.y.t.U ,.vXhX3XeXeXeX3XeXrXeXeXeXeXwXeXrXrXeX2XwX.X].T.I.R.Z.B 1.gXfX3X3X3X3X3X.X.X3XfXrX3X3XeX3X.X.X}.}.}.}.}..X.X}.{.wX|.D.-.G T x j j f s p + O @ 6 C ;.o.r 5 r V H  .l r r r r [ [ [ [  .[ [  . . . . .X.@.=.=.y.D.D.L.D.j.j.j.y.u.t.r.-.&.Z b %.].lX3X X.X.X.X.X.X X X.X.X X X.X.X.X[..X.X}.}.}.].%.%.rXlX3X.X.X}.}.}.[.(..X X{..X.X.X.X.X.X.X.X}.}..X}.}.}.].[.|.Z.r.r.~ ! ! R T j f : : s : @ ; C U X.@.<.6.1.g.h.1.( B m Z Z Z n n n q 0 1 ; > > ; ; 6 5 %XDXDXZXBXBXsX7X8.5 7 3 e 7 7 e 3 4 4 e e e e e e ",
"f p p 7 7 7 : : @ @ # # # $ 7 l X.X.;.=.G.G.=.=.o.F 8 * X X X X + + + + + + + + + + X X X X X + X . + + + O . + @ : i p p p a p f f f x T x l f f p p p s f j A F E =.I.rX3X2X2X2XrX3XrXhXrXrXhXrXrXjXfXrXrXrXrXrXrXhXhXhXjXjXrXhXjXjXK.3XmXkXkXfXhXhXrXrXjXjXjXjXrXrXtXE.*.~ E T j j j f p : $ $ $ p p f F T R O.;.-.4.6.~.yX2X.X.X.X X{.[.[.[.[.[.[.[.[.[.].`.].].[.].`.].].].].].(.`.].`.].].].].].].].].].~.D.4.-.-.e.E F g o.3.3.3.p.G.T.2X2X2X2X2X2X2X1X}.}.}.}.}.}.@X+Xy.O.T R j p p p f j A T ~ 4.m.B.B.A.L.I.P.].{.}.}.{.{.{.E.D.Z.y.y.u.U <.zXlX3XeXeX3X3XeXrXrX3X3X3X2X3XrXrXeX2XwX.X|.P.W.R.S./ $.wXfX3X3X3X3X3X2X.X.XfXfX3X3XeX2X.X.X.X[..X}.}.}.}.}.].wX~.u.;.T T j j f f s p + O @ 6 F ;.S.G.6.4.G.G.6.p.9.+.+. . . .[  .+. .+.8...9.7.=.<.<.4.4.5.m.B.B.B.m.m.m.m.y.u.4.-.;.J b =.T.lX4X X.X.X X.X.X.X X.X.X X X.X.X.X{.{..X}.}.}.].%.%.eXlXfX.X.X.X}..X.X(..X X{..X.X.X.X X X.X.X}.}..X}.{.}.[.[.|.Z.r.e.O.E q.R T Y x p $ a i @ : g G P @.$.%.1.1.5.#.U N Z Z n n n n b q 0 ; - > : ; ; 8 ; 5 dXIXZXBXZX7X .5 e e 7 e e e e e e e e e e e e 7 ",
"0 0 6 p 6 > > : : $ + O . o 8 F X.X.;.=.G.F.G.6.3.3.P 0 ; - X X X X X X X X X + + X + + + +   X X . . O O . + : i p p a a f f f f f l Y T x l f f p p s s j l T P o.4.[.jX3X2XrXrXrX3XrXhXrXhXhXrXrXhXhXfXfXrXrXhXrXjXhXhXjXjXjXhXlXrXK.vXcXkXkXhXhXhXrXrXjXjXjXuXrXtXtXD.) ~ T T j j j f p : : $ $ a p j F T R O.;.;.4.4.A.1XyX.X.X.X.X{.[.[.[.[.[.[.[.[.[.[.].].[.[.].].].].[.[.].(.].`.(.].].].].].].].].].E.m.4.-.-.e.E g F ;.;.3.3.S.A.T.wX2X2XwX2X2X2X2X2XwX2X1X2X}.@X+XZ.q.T R j a a p f j T T ~ u.D.L.P.L.P.E.].].}.}.}.{.[.}.].D.Z.m.m.y./ #.lXlX3XeX3X3X3X3XeXrX3XeXrXrX3XrXrXeX2X2X.X}.P.W.E.R.*.B ~.jXrX3X3X3X3X2X.X.XrXfX3X3XeX2X.X.XXX}.}.}.}.}.}.}.].@XE.4.;.T T A j j f s : + O - 6 F ;.E.E.F.F.T.Y.Y.T.9.9.9.9.9.8. .8.0.0.0.0.0.9.6.6.6.4.4.5.5.5.m.D.L.A.m.m.m.y.u.t.3.-.E < #.I.lXfX X.X.X.X.X.X.X X.X2X.X X.X.X.X.X{..X.X}.}.}.,.%.}.cXfX.X.X.X{.{..X)..X.X{. X.X X.X.X.X.X X.X}.}.}.{.}.}.[.|.Z.r.e.e.E O.R T T x a # p i @ : 0 G U U @.$.<.#.#./ J m Z C n n n b q q < ; ; ; - ; ; ; 8 * r dXUXsX%X[ 5 7 e e e e e e e e e e e e e e e 7 ",
"5 5 - @ @ - $ $ $ $ $ O O @ 6 F o.o.;.4.p.F.W.F.y.y.r.X.F w 0 ; - - - X X X X X X         & & & . . & O + : 7 p p a a f f f f f f l T R T T l f f p s f f g F R O.=.G.1XjX3X3XrXrXrXrXrXjXhXhXhXrXrXrXhXhXhXrXrXhXhXjXhXfXrXjXjXhXkX2X{.bXkXkXjXjXhXhXfXrXjXjXjXuXtXuXtXm.) ~ T F j j j f p $ $ $ $ p p f F T R O.O.-.4.6.j.~.wX.X.X.X.X{.[.[.[.[.[.[.[.[.[.].].].[.[.].].[.].[.[.].`.].`.`.].].].[.].].].].].~.D.4.-.r.;.E w X.3.3.=.4.^.A.T.wX2X2X2X2X2X2XwXwXwXwXwXwXwXyXqXZ.e.! R x a x p f j F T ~ m.L.P.E.P.].].].].}.}.}.{.{..X].D.Z.m.m.y.@.( jXcX3XeX3X3XeXeXrXrX3XrXrXrX3XrXrXeX2X2XwX}.].E.E.R.5.B j.jXrX3X3X3X3X3X2X.XeXfX3X3X3X3X.XXX}..X.X}.}.}.}.}.}.@XR.<.;.T R T j s s s : O + - 6 F ;.F.[.T.T.T.T.T.b.9.9.9.7.9.9.0.0.0.9.#X#X0.7.7.6.6.7.1.m.D.m.B.L.L.L.B.m.m.y.y.t.t.-.~ 8 / H.jXfX X.X.X.X.X.X X X.X2X.X.X.X.X2X.X{..X}.{..X}.l.` P.cXfX3X.X.X{.{..X[..X.X[. X X X.X.X X X X.X}.}.}.{.}.}.[.|.Z.r.e.e.E ! R T T x f $ i t $ : 6 C J I @.$.#.( *.U N m m C n n n b q 0 ; ; ; ; - - ; ; ; 8 ; r +. .4 o o 7 e e e e e e e e e e { e e 4 e 4 ",
"#X#X9.8. .[ 5 4 o o . O # $ 6 F o.;.;.4.6.G.F.W.F.S.p.t.;.O.H w 0 6 6 6 6 6 6 6 ; - - - - - - - @ @ : 7 p p p s f f f f f f f j l T R Y T T l f f p f j l F R o.;.4.I.rXjX3X3XrXrXrXrXrXjXhXhXhXrXhXhXjXjXfXrXfXhXjXhXhXhXfXjXjXjXzX).rXmXkXkXjXhXhXhXjXjXjXjXjXjXrXjXyXu.) E T T j j j f p : $ $ : a p j F T R O.O.-.4.6.6.I.1X2X.X.X.X{.[.[.[.[.[.[.[.[.[.].].[.[.[.[.].[.[.[.[.].`.].`.].].[.].{.].].].].].~.Z.u.3.r.O.T w ;.r.3.4.6.T.T.T.wX2X2XwX2X2X2XwXwXwXwXwXwXwXtXyXZ.e.! R j p R f f j F E ~ m.I.].].`.].].[.}.}.}.}.{.{..X].D.Z.m.m.y.&.( tXcX3XeX3X3X3XeXrXrX3XrXrXrXeXeXrXeX2X.X2X}.].E.E.D.y.U %.eXfXrX3X3X3X3X2X.XeXfX3X3X3X3X.XXX}.}.}..X}.}.}.}.}.}.B.-.~ T T T s s s p : O O - 6 F &.A.[._._.1X4XY.c.7.7.7.7.0.9.*X*X#X9.9.9.9.^.T.T.T.A.A.I.E.I.I.I.E.P.A.m.m.y.y.u.t.-.o.8 U A.fXhX3X.X.X.X.X.X.X X.X3X.X.X X.X2X2X{.{..X.X{.}.h.( H.lXlX3X.X X X.X.X[.[.2X{.{. X.X.X.X.X.X.X.X}.}.}.{..X}.[.|.y.r.e.e.E ! R T T j f : t : $ : > g J I X.#.#.@./ J Z m C n n b b q q 0 ; ; ; ; ; ; > ; ; ; ; ; o o o @ % @ e e ] e ] ] ] ] e e { ] e 4 3 3 ",
"8X8X8X9X9X7X7X<X#X8.e o & % 7 F o.;.3.4.6.p.G.F.W.F.G.S.p.3.3.o.P g g s s s s s f p s p s p p s f f f f f f f f f f f f f f j F T R R R R T l j f f l F P O.O.;.4.G.~.jXhX3X3XrXrXrXrXhXjXhXjXhXhXfXhXjXhXhXrXhXjXjXjXhXrXrXjXjXlXjXK.vXzXkXkXjXjXjXjXjXjXjXjXjXjXtXxX@X<.~ E G Y j j j f p t t # : a p f l T R O.;.;.4.6.6.A.|..X.X2X.X.X[.[.[.[.[.[.[.[.[.].`.[.[.[.].[.].].[.[.].`.].`.].[.[.[.}.].].].].].P.G.4.-.r.q.A F r.t.t.4.6.Y.T.T.4X2X2XrXwXwXrXrXwXwXwXwXwXeXtXaXR.e.T R j y w.f f g F T ~ u.P.].].].[.[.{.{..X.X}..X{. X].L.Z.m.m.y.&.U yXcXeXeX3X3X3X3XrXrX3XrXrXeX3X3XrXeXeX2X2X.X].E.E.D.m.@.( ].jX3X3X3X3X3X2X.XeXfX3X3X3X3X.X}..X.X}..X.X}.}.}.}.|.Z.;.~ T T T s s p p : O O : 0 G ;.Y.1X3XhXrX_.c.c.7.6.c.c.7.b.*X*X9.9.0.0.9.Y.F.c.A.I.~.|.E.P.P.P.E.~.L.B.m.m.y.y.t.r.;.b J B.rXlX3X.X.X.X.X.X.X X.X3X.X.X.X.X.X2X{.{..X}.{.}.B.( h.lXzX3X.X.X{..X.X[.)..X.X.X.X.X.X.X.X.X2X.X}.}.}.{..X}.}.|.u.r.e.e.! ! R T T j f t : : # : > 0 J U I @./ / I J Z C C b n n q q 0 ; ; ; ; ; ; ; ; ; ; ; ; - o 7 3 o 3 3 4 e e ] ] ] ] ] ] ] { { e 4 3 % ",
":X-X6X7X7X7X7X7X7X7X7X#X .5 5 F X.;.4.y.p.G.G.^.T.F.A.F.F.R.p.4.3.o.P F g g g g f j j f d j j j g C F F j j j f f f f j j j F T R ! O.R R F F l g l P O.o.;.3.3.6.A.[.lXhX3XrXrXrXrXrXjXjXhXjXjXjXhXjXjXhXfXrXhXjXjXjXjXrXjXjXjXkX2X).bXlXkXkXjXjXjXjXhXjXjXjXjXjXuXxX~.*.~ E T T j j j f p t t # i f p f l T R O.O.;.-.4.y.j.~.2X2X2X.X.X[.{.[.[.[.[.[.[.[.].].[.[.[.].[.[.].[.[.].].].`.].[.[.[.[.[.].[.].].].A.6.3.r.O.g H 3.3.3.4.6.F.Y.[.rX2X2XrX2XwXrXrXwXwXwXwXwXwXtXaXR.e.R R j : ! x f j F T ~ u.P.].[.].[.{.}.{..X.X X.X X X}.I.S.Z.m.y.&.N wXnXeXeX3X3XeXeXrXrXeXrXrXrXeXeXrXeXeX2X2X2X].E.E.F.G.<.B H.gXrX3X3X3X3X2X.X3XfX3X3X3X2X.X}..X.X}.}..X}.}.}.}.~.u.-.~ T T T f p p p : O O - s P ;.Y.hXkX3X_.K.v.c.c.A.I.c.6.7.0.0.0.b.b.9.7.$.$.%.1.j.I.`.P.P.P.P.E.~.I.B.m.m.y.y.t.t.;.Z m j.3XlX3X.X2X.X.X.X.X.X.X3X.X.X X X.X2X2X{..X}. X}.L.( l.jXzX3X.X.X X X.X X`.wX.X X.X.X.X.X.X.X.X.X.X}.}.}..X.X}.|.u.r.e.e.! ! R T T x f i : $ # - : 0 C J I I U I I Z Z C C n q q q q 8 ; 0 8 ; ; - ; ; ; ; - - X o 7 4 o o o 4 e { { ] ] ] { { ] ] { { e 3 % ",
"7X=X7X7X7X7X7X7X7X7X7X7X7X%X+. .o.;.y.S.G.A.G.F.W.T.F.T.W.~.~.F.p.4.;.o.E P F F F A F F F G G P I ;.r.;.G F F j j j j j l F T R O.O.O.E R P F F l O.;.;.;.3.4.y.m.F.1XzXhX3XrXrXrXhXrXjXjXhXjXhXjXhXjXjXhXrXrXjXjXjXjXjXhXjXjXjXzX).1XbXlXvXkXjXjXhXjXfXjXjXjXjXjXuXxXE.&.~ T T x j x f f p t t # i a f f l F R O.O.;.-.t.y.j.I.2X2X2X2X.X[.[.[.[.[.[.[.[.[.].`.[.[.[.].].[.[.[.[.].].].`.].[.[.[.[.].].].[.].P.A.y.3.;.O.w  .9.9.9.9.9.Y.T.1XrX2X2XwXwX2XwXyXwXwXwXwXwXeXtXyXS.;.! q.j , R R f j F T ~ u.E.].[.[.{.{.{.{..X.X X X X X}.I.S.Z.m.Z.*.N }.nXrXeX3X3XeXeXrXrXrX3XrXrXrXeXrXrXeXwX2X2X}.E.E.F.G.y.U %.rXfX3X3X3X3X2X3X3XfX3X3X3X3X.X}.}.}.}..X}.[.}.{.}.E.<.;.~ T T T f p p p : O + : f E &.I.jXhXoX).).K.Y.Y.A.A.c.6.9.b.9.9.b.<X*X<Xb.j.B.B.H.L.P.(.].P.P.E.E.E.D.m.m.m.y.t.t.r.J n 5.2XkX3X2X2X.X.X.X.X.X.X3X3X.X.X.X X2X2X{..X.X.X2XE.$.%.rXnXrX.X X X X.X.X`..X2X X.X.X.X.X.X.X.X2X.X.X}.}..X@X}.+XZ.r.e.e.! R ! R T x f p : # + : : 6 g F K P U J J Z C b n w q q q q < ; g ; ; - - ; ; ; - - - . 3 e e 4 4 3 4 e { [ [ [ { { { ] { { { e 3 o ",
"8.8.+.+.0.9.9.9.9.%X<X<X<XdX<Xa.X.3.y.S.F.F.F.F.W.W.T.Q.~.Q.~.W.F.G.y.3.3.;.;.;.o.o.;.;.;.=.3.t.S.R.R.t.o.P R F F l l F F P R O.3.3.;.;.o.O.O.O.H 3.r.3.3.4.4.y.G.T.yXvXhXrXrXfXhXhXrXjXjXjXjXjXjXhXhXjXjXfXfXjXjXjXjXjXjXjXjXlXkXv.jXnXkXkXkXjXjXjXjXjXjXjXjXjXjXjXuXm.&.E T T x j x f f p t v $ a a p f T F R O.O.-.-.t.y.y.A.}.2X2X.X.X{.[.[.[.[.[.[.[.[.].].[.[.[.].[.[.[.[.[.(.].].].].[.[.[.[.].[.{.[.].P.A.5.t.3.H V 9.<X*X*X<X9.F.T.yX2X2X2XrXwX2XrXrXwXwXwXwXeXeXtXyXS.e.! q.j : x ! f j F T ~ <.E.].{.{.{. X X.X.X X X.X X X}.E.A.Z.Z.y.&.N |.nXrXeX3X3XeXeXrXrXrX3XrXrXeX3XrXrXrXeX2X2X}.E.E.E.D.y.I ` {.gX3X3X3X3X3X.X3XfXrX3X3X3X.X}.}..X.X.X}.}.[.{.}.D.-.;.! T T x f p p p : O + : g E ;.Y.rXhXoX).(.K.P.Y.A.A.c.b.*X<X*X<X7.7.T.<Xc.c.H.L.P.P.P.(.(.P.P.E.E.E.L.m.m.m.m.u.t.r.P M <.{.kXrX2X.X2X.X.X.X.X2X2X2X.X.X X X.X2X{.{..X2X2X|.%.%.wXnXfX3X.X X X.X.X`..X2X.X.X.X2X.X.X.X2X.X.X}.}.}.}.@X.X@Xy.e.e.e.! R ! T T x f a $ + # : : 6 0 C J J J J Z C C b q q q q q 8 8 g 0 ; ; - - ; ; - - - X X e e e e 4 4 4 4 e [ [ [ { { { { ] { { e 3 . ",
" .r l l l V w w r r l +.+.7.+.+.X.;.t.G.F.F.W.^.W.W.W.Q.Q.Q.Q.Q.W.F.A.G.A.F.F.F.S.F.F.F.F.W.W.W.E.E.R.S.4.;.;.o.O.P P P X.o.3.p.p.p.p.t.t.r.r.O.X.t.r.3.4.=.4.G.A.~.jXzXrXrXfXfXfXhXhXjXjXjXjXhXjXhXhXhXjXrXfXjXjXjXjXjXjXjXjXlXrXv.nXzXzXkXkXjXjXjXjXhXjXjXjXjXjXxXyXu.) E T F j j x f f p t $ $ a a f f j F R O.O.;.-.4.y.y.m.].wX2X2X{.{.[.[.[.[.[.[.[.[.`.[.[.[.].].[.[.[.[.].`.].`.].].[.[.[.[.[.[.{.].].T.G.y.t.3.p.*X<X*X*X*X^.9.6.T.4X2X2X2XrXwXwXyXrXyXeXwXwXeXeXtXaXS.e.! q.j : f ! j j T T ~ <.E.].{.[.{..X X X X.X.X}..X.X}.~.A.S.y.y.&.N 0XnXrXeX3XeXeXeXrXrXrX3XrXrXrX3XeXrXeX3X2XwX}.~.E.E.D.S.=.B I.jX3X3X3X3X2X2X3XrXeX3XeX3X2X}.[..X.X.X}.}.}.}.+XZ.-.;.E T T j f 6 p p : + + > g O.$.H.3XrXoX_.).(.(.(.P.K.v.b.*X*X9.9.9. .7.A.c.H.J.P.P.`.`.(.(.`.P.P.E.E.L.m.m.m.m.u.u.t.I M #.].zX3X2X2X2X.X.X.X.X.X2X2X2X.X.X.X.X2X.X{.2X.X2X{.%.%.wXnXhX3X.X X X.X2X[..X3X.X.X.X.X.X.X.X2X.X.X.X.X.X.X.X.X@XZ.r.e.e.! ! ! T T x f a $ # # $ : > 0 C J J J J C n q w q q q q q 8 w 0 ; - - - - - - - - + . o e ] e e 7 4 4 4 e ] { { ] { } { ] [ { e 3 . ",
"9.V F F F F l g g f 0 X.r.X.8 l P o.4.S.F.F.W.W.^.W.Q.Q.Q.Q.Q.Q.~.yX1XQ.Q.Q.Q.Q.~.~.~.~.~.~.~.~.W.W.W.W.F.S.R.S.p.3.3.t.p.S.R.W.!.W.^.R.y.t.r.P o.t.3.4.3.4.p.G.F.[.zXkXfXrXfXhXhXhXhXlXjXjXjXhXjXjXjXjXjXrXhXjXjXjXjXjXjXjXlXzX2XK.KXzXzXkXkXjXjXjXjXjXlXjXjXjXjXxX0X<.) E T F j j x f f p t $ $ a p f j j F R O.O.;.-.t.y.m.m.P.wX2X.X}.{.[.[.[.[.[.[.[.[.(.[.[.[.].[.[.[.[.[.].].].].].].[.[.[.[.[.].[.].].].A.y.t.;.6.<X*X*X9.0.7.6.G.T.yX2X2X3XrXeXyXrXrXrXeXeXwXeXeXtXaXZ.e.! q.f > f Y j j T T E -.L.].{. X X X.X X.X.X.X.X.X.X}.].D.S.Z.y./ U yXnXrXeX3XeXeXeXrXrXrX3X3XrXrXeXeXrXrXeX2XwXwX].I.E.D.S.4.B j.rXfX3X3X3X3X3X3XrXeX3XeXeX.X.X[..X.X}..X}.[.}.|.u.-.;.E T T T f > p i : + + 6 F O.=.Y.3XrXoX_.).(.).(.K.v.v.b.b.9. .7.F.7.$.%.j.H.H.P.`.`.`.(.(.(.`.E.E.E.L.m.m.m.m.y.u.t.&.M ( P.kXfX2X2XwX.X.X2X2X2X2X3X2X2X.X.X.X.X2X{..X.X2X}.,.%.}.nXjX2X.X X.X.X3X[.[.3X.X.X.X.X2X.X.X2X2X2X.X.X.X.X.X.X@Xy.r.e.e.! R ! R T x f a $ + + # : > 0 w C C J C w q w q q q q q 8 8 w ; - - - - - - - - @ . . 3 e ] e e e 4 4 4 4 e { { { } } } ] [ { e 3 . ",
"<X9.V F F F F l j f f O.r.O.; 6 l P 3.p.F.F.W.Q.W.W.~.1X1X1X1X1X|.1XyXyXyX1X|.1X|.|.|.|.|.|.~.~.W.~.1X1X~.~.0X1X~.~.~.~.~.~.|.0X1X~.W.R.y.u.r.J 3.t.t.4.4.y.G.A.I.1XvXkXhXhXhXhXhXhXjXkXjXjXlXhXhXjXjXjXjXhXjXjXjXjXjXjXjXjXjXzX).2XKXkXzXzXkXjXjXjXjXjXkXjXjXjXjXxX|.-.~ E T F j j x f a p t # : a p f f l T R O.;.r.3.t.y.m.m.A.}.2X2X{.{.[.[.[.[.[.[.[.[.[.[.[.[.].].[.[.[.[.].].].`.].[.[.[.[.[.[.].[.].].].D.y.t.3.V b.<X9. .7.6.p.6.~.rX2X2XrXrXwXrXrXtXwXwXeXeXrXeXtXyXZ.e.! q.f y f T j j T T E &.D.|.{.{. X.X X X.X.X.X.X.X.X}.].L.S.Z.t.I / pXnXrXeXeXeXeXeXrXfXrXeXrXrXrXeXeXrXrXeX2XwXwX|.I.E.R.S.y.U %.1XfX3X3X3X3X3X3XrX3X3XeX3X.X.X[..X.X.X.X[.[.}.~.<.-.O.! E T T f > : : $ O + 6 F o.=.c.3XlXoX_._.(.).K.v.T.<XT.b.7.7.$.T.A.l.h.H.H.J.P.`.`.`.`.(.P.].`.E.].P.A.m.m.m.y.u.t.;.b B H.lXhX3X2XeX2X.X.X2X2X2X3X3X.X.X.X.X2X2X X.X2X2X2Xx.%.[.nXlX3X2X X X.X3X.X[.2X.X.X.X.X.X.X.X2X2X2X.X.X.X.X.X.X@XZ.r.e.e.! ! q.R T Y z f t O + $ : > 0 q w C n n q q q q q q q q 8 0 0 ; - - - = - - - + + . . 7 { ] e e e e e e 4 o e { { } { } } { } e o . ",
"*X<X9.V F F F l g 0 0 P O.P ; - f F ;.p.S.F.W.Q.W.W.~.1X1X1X1X1X0XyX1XyXyXyXyXyX0X1X1X1X1X1XQ.Q.Q.1XyXyXyXyXyX0X1X0XyX1X1X1X0XyX0X1XW.S.y.u.;.J t.t.t.t.t.p.S.D.T.rXnXjXhXjXhXhXjXjXjXlXjXkXjXhXjXjXjXjXjXrXjXjXjXjXjXjXjXjXlXzXK.jXKXkXzXzXkXjXjXjXjXlXkXjXjXjXjXxXE.;.~ E T A j j x f a p t # t a p f j F T R O.;.-.3.t.y.G.m.A.|.2X2X{.[.[.[.[.[.[.[.[.[.[.[.[.[.].].[.[.[.].(.].].`.].[.[.[.[.[.[.].].].].].A.y.t.r.V 3.^.V  .p.p.p.6.Q.rX2X2XrXrXrXrXrXrXwXwXwXwXrXeXtXqXZ.e.~ ! p y f x j A T T E &.m.].{.{.{. X.X X.X.X.X.X X.X}.].D.Z.y.t.I #.xXnXfXeXeX3XeXeXrXrXrXrXrXrXfXeXeXrXrXrXeXeXwX}.E.E.R.D.S.@.( ~.gXrXeX3X2X2X3XeXeX3XeX3X.X.X[. X.X.X}.}.}.@XE.-.e.O.E T T T j p : : $ O + 0 P o.=.c.2XlXoX_._.(.).H.v.Y.c.7.7.v.A.%.j.h.l.H.H.J.(.(.P.`.].].`.(.(.`.P.`.E.D.m.m.m.m.u.t.-.m N h.jXlX3X2XeX2X2X2X2X.X2XeX3X2X.X.X.X2X2X.X X2X2X2Xg.( ).nXkX3X3X.X X.X2X.X[.3X2X.X.X.X2X.X.X2X2X2X.X.X.X.X.X2X@XZ.r.e.e.~ ! q.R T Y x f t O # + - : > 0 g g w q 0 0 q 0 0 0 0 0 < 0 ; ; - - - = - - - + . . . e { ] ] e e e e e 4 o 4 e { { } } } { { e o o ",
"*X*X<X9.V P F F g 6 6 P O.F : : 6 l O.t.S.F.W.Q.~.W.1X0X1X1X1XyXyXyXyXyXyXyXyXyXyX1X1X1X1X1XQ.|.1XyXiXyXyXiXyX0XyXyXyX1X1XyXyXyX1X|.W.S.p.p.o.P p.y.y.y.p.G.F.F.].lXnXhXhXjXjXjXhXhXkXkXjXlXjXjXjXjXjXjXjXhXjXjXjXlXjXjXjXjXzXjXv.mXnXkXzXkXkXjXjXzXlXkXkXjXjXjXxXxXD.;.~ T T Y j j j f f p t # i p p f j l T R O.O.-.t.4.y.G.G.G.].2X.X X{.[.[.[.[.[.[.[.[.`.[.[.[.[.[.[.[.[.].(.].`.`.].[.].[.[.[.[.[.].].].].H.5.t.3.P n w 9 3.S.S.p.6.1X3X3X2XrXrXrXrXtXtXwXwXwXwXrXtXtX+XZ.e.q.R > p f x x A T R E ~ u.].{.{. X.X.X X.X.X.X.X.X.X}.|.D.Z.y.t.I *.xXmXfXeXeXeXeXeXrXrXrXrXrXrXrXrXeXrXrXrXeXeXwX}.~.I.R.D.Z.<.B H.rXfX3X3X3X2X3XeXeX3X3X3X2X.X.X.X.X.X}.[.}.}.B.-.e.e.! T T x f p : : + O + 0 P O.=.A.2XhXoX_.).(.(.P.H.l.,.c.K.K.L.g.g.~.h.h.J.P.(.(.(.].].].].].].].].].~.D.m.m.m.y.u.t.r.J M g.rXkX3X3X3X2X2X2X2X.X2XeX3X2X2X.X.X2X2X2X{..X2XwXB.( K.nXkX3X3X.X X.X2X2X[.3X2X.X.X2X3X.X.X2X2X2X.X}..X.X2X2X@Xy.r.e.e.q.! q.R R Y x f p O + + - : > 0 0 q w 0 0 0 0 0 0 0 0 0 0 8 ; - - - = = - @ @ . . O . r { ] ] e e e e e 4 4 4 4 ] { { } } { { e & . ",
"*X*X<X<X+.V P F f 6 6 Y R g : $ : p P 3.p.F.W.Q.~.Q.1XyX0X1XyXyXyXyXyXiXyXyXyXyX1X1X0XyX0X1X1X1XyXpXuXyXiXiXyXyXyXyXyX1XyXyXyXyX0X1XW.S.p.p.X.O.p.p.p.y.G.S.F.I.{.zXmXhXjXjXjXjXjXjXkXjXjXjXjXjXjXjXjXjXjXjXjXjXjXlXjXjXjXjXzXrXv.KXmXkXkXzXkXjXjXzXkXkXkXjXjXjXxXaXu.;.! T T A j j f f a p t # i p p f j j T R O.;.r.t.4.y.y.G.G.I.2X2X{.[.[.[.[.[.[.[.[.[.[.[.[.[.[.[.[.[.[.`.`.].`.`.[.[.].[.[.[.[.[.[.].].].H.6.4.r.O.q 8 J =.6.p.6.b.4X3X4X2XrXrXrXyXrXtXwXeXeXyXtXwXtX+Xp.e.! R > p f x j A T T E ~ <.~.}.{. X.X X.X.X.X.X.X.X.X}.|.D.S.y.4.I :.xXmXrXeX3XeXeXeXrXfXrXrXrXrXrXrXeXrXrXrXeXeXeXwX].I.E.D.S.4.U g.wXhX3X3X3X3X3XeXrX3XeXeX2X.X.X.X.X.X}.[.}.|.m.-.e.e.! T T x f p # : + O + s P O.-.c. XhXoX_._.(.(.`.J.P.`.(.(.J.P.B.5.[.P.H.H.J.(.(.(.`.].].].].].].].`.].I.m.A.m.m.u.u.t.K M 1.rXkX3X2X2X2X3X2X2X.X2XeXeX2X3X.X.X.X2X2X{..X2XwXL.' H.mXcX3X3X3X X X.X3X).2X3X2X.X.X3X2X.X.X.X2X.X.X.X.X.X2XyXZ.r.e.e.q.! q.R R Y x f p + + + + : > 6 0 0 0 0 0 0 1 1 0 1 0 0 0 ; ; - - - = = = + + . . O . c [ ] e e e ] e e 4 4 e 4 4 e { { { { { 4 . . ",
"+.9.9.<Xp.w F l j > p f j s : : : 6 g O.t.S.^.Q.~.W.0XyXyXyXyXyXyXyXyXyXyXyXyXyX1X1XyXyX0X1X1XyXiXpXuXiXiXyXyXyXiXyXyXyXyXyXyXyX0X~.W.S.S.p.H r.p.y.y.y.S.S.F.I.1XvXkXhXjXjXjXjXjXhXkXjXjXlXjXhXjXjXjXjXhXjXjXjXjXjXjXjXjXlXzX2X).KXmXkXkXzXkXlXjXzXkXkXkXjXjXjXzXqXe._ E T T Y j j f f a p t # p i p f j x T R o.;.r.t.t.t.p.G.m.I.}..X{.[.[.[.[.[.[.[.[.`.[.[.[.[.].].[.[.[.(.].].`.].[.].].].[.[.[.[.[.].].].L.m.4.r.O.F J 3.3.6.6.6.b.1X3X3X2XrXeXrXrXrXtXwXeXeXtXtXtXtX+XZ.e.q.R > p f x x A T R ! ~ =.E.}.{.{. X X.X.X2X.X.X.X.X}.}.L.S.y.4.L :.xXmXfXeXeXeXeXeXeXfXrXrXeXeXrXrXeXeXrXrXrX3XrXwX[.I.E.R.S.y.U <.}.jX3X3XeX3X3XrXeX3XeXeX2X.X{.}..X.X.X[.}.|.u.;.e.q.! T T j f p + : + O : g R o.=.c. XlX2X_._.).(.P.H.(.(.(.K.K.P.A.1.P.].J.J.z.(.(.(.(.].].].].].].].].].I.A.G.m.m.u.u.t.~ M %.2XcX3X2XeX3X3X2X2X.X2XeX2X2X3X.X.X.X2X2X X.X2XwXE.' l.kXmX3X3X2X.X X3X3X[..X3X.X.X.X3X2X.X2X2X2X2X.X.X.X2XeXyXS.r.e.e.q.! e.q.R Y x f p + + + + : : > 6 0 0 ; > 1 1 1 1 < < ; ; ; - - - - = = + + O & O O . e +.[ ] ] { { c e e e e e e 4 e e { { c o o + ",
"H V  .+.p.P g g g 6 - 6 6 6 - $ $ : 0 O.r.S.F.W.Q.Q.yXyXyXyXyXyXiXiXiXiXyXyXyXyX0X0XyXyX0X0X0XiXpXuXiXuXuXiXyXiXiXyXyXyXiXyXyXyXyX~.W.R.R.u.H r.p.6.y.G.S.F.F.T.yXmXkXhXjXjXjXjXhXjXzXlXjXlXjXhXlXkXjXjXhXjXjXjXlXjXjXjXjXjXzX_.2XKXkXkXkXzXkXkXzXzXzXkXkXjXjXxXzX+X-.~ ! T T Y j j x f a p t $ a p p f j x T ! o.;.r.t.t.t.y.G.y.A.]. X{.[.[.[.[.[.[.[.[.`.[.[.[.[.[.[.[.[.].`.].].`.].[.].].].[.}.[.[.[.].].].I.m.4.3.O.F +.3.p.p.=.6.Y.4X2X3X2XrXrXrXrXrXtXwXeXrXtXtXtXtX+Xp.e.q.T > s f T Y A T R E ~ *.L.}.{. X.X.X X.X.X.X.X X.X}.|.D.S.y.4.U #.jXmXfXeXeXeXeXeXrXrXrXrXrXrXrXrXeXeXrXrXeX3XeXwX}.E.E.R.S.y./ / P.fXrX3XeX3X3XeXeX3XeXeX.X.X{.{..X.X}.[.}.|.u.;.e.q.! T T j f p , : + . : g R O.=.A. XhX2X[._.).).K.H.K.).P.K.K.Y.I.l.P..X(.J.H.(.].(.`.].].].].].].].].].E.A.m.B.m.y.y.t.o.M #.{.cX3X3XeX3X3X3X2X.X2XeX2X3X2X3X.X.X2X2X.X.X2XwX|.( x.jXnXrX3X2X.X.X2X3X{. XeX3X.X.X2X2X2X2X2X.X2X.X.X.X2XeXyXS.r.e.e.e.O.q.q.R Y x f p # + + + - : > > > > ; > > ; ; ; ; ; ; ; - = - - + = + + . . O O + . r +.[ ] { { { e 4 e e e e e e e e e { e o . + ",
"l l l F H O.F g f 6 : 7 7 : $ @ : : 6 O.p.^.W.W.~.Q.yXyXyXyXyXyXiXiXiXyXyXyXyXyXyXyXyXyXyX0XyXuXpXuXuXpXuXiXiXiXiXyXyXuXiXiXiXyXyX~.W.^.R.t.J t.p.p.y.p.S.F.I.T.rXmXkXjXjXjXjXjXjXlXzXjXlXkXjXjXlXjXjXjXjXjXjXjXjXjXjXjXjXjXzXK.rXKXkXkXzXzXzXjXzXzXzXzXjXjXxXcXcXE.;.~ ! T Y j j x f f f p : : p p p f j F T E O.;.r.4.t.t.y.m.m.D.~.{..X[.[.[.[.[.[.[.[.`.[.[.].].[.[.[.[.].(.].].(.].[.].[.[.[.[.[.[.[.].[.].I.y.4.r.;.F P 4.t.4.7.7.<XiX5X5X4X4XrXrXrXtXtXrXeXtXtXrXtXtX+Xy.e.q.T > f j x x F T E E ~ &.B.].}..X.X.X.X.X.X.X X{. X}.}.I.S.y.4.L *.uXmXhXrXeXeXrXrXrXfXfXfXrXrXrXrXrXeXrXrXeX2X3XeX}.E.E.R.S.y.*.U A.rXhX3X3X3X3XrXrX3X3X3X2X.X}.}..X.X}.{.}.|.t.;.e.q.! T T Y f f : $ @ X : g E ;.=.c.{.hX2X[._.).).(.(.(.).P.P.P.P.P.l.v.wX(.(.P.].].].].].].].].].].].P.].~.A.B.G.m.y.u.t.;.M @.].mXhX3X3XeXeX3X2X.X3XeX3X3X3X3X.X.X3X2X2X.X.XwX@X$.%.rXnXfX3X3X2X.X3X3X X X3X.X.X.X.X.X.X.X.X2XwX.X.X.X2XeXtXE.r.e.e.e.q.q.q.R T T f p # O O O @ - : > ; ; ; > ; ; ; ; ; ; - - - - = = + + + + & & O + + . e +.[ [ } } r o 4 e e e e e e e e e e 3 o @ o ",
"l l l l l l g g f 6 : 7 t $ # $ : 7 > R R.!.W.~.~.~.iXyXyXyXyXiXiXiXyXyXyXyXyXyXyXyXyXyXyXyXiXxXpXuXpXuXrXiXuXpXuXiXuXuXuXuXiXyX0X~.W.^.W.3.H p.S.p.G.S.S.F.I.T.jXmXkXjXjXjXlXjXjXkXkXjXlXkXjXjXjXjXjXjXjXjXjXjXlXjXjXjXjXjXlXv.vXKXkXcXzXcXkXjXzXzXzXzXjXjXzXcXxXB.&.~ ! T T j x x f f f p : t a p p f j F T E O.;.r.t.t.y.y.y.y.D.~.{.}.[.[.[.[.[.[.[.[.].[.[.].].[.[.[.].].(.[.(.].[.[.].].[.[.[.[.[.[.].].].I.m.4.3.3.G J 3.3.=.7.7.*X9X5X5XiX4X4XrXrXuXtXrXrXtXtXtXtXtX+XZ.e.q.j > f j x j T T E E ~ &.m.].[.}..X.X.X.X.X X X X X}.|.L.S.y.4.I / tXmXhXeXeXeXeXrXrXrXfXfXrXrXrXrXrXeXrXrXrX3X3XeXwX~.E.E.F.Z.<.U j.2XlX3X3X3X3X3XrX3XrX3X2X.X.X}..X.X}.[.}.|.t.;.e.q.! T T x f f : + @ + : g E ;.<.H.{.lX4X[._.).).(.(.(.).(.P.P.P.(.z.l.wX[.(.].].`.`.`.].].].].).].].].].].L.B.G.m.y.u.u.-.m U ~.cXhX3X2X3XeXeX3X.X3XeX2X3X3X3X X.X2X2X2X.X.XeXwX,.( .XnXfX3X3X3X.X3X3X X XeX2X.X.X.X.X.X2X.X.X2X.X.X.X.X2XtXE.t.;.e.e.q.! q.R T T z p $ & O O + - : - - - - - ; ; ; - - - - - = + + + + + + . & O + + + O e +.} [ } e o & 3 e e e e e c e e e r 3 % s 7 ",
"l F F F l 0 g f f p : 7 : $ # $ : : > F p.!.W.~.~.1XiXiXyXyXiXiXiXiXiXyXyXyXyXyXyXyXyXyXyXyXuXxXxXpXpXuXiXuXpXpXiXuXpXuXuXuXiXyX0X~.W.^.W.3.X.R.S.G.S.S.S.F.I.[.kXvXlXjXlXlXjXjXjXkXkXlXlXjXjXjXjXjXlXjXjXjXjXjXkXlXjXjXjXkXhXv.nXbXkXkXcXzXlXlXkXzXzXzXjXjXzXcXpXu.;.~ E T Y j f x f f a p $ t a p p f j F T ! O.;.3.t.t.y.y.y.y.G.T.}..X[.[.[.[.[.[.[.[.].[.[.[.[.[.].[.].(.`.[.].(.[.[.].].[.[.[.[.[.[.[.].].I.m.4.3.3.G F =.=.$.^.*Xb.<X9XiX5X5X4X4XrXtXtXtXtXtXtXtXtXpX+Xy.e.q.j y f x x x T T E E ~ &.m.].}..X.X2X.X.X X X.X.X.X}.}.I.S.Z.t./ / wXnXjXrXeX3XeXeXeXrXfXfXrXrXrXfXrXeXrXrXrXrX3XeXwX].E.E.F.S.4.U ,.{.lXfX3X3X3X3XeX3XeX3X2X.X}.[.}..X}.}.}.~.<.;.e.q.! T T j f f t + + + : F O.&.<.H. XlX2X{.[.).].(.(.[.[.(.P.(.`.`.J.l.1X}.].].].].].`.`.].[.].(.].].(.(.].I.B.m.m.m.y.t.-.m U I.zXlX3X3XeXeXeX3X.X3XeX3X2X3X.X2X.X.X2X.X.X{.2XtXm.B ).nXhX3X3X3X.X3XeX2X XeX2X3X.X.X.X.X.X.X2X2X.X.X.X.XeXtX~.t.;.e.e.q.! q.R T T x p t O O O O + - - = = - - - - - - - - - - + + + + + . . . O + $ $ $ O 3 +.+.} 4 . . . o e e e e ] ] { e e e o . 7 h ",
"F F F l l l g f s 6 : 7 : $ $ : : : > g 3.W.W.~.Q.1XiXiXyXyXiXiXiXiXiXyXyXyXyXyXyXyXyXyXyXiXuXpXpXpXpXuXiXpXpXpXuXuXpXuXpXuXiXyX+X~.W.W.W.;.X.S.S.S.S.S.F.^.T.1XzXzXjXjXlXlXjXjXjXzXkXlXkXlXlXjXjXjXkXjXjXjXjXjXlXkXjXjXjXzX4XK.KXmXkXmXcXzXkXkXkXzXzXzXjXzXxXbXqX<.;.~ E T T j x x f f a p $ i a p f f j F R E O.;.3.4.t.y.y.y.u.G.T.}..X[.[.[.[.[.[.[.].].[.[.[.[.[.].].[.(.].].].].[.].].].[.[.[.[.[.[.[.].].P.m.4.3.3.G F 3.3.=.^.<X<X*X*X<X5XiX4X4XrXjXtXyXrXtXtXtXtXtX+Xy.e.q.s y f x x x T T E E ~ &.5.E.{..X.X.X.X.X X X.X.X X}.}.I.D.S.t.) U 1XmXlXrXeXrXrXrXeXrXrXfXrXrXrXrXrXeXeXrXrXrXrXeXeX|.E.E.F.S.t./ #.].jXjX3X3X3X3XeX3X3XeX.X.X.X{..X.X}.{.}.Q.<.e.e.q.! T T x f f p + + + 6 F O.&.<.H.oXlX2X{.[.).].(.(.].].(.P.P.`.(.P.x.]..X).].].[.[.].].].[.].].].].`.P.].P.B.m.m.m.y.u.r.J B A.lXkX3XeXeXeXeXeX.X3X3X2X3X3X3X.X3X2X2X.X.X{.2XtXE.B h.nXlX3X3X3X.X3XeX3X[.3X3X3X3X.X.X2X2X.X.X.X2X.X.X.X2XtX~.y.e.e.e.q.! q.R T T x p t v $ O O O + + + + = = = - - - - - - + + + + + . . O + $ $ $ $ $ $ @ +.+.7 o @ O O . 3 c e ] ] ] ] ] e 4 o @ X 7 ",
"F F F l F l l g f 6 - : : $ $ : : : : s R p.W.~.Q.1XpXiXiXiXiXiXiXiXiXiXyXyXyXyXyXyXyXyXyXiXpXpXxXxXpXuXuXpXxXpXuXpXpXpXpXuXiXyX|.~.!.W.R.;.=.R.S.G.S.D.F.F.T.1XvXvXkXlXlXjXjXjXjXkXkXkXkXlXlXjXlXjXjXjXjXjXjXjXlXkXjXjXjXzX{.1XKXvXkXcXcXzXkXzXzXzXzXzXjXzXzXLX~.-.~ ! E Y T j j j f f a p $ a a p a f j F R E O.;.r.t.t.y.y.y.y.G.T.}.{.[.[.[.[.[.[.[.[.].[.[.[.[.[.[.[.].(.].].].].[.].(.[.].[.[.[.[.[.].].].P.m.t.3.3.G F 3.3.3.6.5X<X<X<X5X4X1X1XrXrXgXtXrXtXtXtXtXtXxX+Xu.e.q.s p j x x x T T E E ~ &.5.P.{..X2X2X.X.X2X2X.X.X.X}.}.I.Z.S.y.&.U |.mXkXrXrXrXrXrXrXrXfXfXrXfXrXrXfXeX2XrXrXrX2XeXrX}.I.E.R.F.y.&.( Y.fXhX3X3X3X3X3X3XeXrX2X.X.X.X.X.X}.}.}.E.<.e.q.q.! T T j f f p + + + 6 F O.;.5.K. XlX2X[.[.].].(.`.].[.`.(.(.`.(.(.l.P.2X[.[.].].[.].].].[.].].].].].].].E.B.m.G.G.y.y.t.J N j.jXkX3XeXeXeXeXeX.X2XeX2X2X3X3X2X2X2X2X2X2X X XtX}.( l.cXlX3X3X3X2X3XeXeX X3X3X3X2X.X.X2X2X2X.X.XwX.X.X.X.XtX~.Z.r.e.e.q.R q.! R T x a t t t t $ + O O + + + + + + = = - - + + + + X O O @ $ 7 : : : $ $ $ + l 7 o @ @ $ + . o e c { ] ] { { e 4 o + + @ ",
"F P F F F F F g f 6 - 6 6 : : : p : : 6 l ;.R.!.Q.1XpXiXuXiXiXiXiXiXiXiXyXyXyXyXyXyXyXyXyXiXpXxXxXxXpXpXxXxXxXpXpXpXpXpXpXuXiX1X|.|.W.^.R.;.t.^.G.G.S.D.F.I.T.4XmXkXlXlXlXjXjXjXkXzXkXkXlXlXlXlXlXlXlXjXjXjXjXjXkXjXjXjXjXzX).rXKXvXmXmXmXcXkXkXzXzXzXzXjXzXbXcXR.-.~ ! T T Y f f f f f a p $ a a a f f j F R O.;.;.3.4.y.y.y.y.u.m.T.}. X[.[.[.[.[.[.[.].].[.].[.[.[.].].].(.[.[.].[.[.(.].].].[.[.[.[.[.].].].P.m.5.3.3.R C 3.4.4.4.6.7.<Xb.c.c.|.yXrXtXjXgXrXtXtXtXtXgXxX+Xi.e.! > p f x Y x T T E E E ) <.L.{..X2X.X.X2X2X X.X.X.X}.}.I.S.S.y.-.U ].nXzXrXrXrXrXrXeXrXfXfXfXfXrXfXfXrX2XrXrXrXeX3XeX}.P.E.E.F.S.*.U A.rXkX3X3X3X3X3XeXeXeX.X.X.X.X.X}.}.}.}.E.<.e.q.q.! T T j s f p + + + 6 F O.o.5.K. XlX X[.[.).].`.`.].[.`.(.(.(.(.].g.B.eX[.[.[.[.[.[.].[.[.[.].].].].(.].~.D.B.G.m.y.u.t.I m 5.rXcXfX3XeXeXeX3X.X2XeX3X2X3X3X2X2X3X2X2X.X.X XrXyX%.%.jXzX3X3XeX3X3XeXeX X3XeX3X3X.X.X2X2X2X.X2X.X.X.X.X.XtX+XZ.y.e.e.e.! q.q.R T x f : t t i i p t $ O O . + + + + = - + + + . . + + : i 7 : : : : : : $ : @ - @ @ $ $ $ + O 3 c { { ] { { r o @ @ @ @ ",
"F F P F H F F F j f ; 0 f 6 : t t : : 7 f O.p.~.Q.yXpXiXuXuXuXiXiXiXiXyXyXyXyXyXyXyXyXyXyXuXxXvXxXxXpXpXxXvXlXpXxXpXpXpXpXuXyX1X|.|.W.^.p.X.p.R.G.G.G.F.I.T.T.rXmXkXkXlXlXjXjXjXkXzXkXkXkXlXlXlXlXjXjXjXjXjXjXlXkXlXjXjXjXzXK.vXKXkXmXmXmXcXlXzXzXmXmXzXxXcXLXxXZ.;.~ ! T T Y f f f f f a t : f a a f f j F R O.;.;.3.t.t.y.y.y.t.m.].2X X[.[.[.[.[.[.[.].].[.].].].[.[.[.].(.].].].[.].(.].].].[.[.].[.[.[.[.[.].B.4.3.r.E C ;.4.4.4.@.6.yX4X{.2XyXyXyXuXuXtXtXtXtXtXtXtXxX+Xi.e.R > f j x Y x T T E E ~ ) <.L.{..X2X2X.X.X.X.X.X.X.X}.}.I.S.Z.y.-.U I.nXzXfXrXrXrXeXeXrXrXfXfXrXrXrXrXrXwXrXrXrXrX3XrXwX~.E.E.F.S.-.U j.wXkX3X3X3X3X3X3XrX3X.X.X.X.X.X}.}.{.}.E.<.e.q.q.! T T j s s p @ + + 6 F O.&.6.K. XlX X[.[.].].`.`.].[.(.(.(.(.(.].B.g.eX{.[.[.].[.[.].[.[.[.].].].].P.].].D.B.G.G.m.u.t.&.m <.wXcXfX3XeXeXeXeX2X.XeXeX2X2X3X.X2X3X2X2X.X2X{.2XtX,.( rXcX3X3XeXeX3X3XeX.X X3X2X2X3X.X.X2XwX2X.X2X2X.X}..XtX@XS.Z.e.e.e.! ! q.R T T x t t t t p a p p i : @ + . . X + = + . . + + : p p p p p t i : : : : $ $ 7 7 @ : $ : $ @ o 3 { { { { { 4 o @ $ @ @ ",
"F F X.X.P F F F l f 6 Y l 6 6 6 : : $ 7 f F t.!.Q.yXpXuXuXuXuXiXiXiXyXiXyXyXyXyXyXyXyXyXyXuXxXxXxXxXpXxXvXvXpXpXxXxXpXpXpXuXyX1X|.|.~.W.p.m y.R.G.G.D.F.I.T._.jXmXkXkXlXlXlXjXlXkXzXkXkXkXjXlXlXlXjXjXjXlXjXkXzXkXjXlXlXzXjXK.KXnXkXzXmXmXcXkXzXzXzXmXjXxXcXcXyXi.;.~ ! T T x f f f f a a t t f p a a f j F R O.;.-.3.4.t.y.y.t.4.m.[.2X{.[.[.{.[.[.[.].].].[.].].].[.].].(.(.(.`.].].].(.].].].[.[.].].[.[.[.[.].A.5.3.3.E w ;.4.4.3.$.G.yXlX3X3X4XyXiXuXuXtXtXtXtXtXpXxXxX+Xi.e.R > f j Y Y x T T E E ~ ) <.L.[..X2X2X.X.X.X2X.X.X.X}.}.I.S.S.y.-.U A.nXzXfXrXrXeXeXeXrXfXfXrXrXrXrXrXrX2XeXrXrXrX3XrXwX~.E.E.F.S.t.U ,.2XcX3X3X3X3X3X3XrX3X2X2X.X.X.X.X}.}.}.E.<.e.q.O.! T T j s s p @ + + p F O.o.j.K. XlX X[.[.[.[.].`.[.[.(.(.(.(.(.].H.,..X.X[.[.[.[.[.].[.[.[.].].].].(.].].L.B.m.m.m.u.t.;.m $.2XcXfX3X3X3XeXeX2X.XeX3X2X2X3X2X.X2X2X2X.X2X X2XtXB.' }.cX3X3X3XeX3X3XrX3X2X3X3X3X3X.X.X2XwX.X.X2X2X.X.X.XwXqXZ.p.e.e.e.! ! q.R T T x p t p p p p a a a a p 7 : @ + X X + @ : i p p p p p p p p p i : : : : : : p - : : : : : @ % e { { { e 4 @ @ $ @ 3 ",
"F F F O.O.F F F F g 0 O.l 0 6 6 : : $ i s l 3.!.~.4XpXiXiXpXuXiXiXiXyXiXyXyXyXyXyXyXyXiXiXuXxXvXvXvXpXxXvXxXpXpXxXxXpXpXiXiXyX1X1X|.~.^.p.+.p.F.G.G.S.F.F.T.[.lXmXkXlXjXjXkXlXlXzXkXkXkXlXjXjXlXjXkXjXjXlXlXlXkXkXlXjXjXzX3X_.KXnXcXmXmXmXzXzXzXvXzXcXtXxXcXLX+Xe.;.~ ! T Y x f f f f a p t i f a a f f l F E O.;.-.3.t.t.y.y.4.<.m.1X2X{.[.[.[.[.[.[.[.].].[.[.].].].].].(.(.].].].].].(.].].].[.[.[.].].].].].~.A.5.4.-.o.n 3.p.4.3.4.F.4XpXrXyXyXrXrXuXjXtXtXtXuXuXjXxXxX+Xe.e.T > f j T x Y T T E E ~ ~ <.L.}..X.X.X.X.X2X2X.X.X.X}.}.E.S.S.y.<.U m.bXcXfXrXrXrXrX3XeXrXfXrXrXfXrXfXfXeXeXrXrXrX3XeXwX].E.E.D.R.t.U #.}.nXfX3X3X3X3X3XrX3X2X.X.X.X.X.X}.}.}.Q.e.r.e.O.! T T j f f y : + + p F O.o.j.K. XlX X_.[.).[.(.).[.[.(.`.`.`.(.].P.,.}.2X[.[.[.[.[.[.].[.[.[.`.].[.`.].].I.B.B.m.m.y.t.-.m #.{.mXhX3X3X3X3X3X3X.X3X3X2X.X3X2X.X3X3X3X.X2X X.XtXH.' ].nXeX3X3X3XeX3XrX3X2X3X3X3X2X.X.X2X2X2X2X2X2X}.}..XwXyXZ.p.e.q.e.q.! q.R Y Y x a t p a a y a a f f z f f f s p 6 s s s a f f f f p p p p p p p 7 i 7 : : s > : : : : : : @ @ e { c 3 3 @ @ @ @ e ",
"F F F P O.P P F F l w O.F f 6 6 : $ : i p H 4.!.1X4XpXpXpXuXuXiXiXiXiXiXqXyXyXyXyXyXiXiXiXpXxXvXvXxXpXvXvXxXpXpXlXxXxXuXiXyXyX1X1X~.~.R.t.=.S.G.G.G.S.F.T.T.1XlXmXkXlXlXjXjXkXkXzXkXkXkXlXhXjXlXlXlXhXjXjXlXlXlXlXlXlXlXmX1X4XKXmXzXmXmXmXzXzXzXvXvXzXrXzXbXxXR.-._ ~ E R T x f f f f a p $ a z a a f f l T E O.;.r.r.t.t.y.u.4.=.D.wX.X{.{.[.[.[.[.[.[.].[.[.].].].].].].(.(.].].].].`.(.(.].[.[.[.].].].].].].~.A.6.3.r.o.n ;.S.4.=.4.c.iXvXrXrXrXrXrXjXjXtXtXtXpXuXjXxXxX+Xe.e.A > f j T Y Y T T E E ~ &.<.L.}..X.X.X.X.X2X2X2X.X.X}.}.E.S.S.Z.<.U m.nXmXfXrXrXrXrXeXeXrXfXfXrXrXrXfXfXeXeXrXrXrXeXeXrX}.E.E.F.R.u.I @.}.nXfX3X3X3X3X3XfX3X2X.X.X.X X.X}.}.}.Q.e.e.e.O.! T T x f f y : + + s F E X.m.K. XlX X[.[.).].(.(.[.[.(.`.`.`.`.].`.,.].wX[.[.[.[.[.[.[.[.[.[.[.].[.].].].E.B.B.Z.m.m.t.t.N ( ).mXlX3X3X3X3X3X3X X3XeX3X X3X3X.X.X3X.X.X2X2X XtXP.' P.nXrX3XeX3X3XeXrX3X2X3X3X3X2X2X.X.X2X2X2X2X2X.X}..XwXtXR.p.i.e.e.q.! q.R Y Y Y f t p a a a a a f f x x l Y O.R F F l l j f j f f f f s s p p p p p p 6 6 p s : : : 6 : : 7 7 3 e 7 @ @ $ @ 3 o r ",
"+.Y F F P P P F F l g q.P g s p : $ : 6 l ;.S.Q.1XyXiXpXpXiXuXiXiXiXiXiXiXyXyXiXiXyXiXiXiXpXpXvXvXvXvXvXvXxXxXxXxXxXpXuXiXyX0X1X1X|.~.S.3.t.S.G.G.G.F.F.I.T.1XxXvXkXlXjXjXlXlXkXzXzXkXkXlXjXlXkXkXkXjXjXjXkXkXkXlXlXlXkXmX).lXKXcXcXmXmXnXzXvXvXvXbXzXjXzXbXxXm.-._ ~ E T T j s f f f a p : f z a f f f l T E O.;.r.r.t.t.t.t.<.<.E.rX.X{.[.[.[.[.[.[.[.].[.].].].].].].].(.(.].].].].(.(.].`.[.].].].].].].].].].L.5.4.-.O.n o.S.p.6.6.c.pXbXrXrXrXrXuXjXjXtXuXtXuXuXjXjXxX+Xr.q.A > f j T A Y T T E E ~ ) <.L.}..X2X.X X.X2X2X2X.X.X.X}.E.D.S.Z.<.U m.cXcXfXrXrXeXeXeXrXrXfXfXrXrXfXfXfXrXeXrXrXrXeX3XrX0XE.E.F.R.y.@.( ~.vXfX3X3X3X3X3XfX3X2X2X.X2X.X.X}.}.}.Q.<.;.e.O.! T T j f f p : + - s F E X.m.K. XlX2X{.[._.[.].`.[.[.].`.`.`.`.].].,.K.eX[.[.[.[.[.[.[.[.[.[.[.].[.[.`.].~.A.A.m.S.m.y.t.J ( P.cXkX3X3X3X3XeX3X.X3XeX3X X3X3X X.X.X2X.X.X2X{.rX[.( H.vXfX3X3XeXeX3XrXeX2X3X3X3X3X.X.X2X2X2X.X2X2X2X}..X.XtXE.u.p.e.e.e.! q.q.R Y x f : t p a a a a a f z j T R e.e.O.O.O.R F F F F F l g j j f f s s s s s 6 p f p : 6 6 y y 7 7 7 5 7 @ 3 @ @ @ 0 l ",
"+.+.F F F P P G F l g O.P g f p $ : 7 l =.S.1X1X1XyXiXpXpXiXuXiXiXiXiXqXiXiXyXiXiXuXiXiXuXpXxXvXvXvXvXvXxXxXpXvXvXlXuXpXiXiX0X1X0X~.W.p.;.p.F.c.G.F.F.F.I.T.4XvXzXlXkXjXlXzXlXzXzXkXkXkXlXlXjXkXkXkXjXlXlXkXkXkXkXlXkXzXzX).mXKXzXcXmXmXnXzXvXvXvXnXjXjXcXbXyX1.-._ ~ E T T j s f f a p i : z z a f f f j T E O.;.3.r.t.t.t.t.=.6.|.rX X{.[.[.[.[.[.[.[.].].].].].`.].].(.(.`.].].].].`.(.].(.].].`.`.].].`.].].].I.6.<.3.;.n P p.S.G.6.c.pXbXrXrXrXrXuXjXuXtXtXtXpXuXjXxXxX+Xr.q.d > f j T A Y T T E E ~ &.5.P.}..X2X.X.X2X2X2X.X.X.X}.}.E.S.S.Z.<.U B.zXmXhXrXrXeXeXrXrXrXfXfXfXrXfXfXfXrX3XrXrXrXrX3XrX@XE.E.D.R.Z.@.B I.vXhX3X3X3X3X3XrX3X2X.X.X2X.X.X}.}.}.Q.<.;.e.O.! R T x f f p $ + : s F G P m.K. XlX X{.[.[.[.].].[.[.].(.`.`.).].|.g.h.rX{.[.[.[.[.[.[.[.[.[.[.].].].].].].A.B.m.m.m.y.t.I U H.zXkXrX3XrX3X3X3X.X2XeX3X X3X3X.X.X2X2X2X.X2X{.wX2X` B.cXfX3X3XeX3X3XrXrX2X2X3X3X3X3X.X2X2X2X2X2X2X2X}..X.XwX~.u.p.e.e.e.O.q.q.R Y x f : t p a a a a a a f j T T O.r.r.r.r.;.O.O.O.O.O.O.R R P F F F A j g g g 0 f p > 6 > p p 6 6 X.F 8 7 7 3 3 @ l O.",
"+.+.+.H F P P F F l F O.P l f p : - 0 o.S.1X4X1X1X1XiXpXpXuXiXiXiXiXiXyXiXiXyXiXiXiXiXiXpXpXxXvXxXxXvXvXxXxXxXvXxXlXpXpXiXyXyX1X0X~.^.t.3.S.S.F.G.A.F.T.T.T.4XmXzXlXjXlXkXzXkXzXzXkXzXkXlXlXjXlXkXlXjXkXlXkXkXkXlXlXlXzXjX).KXnXzXmXmXmXvXzXvXvXvXvXjXlXzXbX+X<.;.~ ! T T T j s a a p p p $ x x a f f j T R E O.;.-.3.4.t.t.4.<.5.1XrX X{.{.[.[.[.[.[.[.].[.].].].].].].(.(.`.(.].].`.(.`.`.`.].].].].].].].].].].P.m.4.3.;.C J F.p.6.c.A.lXbXrXrXrXuXjXlXjXtXtXpXxXxXxXxXxXOXr.! s y f j T j Y T T E E ~ &.5.P.}..X2X.X.X2X2X2X2X2X.X}.}.E.D.S.Z.<.( A.zXmXhXrXrXrXrXrXrXrXrXfXfXrXfXfXfXfXeXrXrXrXrXeXrXwX~.E.L.R.S.=.B A.cXhX3X3X3X3X3XrX3X2X2X.X.X.X.X}.}.}.Q.t.;.e.O.! R T x f f p $ O : s F G P G.K. XlX2X{.[.].[.].].[.[.).(.].].].].}.B.l.eX{._.[.[.[.[.[.].[.[.[.[.[.[.].].].L.A.S.m.m.y.t.I B j.kXcXfX3X3X3XeX3X2X.XeX3X.X3X3X2X.X2X2X3X.X3X.X.XwX$.l.zXhX3XrXrX3X3XrXeX3X3X3X3X2X3X2X2X3X2X2X2X2X2X}..X.XwX@Xu.p.e.e.e.q.O.q.R Y Y z t t p a a a a f a a f x T E ;.r.t.t.t.t.r.3.3.r.3.;.O.O.O.o.o.E E P P G F F g 6 > > > > 6 0 o.r.O.w 8 7 7 @ 8 O.",
"a.a.8.H F l F F F l F 3.H g f p - 6 P t.1XiXiX4X1XiXiXpXpXiXiXuXpXiXyXiXiXiXiXiXuXyXiXuXpXxXvXvXvXvXvXvXxXxXvXvXvXxXxXpXiXyX1X1X~.W.^.3.6.S.F.F.A.A.F.T.T.T.rXmXkXlXlXkXzXzXzXzXzXzXzXkXjXjXlXkXkXkXlXkXlXkXkXkXlXlXlXcXfX_.KXmXcXmXmXnXmXzXvXzXmXnXjXzXcXcXE.-.;.~ ! E T T j s p a p p p $ x x a f f j T R E ;.-.3.3.4.t.t.4.=.j.yX3X X{.[.[.[.[.[.[.[.].[.].].].`.`.].(.`.(.(.`.`.(.(.(.(.`.].`.].`.].].].].].].E.m.4.3.;.J C p.4.$.c.Y.pXbXrXuXrXuXlXlXjXtXuXtXpXxXxXxXxXR.;.! s y f j T A T T T E ~ ~ *.m.`.}.2X.X2X.X2X2X2X2X2X.X.X}.E.D.S.Z.<.@.h.zXmXjXrXrXeXeXeXrXeXrXfXfXfXfXrXfXfX2XeXrXrXrX3XrXwX].I.I.D.S.<.U m.zXlX3X3X3X3X3XrX3X2X2X.X2X.X.X}.}.}.~.u.;.q.O.! R T x s s p $ O 7 p l G o.A.v. XlX2X[.[.[.[.[.`.[.[.).(.].].).).[.H.x.wX.X[.[.[.[.[.[.[.[.[.[.[.[.[.].].|.P.A.G.Z.m.y.u.&.B l.jXmXhX3X3X3XeX3X3X.XeX3X2X.X3X2X2X3X3X2X.X2X2X{.tX%.,.zXjXrXrXrXrX3XrXeX3X3X3X3X3X2X.X2X2X3X2X2X2X2X2X.X.XwXwXZ.p.u.e.e.e.! q.R Y Y z t t i a a a a a a a f f T R O.;.-.3.t.t.3.3.t.3.t.r.r.3.3.;.;.;.;.;.o.o.o.o.J w 0 6 6 > 6 0 ;.p.t.O.H 8 8 6 - 7 ",
"3.r.X.l l l l F F F F O.F g f p - g ;.^.4XiXiX1XT.pXpXiXpXiXiXpXpXiXiXiXiXiXiXiXiXiXuXuXpXxXvXvXvXvXvXxXxXpXvXvXvXpXuXiXyXyX0X1X~.^.^.9.6.F.F.F.A.A.F.T.T._.lXmXkXlXkXkXzXzXkXvXzXkXzXkXlXlXlXkXkXlXlXkXkXkXkXzXlXlXzXnX2X3XKXmXcXmXmXnXvXzXvXzXzXzXjXzXcXxXZ.-.;.~ ! T T T j s p p y p p $ x x a f f j F T ~ ;.-.3.t.4.t.t.4.=.A.tX2X X{.[.[.[.[._.[.].`.].].(.`.`.`.(.(.`.(.`.].(.(.(.(.(.].].`.`.`.`.].].`.].].~.G.4.3.;.G w t.=.6.G.Y.pXbXuXuXuXuXlXlXjXuXjXgXxXxXxXxXpXZ.~ T > y f j A A T T T E ~ ~ *.B.]..X2X3X2X2X2X2X2X.X.X.X.X}.E.D.S.m.<./ h.xXmXjXrXrXrXrXeXrXrXrXfXgXrXrXrXfXrXeX2XrXrXrX3XrXwX|.I.I.D.D.4.U g.xXkX3X3X3X3X3XrXeX2X2X.X2X.X.X}.}.}.~.u.;.q.O.! R T x f f p @ + 7 p F G o.A.v.oXlX2X{.[.[.[.[.].[.{.].(.`.].).).[.P.%.}..X_.[.[.[.[.[.[.].[.[.[.[.[.].).].E.A.A.m.m.y.y.&.B 1.rXnXhX3X3X3XrX3X2X3XeXeX3X X3X2X2X3X3X2X2X2X2X}.tXl.%.jXlXeXrXeXrX3XrXfX3X3X3X3X3X3X2X2X2X2X2X2X2XwX2X.X.X}.wXR.u.p.r.e.e.q.q.R Y T f t $ t a a a a f f f f f l R O.;.;.-.-.r.3.p.S.4.t.t.t.4.4.4.3.-.-.-.-.-.-.-.P X.G 0 0 6 0 w =.p.4.3.3.X.w 6 - - ",
"7 7 0 l g g f l F F F O.P g f p - F 3.Q.yXiXiXT.T.iXpXpXpXpXpXiXiXiXpXiXiXiXiXiXiXuXpXpXxXvXvXvXvXvXvXxXxXvXvXxXpXuXiXyXyXyX1X~.T.<XsX9Xb.b.Y.^.A.A.^.T.T._.kXcXlXkXkXzXzXkXjXmXzXzXzXkXjXlXlXkXkXjXjXkXkXkXzXkXlXlXzXmX{.kXKXvXmXmXmXmXzXzXzXvXnXzXjXzXzXtXu.-.;.~ ! T T T j s p p p a i $ x x f f f j T R O.;.;.3.t.4.4.t.-.=.T.tX2X X X[.[.[._._.[.].`.].].(.`.`.`.`.(.(.(.(.].(.(.(.(.(.].`.`.`.`.`.].`.`.`.].E.D.4.3.;.P w ;.X.4.G.Y.lXJXuXjXjXjXlXlXjXuXjXgXxXpXxXxXaXr.~ T > y f j A A A T T E ~ ~ <.L.}.2X2X3X3X2X2X2X2X.X.X.X}.}.~.D.S.m.<.( j.lXmXhXrXrXrXrX3XrXrXrXfXgXfXfXfXrXrXeX2XrXrXrX3XrXrX}.E.E.D.D.u.U <.jXkX3X3X3X3X3XeXeX.X.X.X2X.X.X}.}.}.~.u.;.e.q.! R Y x f f p @ @ 7 p F G ;.A.v._.lX3X[.[.[.[.[.].[.[.].].].].].].[.(.%.].wX[.[.[.[.[.[.[.[.[.[.[.[.[.].].].].A.A.m.m.m.u.-.B %.rXmXhXfX3X3XrX3X2X3X3X3X3X X3X2X2X3X2X2X.X2X2X}.rXB.%.fXkX3XeXrXrX3XrXfX3X3X3X3X2X3X3X2X2X3X2X2X2XwX2X.X.X.XwX~.u.p.e.e.e.q.! ! Y Y f p $ t i a a a a f f z z j T E ;.;.-.-.3.3.t.p.p.t.y.y.4.y.4.4.4.4.3.4.4.4.3.@.3.;.F w 0 w X.t.4.6.p.4.3.P 0 6 7 ",
"7 7 f f j f f f g l F O.J g f 6 6 P p.1X4X4X1XT.T.iXpXpXpXpXpXuXiXiXiXiXiXiXiXiXiXpXpXpXvXbXvXvXvXxXvXxXvXvXvXxXpXiXyXqXqX0XQ.T.^.sX9X8X9X9.b.b.b.c.b.T.T.{.vXkXlXkXkXkXzXlXkXvXkXzXzXlXlXlXkXkXkXjXlXkXkXkXzXkXkXzXzXzX_.mXKXvXmXcXmXmXzXzXzXbXnXlXzXzXcX0Xe.-.;.~ ! T T T j f y p p a a # x x p f f j T R O.O.r.3.4.4.t.r.=.<.{.rX X{.[.[.[.[.].].].`.].].].`.`.`.(.(.(.(.(.(.(.(.(.(.(.(.`.`.P.P.E.`.`.].`.].].~.I.5.4.;.P g P J 4.F.T.lXKXlXjXjXjXjXxXjXjXuXpXxXpXpXLX+X~ ! j : p f j T A Y T T ! ~ &.5.P.}.2X2X2X2X2X2X2X2X2X.X.X.X}.~.D.D.m.*./ h.jXmXhXfXrXrXrXeXrXrXrXfXfXfXfXfXrXrXrX3XfXfXrXrXrXtX}.E.E.D.D.y.U #.uXkX3X3X3X3X3XeXeX2X.X.X2X2X.X}.}.}.|.Z.;.e.! ! R x x j f p + O 7 p l G =.A.v._.lX3X[.[.[.[.[.).[.{.[.].(.].].].[.(.%.P.wX[.[.[.[.[.[.[.[.[.[.].].[.].].].|.A.A.m.m.y.t.-.U %.wXnXhXrX3X3XrXeX3X3X3X3XeX X3X3X2X3X2X2X.X2X2X{.eXP.%.rXzXfXrXrXrX3XrXrXrX2X2X3X3X2X2X2X2X3X3X2X2X2X2X.X.X.XwX|.u.p.i.e.e.q.! ! Y Y f a $ t t p p a f f f z z z T R O.;.;.r.r.-.;.3.t.t.y.y.y.6.6.4.4.4.4.5.5.y.=.=.4.3.X.F n J ;.^.^.6.4.-.E G F 0 6 ",
"s p p p f f f s s j F O.F w f 6 6 X.S.1X4X5XT.T.Q.yXpXpXpXpXpXuXuXpXpXiXuXiXiXiXuXuXuXxXvXbXbXvXvXxXvXvXvXvXvXpXpXiXyXyX0X1X1X<X*X<X9X8X8X9X<X<X<X*Xb.T.T.2XvXlXjXkXkXvXzXkXvXvXkXzXkXlXlXlXkXkXkXlXkXkXkXkXzXkXzXzXkXkX2XKXnXvXcXcXnXnXzXbXzXnXvXjXvXzXcX~.<.-.;.~ ! T T T j s : p a a i # x x a f f j T R O.;.r.r.4.4.t.r.&.5.rX3X X X X[.[.[.].].].].].].(.(.P.(.(.(.(.(.(.(.(.(.(.(.(.(.`.`.P.P.P.`.`.].].].].~.E.m.4.;.E g < V t.F._.kXKXlXjXjXjXjXjXjXjXxXxXxXpXxXaXu.~ T p : p s j T Y Y T T E ~ *.m.]..X3X3X3X3X3X2X3X2X.X.X.X.X}.~.D.S.y.-./ j.jXmXjXfXrXrXrXrXrXrXrXrXfXfXfXfXfXfXrX2XeXfXfXrXeXtX@XE.E.D.D.Z./ ( yXmX3X3X3X3X3XrXeX2X.X.X2X2X.X}.}.}.+XZ.;.e.q.! R Y x j f a + + 7 s l F 4.A.v._.lX3X[.[.[.[.[.].[.[.[.].(.].].].[.].%.H.eX[.[.[.[.[.[.[.[.[.[.[.[.[.[.].].|.I.A.G.m.y.u.-.U #.2XnXlXrX3X3XrX3X3X3X3X3X3X.X.X3X2X2X2X2X2X.X3X.XwX].%.2XcXhXrXrXfXrX3XrXrX3X2X3X3X3X2X2X2X3X2X2X2X2X2X.X.X.XwX0Xm.y.p.e.q.q.q.! Y Y f a $ t t y p a f f f f f z x R O.;.;.3.r.t.3.3.3.3.4.y.m.y.6.y.4.5.6.6.6.y.$.4.6.4.-.P J U 6.W.Q.6.$.&.P H P l 6 ",
"s p p 6 7 7 5 8 t a l O.F w f p 0 X.W.4X1X1XT.T.1XyXvXiXpXpXpXiXiXiXuXuXuXiXuXpXpXpXuXpXxXvXvXxXpXxXvXvXvXvXpXpXiXyXyX0X1XT.iXmX9X9X*X-X9X9X-X*X*X,X<X5XT.4XcXhXlXlXkXmXzXkXvXzXkXcXzXlXjXlXkXkXkXlXkXlXlXkXkXlXzXzXzXjX3XKXnXvXmXnXnXzXzXzXnXzXxXzXcXcXxXE.-.;.;.~ ! T T T j p : a a a i # x x a f f l T R O.;.r.3.4.t.t.-.@.m.tX3X X X X[.[.[.].].[.].].].(.P.P.P.(.(.K.P.P.P.P.(.(.(.(.(.(.(.P.P.P.E.`.].].).].].~.G.4.;.E C < n 6.Y.1XvXnXlXjXjXjXlXxXjXjXxXxXxXxXaXZ.~ E F : : p f j T Y Y T T E ;.-.B.}.2X3X3X3X3X3X2X2X.X.X2X.X}.}.~.D.S.Z.*./ j.jXmXlXfXrXrXrXeXrXrXrXrXfXfXfXfXfXfXrX3XeXfXfXeXrXtXwXE.E.L.D.S.&.( 1XmXrX3X3X3X3XeXrX2X2X.X.X2X.X}.}.}.+XD.;.;.q.! R T x j f p + @ 6 s l P S.c.v._.lX3X[.[.[.[.[.].[.[.].[.[.[.].].[.].,.h.eX[.[.[.[.[.[.[.[.[.[.[.[.[.].].].|.E.A.S.m.m.y.t.U $.}.nXhXrX3X3XrXrX3X3X3X3X3X.X X3X3X3X2X2X3X2X2X.X2X}.%.[.cXhXrXrXfXrX3XrXrX3X3X3X3X3X3X3X2X3X2X2X2X2X2X.X.X{.}.yXZ.u.p.e.e.e.! ! R Y f a t $ t y p a f f f f f f j T ! ;.3.-.-.t.t.t.3.3.3.4.S.S.G.m.y.6.6.6.j.6.<.m.6.4.4.;.U $.^.1XT.6.6.=.$.U H F 0 ",
"5 5 5 o 5 +.+.r 5 * 0 O.F g g f 0 o.W.1X1XT.T.Q.Q.1XpXiXpXpXpXpXiXiXiXiXiXiXuXpXpXpXpXlXxXxXpXpXxXvXvXxXxXpXuXpXiXqXyX1X~.W.T.<Xb.9.0.*X,X,X,X,X-X-X9X5XT.4XkXhXlXlXkXmXkXkXvXzXkXzXzXlXlXlXkXkXlXlXlXlXkXzXkXkXzXzXzXhXjXKXmXvXnXnXnXzXzXnXzXrXxXzXzXcXpXZ.-.;.~ ~ E T T Y j f y a f a i # x x a f f j T E o.;.e.-.4.t.t.-.@.~.jX.X{.{.{.[.[.[.].].].].].].P.P.P.P.P.P.P.P.(.P.E.E.P.`.P.(.(.(.(.P.P.`.].`.].].].].E.D.u.;.E F 0 8 6.T.4XcXnXlXjXjXjXlXzXxXxXxXxXLXaX<.L K T j , : p s j T A A T E ~ &.<.L.}.2X3X3X3X3X3X3X2X.X2X.X X}.}.~.D.D.m.*./ j.jXmXlXfXfXfXrXeXrXrXrXrXfXfXrXfXfXfXrXeXeXfXrXrXrXtXwX].E.L.D.S.*.B ].nXfX3X3X3X3XeXrX3X2X.X2X2X.X}.}.}.@XR.-.~ q.! R T x j f p + @ 6 s l P R.c.v._.lX3X{.[.[.[.[.[.[.[.[.}.[.].].].[.].g.,.wX{.[.[.[.[.[.[.[.[.[.[.[.[.[.].].}.~.A.D.m.m.u.t.U ( {.nXlXrX3X3X3XrX3X3X3X3XeX2X X3X3X2X2X3X2X2X2X2X.X.X%.(.cXhXfXfXfXrX3XrXrX3X3X3X3X3X3X3X3X2X3X2X2X2X3X2X}..X}.tXR.t.p.r.e.e.q.! R Y f a v # t t y a f h z f z x x Y R O.e.r.r.3.t.p.u.t.t.3.4.S.D.G.G.m.j.G.G.6.5.m.m.5.5.4.@.6.1X1Xc.6.6.6.6.=.H P l ",
"9.9.8.9.9.9.#X9.9.0. . .w w l 0 l 3.!.1XT.T.T.1XT.1XvXiXiXpXpXpXpXuXuXiXiXiXuXpXpXuXpXvXvXpXpXpXxXvXxXxXuXuXiXiXqXyX0X0X~.~.T.F.F.7.*X9X,X,X8X8X*X*X*X5XT.4XlXhXkXkXmXmXkXzXmXzXkXzXcXlXlXkXkXkXkXkXlXkXkXzXkXkXzXzXzXhXvXKXvXnXbXnXnXzXzXbXjXlXlXcXzXcXyXu.e.e.~ ~ E T T T j s y f f a t # z x a f f x T R O.;.;.-.4.4.r.&.#.1XfX X X[.[.[.[.[.].].`.`.(.`.P.P.P.E.].].|.].E.E.E.E.E.E.E.`.(.(.P.P.P.`.].`.].].].].E.I.y.3.O.F s 8 =.Y.4XnXKXvXxXlXlXxXxXxXxXxXLX+X=.J K S T s + y s f j T A A T E O.*.5.E.wX3X3X3X3X3X3X3X3X.X2X2X.X.X}.~.D.D.Z.*./ j.jXmXkXfXfXfXfXrXrXrXrXrXfXfXfXfXfXfXfXeX2XfXfXrXeXrXeX].E.L.D.Z.=.B L.nXfX3X3X3X3XeXrX2X.X.X2X2X.X}.}.}.@XE.-.~ O.! R T x j f p + @ 6 f F O.S.c.v.).lX3X{.[.[.[.[.[.[.{.}.[.[.].].[.[.[.B.%.wX.X[.[.[.[.[.[.[.[.[.[.].].].[.].}.|.A.D.m.m.y.4./ ( [.nXlXrX3X3XrXeX3X3X3X3X3XeX{.3X3X2X2X2X2X.X3X2X}.wX,.K.cXlXfXrXfXfX3XrXrX3XeX3X3X3X3X2X.X2X2X2X2X2X2X.X}..X{.tX~.t.i.i.e.e.q.! R Y f a t # t t y p a h h f j z x x T O.e.r.t.t.t.p.p.p.p.t.4.4.G.F.F.G.G.G.A.1.G.m.m.5.5.4.$.A.yXT.c.A.c.c.c.6.;.P P ",
"BXBXBXsXBXZXZXZXZXZX9X<X0. .r 7 w 3.^.T.T.T.T.1XY.1XvXpXiXpXpXpXpXpXpXiXiXiXpXpXpXpXpXvXxXpXuXpXxXxXxXpXuXuXiXiXyXyX0X0X!.!.!.^.R.b.<X8X-X8X8X8X9.0.0.b.T.rXhXhXlXvXnXkXkXzXcXkXzXzXkXlXlXlXkXlXkXkXkXkXkXkXkXkXzXzXvXhXnXbXvXnXnXnXnXlXzXxXbXvXlXmXbXLX+X<.e.e.O.~ E T T T j s p f f a t # a f f f f x T E O.O.;.r.4.t.-.@.1.tXrX X X[.[.[.[.].].(.].P.P.].P.P.`.E.|.L.m.1.<.%.<.5.g.L.~.~.].(.(.P.(.`.].(.).).].].~.I.m.r.o.G g ; @.Y.4XbXKXvXxXxXxXxXcXxXpX+XR.*.J Z S A A y + p p j A T A A T E &.<.B.}.eX3X3X3X3X3X3X2X3X.X.X.X.X.X}.].F.D.S.*.( g.jXmXkXfXfXfXfXrXrXrXrXrXrXfXfXfXfXfXrXrX2XrXfXrXeXrXrX].E.I.D.D.<.B j.vXfX3X3X3X3XeXrX3X2X.X2X2X.X.X}.}.@XQ.e.~ O.! R Y x x f p + + 6 f F o.y.j.v.).lX3X{.[.[.[.[.[.{.[.[.[.[.].].].[.[.L.%.}..X[.[.[.[.[.[.[.[.[.[.].[.].].].[.|.L.m.m.m.y.t./ ( ].nXlXrX3X3XrXeXeX3X3X3X3XeX X3X3X3X3X2X2X2X2X2X{.wXl.v.zXkX3XfXfXrX3XrXfX3X3X3X3X3X3X2X2X2X2X2X2X.X2X.X}..X{.yX+Xu.i.i.e.e.q.! Y Y f a i # t t i p p a s 7 7 7 0 e w V X.=.=.4.p.p.p.p.p.p.p.4.4.p.F.A.G.A.A.j.A.G.m.6.6.6.7.T.1Xc.c.c.A.A.c.G.=.X.P ",
"6X6X6X6X6X6XBXBXBXVXVXZXZXsX<X9. .7.Y.T.A.F.T.T.A.1XvXpXpXpXpXpXpXpXuXiXiXuXpXpXuXpXxXxXpXpXpXpXxXxXpXuXiXiXiXyXyXyX1X1X+X~.W.W.E.c.*X<X-X*X,X*XsXsX9X<X1XhXjXjXkXmXmXkXzXmXcXzXzXcXkXjXlXlXlXlXlXlXkXkXzXzXkXkXzXzXzXlXnXbXnXnXnXnXnXlXxXbXJXbXnXJXJXJXE.<.r.;.~ ! E T T j j p p f f a t # p a a f j T T E o.O.;.r.4.r.-./ A.jX3X{.{.[.[.].].].`.].(.J.P.].P.E.].E.5.#./ #.#.#.#.#.#.*.g.~.].].].P.`.`.`.].).).].).].I.y.t.o.P g < U A.[.zXKXbXbXcXcXxXtX~.u.#.I J J Z S A j : $ p p j A T A F T ~ &.5.L.}.eX3X3X3X3X3X3X3X.X.X2X.X.X.X}.].I.D.G.=.( g.tXmXlXfXfXfXrXrXrXrXrXrXrXfXfXrXfXfXfXrXwXeXfXfXrXrXtX}.E.I.D.D.t.B 1.zXlX3X3X3X3XeXeXeXwX2X2X2X2X.X}.}.@X|.u.~ q.! R Y x x f a + @ p f F o.;.A.v.).hXfX X{.[.[.[.[.{.{.}.[.].[.).].[.[.P.%.[.3X[.[.[.[.[.[.[.[.[.[.[.[.[.].[.].}.I.m.m.m.m.u./ ( ).KXlXrX3X3XrXeXeX3X3X3X3X3X X.XeX3X3X3X2X2X.X2X{.rXH.l.lXcXfXrXfXrX3XrXfX3X2XeX3X3X3X2X2X3X2X2X2X2X2X2X.X2X.XwXyXy.i.i.i.e.q.! T T f a p # $ t t p 7 5 r  .8.9.a.a.%X%X%X%X9.9.6.6.p.a.a.p.p.p.p.4.p.F.A.A.c.c.A.G.6.6.6.6.c.5XY.Y.T.T.G.6.6.4.4.X.H ",
"6X6X6X6X6XAXAXAXAXNXBXBXBXBXBXsXdXb.9.b.c.A.T.A.A.T.vXpXpXvXvXpXpXpXiXiXiXpXpXpXuXpXpXpXuXuXuXpXxXpXuXuXuXiXiXyXyX0X1X1X~.~.W.^.F.F.b.<X9.0. .7.b.<X5X<X5XlXkXkXvXbXvXkXzXnXmXzXzXcXlXlXkXlXlXzXlXkXkXkXzXzXkXzXzXvXzXkXKXnXnXnXnXbXnXjXbXJXJXLXJXLXLXaXu.<.-.;.~ E E T T l j p p f f a t # p p p f f l T R O.o.;.3.r.r.;.@.|.jX.X X[.[.[.].].].`.`.`.P.P.E.P.P.L.l.1.m.D.R.E.R.D.S.u.<.*.5.].[.].].].].(.(.).].].].T.I.y.t.;.P g 8 M y.A.[.vXbXpX0X~.m.<.( / L K K Z A C A s = : p s j A T A F E O.-.m.P.wXeX3X3X3X3X3X3X3X2X.X.X2X.X.X.X].F.D.G.=.( g.tXmXlXfXfXfXrXrXeXrXrXrXrXfXfXrXrXrXfXrXwXwXfXrXrXrXrX}.E.E.D.D.u.U %.jXlX3X3XeX3XeXeXeXwX2X2X2X.X.X}.}.@X|.y.~ O.! R Y x x z a + @ 6 f F o.;.A.v.).hXfX X X[.[.[.].{.{.[.[.[.].].].[.[.E.%.P.eX[.[.[.[.[.{.[.[.[.[.[.].].[.[.].}.P.m.m.m.y.t.#.( P.nXkXfXeX3XeXrXeX3X3X3X3XeX.X XeX3X3X2X3X2X2X2X{.wX).x.jXcXfXfXrXrX3XrXrX3X2X3X3X3X3X2X2X3X2X2X2X.X2X2X.X2X{..XtXZ.u.t.i.r.q.! T Y z a a v $ t : @ e 8.<X7X7X7X7X7X7X7X7X7X<X<X<X9.9.p.^.^.^.^.^.p.6.6.6.F.c.F.F.c.6.6.4.6.T.1XY.A.6.6.7.@.X.X.X.+. .",
"=X=X7X7X7X6X6XAXAXAXBXBXBXBXBXBXZXsX7X*X9.6.G.G.A.A.pXpXpXvXbXvXpXiXiXiXpXpXpXiXuXpXpXuXuXuXuXpXpXpXuXuXiXyXyXyX0X0X1X1X~.~.W.^.F.F.6.6.9.9.0.+.7.$.7.T.4XkXkXzXnXmXzXkXzXnXzXzXzXcXlXjXlXlXkXzXkXkXkXkXzXzXzXzXzXzXkXmXnXbXbXbXbXbXlXvXJXJXJXJXpXD.u.m.t.r.;.;.! E T T T j x a p f a a t # p p a f j T T R O.O.;.-.r.r.&.<.yXrX X{.[.[.[.].].].`.`.`.P.E.E.P.L.H.I.].|.].].~.~.~.E.E.D.5.<.5.~.}.[.].(.(.(.(.].].].~.E.m.4.;.E F 0 8 3.j.l.v.T.1.$.( ( U U U J J S S A A g 0 + : p s j A F A T E ;.<.B.].eXeX3X3X3X3X3X3X2X2X.X2X2X.X.X.X].L.D.G.=.U 1.rXnXkXrXfXfXfXfXrXrXrXrXrXfXgXrXrXfXfXfXeXeXrXrXeXrXgX}.P.E.R.D.y.U #.tXlX3X3XeXeXeXeXrXeX.X.X.X.X.X.X}.@X+XZ.;.O.! ! R x x z a + @ 6 g F X.6.c.v.(.hXlX2X{.{.[.[.].[.[.[.[.[.].].].[.[.`.%.H.wX{._.[.}.[.}.[.[.[.[.[.[.[.[.[.].}.E.B.B.m.m.5.#.( P.nXlXfXrX3X3XrXeX3X3X3XrXrX2X{.rX3X3X2X2X2X.X2X{.2X{.x.eXnXfXfXfXfXfXfXfXrX3X3X3X3X3X3X3X2X2X2X2X.X2X2X.X.X{.}.pXE.u.e.i.e.q.O.T T z a a v # O 7 8.<X7X7X7X=X=X=X=X=X=X=X=X=X=X=X<X<X#X9.<X^.^.^.a.9.9.9.9.*X*X*X9.7.7.7.6.1XF.=.@.X. . . .0.9.#X<X<X",
"<X<X7X7X7X6X6X6X6X6XAXAXAXBXBXBXBXBXsXsXdXb.7.6.c.c.yXpXiXvXvXvXpXpXiXiXpXuXuXiXuXpXuXiXuXpXpXpXpXuXuXiXiXyXyXyXyX0X1X1X~.W.W.F.R.G.6.7.<X<X5X9.X.@.7.T.4XhXlXvXbXzXzXzXmXcXzXcXzXzXlXkXzXlXkXzXlXkXkXzXzXzXzXzXcXzXzXnXbXmXbXbXbXbXvXJXJXJXxXE.<./ / @.-.-.e.~ ! R R T T j x f a f a a v # p p a f f x R R O.O.;.3.r.-.X.G.xX2X X X{.[.[.].(.(.`.`.E.P.P.P.P.E.}.}.].].].].].].].].E.E.m.5.$.5.].].].(.`.(.(.`.].].].~.G.t.;.E F 0 < X.6.x.x.l.%.( U U U B J N Z Z C C g d > + y p s j F F A T ~ -.u.L.{.rXrXeX3X3X3X3X3X3X.X2X2X2X.X.X.X|.I.D.G.<.U 1.rXmXkXhXfXfXfXrXeXrXfXfXfXfXgXfXfXrXfXfXrXeXrXfXrXeXfX2XT.E.R.D.Z./ ( yXzX3X3XeXeXeXeXrXeX2X3X.X.X@X.X}.@X@XR.;.O.O.! R x x f a + @ 6 g G o.6.j.v.(.fXlX2X{.{.[.[.].}.[.[.}.[.[.[.(.[.[.].,.h.wX{.[.[.[.[.[.[.[.[.[.[.[.[.[.[.].}.|.A.m.m.m.5.#.' Y.nXcXfX3XrX3X3XrXeX3X3X3XrX3X{.rXrX3X2X2X.X.X2X{.}.yXl. XnXhXrXfXrXfXfXfXrX3X3X3X3X3X2X3X3X2X2X2X.X.X2X.X.X.X}.pX~.u.t.r.r.e.O.R x z a s o 4 +.<X7X7X7X7X7X=X=X=X=X7X=X=X=X=X:X#X#X=X<X<X*X<X<X<X<X#Xa.9.9.#X*X*X*X*X*X*X<X9. . . .0.0.#X<X7X7X7X7X7X",
"[ [  ...8.8.#X&X7X7X7X6X6XAXAXAXAXBXBXBXsXsX<X9.7.6.T.~.W.qXvXvXvXiXpXpXuXiXiXiXuXuXuXuXuXpXpXpXpXuXiXiXyXyXyXyXyX0X1X~.~.W.W.F.p.9.6.0.b.9X9Xb.X.@.6._.rXhXhXnXnXvXvXzXmXzXzXzXzXzXjXkXzXzXzXzXkXkXkXzXzXzXcXnXcXzXzXbXbXnXbXbXJXbXJXJXxXE.<.( ( ( U I &.;.;.~ ! E R T T j x a f f a i t # p p p f f x R R O.O.;.3.r.;.@.|.xX2X X{.[.[.[.].(.(.`.`.P.P.P.].].}.{.[.[.].].].].].].].~.E.D.m.4.#.B.].].].(.(.`.`.].].].~.A.4.-.o.G g < U 6.l.,.l.1.( U J J N Z Z Z C C d d s = + y p s j F F F T ~ t.m.P.2XrX3X3X3X3X3X3X3X3X2X2X2X2X.X X2X|.I.D.S.4.U 6.rXnXkXfXfXfXfXrXrXrXrXrXfXfXjXfXfXrXfXfXrX3XrXfXrX3XfX2X~.E.E.D.Z.) B 1XcX3X3XeXeXeXrXrXeXwX2X2X2X@X.X}.@X@XR.r.~ O.! R x x f a @ @ 6 g P o.=.c.v.K.3XkX2X{.{.[.[.].[.[.[.}.[.].[.].[.[.|.l.l.wX.X[.[.[.[.}.}.[.[.[.[.[.[.[.[.].].|.L.m.G.m.y.=.( H.nXcX3XrXrX3X3XrXeX3X3X3X3XrX{.3XrX3X3X2X.X.X2X.X].tXl.).nXlXrXrX3XrXrXfXfX3X3X3X3X3X2X2X3X2X2X2X.X.X2X}.2X.X{.tXqXy.u.r.i.e.O.R x x p 7 [ #X9X9X7X7X7X=X=X;X;X6X6X6X;X=X=X=X=X:X:X=X*X=X=X*X*X*X#X#X#X9.9.#X#X#X#X#X<X#X=X#X .0.#X#X7X7X7X=X=X=X=X7X",
"4 5 5 r r [ [  .+.8.9.#X&X7X7X7XBX6X6X9X9XsXsX9X<X7.6.6.j.G.T.qXpXpXpXpXpXuXiXuXrXiXiXuXpXuXuXuXuXuXiXiXiXyXyXyXyX0X1X~.Q.W.R.F.^.<X9.9.0.*X<X0.0.7.c.1XrXhXnXKXmXnXmXcXmXzXzXcXcXzXjXkXkXzXzXkXkXzXkXzXzXzXnXnXzXzXvXnXbXbXbXbXJXJXLX|.1.( ( ( U U J U I ~ ~ ~ ! T T T A j x f f f a a t $ p p p f f x T R O.O.;.3.-.&.<.tXrX X X{.[.[.].].(.(.E.E.P.P.].{.}.{.{.].].].].].).).P.P.P.E.E.m.5.<.<.L.|.].].`.`.`.].[.].].D.4.-.o.G g ; n 6.1.,.1.1.( B N J Z Z Z C C d d s 6 + + > p f j F F G E &.y.L.].eXrX3X3X3X3X3X3X3X3X3X2X2X2X.X X.X|.E.D.G.4.U <.yXnXkXfXfXfXfXrXfXrXrXrXrXfXgXgXfXfXrXfXfXeXrXfXrX3XfXeX~.E.E.D.S.&.B ].zXrX3XeXeXeXeXrXeX2X3X2X2X.X}.}.}.@XE.t.E O.R R x x z f @ @ 6 g P o.6.c.v.K.4XkX3X X{.[.}.[.[.[.[.[.[.].[.].[.[.}.g.,.wX.X[.[.[.[.[.}.[.[.[.[.[.[.[.[.[.].|.I.B.G.m.y.=.( c.mXcX3XrXrX3XrXeXeX3X3X3XeXrX{.2XrX3X2X.X3X2X2X2XP.tXH.v.cXlXrXfX3X3XfXfXfX3X3X2X3X3X2X2X3X2X2X3X.X.X2X}.2X.X{.yXyXm.y.r.r.r.q.R F l 5 8.7X7X6X6X;X-X=X=X;X;X6X6X6X6X6X6X6X6X6X7X=X=X:X:X#X#X#X#X#X#X#X#X#X#X#X#X$X#X#X#X$X$X$X#X#X&X:X:X=X=X=X=X=X7X",
"3 3 - 7 7 e w l  . . . . . .+.8.9.#X<X7X7X7X9X9X9X<X9.6.6.j.1.6.A.1XiXpXpXuXpXxXpXrXrXuXiXiXuXuXuXuXuXiXiXiXyXyXqX0X~.~.Q.W.F.F.T.<Xb.*X9.9.b.9.*Xb.v.4XrXlXKXnXnXnXmXzXmXzXzXzXcXkXjXkXzXzXzXzXzXzXzXzXzXmXnXmXkXvXnXKXbXbXbXnXJXLXH.( ( ( U U U J J K K ~ ~ ~ E T T T j j f a f f a a t $ i p a f j x T R E o.;.r.-./ A.xX3X.X.X{.[.].`.`.(.P.E.P.P.].}.}.].].[.[.}.2XyXyX1X[.).P.P.P.I.D.m.4.*.5.~.|.].`.].`.(.[.].].I.y.-.o.P g 0 w 4.1.,.1.l.#.B N Z Z Z Z C C d d s > + + y p s j T A G E -.m.E.{.rXrX3X3X3X3X3X3X3XeX2X2X2X2X.X.X2X}.E.D.G.5.( %.wXnXkXrXfXfXfXfXrXrXrXrXfXfXfXfXrXrXfXrXrXeXrXfXrX3XfXrX~.E.E.D.S.-.N E.zXrX3XeXeXeXrXrXeX2X2X.X.X.X}.}.}.@XE.i.E ! R R x x x f $ @ 6 l P ;.6.j.v.K. XkX3X X X.X}.}.}.[.[.[.[.[.[.].[.{.}.B.%.wX.X[.[.[.[.[.}.}.}.[.[.[.[.[.[.[.].}.E.B.G.m.u.=.( j.cXmXfXfX3X3X3XeXeXeXrX3XeXrX X XrXeX2X2X.X2X2X2XK.rX).z.zXcXrXfX3X3XrXfXfX3X3X3X3X3X2X3X2X2X2X2X2X.X2X}..X.X{.wXpXD.y.r.r.e.q.E l r 8.7X7X7X7X7X=X;X6X6X6X6X6X6X6X6X7X7X*X$X:X=X7X=X=X:X=X=X=X#X#X#X#X#X#X$X#X#X$X$X$X$X$X#X#X=X=X:X:X:X&X=X=X7X7X7X",
"@ 3 7 7 8 7 w  .+.+.+.+.+.V  .X. . . .0.9.9.%X<X<XdX<X7.6.6.1.1.6.j.A.T.[.0XpXvXxXpXpXuXuXuXpXpXuXuXuXuXuXuXyXyX0X|.~.W.W.^.F.G.F.<Xb.T.<X*X<X<X*Xb._.3XrXvXKXnXnXmXzXcXmXcXcXzXcXkXkXkXzXzXzXzXzXzXzXmXvXmXnXvXzXmXbXKXbXbXJXJXxXL.( ( ( U U J J J N N J K ~ E E T T T T j f a f f a i t $ i p p f j x T R E o.;.;.;.@.[.jX X X.X[.[.].].].`.`.P.(.].}.}.].{.[.{.2XuXxXxXxXxXpXyX}.(.P.I.D.m.y.4.=.D.|.].`.].`.`.].].].I.y.-.o.P F 0 8 ;.1.,.,.l.%.B Z Z n C C C d d s s : + $ y p f j F A G ~ 4.L.].}.rXrXrXeX3X3X3X3XeX3X.X2X2X2X.X.X2X}.E.D.D.5./ %.2XnXkXrXfXfXfXfXfXrXrXrXfXfXfXfXfXrXrXrXrXeXrXfXrXrXrXgX].E.E.D.D.<.N I.cXrX3XeXeXeXrXrXeXeX3X3X2X@X}.}..X@X~.y.~ ! R R x f z f @ @ 6 l P X.=.j.H.K._.lX3X X X[.[.[.[.[.[.}.[.[.[.].[.[.}.H.%.}..X[.[.[.[.[.}.[.[.[.[.[.[.[.[.[.].}.~.A.G.m.y.<.( l.lXmXfXrXrXrXrXeXrXrX3X3X3XrX2X{.rX3X2X2X.X.X2X2XP.2X2Xz.lXcXrXfXrX3XrXfXfXrX2X3X3X3X3X3X3X2X2X2X2X.X2X}.2X2X{.}.xXE.y.t.-.r.e.E V a.7X7X7X7X7X7X6X7X7X<X7X7X<X<X#X9.9.....*X6X7X7X=X=X7X=X=X=X=X=X=X=X=X=X=X7X7X7X7X7X7X=X=X=X=X7X=X=X=X=X7X7X7X7X7X",
" .5 4 7 8 8 H +.X.=.;.=.=.H P o.$.X.X.$.X.X.+.7.7.6.c.6.$.6.6.6.6.6.6.c.c.c.~.yXpXxXxXpXxXuXpXpXuXiXiXrXuXiXiXyX|.~.~.W.W.F.S.G.p.^.^.9.9.9.9.<Xb.c.5XrXlXnXbXnXnXnXzXmXmXmXcXcXcXkXkXzXzXzXlXlXzXzXzXzXvXvXnXvXzXnXnXKXJXJXJX}.,.( ( U U J J J N N N Z J K K E E T T T j j f a z f a i t $ p p p f j x T T E o.o.;.&.<.yX3X X.X{.[.[.`.`.].`.`.P.].}.}.].].].{.4XjXjXyXwXwXwXwXwXrX2X].P.A.m.m.t.=.<.~.].].`.`.P.].].].I.m.-.&.E F 0 8 X.1.,.%.l.%.U N Z C C C d d d s p : + : 6 p j j F G G ;.m.E.|.2XfX3XrX3X3X3X3X3X3X3X2X.X2X2X2X X2X}.E.D.D.u.( %.2XnXkXhXfXfXfXfXrXrXfXrXrXfXfXgXfXrXrXfXfXeX3XfXrXrXrXjX}.E.E.F.D.e.N B.zXfX3XeXeXeXrXrXeXeX3X3X2XwX@X}..X@X~.y.O.R ! R x f f f $ @ 6 l P &.=.j.A.Y._.hX3X X X[.[.}.}.[.[.[.[.].}.[.[.[.[.L.%.}.wX[.[.[.[.[.}.}.}.[.[.[.[.[.[.[.].].].A.G.m.y.<.( %.hXnXfXfXrX3XrXeXfXfX3X3X3XrX2X{.rXeX2X2X2X.X2X2X].{.rXz.rXmXfXfXeX3XrXfXfXrX3X3X3X3X3X3X3X2X2X3X3X.X2X1X.X2X X{.xX|.Z.u.-.r.e.O.a.7X<X<X7X7X<X#X8.+. ...a.9.8.+. . .[ 5 #X6X;X=X=X7X=X7X7X=X=X=X=X6X7X:X=X=X=X=X7X6X6X6X6X7X7X7X=X=X7X7X7X7X7X=X=X7X",
"#X8.[ 5 7 0 0 w V +.X.X.X.V V U I X.X.X.@.@.=.$.@.6.A.6.$.=.=.6.6.6.6.6.j.l.j.j.F.1XyXiXpXxXxXxXpXuXuXpXiXiXyX1X~.~.W.W.W.S.S.G.6.7.9.6. . .7.9. .7.2XhXvXKXbXmXnXnXzXmXmXmXcXcXmXjXkXzXzXzXjXzXzXzXzXzXmXmXnXvXmXnXbXJXJXJX].%.( ( U U J N J J Z Z Z Z Z J G K E T T T A j f a z f a t t : p p p f j x T T E o.O.;.&.m.yX2X X.X[.[.`.`.`.`.`.`.).{.}.].].].(.}.jXrX2X.X}.}.P.P.].}.wX2X].H.m.y.t.4.#.A.|.].`.`.P.`.].].P.m.4.&.O.F 0 ; U 6.,.%.l.,.U Z Z C C D d d s s 6 : + : 6 p j A T G K -.D.].}.2XfXrXrX3X3X3X3X3X3X3X3X.X2X2X2X.X.X}.E.D.A.u.( %.}.nXkXfXfXfXfXfXfXrXfXrXrXfXfXgXfXrXrXfXrXrX3XrXrXrXrXgX}.E.E.I.F.t.N B.lXrX3XeXeXeXeXrXeXeX2X3XeX@X.X}..X@X+Xy.e.T R R x f f f $ @ 6 F P &.=.6.A.Y.).hXfX{.{.[.[.[.[.[.[.[.[.[.}.[.].[.[.P.%.].eX{.[.].[.].[.}.[.[.[.[.[.[.[.[.].].|.D.m.m.y.4.( %.3XnXlXrXrXrXrXrXeXrX3X3XeX3X3X{.3XeX3X2X2X2X2XeX{.P.tXv.2XnXfXfXrX3XrXrXjXrX2X2X2XeX3X3X3X2X2X3XeX2X2X2X.X2X X{.tXyXZ.u.r.r.e.r.<X9.%X%X9.+.r 5 5 5 5 5 r 5 5 4 o * o r 7X6X;X;X6X6X6X7X=X;X6X6X6X=X=X=X=X=X=X=X=X=X7X=X7X6X7X=X=X=X=X=X7X7X7X=X=X=X",
":X=X<X..5 8 7 0 8 0 w H  .V w V J U U U X.X.@.@.X.6.A.j.$.#.;.=.$.$.=.=.<.6.j.j.1.j.c.I.1XpXpXuXuXuXxXvXpXyX0X|.~.W.W.W.R.S.G.6.9.9.<X9.V 9.9.V V 6.yXhXbXnXvXnXnXvXvXmXnXvXmXvXmXhXkXzXzXzXjXzXzXzXzXmXvXmXbXvXbXKXbXKXJXI.$.( U U U J J N Z Z Z Z Z C Z Z J K T T G F A j f p z z a i v $ p p s f j j T R R E O.&.@.D.wX X{.[.[.].(.].`.`.].].).2X{.].].(.).wX4X{.{.2X}.].A.L.].].].{.}.I.A.m.u.4.=.5.|.|.`.].E.(.[.].P.A.4.o.o.G g ; n =.%.%.,.1.U Z Z C C d d d 0 6 > = + : > s j A T G K 4.I.}.2XrXfXrXeXeXeX3X2XeX2X2X2X2X2X2X.X.X.X}.E.I.D.y.@.#.}.nXkXfXfXfXfXfXfXfXfXrXrXfXfXfXfXrXrXfXrXrX3XrXrXrX3XgXwXE.E.E.D.u.N g.zXfX3X3XeXeXeXrXeX2X2X2XeX2X.X.X}.}.+XZ.r.T ! R x z f a $ @ 6 F P &.=.5.A.H.).hXfX{.{.[.[.[.[.[.[.[.[.[.}.[.].[.[.E.%.H.eX{.[.].[.[.[.[.{.[.[.[.[.[.[.[.].].}.I.m.m.m.4.( $..XnXlXrXrX3X3X3X3XfX3X3XeXeXrX{.2XeX3X2X2X2X2X2X.XH.rXK.{.mXhXfXrX3X3XfXjXfX3X3X3X3X2X3XeX2X2X3X3X2X.X2X.X2X X{.rXpXB.y.r.e.;.o.+.+.r.l o   o o - 8 8 7 * * o o - - o 0.8X6X;X;X;X;X-X6X6X6X6X6X-X6X6X=X6X6X=X=X;X6X6X6X6X=X;X=X=X=X=X=X=X7X6X7X7X=X",
"6X=X=X7X .5 7 7 6 0 6 0 l F 8 w n J H H U P X.X.X.$.j.6.$.@.@.;.$.$.$.$.@.=.j.6.6.1.1.6.6.I.Q.[.[.|.uXuX0X|.~.~.W.W.R.F.S.F.c.b.<X<X<X .+.9.+.V B A.yXkXnXbXvXnXnXvXnXnXmXvXvXnXmXhXzXzXzXzXzXcXzXzXzXzXvXmXmXvXbXJXJXJXI.( ( B J J N N N Z Z Z Z Z Z C Z Z Z G G G G F A j j f z f a i $ t p p s f j j T T R E O.o.@.E.2X.X[.[.[.].(.(.`.`.].].{.}.].P.P.P.{.rX X{.{.{.{.P.H.E.].`.P.P.P.I.A.m.5.<.<.*.~.}.].].].`.[.].T.D.4.&.o.G g 0 w =.<.%.,.,./ N Z C C g d s 0 6 : + + : > s j A T G I y.~.1X2XrXfXrXrXeXeX3X3XeX3X2X2X2X2X2X2X.X.X}.E.D.D.y.#.$.}.nXkXfXfXfXrXfXfXfXrXrXrXrXrXfXfXfXrXfXrXrX3XrXrXeX3XgXwX~.E.E.E.m.B 5.xXfX3X3XeXeXeXrXeXeX3XeXwX.X.X.X}.}.@XS.r.! T R x x f f : @ > l P X.$.1.j.H.).3XhX X{.{.[.[.{.[.[.[.[.[.}.}.].[.[.].%.h.tX}.[.[.[.[.[.{.[.[.[.[.[.[.[.[.].].|.E.G.G.m.5.#.( ].mXlXrXrXrX3X3X3XfXrX3X3XrXrX.X.XrX3X2X2X2X2X2XwXz.wX{._.mXlXfXrX3XrXrXfXfX3X3X3X3X3X3XeXeX3X2X2X2X.X2X2X2X.X{.2XxXE.u.r.e.;.X.H H 8     o o @ - - - - - - - - - o 4 <X6X6X6X6X6X;X6X6XNX8X;X6X6X6X6X-X6XNX;X;X6X6X6X6X6X;X=X6X6X7X=X=X=X=X7X6X6X7X",
"6X6X6X7X7X .r 7 8 6 6 0 g F 6 6 q C F J H U U U U @.6.1.<.@.@.@.@.$.@.@.#.U #.5.1.6.6.1.%.%.%.j.A.|.iX1XQ.~.~.~.W.E.F.S.G.9.b.b.<X<X9.+.+.+.H F X.Q.rXmXnXvXnXnXnXmXmXnXnXmXmXmXnXjXzXzXcXzXcXcXvXmXmXvXvXbXbXvXKXLXxXI.( U U N N N N Z Z Z Z C C C n n C C C C A G F A j j f p z z a t v t i p s f j x T R R E O.o.&.E.2X{._.[.[.].`.`.(.(.].].}.}.P.I.L.H.}.wX{.{.{.{.{.P.P.].].(.P.P.P.I.B.m.5.<.4.*.A.@X].].`.P.].[.~.D.4.&.o.P g 0 8 ;.<.%.%.,.#.N C C g g d 0 0 6 : + + : p s j A T G &.D.[.wXrXjXhXrXeXeX3X2X3X3X2X2X2X2X2X2X.X.X.X}.~.I.D.m.*.$.].nXcXfXfXfXfXfXfXrXrXrXrXfXfXfXfXfXrXrXfXrX3XeXrXfX3XrXtX].E.E.E.B.B <.jXrX3X3XeXeXeXrXeX3X3XeXwXwX.X.X}.@XqXS.r.! T R x f z z : @ : l P X.$.6.j.v.K.3XhX X{.[.[.[.{.[.[.[.[.[.}.}.[.[.[.].1.l.eX}.[.[.[.[.[.{.}.[.[.[.[.[.[.[.[.].|.~.D.G.m.u.#.( K.cXkXrX3XfXrXrXrXfXrX3X3XeXrX2X{.rXeX3X3X2X2X3XeXz.{.2X).cXkXrXrXrXrXrXfXjX3X2X3X3X3X3XeXeX2X2X3X2X.X}.{.2X.X}.{.xX|.y.t.r.e.E F f - o . . + @ - - - - - - - - - o 5 7X8X6X6X6X6X6XNXNXNX6X6X8X6X6X6X6X6XBX6X6X6X;X;X;X6X7X7X6X6X6X6X6X7X=X=X7X7X6X",
"&X7X7X7X7X%X[ ] 5 7 7 6 6 l 6 - 0 0 g C F J H U U X.6.1.<.@.@.X.@.@.@.@.;.@.B U 6.6.6.<.%.%.,.%.%.g.I.I.~.~.W.W.W.W.E.S.y.F.<X<X9.7. . . . .H J =.1XjXnXnXvXvXmXmXmXnXmXmXmXmXnXnXjXzXzXcXcXnXcXmXmXnXnXnXKXbXbXcX|.g.$.B B N N N Z Z Z Z C C C n n n b n n C C C A A A j j f a z f a t v v i p f f f x T R R E O.E &.~.}._.).[.[.(.`.`.(.(.].[.}.P.B.B.B.h.}.{.[.{.{.{.{.].].].(.(.J.J.H.L.B.B.5.4.4.=.5.0X{.].`.].[.[.].D.y.&.o.P g 0 8 &.<.<.%.<.@.J Z C g d d 0 6 > - + + : p s j A G K <.I.|.yXrXjXhXrXeXeXeX2X3X2X2X2X3X2X2X2X.X.X.X}.].I.D.m.*.( ].nXkXfXrXfXfXfXfXrXrXrXrXrXfXfXfXfXrXrXfXrX3XrXfXfX3XrXtX].~.E.E.D.U <.xXfX3X3XeXeXeXeXrXeX3XeXwXwX.X.X}.@XqXR.r.q.T R x f z f : @ : g P o.$.6.j.c.K.2XjX2X{.{.[.[.[.[.}.[.[.[.}.}.[.[.{.}.g.%.rX.X{.[.[.[.[.{.}.[.[.[.[.[.[.[.[.].|.].D.D.G.y.*.' h.kXkXrX3XfXfXrXfXfXrX3X3XrXrX3X{.eXeX3X3X3X3X2XrXH.P.rX).lXkXrXrXrXrXrXfXgX3X2X2X3X3X3X3X3XeX2X3X3X.X.X{.2X.X{.{.tX0Xm.t.e.q.! F f : + O O O + - - - - - - - @ @ o r 7XBX6XGX6X6XNXNXNX;X6XBX8X8X8X8XNX6XNXNX6XAX6X;X;X6X6X6X6X=X;X6X6X6X=X=X=X7X6X",
"[ [ [ 8.8.%X8.[ [ e 7 3 - f 6 - > 0 f g F F H U H U 6.4.=.@.X.X.I @.@.@.=.=.$.B B <.<.<.%.%.,.,.,.<.<.5.j.m.m.I.W.W.W.D.t.$.7.7. . .X.V r  .H V G.4XkXnXbXvXvXvXmXmXnXnXmXnXnXnXmXhXzXmXzXzXmXmXnXnXnXnXnXKXJXxXA.$.( ( N N N m m Z Z n C C C D b b n C q q q D C A A A j j f a z f a t t t p p f f j x T T R E O.E *.~.{._._.[.].(.(.`.(.].].{.{.H.h.j.5.j.].{.[.{.{.{.{.{.{.].(.P.J.P.P.L.B.m.j.4.4.=.4.}.[.].].`.[.[.].D.y.;.o.P F s 8 X.6.%.$.$.@.J C C g d 0 0 > > - + + : p s j A G ~ y.P.{.rXjXjXfXrXeXeXeXeX2X2X.X2XeX2X2X2X.X.X}.1X~.I.D.m.<.( P.nXcXhXfXfXfXfXrXrXrXrXrXfXfXfXfXrXrXrXfXrX3XeXfXfXeXeXgX}.E.E.E.D.U :.jXfXeX3X3XeXeXeXrXeXeXeXwXwX.X.X.X}.yXE.r.q.T R x f z z : @ : g P X.;.6.j.H.K.{.jX2X{.[.[.[.{.{.[.}.[.[.}.}.[.[.[.}.B.%.wX.X{.[.[.[.[.}.}.[.}.[.[.[.[.[.[.].}.|.I.D.G.y.<.' l.hXcXhX3XfXfXrXfXfXrX3X3XrX3XrX{.3XrX3X3X3X3X2XrXK.v.rX{.hXkXrXrXrX3XrXfXgXeX2X3X3X3XeXeXeX2X2X2X2X}.2X{.3X.X{.{.wXyXS.i.e.e.E F s : # O O O + - - - - - - - - - X 5 7XBXNX;XNXNXNXNX6X6XNXBXBX8XNX8X6X6X6XNX6XNXGX6X6X6X6X6X6X=X=X6X6X6X6X=X=X7X7X",
"[ ] { ] [ [ [ [ } } { e 5 7 6 = - > 6 0 g F F J H U =.=.=.X.I X.I X.X.X.;.3.4.=.B B <.<.,.%.<.<.%.%.<.<.<.<.6.1.6.A.E.F.S.3.B V V =.X.V  .V V X.Y.4XbXKXvXvXvXvXvXnXnXnXvXnXnXnXvXhXzXmXmXmXmXnXnXnXbXbXLXPXtX1.( B B B N M m m n n n n C b b C q q q q q d d d g C A j j j f a z z a t t t p p s f j j T T R E O.P *.|.{.).(.[.].(.`.`.(.(.[.{.].A.m.5.,.m.].].[.[.[.].).].].).(.P.J.P.L.L.m.m.m.5.4.=.<.|.}.].E.(.[.[.].L.y.;.X.P F s ; P 6.$.$.#.@.J n b d q 0 6 > : + + , : p s j G G &.A.T.{.rXjXjXfXrXrXeXeX3X2X3X2X2XeXeX2X.X2X.X}.}.|.I.D.D.<.( I.nXmXhXfXfXfXfXfXrXrXrXrXfXfXfXfXrXrXrXfXfXeX3XfXfXeX3XgX}.~.E.E.E.( #.gXfXeXeXeXeXeXeXrXeXeXeXeX2X.X.X.X}.yX~.r.e.T R x f z f i @ : f P o.&.<.j.A.K.{.hX3X{.[.[.[.[.{.[.[.[.[.[..X[.[.[.}.L.$.}.2X{.[.[.[.[.{.}.}.[.[.].].[.[.].].|.|.I.D.S.y.<.' %.rXmXhX3XfXfXrXrXfXfX3X3X3X3XeX X2XrX3X3X2X2X3XrX).l.rX2XfXcXfXrX3X3XrXrXgXrX3X3X3X3XeX3X3X2X2X3XeX2X}.{.2X.X.X}.2XpXR.t.r.;.E F s : $ O & . X o - - - - - = - - X 5 7XBX6XNXCXVXNX8X8XBXNXBXBXNXNXNXNXNX6XBXNX6XGXAX6X6X6X6X6X6X=X7X6X6X6X6X=X=X7X",
"] ] { ] ] [ [ } } } } { { e 7 @ - - 6 0 0 w C F F J @.=.*.X.I I I X.X.X.@.=.6.6.&.M #.<.,.%.<.<.<.#.#.<.%.<.<.<.<.<.1.5.y.y.=.U B X.+.X.+.X.U 4.T.rXnXnXvXbXbXmXnXnXnXnXnXnXnXnXmXjXvXnXbXcXcXnXLXLXLXxXtX|.%.B B N N N m m m n n n n b b q q q q q q q q q q q d g g j j f f a z f a a t t i p f f f j T T T R O.P -.|.[.(.(.].].(.(.(.(.).[.{.].B.j.5.<.g.].].].].].(.(.).].P.P.J.H.H.L.B.m.m.m.4.-.-.=.|.}.].`.`.[.[.].I.m.=.X.E F f ; J =.#.@.@.@.J n b d 0 0 > > - + + : : p s A G P 4.L.P.{.rXjXkXfXrXeXeXeX2X3X3X2X2X2XeX2X2X2X.X}.}.|.I.A.D.4.( A.nXmXhXfXfXfXfXfXrXrXrXrXfXfXfXfXfXrXrXfXfXrX3XrXfXeX3XrX2X].E.E.E./ #.tXfXeXeX3XeXeX2XrXeX2X2XeX2X.X.X.X}.wX~.r.e.R T R f f f t @ : f P o.;.=.j.A.K._.jXrX{.[.[.[.[.{.[.[.[.[.[..X].].[.].E.%.].eX{.[.[.[.[.{..X}.[.[.].].[.[.[.].}.}.E.D.S.y.5.( ` {.cXlXfXfXrXfXrXrXfX3XrX3XeX3X.X2XrX3X3X3X3X3X3X Xl.2X2X3XcXhXfXrX3XrXrXfXrX3X3X3XeXeX3X3X2X2X3XeX2X2X{.2X.X X}.}.pXW.t.r.e.! l p : $ O & . . + - - - - = = + - X 5 7XBXNXVXVXVXBX6X8XVXBXNXBXBXNXBXNXBXNXBXBXNXNXNXAX6X6X7X6X7X7X6X6X6X6X6X6X=X7X",
"] ] ] ] ] ] ] { [ } { { } { e o @ - - 6 0 w w F F m U @.@.I U U I I I X.@.=.<.6.=.B U <.%.%.%.<.<.#.#.#.%.<.<.:.*.<.%.$.$.=.=.@.X.V V +.+.X.I 6.[.lXnXnXnXbXbXbXbXbXbXnXbXbXnXnXzXtXcXnXLXLXLXxXtX|.L.,.( B B B m m m m n n b n n n q q 8 q q q q q q q q q q q q g g j j f a a z z a i v : p p s f f x T T T R ! K <.|.[.(.`.].].(.(.(.].).[.[.P.h.j.5.4.5.I.].(.(.(.P.P.P.P.P.K.Y.P.L.B.j.m.m.m.4.-.=.=.|.}.].`.(.[.{.].L.m.=.X.E F f 8 n =.@.( @./ J n q d 0 0 > : : + + : p p g A G ~ y.I.).{.rXjXlXfXrXeXeXeX2X3X2X.X2XeXeXeX2X.X.X}.}.}.I.I.D.5.( h.nXnXhXfXfXfXfXfXrXrXrXrXfXfXfXfXfXrXrXfXrXrX3XfXfXeX3XrXwX].E.E.E.#.#.tXgXeX3X3XeXeX2XrXeX2XeXeX2X.X.X.X}.yXOXe.e.! T T j f f i @ : f P X.&.=.6.H.K._.fXrX X[.[.[.[.{.[.[.[.[.[..X[.].[.}.].%.P.eX{.{.[.[.{.[..X}.[.[.[.[.[.[.[.].|.}.~.D.S.Z.u.#.( P.cXlXfXfXfXfX3XfXfXrX3X3XeXeX3X3XrX3X3X3X3X3XrX2Xl..X3X3XcXjXrXrX3XrX3XfXfX3X3X3XeXeX3X2X2X2X2XeX2X2X{.2X2X X.X}.tX+Xt.r.e.! j p t $ O & & O + + = - = = + + - @ 5 7XVXVXZXZXsX#X .9XZXVXVXVXBXBXNXBXBXNXBXBXNXNXNXNXNXAX7X#X[  .#X6X6X6X6X6X7X=X",
"e e e ] ] ] ] ] ] { { { { { { 4 o @ : > 6 0 0 w F F H X.X.U U U U P P I I ;.=.4.=.U B <.<.%.%.%.:.%.#.#.:.:.:.:.#.#.%.#.#.#.@.@.I U M w F H X.G.1XlXKXbXbXJXJXJXJXJXJXJXKXKXJXJXbXtXcXxXtX|.G.<.( B N m M N J m n b b b b b b b q 8 q q 8 q q q q q q 0 0 0 0 0 0 q d d j f p a z z a i v v i p f f x x x T T R R G <.|.[.(.(.].`.(.(.(.(.(.[.}.P.j.g.5.4.5.A.E.E.E.P.P.P.P.P.J.J.H.I.A.g.j.m.m.m.u.-.;.=.|.}.].`.].[.{.].I.m.<.P E F g 6 w ;.@.U @./ J n q q 0 0 > : : + + : 6 s j A G =.A.P.).{.rXkXkXfXrXrXeX3X3XeXwX.X2X2XeXwX2X.X.X}.}.}.~.F.D.5.( j.nXnXhXfXfXfXfXfXfXrXrXrXfXfXfXrXrXrXrXrXrXrX3XrXfXrX3XeXeX].~.Q.E.:./ rXfXrXeX3XeX3X3XrXeX2XwXeXwX.X.X@X}.wX+Xe.e.! T T f f f i # : f P X.&.=.6.A.H.).3XfX X[.[.[.[.[.}.[.[.[.[..X[.[.[.{.].%.H.eX}.[.[.[.[.[..X}.[.[.[.[.[.[.[.].].}.|.D.S.m.5.$.B A.lXcXfXrXfXfX3XrXfXrX3X3XeXeX3X.XfX3X3X3X3X3XeXeXh.[.fX3XkXkXfXrXrX3XrXfXfX3X2X3X3X3X2X3X3X2X3X3X2X.X{.2X2X X X}.wX0Xu.r.e.R j y i $ O & & O + + + + + = = + - = 5 7XZXZXZX9X0.r 5 9.SXCXVXVXVXBXBXBXBXBXNXVXBXNXNXNXAXAX7X..5 o 5 [ #X7X7X6X6X=X",
"4 4 e e e ] { { { { ] ] ] { { { 3 o - > 6 6 0 w w n F P U U U U U U P I I @.=.=.;.@.N #.<.%.%.%.%.<.#.#.#.:.*.:.#.#.:.*.#.#.@.@.I I J n n H U j.1XzXKXnXbXbXxXxXpXpXyX0X}.|.|.~.I.1.5.%.( B N M M M M M M m m m b b b b b b b 8 8 8 q 8 q q q 8 0 q 0 0 0 0 0 1 0 0 0 d j f p a z z a i t v i p f f x x T T T R R G <.|.[.(.(.`.`.(.(.(.`.(.].[.P.g.g.5.4.4.5.L.E.P.H.P.P.P.J.J.J.H.A.j.5.j.6.m.m.4.-.&.<.@X}.].`.].[.{.[.H.m.4.o.P F g 0 0 &.@.U @./ J n q 0 0 6 > : @ + + : > s j A P 5.Y.T.].{.rXvXzXrX3X3XeX3XeXeXwX}.2X3XeX2X2X2X2X}.}.}.].I.D.u.( j.nXnXlXfXfXfXfXfXfXfXrXrXrXfXfXfXfXeXrXrXrXrX2XrXfXrX3XeXrX[.].~.E.,.( rXjXrXrX3X3XeX3XeXeX3XwXeXwX.X.X@X.XwX+Xt.e.! T R x f f i # : s F X.&.=.1.A.Y.K.2XhX X{.[.[.[.}.}.[.[.[.[..X[.].[.].|.%.h.tX.X[.[.[.{.[..X.X[.[.[.[.[.[.[.[.].}.|.I.D.m.u.<.B 1.jXcXhXrXfXfX3XrXfXfXrX3XeXeX3X XrXrX3X3X3X3X3XrXH.(.fX2XkXkXrXrXrXrXrXfXfX3X2X3X3X3X3X3X3X2X3X3XeX2X[..X2X X.X}.wXyXZ.r.e.R j > p $ + & & . O + + + + + = = = = * <XSXZX<X[ 5 5 r  .ZXZXVXVXVXVXBXBXVXBXNXVXBXBXNXNXNXAX7X .4 o o o 4 [ 9.7X7X7X",
"e e e e e e { { { { ] ] ] { { { c o @ : 6 6 0 0 g w n J H J J H H U P P P I &.=.&.&.B ( =.$.<.<.#.%.$.#.#.#.#.#.#.#.#.#.#.#.@.U U I U J V m U 6.2XkX{.h.l.1.%.#.@.( B B B B B B N M M m m m n b M M M M M b m M 8 q 8 8 8 q q q 8 8 q q q q q q 0 0 0 0 1 0 0 0 1 1 0 s f s p f f z a a t $ i p f f f x T T T T R J <.|.].(.`.].`.(.(.`.`.`.].[.P.g.5.u.4.5.1.g.L.L.H.I.P.P.H.L.L.B.g.5.g.g.m.m.5.<.=.@.5.0X}.].P.].{.{.].H.j.4.o.P G g 0 8 X.@.U I @.J w q 0 0 > : : @ + + : > s j G &.G.P.).).1XrXzXzXfX3X3XeX3XeXeXwX.X2X3XeX3X2X2X2X.X}.}.|.I.D.u.( g.bXKXlXfXfXfXfXfXfXfXrXrXrXfXfXfXfXrXrXrXrXrX3XrXfXrX3XeXeX}.E.~.~.5.( 2XfXrXeX3XeX3XeXeXrXeXwXeXeX.X.X.X.XwX+Xt.e.! T R T f f p + : f F X.&.=.4.G.Y.K.2XhX2X{.[.[.[.[.}.}.[.[.[..X}.].[.].|.l.l.rX}.[.[.[.[.[..X2X[.[.[.[.[.[.[.}.].[.|.I.D.S.y.4.( %.eXcXlXrXfXfXfXrXfXfXrX3XeX3X3X X3XrX3X3XeXeX3XrXK.v.rX3XlXkXfXrXrXrX3XrXfXeX3X3X3X3X3X3X3X2X2X3XeXwX[..X2X.X.X}.}.aXR.r.e.R j p s $ $ & & . O + + + + + = = + - o a.UX9.5 5 5 6 8 r %XDXVXVXVXVXVXVXVXVXBXBXVXBXBXBXBXBX7X[ 4 3 o o o 5 4 [ 8.&X",
"e e e e e e e e { { { { ] ] { { { e @ - : 6 6 0 0 w w C J J J J J H P P P I X.&.@.&.U U $.#.$.%.$.#.#.#.#.#.#.#.#.@.@.@.@./ / U U U U J J m U 1.2XrXl.' B B N N M m m M M m M m m M M b b b b b q 8 8 8 8 8 M 8 8 8 < 8 q 8 q q q 8 8 q 8 8 < 8 1 0 0 1 < < ; ; ; ; > 0 p p p f f z a a t $ i p f f f j j T T T R J <.|.`.(.`.].`.`.(.`.`.`.`.].E.g.5.u.4.5.5.5.5.m.A.I.I.I.L.B.m.5.5.5.5.j.j.m.u.<.=.@.A.0X].].P.].[.{.[.H.5.4.o.P G g 0 8 G I J U @.J w 0 0 6 > : - + O + : p f g P 4.I.T.).).1XhXzXzXrX3XrXeX3XeXeXwX}.2X2X3X3X2X2X.X.X}.}.|.~.D.m.( 1.cXKXlXfXfXfXfXfXfXfXrXrXrXrXfXfXrXrXrXrXrXrX3XeXfXrX3XeXeX.X].|.|.g.( 2XrXrXrXeXeX2X3XeXrXeX2XeXeX.X.X.XwXwX+Xt.e.~ T R R f f p # : s F P &.=.6.G.Y.K._.fX3X{.[.[.{.[.}.}.[.[.[..X}.].[.[.}.h.%.eX}.[.[.[.{.[.}.2X{.[.[.[.[.[.[.}.].].|.E.D.m.y.5.#.( [.cXlXrXfXfXfX3XfXfXrXeXeXeX3X X2XrX3X3X3X3X3XrX(.z.rX2XhXkXfXrXrXrX3XrXfXeX3X3X3XeX3X2X2X2X2X3XeXeX[..X2X2X.X}.}.yXE.r.e.T s p a $ $ O O O . + + + + + + + + = X V 9.5 5 5 ; > 8 8 V sXDXVXVXVXVXVXVXVXVXBXVXBXNXNXBXBX7X[ 4 3 3 o 3 3 o 4 4 ] ",
"e e e e e e e e e e ] ] ] { { { c c 3 @ : : 6 0 0 0 0 w F F F F J J H P P P I X.X.&.@.@.#.#.#.#.$.#.#.#.@.#.#.#.#.#.@.@./ / / / I U J J J J B 6. X{.%.B N N N M m m M M M M b M M 8 < 8 8 8 8 8 8 8 < < < 8 q 8 < 8 8 8 8 8 8 8 q 1 0 0 0 < 1 < 1 ; > ; ; ; ; > ; ; > > p p f f z z a a t $ i p f f f j j l F R R J 4.|.(.(.(.`.`.(.(.(.`.`.`.`.~.B.5.5.5.y.y.6.5.5.m.D.D.m.j.5.5.5.5.5.m.m.j.y.5.<.*.@.~.}.].(.P.[.[.{.].A.m.u.&.J G C s 0 F I J J I J q 0 6 > > : + + O + : p g F X.G.T.T.)._.2XrXkXkXrX3XrXeX3XrXeXwX}.2XeX2X3X3XeX2X2X}.}.}.~.E.m.( %.xXKXkXfXfXfXfXfXfXfXfXrXrXfXfXfXrXrXrXrXrXrX3XeXfXfX3XeXeX.X].|.|.B.%.2XrXrXrXeXeXeXeXeXrXeXeXeXeX2X2XwXwXwX+Xt.e.! T T Y f f p + : p F O.o.=.6.G.Y.Y.).fX3X X[.[.[.}.[.[.[.[.[..X}.].[.[.}.H.%.wX.X[.[.[.{.[.}.wX}.[.[.[.[.[.[.[.].].{.~.D.S.y.5.*.B K.zXlXrXfXfXfXfXfXfXfXeX3X3XeX X2XrXrX3X3X3X3XrX{.z.rX3XhXcXhXrXrXrX3X3XfXrX3X3X3X3X3X3X2X2X2X2XeXeX[.}.2X2X.X}.}.yXOXe.e.T d p a $ $ O & . . . + + + + + + + = - * * * ; ; ; ; ; 0 5 +.DXSXZXZXZXVXVXVXVXBXVXBXNXNXNXBX&X[ 4 o o o 3 3 3 o o o ",
"e e e e e e e e e ] ] ] e e e e c c c @ $ : > 6 6 0 0 w g g F F F F J P P U U I X.@.&.@.&.@.@.#.#.#.#.#.#.@.#.#.#.#./ @.@.@.I I I U U J J B B 6. X).` N N m n M b b M 8 8 8 8 8 8 8 2 8 8 8 8 < < < < ; < < 8 8 < < < < < < 8 8 1 1 1 1 < < < ; ; ; ; ; ; ; ; ; > > : : : p f f z z f a t $ i p s f f j j l F R R J <.|.(.(.(.(.`.P.(.(.`.`.`.`.].A.1.5.5.5.6.m.m.y.6.5.5.5.5.5.5.5.5.6.m.6.y.y.4.=.@.5.wX[.].(.P.[.{..X].B.6.u.;.P G C f > g ~ J J I J q 0 > > : - + + . + : s g J 4.Y.T.)._._.2XrXkXkXrXrXrXeXrXeX2XwX}.2XeX2X3X3X.X2XwX}.}.}.~.I.D.#.#.uXKXkXfXfXfXfXfXfXfXfXrXrXfXfXfXrXrXrXrXrXrX3XeXfXfXeXeXeXwX].|.}.L.l.2XrXrXeXeXeX3XeX2XrXrXwXwXeX2X2XwX@X0XOXe.e.! T Y T j f p + : p F E o.=.6.j.H.Y.).rX3X X[.[.[.[.}.}.[.[.[..X.X[.[.[.}.P.%..X.X[.[.[.{.[.[.wX}.[.[.[.[.[.[.[.].].].].L.G.G.y.<.B j.jXkXrXfXfXfXrXfXfXfXeX3X3XeX.X XfX3X3X3X3X3XrX.Xz.3X3XfXcXhX3XrXeX3X3XfXrX3XeX3X3X3X3X3X2X2X2X3XrX[.[.wX.X.X.X[.yXqXt.e.R j s a : $ O & & . . + + + + + + + + = - - ; ; ; ; ; 8 6 8 5 9.DXDXZXZXZXZXVXVXBXVXVXBXNXNXBX#X[ o 4 4 o o 3 3 3 3 4 ",
"e e e e e e ] { ] { { { c c c e e c c $ $ : : > 6 6 0 0 w g g l F F F J G P U U I X.I @.@.@.@.@.@.@.@.@./ @./ @.#.@.@.@.X.I I U U U J J J U B <.[.v.' N M b M M b 8 8 8 8 8 8 8 8 < < < < < < < < ; ; ; ; ; < < < < < < ; < < < ; < ; ; ; ; ; ; ; ; ; ; ; ; ; - > : - : p a f f z x f a t $ i p f f f f j l F T G J <.].(.(.(.`.(.P.P.(.`.`.(.`.E.P.g.1.5.5.5.y.6.6.5.5.5.5.5.6.m.m.m.m.m.y.y.4.<.*.@.~.2X).(.(.(.[.{.{.].B.j.u.3.P P C g 6 0 P J J K Z 0 > > - : = + + + - : f C o.G.Y.).).[._.2XrXlXkXrXrXrXeXrXrXeXeX}.2XeX2XeX3X2XeXeX.X}.}.].~.D.#.( yXKXkXfXfXfXfXfXfXfXfXrXrXrXfXfXrXrXrXrXrXrX3X3XgXjXrXeXeXeX[.}.}.E.h.2XrXrXrXeX3XeX3X.XeXfXwXwXwX2X.X@XwX0X~.e.e.! R T T x f i + : p F P o.&.6.j.A.Y.(.3XeX X[.[.[.[.[.[.[.[.[..X.X[.[.[.}.E.%.].wX[.[.[.{.[.[..X}.[.[.[.[.[.[.}.].].[.|.I.D.S.Z.4.( %.rXzXfXfXfXfXfXfXfXfXfXeX3XeX2X{.rXeX3XrX3X3XrX3Xz. X3XfXzXhXrXrXrXeX3XfXrX3X3X2X3X3XeX3X2X2X2XeXgX[.`.wX.X.X.X[.wXqXt.e.! j s a : $ O & & . . X X + + + + + + - : - ; ; ; ; ; 8 ; 8 8 5 %XIXDXZXZXZXZXZXVXVXVXBXBXNX6X8.[ o 4 3 o o o 3 3 4 4 ",
"4 e e e e ] ] ] ] { { c c c e e e c e @ @ @ : > 6 6 0 0 w w w l C F F F J G J U U U I I I I I / / @./ / / / @./ ( / / I I I U U U U I I P P B $.K.l.B M M M M M 8 < 8 < < < < < < < ; ; ; ; ; ; ; ; ; ; ; ; ; ; ; ; ; ; ; ; ; ; ; ; ; ; ; ; - ; ; - - - - - - - - = - 6 p a f z z z f a t $ t p p f f j j l F T G J <.E.(.(.(.`.(.P.(.(.`.`.(.E.P.E.L.,.5.5.6.m.m.5.5.5.5.5.m.m.m.m.m.m.m.y.y.4.*./ 5.0X].(.(.P.(.}.{.}.P.B.6.5.3.P J F f 0 < G J J J C 1 > : - - + + + + - 6 f P t.A.K.).)._._.2XrXjXkXfXrXeXeXrXrXeXeX}..XrX2X3X3X3X2XwX2X}.}.[.~.L.<.( }.KXzXfXfXfXfXfXfXrXfXrXrXfXrXfXrXrXrXrXrXeX3XeXfXgXrXeXeXeX}.}.}.`.H.2XrXrXrXeXeXeX3X.X2XrXwXwXeX2X2XwXwXyX~.r.e.! ! T T x f p + : p F P o.&.=.6.A.Y.K.3XfX X[.{.[.[.[.[.[.[.[..X.X[.[.[.}.].%.P.wX[.[.[.[.[.].}..X[.[.[.[.[.[.}.].].[.|.E.D.S.m.4./ $.{.zXhXrXfXfXfXfXfXfXfXeXeXeX3X[.rXrXeX3X3XrXrXrXv._.3X3XkXlXfXrXrXrX3XrXrX3X3X3X3X3XeX3X3X2X2X3XgX}.P.wX.X.X.X[.}.qXt.e.O.j s f i $ + & & . . X + + + + + + + - - : ; ; > > ; 8 8 6 6 8 5 %XUXDXSXZXZXZXVXVXVXVXVXBX7X..r o 4 3 3 3 4 4 4 4 7 ",
"3 e e e e ] ] ] ] e { { c c c e e 3 3 @ @ @ : : 6 6 0 0 0 g g g g F F F J J J J U U I I I I I I I I X.@./ / @.@./ / / / X.X.@.X.I X.I K J U B #.H.%.N M M 8 8 < < < < < < < < < ; ; ; ; ; ; ; ; ; ; - - - - ; ; - - - ; ; ; ; ; ; ; > > , ; - - - - - - - - - - + @ : p f f f f z z f p t $ t i a f f j j x T R R K -.E.P.(.(.(.P.P.`.`.(.(.(.(.P.I.E.j.1.m.m.m.y.6.5.y.y.G.m.m.y.G.m.m.m.u.u.<.@.$.~.].(.(.(.P.).{.[.{.P.B.m.5.4.&.P F g 0 ; F K J F w ; > : - = + + O + - 6 F ;.y.A.K.)._._._.2XrXkXkXjXrXrXeXrXrXrXrX}..XtX2X2XeX2X2X2X2X2X}.}.~.E.1.' ].KXkXfXfXfXfXgXgXrXrXrXrXrXrXrXrXeXrXeXrXrX3XeXrXgXrX3XeXeX}.}.}.].J.2XrXrXrX3X3X3X3X.X.XgXeX2XeXwXwXwXwXyX~.r.e.~ R T T x z p + : p l P o.&.=.6.A.H.J..XfX X X[.[.[.[.[.[.[.[.{..X[.[.[.[.].%.L.eX{.{.[.{.[.[.}.@X}.[.[.[.[.[.}.[.].[.}.P.A.D.m.u.#.( P.zXlXrXfXfXfXfXfXfXfXeXrX3X3X[.eXrXrX3XeXeXeXrXJ.P.2X3XkXkXfXrXrX3X3XrXfX3XeX3X3X3XeX3X3X2X2X2XrXwXP.wX}..X{.}.}.yXy.r.! Y f f p $ $ & & . . O + + + + + + + = - : > > ; > ; ; 8 ; ; 6 8 5 a.UXDXDXSXSXZXBXVXZXBXBX#X .4 4 4 o 3 o o 3 4 4 3 ",
"e e e e e { { { { { e e e e 3 3 % o o @ @ @ $ : > 6 6 0 0 q g g g g F F F J J J J U U P P I I I U I I @.@./ / / @.@./ @.X.X.X.I U U P J J U U @.h.%.M M 8 8 < < < < < < < ; ; ; ; ; ; = ; ; ; - ; - - = = = = * * * * - - - = - : = - - = = = , = = = - = = = + + 7 p a f f f z z z f a t $ t a a f j j j x T R R K *.E.`.(.(.(.(.`.P.(.(.(.(.(.P.L.I.L.5.5.y.y.6.m.m.G.G.G.m.G.m.m.y.m.u.<.<.&.#.F.].P.(.(.P.P.).{.{.{.P.B.j.5.4.-.P F g 0 ; g J C n 0 ; - : - + + + O @ - 0 O.4.j.Y.T.).)._._.4XrXlXkXfXrXrXrXeXrXrXwX}.}.tX2X2XeX3X2XwX2XwX2X|.|.~.m.( I.KXmXhXfXrXgXgXgXfXfXrXrXrXrXfXfXrXrXeXrXrXeX3XrXgXrXeXeXwX}.}.}.[.J.2XrXrXrX3X3X3XeXwX.XgXrX2XwXeXwXwXwXyXW.r.e.q.R T T x f t # : p l P o.&.=.6.A.H.J.{.fX X X[.[.[.[.[.[.[.[.{..X[.{.[.[.[.l.h.rX{.{.[.[.[.].}.@X}.[.[.[.[.[.[.[.].[.}.~.F.G.m.y.=.( A.jXkXrXfXfXfXrXfXfXfXrXeX3XeX).3XfXrX3XeXeXeXfX(.H.rXrXlXkXfXrXrX3X3XrXfXeXeX3X3X3XeX3X3X2X2X3XrXtXP..X2X.X X}.|.yXD.;.q.T f f p $ $ & & . . O O + + + + + = - - : - ; ; ; ; ; ; ; ; > ; * 5 9.IXUXDXSXSXVXZXZXVXBX#X[ 4 4 4 3 3 3 o 3 3 4 3 ",
"e e e e e { { { { { ] ] e & & . O . O + + + @ $ - : 6 0 0 g q g g g g C F F J J J J U P P P P I U I I I I @./ / / U U I X.I U I U U P U J U U ( 1.%.M 8 8 < < < < < ; ; ; ; ; ; ; * * * = - - = * * * = = = = * * * * * = = = - = = - * o + = # + + + + + + + - 7 p p f f z z z x x z a t $ t a a f f j j x T R R E &.R.E.(.(.(.P.P.(.P.(.(.(.P.P.P.H.I.B.5.5.5.5.m.m.m.D.S.m.m.m.u.u.t.4.=.@.@.A.].I.P.P.P.P.P.[.}..X[.H.B.5.5.4.3.o.F g s ; 0 G C w 0 - - - + + + O + - 8 P ;.4.c.Y.T.).).{.[.2XrXzXlXfXfXrXrXrXrX3XrX}.}.tX2X3XeXeXwXwX2X2X1X}.|.].D.( B.JXnXhXfXfXfXgXgXrXrXrXrXfXfXrXrXrXrXrXrXeX3XeXrXgXtXrXeXwX}.[.}.[.P.2XeXrXrXeX3XeXeXwX.XeXrX3XwXeXwXwXwXyX~.r.e.O.R Y x x f t + : p l P o.@.=.6.c.H.H.{.fX2X X[.[.[.{.[.[.[.[.{.2X{.[.[.[.}.h.l.tX X[.[.{.[.[.[.}.}.[.[.[.[.[.[.[.[.[.}.|.I.D.S.m.4.( 1.rXcXfXfXfXfXfXfXfXfXrXeX3XrX[..XfX3X3XeXeXeXfX[.z.2X3XlXkXrXrXrX3XeX3XrX3X3X3X3XeXrXeX3X3X2X2XrXtXP.}.wX}..X}.|.yXE.;.q.T f f f : $ O & . . O O + + + + + , - - : - - ; ; ; ; ; ; ; > : - * o 9.UXIXDXSXZXZXZXVX6X8.e 4 4 o 3 3 3 3 3 3 4 4 ",
"{ ] e e ] ] { { { { { { { 4 & % O O O + + + @ $ - : 6 6 0 0 0 f g g g C C C F F J J H U U P P P U U U U I I I I I I I U I I I U U U P U J J U @.%.#.M 8 < < < ; ; ; ; ; ; ; ; ; * * = * = = = * * * * X X X X X + + + + + + + + X X X + + + . X + + + + + + @ : i p a f z z z x x x z a i $ t a a f j j j T T T R E &.D.E.P.(.(.P.P.P.(.(.P.(.(.P.J.H.L.B.5.5.<.<.5.u.y.m.y.u.u.e.<.=.=.;.@.#.D.~.P.P.P.P.P.P.P.}.{.}.].H.B.g.5.4.4.o.G g 0 > > C C 0 ; - - @ + + + O + ; F X.=.6.c.Y.T.)._._.{.3X3XlXlXfXfXrXrXrXrXrXrX}.}.tX3X2X2XeXeXwX2X2X2X}.}.|.E.( 5.bXnXlXfXfXgXgXgXfXfXrXrXfXfXfXrXrXrXrXrXeXeXeXrXgXgXrXeXwX.X}.}.[.(.2XrXeXrXeX2XeXeXwX.XeXrXeX2XeXwXeXwXyXW.-.e.O.! T x x f t + : p l P X.&.=.5.j.H.H.[.rX2X X{.[.[.[.{.[.[.[.[.2X{.[.[.[.[.H.,.wX.X[.[.{.[.[.].}.}.].[.[.[.}.[.[.[.[.[.|.I.D.D.m.5./ $.2XkXlXfXfXfXrXfXfXfXrX3X3XrX[.{.fX3X3XeXrXrXfX.Xh.2XrXlXkXhXfXrX3X3XeXrX3XeX3X3X3XrXrX3X3X2X2XeXjX).].2X}.}.}.].yXOX-.q.T j f f : $ O & & . O O + + + + + , = - : - - ; ; ; ; ; ; ; - - = - * o  .sXUXDXDXZXZXZX7X .4 4 4 o o 3 3 3 3 4 4 4 ",
"] ] ] ] ] ] ] { { { { { { { 4 o O O O O + + @ @ - : > 6 6 0 0 0 w g g g C n n F F J J P J U U U U U P P I I I I I I U U U U U U U U U J n J X.@.#.=.M < < < ; ; ; ; ; ; ; - - * * * = X + + + + * X X X + X X + + + + + O O + +   - -     o 4 o X + X o @ @ 7 6 p a f f z x x x x x z a i $ t a a f f j l F R T E ~ &.B.P.P.P.P.P.(.P.(.(.(.P.P.J.J.P.H.j.1.5.<.=.<.<.<.<.-.=.*.&.&.&.X.@.<.L.`.P.P.P.P.P.P.P.P.}..X{.P.H.m.5.5.4.4.;.P F 0 > - g g 0 ; - + + + + + X - g P ;.6.6.c.Y.T.)._._.{.3X3XlXlXfXrXrXrXrXrXrXrX}.[.gXrX2X2XeXwXeXwXwX2X1X.X|.E.#.<.xXKXlXfXfXgXgXgXfXrXrXrXrXfXfXrXrXrXrXrXrXeXeXeXgXgXrXeXwX2X}.}.}.[.2XeXeXrXeX2XeXeXwX2XwXrX2XwXwXeXwXwXyXE.-.e.! R R x x f y # : 6 l P P &.=.5.j.H.H._.3X2X{.{.{.[.[.{.[.[.[.{..X{.{.[.[.[.P.%.@X.X[.[.[.}.[.].}.}.[.[.[.[.[.[.[.].[.].|.E.D.D.S.u.@.( ).kXlXfXfXfXfXfXfXfXfXrXrXeX{.).rX3X3XrXrXrXrXeXh.].rXlXkXhXrXrXrX3X3XrXeXeX3X3X3XrXrX3X3X3X2X2XjX].].wX}..X}.].wX+X-.e.R j j f i $ O & . . O O O + + + + = = - : : > - ; ; ; ; ; - * * - - - * o 5 <XIXUXSXSXZX7X[ 4 e e 4 o o 3 4 4 4 4 4 ",
"{ { { { ] ] ] { { { { { } } { o & O O O + + + @ - : : 6 6 6 0 s 0 g g g g w w g C F F G J H U J U U P P U P I I I I U U P U U U U U U J n J X.I U @.n 2 < ; ; ; ; ; - - - - - = X X X X X X X X + + + + + + + + . . . . . . . .   l +.5 r 8.+.} l     7 l l 6 6 s f f f j x x x x x x a i $ t a a f f j j F G E ~ &.*.m.P.P.P.P.P.P.P.(.P.P.P.P.P.P.H.L.g.5.m.5.*.*.*.*.&.@./ I X.X.@.@.1.I.`.P.P.P.P.P.P.P.P.]..X}.[.P.A.m.5.4.4.4.-.P F 0 > = 0 s > - + = @ + + X + w H X.=.6.j.A.Y.T.)._.{.{.3X3XkXlXfXfXrXrXrXrXrXrX}.[.gXeX3X2XeXeXeXeXwX2X2X2X}.~.<.$.tXKXkXfXfXgXgXgXrXrXrXrXfXfXrXrXrXrXeXrXeXeXeXeXrXgXfXeXwXwX}.}..X.X.XeXeXrXeX2X3XeXeXwX2XrXwXwXwXeXwXwXyXE.-.e.! R R T x f p , : > g P E &.=.5.j.A.H.).3X2X{. X{.[.[.{.[.[.[.[..X.X].[.[.[.~.%.}..X[.[.[.}.[.].[.}.[.[.}.[.[.[.[.].[.].}.~.D.D.S.y.=.B H.jXlXfXfXfXrXrXfXfXfXrX3XrX.X).fXrX3X3XrXeX3XrXH.P.rXlXcXhXfXrXrX3X3XrX3XeXeX3X3XeXrXrX3X2X2X2XjX.XP.wX.X}.}.[.@XaXe.O.! Y j f p $ O & & & O O + + + + + = = - : : - - ; ; ; ; - - * * - - - - 7 o o 9.ZXDXDXZX#X5 e e e 4 4 o o 3 3 4 4 4 ",
"{ { { { { { { { { { { { { } } { & & . O + + + @ @ - : > 6 > 6 0 0 f g g g g w w g C F F J J J J H U U P P P P P U U P U U U U U U U J J J n G P U J n 2 ; ; ; - - * * - = * * * X X + X X X X X .     o * * * * * * * * * o o o   e +. .8.9.r 5 l e l +.+.l 6 0 s f f l l T Y Y T x x f p t t a p f f j j F G E ;.-.<.B.P.P.P.P.P.P.P.(.(.(.P.P.P.P.L.H.j.B.A.B.m.4.=.#.@.@./ @.@.#.<.B.E.P.P.(.P.P.P.P.P.P.P.]..X{.].L.A.m.5.4.u.<.-.o.P g ; - ; 0 > - + + + + X X 6 P P X.=.6.j.A.Y.)._._.{._.3X3XkXlXfXfXrXrXrXrXrXrXwX].gXrX3X2X2XwXrXeXeXwX2XwX}.|.5.( 1XKXmXjXrXfXgXgXfXfXrXrXfXrXrXrXrXrXrXeXeXeXeXrXrXgXfXrXeXwX}.}..X.X.XeXeXrXeXwXeXeXwXwX2XrXeXwXwXeXeXwXyXR.-.e.q.R T T x f p , : > g G O.;.=.6.j.A.v.).3X2X X X{.[.[.{.[.[.[.[..X.X[.[.[.[.].,.`.wX[.[.[.}.[.].].}.}.[.[.[.[.[.[.[.[.[.}.].I.D.S.y.3.B 1.rXkXhXfXfXfXfXfXfXfXrX3XrX.X(.fXrX3XeXeXrXfXrX).H.rXlXcXhXfXrXrX3X3XrXeX3XeX3X3X3XrXrX3X3X3X2XjXrXJ.wX}.}.}.}.|.aXu.e.! T j f p : O & & O . O + + + + = = = - : - ; ; ; - * ; : + X * * - = - - - o r +.%XsXZX8.5 e e e e 4 4 3 o o 3 3 e ",
"e { { { { { { { { { { { { { } } c & & O + + + + @ @ : : > 6 > 6 0 0 0 q w w g w g g C F F J J J J J J U P J J U U U U U J U U U J J J J J n w J P n b < ; - * * * * * * X X X X X X X X     o o 5 8 H +.o.+.+.+.o.;.o.o.o.X.X.+. .+.+.+.9.9.[ ..3.+.+.+.l 0 g F F R O.O.q.r.r.q.q.R T f p t t p p s f j l T R O.<.u.5.B.L.P.P.P.P.(.(.P.P.P.P.P.P.P.L.V.h.L.L.A.L.L.A.j.5.<.<.5.j.L.P.P.(.P.P.P.P.P.H.H.P.P.P.[. X{.P.H.B.m.5.5.t.-.-.&.P F 6 - = > : = + + + + X 0 F P X.$.=.6.j.H.Y.)._._._.1XrXrXkXlXfXrXfXrXrXrXrXrXwX].gXrXeX2XeXwXrXeXeXwXwXwX}.|.D.( T.KXnXjXfXfXgXgXfXfXfXrXrXrXrXrXrXfXrXrXrXeXrXeXrXgXgXeXwXeX}.}.@X.X2XeXeXrXeXeXeXeXwXwXwXeXrXwXwXeXwXwXyXE.r.e.q.R T T x z p , : > f G P o.=.6.j.c.v.).3X2X X.X{.[.{.[.[.[.[.[..X.X{.[.[.[.}.l.H.wX[.[.[.}.}.].].}.[.[.[.[.[.[.[.].[.].}.|.I.D.D.Z.t.U %.2XkXhXfXfXfXfXfXfXjXrXeX3X.X(.rXfXrX3XrXeXfXrX}.z.3XlXmXlXfXrXrXrX3XrXeX3X3X3X3X3XrXrX3X3X2X2XtXtXH.}..X}.}.}.].aXS.e.q.T j f s t O & & O . O + + + + = = = - : - - - ; ; - - , + = - * = = X - o 7 [ ] ] [  .[ ] e ] ] e e 4 3 3 3 % o 3 ",
"o e { { { { { } } } } } } { } } { 4 & O O + + + $ $ : : : > > 6 6 0 0 0 0 q g g g g g F F F J J J J J J H J J J J J J J J J J J J J J J J n 8 w J n 8 < ; = * X * X X X X X X X X   o o 8  .3.p.S.R.S.S.p.p.y.t.y.p.t.p.t.t.3.3.3.3.+. .%X#X#X&X9.8.+.r H o.;.3.t.p.S.R.p.p.p.i.q.! T z a t : i p p f f x T E -.5.m.g.B.P.P.P.P.(.P.(.P.P.P.P.P.P.P.P.V.B.P.L.L.H.L.L.P.P.P.E.E.`.(.(.(.P.P.P.P.P.P.P.P.P.(.(.{.{.[.P.A.B.m.5.4.4.-.-.&.P F 0 - = , : + + @ X o w O.O.P X.$.=.6.c.A.K._._._._.{.fXfXlXlXfXfXfXfXfXrXrXrXwX].gXrXrX3XeXeXrXrXeXwXwXwXwX|.I.( c.KXnXjXfXrXfXfXfXfXrXrXrXfXfXrXrXrXrXrXrXeXeXrXrXgXgXrXwXwX}.}.wX2X2X2XeXrXeXeXeXrXeXwXwXwXtXeXeXwXwXwXyXE.r.e.q.! T T x f p $ : t f G P @.=.6.j.c.c.).3X3X{.{.[.[.}.[.[.[.[.[..X.X[.{.[.[.}.V.h.wX[.[.[.[.}.[.[.}.}.].[.[.[.[.[.[.].[.}.|.I.D.D.S.y.@.( ].kXlXfXgXfXrXfXfXfXrXrXeXeX(.rXrXeXeXrXrXrXeXeXz.2XjXmXkXfXrXrXrX3XeXrX3X3X3X3XeXeXrXeX3X2X2XrXjXP.|.}.}.}.}.|.aXE.;.q.T j j f i @ & & . . O O + + + + = = : : - ; - - - - - = = = - = = = * o 4 { [ ] ] ] ] [ ] ] ] ] ] e e 4 3 3 3 3 3 ",
"o o e { { { { } } } } } } } } } } { 3 & . + + + @ @ - : : > > > 6 0 0 0 s 0 0 0 w g w w g C F F J F F F J J J J J J J J J J J J m m J J C w 8 8 8 C ; * * * X X X X X X X . X X   o w p.^.!.~.W.W.R.S.R.R.S.G.p.G.S.S.S.S.p.p.p.4.=.+.+.#X#X<X<X%X+. .X.3.p.S.S.R.R.R.^.R.R.p.i.e.O.T x a t $ i p p f j A G O.e.m.B.B.V.H.P.P.P.(.(.(.(.(.`.P.P.P.P.P.L.H.P.P.L.L.L.P.P.P.P.E.P.(.(.(.(.P.P.P.P.P.P.P.P.P.P.].}.{.].P.A.B.m.5.4.4.=.;.;.O.P g - + + : + + o 8 F 3.r.O.P X.;.6.6.c.A.Y._._._.{.{.hXrX2XkXhXfXfXgXrXrXrXrXwX].jXrXrXeXeX3XrXrXrXeXwXwXwX}.E.%.1.bXKXjXhXfXfXgXfXfXfXrXrXfXrXrXrXrXrXrXeXeXeXrXrXrXgXrXwXwX}.}.wX2X2X2XeXrXrX3XeXrXeXeXeX2XtXeXeXeXwXwXtXE.r.e.q.! T T x f p $ : t f F P &.;.4.j.h.c.).3X3X{.{.{.[.[.[.[.[.[.[..X@X[.{.[.[.}.J.l.@X[.[.[.[.}.[.[.{.}.].].[.[.[.[.[.[.[.[.}.E.D.D.S.y.=.B I.lXlXhXfXfXfXfXfXfXfXrXeXeX(.rXrXeXrXrXrXrXrXfXJ.).jXmXkXfXrXrXrXeXeXrX3X3X3XeX3X3XrXrXeX2X2XeXxX~.~.0X}.}.}.].qXOX;.q.! j f f p @ & & . . O O + + + , : = - = - ; - - - - = = = = = = = = o 4 [ { [ [ ] [ } [ ] ] ] ] ] e e e 4 3 3 3 3 ",
"3 o 4 e ] { { } } } } } } } } } } } e 3 O + O + @ @ - - - > > > > 6 0 0 0 0 0 0 0 0 w w w g C F n F n F F F F F F J F F J J J m J F F w w q < ; ; 0 0 * X X X X X X & & . . . . 5 +.^.+X|.~.~.R.W.R.R.R.^.F.F.S.S.F.F.R.S.S.S.F.^.1XdXdX*X<XsX<X^.=.=.p.F.W.T.T.W.^.^.W.W.R.p.u.e.! T j a t $ i p p f f F E -.u.m.B.H.H.H.J.P.P.P.(.(.(.(.P.P.P.P.P.P.P.P.P.P.L.L.L.P.P.P.P.P.P.P.P.P.P.P.P.P.P.P.P.(.(.(.(.[..X[.(.L.B.m.m.u.4.4.-.;.;.o.P F 6 @ @ - X - w O.r.3.r.X.X.X.=.6.6.c.A.K._._._._.2XlXhX).kXhXhXfXfXfXrXrXrXwX].gXrXrX3XeX3XrXrXrXeXwXrXyX}.].g.%.xXKXzXjXfXfXfXfXfXfXfXrXfXrXfXrXrXrXrXrXeXeXrXrXrXgXrXeXwX}.].eXeX2X2XeXrXrXeXeXrXeXeXeXeXtXeXeXwXeXwXtXE.r.e.q.! T T x f a : : : s F P o.;.6.j.c.c.).3X3X{.{.{.[.[.[.[.[.[.}..XwX[.{.[.[.[.`.l.}.}.[.[.[.}.}.[.[.}.].].[.[.[.].[.[.[.}.}.E.L.D.S.y.4.U j.fXcXhXfXfXfXfXfXfXfXrX3XeX(.3XfXeXeXrXrXrXrXgX_.J.jXmXzXhXrXrXrXeXeXrX3X3X3X3X3X3XrXrX3X2X2X3XxX}.I.0X}.}.}.|.@XaXr.O.! T j f p $ & & O . O O + + + = - = - = - = - - - = X = = = = = = - o r [ [ [ [ ] [ } ] [ ] ] { ] ] e e e e 4 4 4 ",
"3 o 4 e e e { { } } } } } } } } } } e o @ O + + + @ - : : : : > > 6 6 6 6 6 6 0 0 0 0 0 w w w g w w w w n F n n V V F n F F V n n n w w 0 0 ; - = X - - + X X . X X &     o * 0 $.W.+X}.|.~.W.W.!.^.W.W.W.R.R.R.F.^.R.W.W.^.^.F.^.<X<X9X9X*X9. .B $.p.W.Q.W.W.W.W.W.W.W.!.W.p.r.q.! Y j a t $ i p p p f A ~ <.m.B.B.L.H.H.J.P.P.P.(.P.(.`.`.P.`.P.P.P.P.P.P.P.P.P.P.P.P.P.P.P.P.(.(.P.P.P.P.P.P.(.(.(.(.(.(.[.}.].E.H.B.m.u.5.u.4.=.;.&.o.P F 0 - - 8 w X.3.r.3.r.3.X.X.X.=.=.6.c.A.K.)._.2X{.2XjXjXK.lXlXfXfXgXfXfXrXrXwX].gXrXrX3X3XeXrXrXeXeXwXeXyX1X].B.$.yXKXzXjXgXfXfXfXfXfXfXrXrXrXfXrXrXrXrXrXrXeXrXrXrXgXrXrXwXwX].wX3X2X2XeXrXrXeXeXrXeXeXeXeXgXeXeXeXwXwXyXE.r.e.q.! T R T z a t : : s F P o.;.6.j.c.c.).3X3X{.{.{.[.[.[.[.[.[.[.}..X{.[.[.[.[.[.l.]..X[.[.[.}.}.[.[.}.}.].[.[.[.].[.].[.[.}.~.L.D.S.m.5.( ,.eXcXlXfXfXfXrXfXfXfXrXeXeX).3XfXrXeXrXrXrXrXfX2Xz.3XzXmXhXfXrXrXrX3XrXeX3X3X3X3XeXeXrXeX2X2X3XjXwXH.}.}.}.}.}.|.aXi.O.q.R j f f : & & & . O O + + = = = = - - - - - - - + + = = = = = = + o { [ [ [ [ } | [ [ [ } } } { { e e e e e 7 7 ",
"3 4 e e { e e e ] } } } } } } } } | { o . O O O + + - : : : : : : 6 6 6 6 6 6 6 0 0 0 0 0 0 0 0 w 0 w w w w n w w F F n F w w w w w 0 0 8 ; - = + + . + + . X X       * 8 V H ;.I.0X1X1X~.~.!.W.W.W.W.W.W.W.W.W.W.W.W.W.Q.W.W.T.b.9.9.b.*Xb.c.T.W.T.Q.1X1X1X0X+X~.Q.~.qX0X!.R.r.q.R T j f t $ t p p a f A &.5.g.B.H.H.H.J.J.P.P.P.(.P.(.`.(.P.(.P.P.P.P.P.P.E.P.P.P.P.P.P.P.P.P.(.P.P.P.P.P.P.P.(.P.(.(.(.(.}.].`.P.B.m.m.4.4.4.-.;.&.;.o.P F g 6 - F ;.t.t.3.3.p.3.=.X.@.=.6.6.c.A.P.)._.2X1X2XkXkXK.jXkXhXfXfXfXfXrXrXrX].gXrXrXeX3X3XeXrXrXrXeXeXrXwX|.E.$.}.KXzXjXfXfXfXfXfXfXfXrXrXfXfXfXrXrXrXrXrXeXgXrXrXgXrXrXwXwX[.eXeX3XeX3XrXrXeXrXrXeXeXeXeXtXtXeXeXeXeXtXQ.r.e.q.! R R T x a t : t 6 F P X.;.6.j.h.h.K.3X3X X{.{.{.[.}.[.[.[.[.}.wX}.[.[.[.].[.h.P..X[.).[.}.[.[.[.}.{.[.[.[.[.[.[.].[.].}.~.L.D.D.m.5.@.#.{.cXlXfXfXfXfXfXfXfXrXrXrX).3XfXrXrXrXrXrXfXfXrXv.[.zXmXjXrXrXrX3X3XrXrXrX3X3X3XeXeXrXeX2X2X3XgXpXH.}.}.}.}.].|.aXp.O.! ! j f f i & & & & . O + + + = = = - - ; - - - + + = = = = * = = + o l [ [ [ } } | [ [ [ } } } [ ] e e e e e e e ",
"4 e e ] { { e 4 o e e { } } } } } | { o . O O O + + + @ @ - - : : : 6 6 6 6 6 6 6 0 0 0 0 0 0 0 0 0 f 0 w w g g w w w g w w w 0 0 0 ; - - X X X X X . . . X   X o * 0 P X.X.=.6.1XuX4X1X1X~.+X~.~.~.~.~.~.W.~.~.~.Q.~.~.1X1X1X1X1X<X<X<X5XiXiXyXyX1X1XyX0X0XqXqX0X0XqX0X~.qXR.e.q.R T j f y $ t p p p f G ;.1.g.B.H.H.J.J.H.P.P.P.(.(.(.`.P.P.P.P.P.P.P.P.P.P.P.P.P.(.P.P.P.P.P.P.P.P.P.P.P.P.P.(.(.(.(.(.`.}.].P.L.B.m.5.4.t.4.-.;.&.&.o.P F g > 0 O.p.p.t.r.R.p.4.p.;.@.=.=.6.c.A.P.)._.2X{.2XkXmX).rXzXhXhXgXfXfXrXrXrX].gXrXrXrXeX3XeXrXrXrXeXeXrXwX}.E.%.T.KXnXkXjXfXfXfXfXfXfXrXfXfXfXfXrXrXrXrXrXeXrXgXfXgXrXrXwXwX[.wXrX3XeXeXrXrXeXrXrXrXeXeXeXeXrXeXeXeXeXtXOXe.e.q.~ T R T x f t t : p F P X.;.=.6.j.c.K.3X3X X{.{.{.[.}.[.[.[.[.}..X}.[.{.[.[.[.H.H..X[.[.[.[.}.}.[.{.{.{.[.[.[.[.[.[.[.[.].].L.D.D.m.y.=.( ).kXlXhXfXfXfXfXfXfXrXrXrX_.2XfXrXrXrXrXfXfXrXgX(.H.lXnXlXfX3XrXrX3X3XrXeX3XeX3X3XeXrXeXwX3X3XrXxXI.].}.}.}.}.|.qXR.;.~ ! T f z p O & & & . O + + + = - = - - - - - + + + = = = = * * * = X r [ [ { { } | | } } | } } { e e e e e e e e ",
"4 e { ] { { { e o o o 4 e { } } } } { o . O O O O + + @ @ @ @ @ - - - 6 6 > 6 6 > 6 6 6 6 6 6 6 6 6 6 6 0 0 q g w q w w 0 0 0 6 6 ; - X X X X . X &         0 l F P P o.;.=.6.c.4XmXiX4XyX1X0X|.1X0X|.~.~.~.~.~.~.|.1X1X1X0XyXyXyX1X1X1X1XyXyX1X1X1X1X1X0X0X0XyXqXqXqXqXW.p.u.e.q.R T j f y $ t i p p s G ;.1.m.B.H.H.J.J.J.P.P.P.P.(.(.`.`.P.P.(.P.P.P.P.P.P.P.P.P.P.P.(.P.P.P.(.(.(.(.P.(.P.P.(.P.`.`.`.].].E.P.L.B.m.u.t.4.<.-.;.&.&.o.P F g ; g t.p.p.3.p.R.4.p.^.4.@.=.6.6.c.A.T.)._.1X2X3XkXnX_.2XmXjXhXfXgXjXrXrXrX).tXjXfXrXeX3XrXrXrXrXeXeXrXeX}.E.%.A.JXbXzXjXfXfXgXjXgXfXfXfXfXfXfXrXrXrXrXrXeXeXgXfXfXjXrXrXwX[.2XgXeXeXeXrXrXeXeXrXrXeXeXeXeXtXtXeXeXeXtX+Xe.e.e.O.R T T x f i : : 6 l P o.;.=.6.j.h.K.2X3X X{.{.[.[.}.[.[.[.[.}..X.X[.{.[.[.[.P.h..X[.[.[.[.}.}.[.].}.[.[.[.[.[.[.[.[.[.}.|.E.D.D.G.y.-.( Y.lXkXhXfXfXfXfXfXfXrXrXrX{. XjXrXfXrXrXrXfXgXgX}.l.rXnXkXfXrXrXrX3X3X3XeXeXeXeXeXeXrXrXwX2X3XrXxXP.P..X|.}.}.`.@XOXe.q.! T s f a O & & . . . . + = + = - - = = - = + + + = = = = * * X = X o r { } } } } } } } } } { e 4 e e e e e e e ",
"e { ] ] ] { { { 7 o o o o 3 e { { } { 3 . O O O . . .     o 4 7 7 5 o o - - - - - - : 6 > : > 6 > - > > > 0 0 0 0 0 0 0 8 ; * X                 X o * 8 8 8 X.o.o.X.X.&.=.$.6.c.1XlXvXrXiX4XqX1X0XyX1X1X|.1X1X0X1X1X1X0X1XQ.Q.Q.T.1X4X[.[.1X1X1X1X0X0XyXyX0X0XyXyXqXqXqXqXW.r.e.! R T j f p $ t i p p f G o.<.m.B.H.J.J.J.J.P.P.P.P.(.(.`.P.P.P.P.(.(.P.(.(.P.P.(.(.P.(.(.P.P.(.(.(.(.(.(.(.P.(.(.P.P.P.(.].].P.L.D.B.m.u.t.4.4.-.&.&.&.o.P F f 8 O.p.p.p.p.~.p.p.F.R.t.$.=.6.6.c.A.T.)._.1X2X3XkXnX2X_.nXjXhXfXjXjXrXrXrX).rXhXfXrXrXrXrXrXrXrXrXrXrXrX@X|.g.1.bXKXzXjXjXgXjXjXgXfXfXfXfXfXfXrXrXrXrXrXeXeXgXfXrXfXrXwXwX{..XfXrXeXeXrXrXrXrXrXrXeXeXeXeXtXrXeXeXeXtX+Xe.e.q.~ R T T x z p t : 6 g P o.;.=.6.j.h.K.2X3X X{.[.[.}.}.[.[.[.}.[..X.X[.[.[.[.[.].h.[.[.[.[.[.}.}.[.].{.[.[.[.[.[.[.[.[.[.}.|.E.D.D.G.y.4.( h.hXkXlXfXfXfXfXfXfXrXrXfX{.{.jXrXfXrXrXrXfXrXtXrXl.{.nXkXfXrXeXrXrX3XrXrX3XrXrX3XeXeXeXwX2X3XrXxX|.H.}.}.}.[.`.+XOXr.q.O.R f f f # & & & & . + + + + = - - = = = + + + + + = = = * * X * + X . o 4 7 4 e } } } } { e o o e e e e e e e ",
"e { { ] ] } { ] e o % O O o o 3 e c c 3 & O . & & o e [ +.8.8.8.8.3.+.+.e 8 0 0 8 8 7 7 7 - - * - * = - = * * * * * * * * 5 8 w H  .X.=.7.3.6.p.A.T.1XqXW.o.o.;.X.X.o.@.$.$.7.l._.4XbXbXpXiX4XiXyXyX4X4X1XqX0X0X0X0X0X0X0XQ.W.T.I.0X1XyXyXyXyXyXuXuXyXyXiXqXqXqXaXqXqXyXaX!.t.e.! R T j f p # t i p p d F ~ <.5.B.V.J.J.P.H.P.P.P.`.`.(.(.P.P.(.`.(.(.P.P.`.`.(.(.(.(.P.P.P.P.P.(.(.(.(.(.(.(.`.P.(.].(.(.].E.P.L.B.m.y.u.u.4.4.;.;.&.&.o.P F 0 w t.p.p.t.W.R.p.^.!.W.S.;.;.=.6.c.H.T.).).{.2X3XkXmX3X_.mXkXjXjXjXhXfXfXrX).rXjXfXrXrXrXrXfXfXrXrXrXrXrXwX|.B.%.xXKXzXjXjXjXfXfXgXgXrXfXfXfXfXrXrXrXrXrXeXeXgXfXrXhXrXrXwX{.{.jXrX3X3XrXfXeXrXgXrXrXrXeXeXrXrXrXeXeXtX+Xr.e.e.q.R T Y x z a t t 7 g P o.;.=.6.j.j.K.2X3X X{.}.[.[.}.[.[.[.[.[.}..X[.[.[.[.[.[.z.).{.[.[.[.[.}.[.[.[.[.[.[.[.[.[.[.[.[.[.}.E.L.D.S.y.4.( l.rXcXlXfXfXfXfXfXfXfXfXfX X{.jXrXrXrXrXrXrXrXfXgXK.H.zXzXhXrXrXrXrX3X3XrX3X3X3X3X3X3XeXeX2XeXeXxXwXh.@X}.}.|.|.|.OXr.e.q.! j s f $ & & & & . + + + + + = - - = + + X + = = = = = + + + + X X X X . . . o 7 l e e 4 o o o e ] ] ] ] e c ",
"{ { { { ] } } { { 3 . O + o o o o o e i & & o [ 8.a.a.9.8.+.+. .+.+.+.s.r.X.F P P P P J F J P P V r 8 r 8 w w V U @.3.p.W.0XqXiXpXLXLXLXLXJXJXLXJXbXxXqXR.o.P ;.;.X.&.X.@.$.6.j.K._.rXnXbXiXiXiXiXiXiXiXqXiXqXqXyXyXyXyXyX0X|.~.Q.yXyXyXyXyXuXuXpXuXpXyXyXqXqXyXqXqXyXiXqXR.r.O.! R T x f p # t i p p s A E *.1.B.V.J.J.P.J.P.P.P.(.`.(.(.P.P.(.`.`.`.`.(.`.`.P.(.(.(.P.P.(.P.(.`.(.`.`.(.(.`.`.P.(.].(.].].P.L.L.B.m.u.4.4.4.4.;.;.&.X.o.P g < J p.R.4.^.!.G.^.W.qX0XR.X.;.=.6.c.v.T.).)._.2X3XkXmXhX_.nXzXjXjXfXhXfXfXtX].rXjXjXfXrXrXrXrXfXgXrXrXrXrXwX|.I.#.yXKXmXjXjXgXfXfXfXgXfXfXfXfXgXfXrXfXrXrXrXeXfXgXrXrXrXrXwX{.).jXfXrXrXrXfXrXeXtXrXrXrXrXrXrXrXrXeXwXtXqXt.e.q.! R T T x z a t v : f P o.;.=.6.l.j.K. X3X X{.}.}.}.}.}.[.[.[.[..X.X[.[.[.[.[.}.V.K.{.[.[.[.[.}.[.[.[.[.[.[.[.[.[.[.].].].}.].L.D.S.m.5.( ,.wXcXlXfXfXfXrXrXfXfXfXfX2X_.jXfXrXrXrXrXrXrXfXgX.Xl.gXmXhXrXeXeXrX3X3XrXeX3X3X3X3X3X3XeXeXeXeXjXuXh.}.}.}.|.|.|.+Xu.e.q.q.T p f : & & & & & + + + + + = = = + + X X + + + + + + + X + + + X X + . . . & & o o o o o o o e ] ] ] ] ] c ",
"] { { { ] } } } { 4 . + . . o o O % o o o  .%X7X%X8. . . .l l e r 7 7 e l l g F F G J J J U &.4.4.4.4.4.4.6.y.m.A.~.].[.2X2XyXwXwXwX1X2XwXrXtXtXtX1X].A.-.P n ;.;.&.X.X.@.$.6.j.Y.K.1XmXKXnXpXrXuXpXpXpXiXiXyXyXyXyXyXyXyXyX0X1XyXyXyXyXiXuXpXpXpXuXpXyXyXqXqXaXyXqXyXiX!.y.e.q.! T T j f p # v t i p j A K *.1.g.V.J.P.P.P.P.(.(.(.(.`.(.P.(.(.`.`.`.P.`.(.P.P.(.(.(.(.(.(.P.`.`.`.`.(.`.`.`.(.`.`.(.(.].(.P.I.D.m.m.y.4.4.4.<.;.;.&.o.O.R g 0 o.p.t.S.!.S.R.!.Q.qX0Xy.U X.=.6.c.c.K.).)._.2X3XkXmXkX XnXmXjXjXjXhXhXhXrX].rXjXfXfXfXrXrXrXfXfXrXrXrXrXyX}.E.#.[.KXnXlXjXjXfXhXgXgXfXfXfXfXfXfXrXfXfXrXrXeXrXgXrXfXrXrXwX.X[.jXfXrXrXfXgXeXeXtXtXrXrXrXrXrXrXrXtXeXtXaXy.e.q.q.R T Y T z a t $ : f G o.;.=.6.6.j.Y.{.rX.X{.}. X[.[.[.[.[.[.}..X.X[.[.[.[.[.}.P.H.}.[.[.[.[.}.[.[.[.[.[.[.[.[.[.[.].].].}.|.L.D.S.m.y.#.%.}.cXlXfXfXfXrXfXfXfXfXfXrX[.jXfXrXrXfXrXrXfXfXgXrXz.{.mXjXrXrXrXrX3X2XrXrXrXeXeX3X3XrXeX2XeXeXrXxXA.|.}.}.|.|.|.+XZ.e.q.q.R p f : & O & & . + + + + + = = = + + X + + + + + + X + + X X X X X X . . . & o 3 4 o o 3 % o e { ] ] ] ] { ",
"{ { { { [ } } { { 4 . @ O . O O # o & [ %XdX<X8.[ r r r 8 7 o o o o 4 7 8 0 f g g F F F J P &.=.6.5.5.m.g.m.B.j.A.I.K.K._.)._._._.K.K.).T.).[.[.{.(.H.j.=.o.w O.;.o.X.X.@.$.6.j.c.Y._.4XmXKXbXrXvXvXpXuXiXiXyXyXyXyXyXiXyXyXyXyXyXiXyXiXyXuXpXxXpXpXpXpXyXyXyXyXyXyXyXaXR.-.;.! ! T T j f p # v i i p f j G ) <.g.B.J.J.P.P.H.P.(.(.(.(.P.P.(.(.`.`.`.(.`.`.`.(.`.`.(.(.(.(.(.`.`.`.`.(.(.(.`.`.`.`.].(.].P.P.L.L.B.m.y.t.4.4.-.;.;.&.o.O.F 0 w r.t.S.!.R.F.~.qX1XyX~.R.H U 4.1.c.c.K.).)._.2XrXcXmXcX2XnXnXjXjXjXhXhXfXgX].rXjXjXfXfXrXrXfXfXgXrXrXrXjXrX1X|.%.Y.KXnXkXlXjXfXgXjXgXfXfXfXfXfXfXfXfXfXrXrXeXrXgXfXfXrXtXeX2X(.tXlXrXrXfXgXrXeXtXtXrXrXrXeXrXrXtXtXtXtXtXS.e.e.q.! T Y T z z i t : 0 F o.;.=.6.1.j.Y._.rX.X{.{.[.[.[.[.[.[.[.[.}..X[.[.[.[.[.[.(.H.}.[.[.[.[.}.}.[.[.}.[.[.[.[.[.[.].].].}.|.L.D.S.m.y.=.$.].zXlXhXfXfXrXfXrXrXfXfXfX{.fXjXrXfXfXrXrXrXfXrXjX).v.zXkXrXrXrXrXrX2X3XrX3X3XrXrX3X3X3X2XeXeXrXzXP.E..X}.|.|.].+XZ.e.q.! R f f : O O O & & . X + + + + + + X + + + + + + + X X X X X X X X + & & & & o 3 3 4 o o 3 o o 4 { [ ] ] ] ] ",
"[ [ } } } } } { { o o . O O O O & o 8.7X<X0.[ r r 7 3 o o o 4 r l l r 7 8 6 f g g l l F J U X.=.6.6.5.6.6.j.j.c.Y.I.Y.P.].[.].].].(.(.(.(.P.P.(.P.P.z.1.=.o.F P ;.X.X.X.@.$.6.j.c.Y.K.1XrXcX1XK.lXvXpXpXiXpXiXiXyXyXiXiXyXyXyXyXyXiXiXiXuXuXpXxXpXpXpXpXyXyXyXyXyXiXiXqXy.e.q.! R T T j f p # t t t p f j A ~ <.g.B.C.J.P.P.P.P.`.(.(.(.P.P.`.(.P.`.P.(.`.`.(.P.`.`.(.(.(.(.(.`.`.`.(.`.`.`.].].].].].].).P.P.L.D.m.m.y.t.4.4.-.;.;.&.o.E F 8 P p.OXqXF.S.W.~.~.yXyXqXW.J J =.1.j.c.Y.T.)._.2XhXkXkXmX3XbXbXlXjXjXjXhXjXgX].wXjXjXfXrXfXrXrXrXgXrXrXrXjXrX1X}.l.j.JXnXkXlXjXjXgXjXgXfXfXfXjXgXfXfXfXfXrXrXeXrXgXgXgXgXtXeXwXP.}.zXfXrXfXjXrXrXtXtXrXrXrXrXrXrXtXtXeXtXpXR.r.e.q.O.R Y T x z a t : p F o.;.=.4.1.j.Y.).3X2X{.{.[.[.[.}.[.[.[.[.}..X[.[.[.[.[.[.].v.[.[.[.[.[.}.{.[.[.[.[.[.[.[.[.[.].].].}.|.L.D.G.G.y.<.( P.kXlXhXfXfXfXrXrXfXfXfXgX X3XlXfXrXrXfXrXrXrXrXjX2Xl.rXzXrXrXrXrXrX2XeXrX3X3XeX3X3X3X3X2XeXeXrXzX].L.@X}.}.|.`.+XR.;.q.! ! j p : O O O O O O O . + + + + + + + + + + + + + + + + X X . . + & & & & . 3 4 3 4 4 4 4 o o 4 { { [ [ [ [ ",
"} } } } } } { { e o o O O % o & r %X7X#X .5 5 5 o o   4 e +.8.9.a.a.a.a.+.l 7 0 g g g g F J I &.<.6.5.6.6.6.6.A.I.L.I.P.].].[.].(.(.P.P.P.K.J.H.H.H.h.1.=.o.C F ;.X.X.X.@.#.6.j.c.H.K._.3X4X_.K.4XvXlXpXuXpXuXiXiXyXuXuXyXyXyXyXyXiXiXpXpXpXxXxXpXpXpXpXyXyXaXaXiXyXiX!.t.e.q.! R T T j f p # t t y s f j A K -.5.B.V.J.P.P.P.P.(.`.`.(.P.P.`.`.`.`.(.(.`.`.(.(.`.`.(.`.(.(.`.`.].`.`.(.`.].].].].`.`.(.`.P.I.L.D.m.m.y.t.4.4.=.;.&.o.o.R w n t.!.aXS.S.W.~.~.0X0XyXqXu.0 F ;.4.j.c.Y.T.).).2XrXkXkXmXhXnXbXlXlXjXjXjXjXjX].wXjXjXfXfXfXfXrXrXgXjXrXrXfXrX2X}.h.,.bXKXzXlXjXjXjXjXjXgXfXfXgXgXfXfXfXfXfXfXeXeXgXgXfXgXrXrXwX].P.zXfXrXfXjXrXrXrXtXrXrXrXrXrXrXtXtXtXtXpXE.r.e.e.O.R R T x z a t $ 6 F O.;.-.4.1.j.H.).3X3X{.{.[.[.[.[.[.[.[.}.}.}.[.[.[.[.[.[.[.H.[.}.[.[.[.[.{.[.[.}.[.[.[.[.[.[.].].[.[.|.I.D.G.G.y.4.( H.kXcXhXfXfXfXrXrXrXfXfXgX X{.lXfXfXrXrXfXrXrXtXjXgXv.{.nXjXrXrXrXrX2X3XrXrX3XrXrXeX3XeX3XeX3X4XxXwXV.@X}.}.].`.+XOXr.q.! ! x p : O # # O O O . . . . + O + + X + + + + + + + X X X X . . & & & & & o 4 4 4 4 4 4 4 o 3 o e [ [ [ [ [ ",
"} } } } } } } { 4   o O O o &  .<X<X0.[ 5 5 4 o . o l +.8.9.a.a.a.%X%X%X%X%X+.5 r r r r V V  . .X.$.7.6.6.g.m.L.H.H.K.K.P.].].(.K.K.K.(.(.J.v.v.B.h.h.<.=.o.w C ;.X.X.X.@.#.1.j.c.v.v._.4X3X5X_.rXbXxXpXpXuXpXuXyXiXuXpXyXyXyXyXyXiXiXpXpXxXxXxXxXxXxXpXuXyXaXiXiXiXaXR.r.e.~ ! R T T j f i # v t p s f j A K &.1.m.V.J.P.P.P.P.`.(.(.(.P.P.`.(.`.(.(.(.`.`.`.`.].`.`.`.(.(.(.`.].].(.(.`.`.].].(.(.).].(.P.L.L.B.m.y.u.t.4.4.=.;.;.&.O.G 8 X.S.qXW.G.W.~.~.0XqXyXaXW.F ; g o.4.6.c.Y.).)._. XrXkXcXmXkXKXnXkXjXjXjXjXjXjX{.2XjXjXjXfXfXfXfXfXgXjXrXrXrXrXwXwXP.%.xXKXcXzXlXgXjXjXjXjXfXfXfXfXgXfXfXfXfXfXrXeXgXgXgXgXrXrXwXwXH.lXlXfXfXjXfXrXrXtXgXrXtXrXrXrXgXtXtXrXxXW.r.e.e.O.R R Y x z a i $ 6 l O.&.=.4.1.j.H.).3X3X{.{.[.[.[.[.[.[.}.}.}..X{.[.[.[.[.[.}.H.`..X[.[.[.[.{.[.[.[.[.[.[.[.[.[.[.[.[.[.}.E.D.A.G.m.5.( j.jXcXlXfXfXfXrXrXrXfXfXgX3X_.lXjXfXfXfXfXrXrXtXgXxX).v.zXjX3XrXrXrX3X3XrXeX3XeXrXrX3X3X3XeX3X2XjXtXV.}.}.}.|.|.|.OXe.q.q.q.T p : O # # # # O O . . . O O O O O X X X O . . . . . . . . & & & & & & 4 e 4 4 4 4 4 4 4 3 4 4 { [ } [ [ ",
"e { } } } } { ] o o @ O . & 8.7X<X0.[ 5 4 o o o 7 +.+.+.9.9.9.a.a.%X%X%X%X<X<X<X<X7X7X7X7X7X7X<X*X9.9.9.7.7.6.c.Y.Y.Y.Y.K.).).P.P.P.P.P.P.H.H.B.j.j.g.<.*.o.C C ;.X.X.X.@.$.6.j.c.v.v.).5X3XhX2X3XmXvXlXpXpXuXpXiXiXpXpXyXyXiXiXiXiXuXpXpXxXxXxXxXxXxXpXuXiXiXaXiXiXqXZ.r.e.! ! R T Y j f i # v i p s f j A G ) 1.m.V.J.P.P.P.P.`.(.(.(.P.(.`.`.(.(.(.`.].`.`.`.].`.`.(.(.`.`.].].`.`.].].].].`.].(.[.].P.P.L.L.B.m.m.y.4.4.4.=.;.;.o.O.g C 3.S.W.^.W.~.1X0XqXyXqXqX;.0 ; w o.6.6.c.Y.)._.). XrXkXcXmXcXKXnXkXlXjXjXjXjXjX.X2XjXjXfXfXgXfXfXfXgXjXrXrXrXtXwXwX].%.wXKXmXkXlXjXjXgXjXjXfXfXgXgXgXfXgXfXfXgXrXeXfXgXfXgXrXrXwXyXH.2XcXfXfXjXgXrXrXtXgXrXrXrXrXgXrXtXtXrXxXOXt.e.e.q.R R Y z z z i $ : g P ;.=.4.1.j.H.(.3X3X X{.[.}.[.[.}.[.[.[.}..X{.[.}.[.[.[.[.P.(.}.[.[.[.[.}.}.[.[.[.[.[.[.[.[.[.].[.[.}.E.D.A.G.m.y.( 1.rXcXlXfXfXfXrXrXrXfXfXfXrX_.gXlXfXfXfXrXrXrXrXrXjX2Xl.rXlX3X3XrXrX3X2X3XeXeX3XrXeX3X3X3X3X3X2XuXxXV.}.}.}.}.].|.+Xu.;.~ ! R f $ # # $ $ $ $ $ O . . & & & . . . . . . . & & . . & . . & & & & & 3 e e e e 4 4 4 4 4 e 4 o 4 [ } } } ",
"5 e { } } } { e o o O o o +.7X*X0.[ 5 4 4 o   e X.+.+.+.+.8.8.9.9.%X<X7X6X8XBXBXBXVXVXVXVXZXZXZXZXZXBXsX9X<Xb.9.9.c.H.P.P.(.).(.J.J.P.P.H.H.H.h.h.g.g.<.&.&.C w O.O.X.X.@.$.6.j.h.v.v.)._.2XhXhXrXnXvXlXpXpXpXpXuXiXpXpXyXyXiXiXpXiXiXpXxXxXxXbXxXxXxXpXiXaXyXyXyXaXOXu.r.e.! ! R T T j f i # t t p s j j A S ~ <.m.V.J.P.P.P.P.(.(.(.(.P.(.`.`.(.(.(.`.`.`.(.`.`.`.`.].(.`.(.`.[.`.`.`.`.].(.(.].(.].].P.P.L.L.B.m.y.y.t.4.-.;.;.o.o.P w X.p.F.Q.Q.0X0XqXyXqXqXiXW.J 6 - 0 X.=.6.c.Y.).).)._.rXkXcXvXvXKXnXzXlXjXjXjXjXlX3X.XlXjXjXrXfXfXrXrXrXjXfXrXtXtXrXwX}.%.].KXnXkXkXjXjXjXjXjXjXrXjXjXgXgXtXgXtXtXrXeXrXrXrXrXrXrXwXwX].).mXjXfXjXjXrXrXgXgXtXtXtXtXgXrXtXtXrXpX+Xt.e.e.q.R R T z z z a : : g P ;.=.4.6.j.H.K.3XfX X[.[.[.[.}.}.[.[.[..X.X}.}.[.[.[.[.{.(.P.}.[.[.[.[.}.}.[.}.[.[.[.[.[.[.[.[.].[.}.E.D.D.m.m.y./ #.yXcXlXhXfXfXrXrXrXrXfXfXfX_.3XlXfXfXfXfXrXrXrXrXjXjXH.{.zX3X3XrXrXrX2XrXrX3X3XeX3XeX3X3X3X3X2XtXcXH.].@X}.}.].|.+XD.e.! ! R f : # $ $ $ $ $ $ : $ # + O O . . . . & . & & & & & & & & & & & & & 4 e 4 e e e 4 4 4 4 3 4 4 4 c } } [ ",
"e 5 5 ] { { ] e o @ @ o ..7X*X..[ 5 4 @ o o l l } +.+.[ [  .0.#X<X7X6X8XNXNXNXNXBXNXNXNXNXNXNXBX8XBXBXVXZXZXZXsXdXb.b.c.Y.T.P.(.K.H.P.J.H.H.H.h.g.g.g.<.=.o.F w O.P X.X.$.$.1.6.h.c.v.K._._.4XhXhXnXnXmXpXpXpXxXuXuXpXpXiXiXuXuXpXiXuXxXxXxXbXxXxXxXxXpXiXiXyXyXyXyXE.e.e.e.! R T T T j f i # v t p s j j A A K <.m.V.J.P.P.P.P.(.(.(.P.P.`.`.`.`.(.`.].].`.`.`.(.(.`.].(.(.(.].`.(.`.`.(.`.`.`.].].].`.(.P.I.L.D.m.y.y.t.3.-.=.;.o.O.F F ;.S.F.1X0XqXyXyXyXqXqXqX3.w > - 0 X.=.6.c.Y.)._.)._.3XkXcXmXvXKXbXmXhXjXjXlXlXlXrX.XlXjXjXfXfXjXrXrXjXjXjXrXtXgXtXwXwX,.A.KXbXvXkXjXjXjXjXjXjXrXfXjXgXgXtXgXtXtXtXrXrXrXrXfXrXrXeXwX@Xv.zXlXfXjXjXgXrXrXgXgXtXtXtXrXtXtXtXtXpXaXu.r.e.q.R R T z z x f i : f P ;.3.4.6.j.H.K.3X4X X X[.[.[..X[.[.[.}.}.}.}.}.[.[.[.[.[.].J.}.[.[.[.[.}.}.[.}.[.[.[.[.}.[.[.[.].[.}.].D.S.m.m.m.#.$.1XcXkXhXfXrXrXrXrXfXfXfXgX X{.zXhXfXrXfXrXrXrXrXrXzX{.K.jXrX3XrXrXrX2XeXrX3XeXeX3X3X3XeX3X3XeXrXcXP.`.@X}.}.].|.+XR.e.~ ! R j : + $ $ $ $ v t t : : : $ $ $ @ @ + + + + O O . . . & & & & & & o e e e e e e e e e e e 4 4 4 o { } [ ",
"+.] 5 4 e ] e 7 3 3 o [ <X=X..[ e 4 o . o r l r [  .+.8.#X#X7X6X6XNXNXNXNXNXNX6X6X8X8X8XNXNXNXBXBXBXBXBXBXBXZXZXZXZXsX<Xb.c.Y.P.P.J.J.J.J.H.H.B.h.g.g.<.=.&.F w O.P I X.$.$.1.l.h.c.c.K.)._.5X5X5XcXnXmXvXxXxXxXpXuXpXxXpXuXuXpXpXpXpXxXxXxXbXxXxXxXpXpXpXiXiXiXyXqXZ.r.e.e.! ! T T Y j f t # t t p s j j j A K -.m.V.J.P.P.P.P.(.(.(.P.P.(.`.`.(.`.`.].`.`.`.`.].].].].].`.(.].[.`.`.`.`.].[.`.[.[.[.].P.P.I.D.D.m.m.y.4.3.-.=.;.o.P n X.t.F.~.1X0XyXyXyXyXqXaXW.H 0 : + ; P =.6.A.Y.T._.)._.3XlXcXmXmXnXmXmXjXjXlXkXjXlXrX.XlXjXjXhXjXjXjXjXjXjXjXtXtXtXtXyXyXh.,.JXKXmXzXlXjXjXjXjXjXjXhXjXjXgXgXgXgXgXtXrXrXrXrXfXrXtXtXwXtXh.rXzXfXjXlXgXgXgXgXgXgXtXtXtXtXtXtXtXtXaXS.r.e.q.R Y T z z x z p : 0 P o.3.4.6.j.H.K.3XfX X X[.[.[.}.[.[.[.}.}.}.[.[.[.[.[.[.[.[.J.[.{.[.[.[.}.}.[.}.[.[.[.[.[.[.[.[.].].}.].L.D.A.m.y.=.( ].kXcXhXfXrXrXrXrXrXfXfXfX3X_.lXhXfXfXfXrXrXrXrXrXlXtXH.rXrX3XrXrXrX3X3XrXrX3XeX3X3X3X3X3X3X3XeXbX].H.@X}.}.].|.+XE.e.~ ! ! T 7 $ v $ $ v t t t t t t : : : : : : $ $ $ $ $ @ @ + + O + + O . 3 e e e e e e e e e e e 7 4 o & e } [ ",
"..+.[ 5 4 e e 7 e 4 r #X*X0. .r e o o o [ ..0.#X*X7X6X6X8XNXNXNXNXNXNXNX6X6X6X6X8X8X6X6X6X6X6X6X6X6X6X9X9X9X9X9X9XsXDXDXsX5XT.P.(.K.H.J.J.H.H.V.h.g.1.<.=.o.J w P P I X.@.=.6.l.c.c.c.v.K._._._._.hXnXnXvXvXvXxXxXpXuXxXpXiXuXpXpXpXpXxXxXxXbXbXxXxXpXpXpXiXiXuXpX+Xu.r.e.e.! R T T A j f t # v t p s j j j A G *.m.V.H.P.P.P.P.(.(.(.P.(.`.`.(.`.`.`.].].`.`.].].].].].(.].].].[.`.`.`.[.[.[.`.[.].[.].(.P.I.D.D.m.y.y.4.-.=.;.;.o.J V ;.S.Q.yX1XqXyXyXyXqXqXqXr.g 6 : + ; P ;.6.c.Y.K._._._.2XhXkXmXnXnXmXmXkXjXjXkXjXjXgX.XlXjXjXjXjXjXjXjXjXjXjXtXuXjXtXyXyXP.%.xXKXmXzXkXjXjXjXjXjXjXhXjXjXjXgXgXjXgXgXrXrXtXgXgXrXtXrXwXtXY.{.nXjXhXlXjXrXtXjXgXjXgXtXtXtXtXtXtXtXtXE.r.e.q.R T T z z Y z a : 6 F o.3.6.6.j.H.K.3XfX X[.[.}.}.[.}.[.[.}..X}.[.[.}.[.[.[.[.[.J.[.{.[.[.[.[.}.[.[.[.[.[.[.[.[.[.[.[.[.[.|.L.B.A.m.y.<.B Y.kXcXhXfXfXfXrXrXrXfXfXrXfX_.fXlXfXfXfXrXfXrXrXrXjXzX(.{.rX2X3XrXrX3X3XrXrXeX3X3X3X3XeXrX3X2XwXcXwXH.wX}.}.].|.|.~.i.~ ! ! T p $ $ $ $ t t i t t t t : : : : : : : : : : : : : : @ @ @ @ @ . 4 e e e e e e e e e e e 4 7 . & o [ [ ",
"....+.[ 4 e e 7 4 5 8.*X0. .[ 5 o 5 ..#X=X6X8XNXNXNXNXNXNXNXNXNXNX8X;X6X8X9X7X7X*X=X=X7X7X7X7X6X7X7X7X9X9XdX<X<X<X<X<X<X5X1X[.P.P.P.H.J.J.H.H.H.h.g.5.<.=.o.J 0 P P I X.@.=.6.l.c.c.c.v.K.)._._._.rXnXKXnXvXxXxXxXpXuXxXpXiXpXpXpXpXpXpXxXvXbXxXxXxXxXxXpXpXpXpXpX~.e.e.e.q.! R T T x j f t + t t i s f f j A G ) u.B.V.P.P.P.P.`.`.(.P.(.`.`.(.].(.].].].`.`.`.].(.].].(.(.].].`.(.[.[.[.[.`.[.[.].].].P.P.I.A.m.y.y.y.4.3.=.;.O.P n U p.~.1X1XqXqX0XyXyXqXqXW.E 0 > : + ; P ;.6.c.Y.K._._._.5XhXkXmXnXmXvXnXkXjXjXzXjXjXjX.XjXzXjXjXjXjXjXgXjXjXjXtXtXjXtXtXyX|.$.yXKXnXzXzXjXjXjXjXjXjXjXjXjXjXgXgXjXtXtXtXrXgXrXtXtXrXrXwXwX[.K.nXzXhXkXjXtXtXjXgXgXgXtXtXtXtXgXtXtXpX!.r.r.q.! R T x x x z a : 6 F o.3.4.6.j.H.K.3XfX X{.[.}.}.[.[.[.[.[.}.}.[.[.[.[.[.[.{.[.P.].{.[.[.[.}.}.[.[.[.[.[.].[.[.[.{.[.[.[.}.P.A.A.m.m.4.B h.jXcXhXfXfXfXrXrXrXfXfXrXfX{.3XkXfXfXfXrXrXrXrXrXrXzX2XK.rXwXeXrXeXrX3XrXeX3X3XrX3XeXeXrX3XeXwXzXtXz.}.}.|.|.|.|.OXp.e.! R Y p $ $ $ v t t t i y t i t t t t t t t : : : : : : : : : : : : @ 7 e e e e e e e e e e e 7 3 . . o { } ",
"8.....+.e 4 7 7 4  .=X$X..[ ] 5 ..#X6X;X;X8X8XBXBX8X8X8X8XNXNXNXNXNXBX8X=X0. .] ..7X7X7X7X7X7X<X<X9.9.9.7.6.6.6.6.l.l.6.c.c.A.P.P.P.P.J.J.J.H.V.h.g.g.<.=.&.P q P P X.&.@.=.6.6.j.c.c.v.K.).).).).2XnXnXnXnXvXvXxXxXuXxXpXpXpXpXpXpXpXxXxXvXbXbXxXxXxXxXpXpXpXpXaXR.;.e.q.q.! R T T Y f f t + t t t s f j j A G ~ 4.B.H.P.P.P.P.`.(.P.P.(.(.(.`.].`.].].`.].].].`.].].].(.(.].[.[.`.].[.[.[.[.[.[.[.[.].P.P.L.A.G.m.m.y.4.3.-.;.o.J m =.W.yX1XyXyXyXqXqXqXyXqXt.F 0 > : + ; P &.6.c.Y.K._._._.5XhXkXmXnXmXnXbXkXjXjXlXjXjXzX2XgXzXjXjXjXjXjXjXjXjXjXjXjXjXtXtXtXwX%.].KXbXvXzXkXjXjXjXjXjXjXjXjXjXgXgXgXjXgXtXrXgXtXgXtXtXtXwXwXwXv.zXnXhXlXlXjXgXjXgXjXgXgXgXtXtXtXtXtXtXaXy.r.e.! R T x x x x a : : l o.=.4.6.j.H.K.2XfX X{.[.[.[.[.[.[.[.[.[.}.[.[.[.[.[.[.[.}.(.(.{.[.[.[.[.}.[.[.[.[.[.[.[.[.[.[.[.[.[.[.E.D.B.m.y.4.U l.hXmXhXfXfXrXrXrXrXfXrXfXrX2X XzXhXfXfXrXrXrXrXrXrXjXjXK.2XeXrXrXrXeX3X3XrXrXeXrXeXeXeXrXeX3X2XxXxXc.}.@X}.}.|.|.+XR.r.! ! Y p $ $ $ t t t t i p p p y y y p p y t : : : : 6 6 6 6 7 : : : @ r ] ] ] ] ] ] ] e e e e 7 o . O . e [ ",
"8.8.8.8. .5 5 4 ] #X#X..[ ] [ $X7X6X;X8X8X8X7X#X#X........-XNX8X6X7X#X..[ r r +.<X<X<X9.9.9.+. . . .U U U =.5.g.h.A.B.H.H.H.H.J.J.P.P.H.J.H.H.H.B.j.g.<.=.&.P w P P I @.$.=.1.l.j.c.c.v.K.).).).).5XlXnXKXnXmXvXxXxXpXxXpXpXpXpXpXpXpXxXxXvXbXbXxXxXxXxXpXpXpXpXqX-.;.O.O.q.E T T T Y j f : + t t p p s j j A G I <.B.H.P.P.P.P.(.`.(.P.(.`.`.(.`.].].].`.`.].].].].].`.].].`.[.`.`.[.[.[.[.[.[.[.].[.].P.P.I.A.m.y.m.y.t.3.-.;.O.n U S.qX1X1XyXyXyXqXqXyXiX!.;.C s : @ X ; G ;.6.c.Y.)._._._._.3XkXmXnXmXnXnXvXkXjXkXjXjXzXeXgXzXlXjXjXjXjXjXjXjXjXjXjXjXjXtXyXyXl.c.KXKXzXzXkXjXjXjXjXjXjXjXjXjXjXjXjXjXjXgXrXgXgXgXgXtXtXtXwXyXH.2XnXkXkXzXjXjXjXjXjXjXgXgXtXtXgXtXtXaXaXR.r.e.! q.R x f x x f t - g X.-.6.6.j.H.H.2XfX X X{.[.[.}.}.[.[.[.[..X{.[.[.[.[.[.[.}.].(.}.[.[.[.[.}.[.[.[.[.[.[.[.[.[.[.[.[.[.].].D.B.m.m.u.U %.rXmXlXhXfXrXfXrXrXfXrXfXrXeX{.kXjXfXfXfXrXrXrXrXrXrXcX{.].rXeXrXrXeX3X3XrXrXeXrXeXeXeXrXrX3X2XuXzXH.].@X}.}.|.|.+XR.r.! ! R f $ $ $ t t t t p p p p p p p p p p p p p p p p p p p 6 p 6 : @ r ] e ] ] [ ] ] ] e e e o & . O . 4 +.",
"....8.8.8.] 5 5 8.#X..[ [ [ #X6X6X8X8X-X#X0.......0.$X$X$X=X;X:X0. .[ e l l +.9.+. . .V V V U U P I I I U #.<.1.j.h.z.H.H.H.H.J.J.P.P.J.H.J.H.H.H.B.g.<.=.&.P w F P P X.$.6.1.6.j.c.c.v.K.).).).).oXhXcXnXnXbXvXvXxXpXxXxXpXpXpXpXpXxXxXxXvXbXbXxXvXbXvXxXpXpXpXR.-.;.O.~ O.E T T T Y j f : + t t p s s j j A G I <.B.V.P.P.P.P.(.(.(.(.(.`.`.(.`.].].].].].].].`.].].`.].].`.[.`.].[.[.[.[.[.[.].].[.].P.P.I.A.G.y.y.t.4.3.-.o.P n =.1XyX1XyXyXyXqXyXiXiXqXS.P g s : @ X - J &.6.j.Y.).)._._._.4XhXkXmXcXKXKXvXzXlXzXjXzXzXgXfXzXjXjXjXjXlXjXjXjXjXjXjXjXjXuXtXtXH.%.LXKXvXzXkXlXjXjXlXjXjXjXjXjXgXjXjXjXgXgXrXgXgXgXgXgXtXtXwXtXP.).nXmXkXzXjXgXjXjXjXxXjXgXtXtXxXtXtXyXiX!.r.e.! q.! x a z x f p - f P ;.4.6.j.H.K.2XfX X{.[.[.}.[.[.[.[.[.[.{.[.[.[.[.[.[.[.}.[.P.[.[.[.[.[.}.[.[.[.[.[.[.[.[.[.[.[.[.[.[.].L.m.m.y.u.U %..XmXlXfXfXfXrXrXfXfXfXrXrXrX{.hXkXfXfXfXrXrXrXrXrXrXlXjXP.rXeXrXrXrXrXeXrXrXrXeXeXeXeXrXeX3X2XrXcXP.].@X}.}.|.|.+XOXi.e.R R f $ $ t t t t i p p p p p p p p p p p p p p p p p p p 6 6 p : @ r ] ] ] [ [ ] ] e r 7 o & . . . & & r ",
" .....8.8. .4 [ #X.. .[  .:X-X;X6X=X$X.. ...#X7X8XBXBXVXVXVXNX8X6X*X0. .r  .V r V V m B U U J P I I I I I I #.1.g.h.B.H.H.v.H.J.P.P.P.P.H.J.H.H.H.B.g.<.=.;.P n F P I X.@.6.1.6.l.j.c.c.v.).).).).oXMXhXhXmXKXbXvXxXxXxXvXpXpXpXxXpXpXxXxXbXbXbXvXxXvXbXxXxXLXqXt.;.O.O.~ ~ ! R T T x f f : # : t p f f j j A F E -.m.H.J.P.P.(.(.P.(.(.`.`.(.(.].`.].].(.(.].].`.].`.(.`.`.[.[.[.).[.[.[.[.[.[.[.[.[.].P.P.I.D.A.m.y.t.4.3.-.o.F V G.yX0XyXyXyXyXiXiXyXiXqXr.G g 6 > - + - F o.4.G.Y.)._._._._.2XlXvXvX1XKXKXbXvXlXkXlXkXzXjXhXzXlXjXjXjXjXjXjXjXjXjXjXjXjXjXtXuX|.%.xXKXmXzXzXlXjXjXlXjXjXjXjXjXjXjXjXjXjXjXrXjXjXjXjXtXtXtXwXwX[.v.zXbXzXkXzXjXgXjXjXjXjXjXgXtXgXgXtXtXpXqXy.e.! R q.Y s a z z a : s R ;.y.5.j.A.H. XfX X{.[.[.[.[.[.[.}.[.[.{.[.[.[.[.[.[.{.{.[.K.[.[.[.[.[.{.[.[.[.[.[.[.[.[.[.[.[.[.[.[.].P.m.S.m.u.I #.{.mXkXfXfXfXrXrXrXrXfXrXrXrX2X2XzXfXfXfXfXfXfXrXrXrXrXzX].2XrXeXrXrXrXeXrXrXeXeXeXeXeXeXrXwX2XrXcX].P.wX}.}.}.|.|.OXi.e.! R x : $ t t t t i p p p p p p p p p p p p s s s s s p p p p y : @ e ] ] [ [ [ [ l l 7 o & & & & & & & & ",
"[  ...8.....5 8.9. .[ ..*X=X-X=X$X......*X8X8X8X8X8X8XNXNXNXCXVXVXVXZX9X<X9. . .V V V U J K J U P U U U P P / %.,.j.h.H.H.H.J.J.J.P.P.P.J.J.J.H.H.B.g.5.<.;.P F n P P X.@.<.1.6.j.j.h.c.v.K.K.n.).5X4XMX4X4XcXbXvXvXvXvXvXpXpXpXxXpXpXxXxXvXbXbXvXbXLXLXxXLXxXE.r.;.O.~ ~ ~ ! R T T x j a : $ : : p f f j j A T G -.m.H.J.J.P.(.`.(.P.P.(.`.`.`.(.].(.].(.(.].].[.[.`.`.[.`.[.[.[.[.[.[.[.[.[.[.[.[.[.].P.P.P.L.A.m.y.y.4.3.-.E w m W.yX0XyXyXyXyXiXiXpXiXR.o.A s > : + + - F X.6.j.Y.K._._._._.2XhXmXvXc.KXKXbXvXlXkXlXlXzXkXjXzXzXlXjXjXjXjXjXjXjXjXjXjXjXjXtXtXwX%.wXKXnXvXzXlXjXjXjXlXjXjXjXjXjXjXjXjXjXjXgXjXjXjXjXgXtXtXwX@XtXH.2XKXnXkXzXjXjXjXjXxXxXjXgXtXgXgXtXtXtXaXR.e.! R ! ! x p f f f : 6 P ;.4.5.j.A.H. XfX.X X{.[.[.}.}.[.[.[.[.{.[.[.[.[.[.[.[.}.}.(.[..X[.[.[.[.[.[.[.[.[.[.[.[.[.[.[.[.'.[.[.P.G.m.6.u./ #.).cXkXfXfXfXfXrXrXfXfXrXrXrX2X{.zXjXfXfXfXrXfXfXfXrXrXzXrX{.rX3XrXrXrXrXeXrXrXrXrXrXeXeXrX2X2XeXcX0XY.wX}.}.|.|.|.OXp.e.q.R T : $ t t i i p p p p p p p p p s s s s s f f s s s p p p p : @ 7 { { } } [ { c e & & & & & & & & & & ",
"[ [ [ ....[ ..#X..[ ..:X:X=X#X......#X6X6X;X;X>X8X8X8X8X8XNXNXNXNXNXNXBXZXZXsX7X9. .V V J P J J U U U U P P I @.<.g.h.A.H.H.H.J.P.P.P.P.P.P.H.H.v.B.m.5.<.;.X.J w P P X.$.<.6.1.j.c.j.c.Y.K.).)._.2X4X4X5X5X4XcXbXbXbXvXbXxXpXpXpXpXpXpXvXvXLXLXLXLXLXLXLXaX~.u.e.;.q.~ ! ~ ! R T T x j a $ # $ t p f f j j A T K &.m.L.J.P.P.(.`.P.P.(.(.`.`.`.].[.].].].].[.[.`.`.`.`.[.[.[.[.[.[.[.[.[.[.[.[.[.[.[.].P.P.P.L.A.G.y.y.t.4.;.P 8 m ~.yXyXiXiXiXiXpXpXxXqXt.E g 0 > : = + = F &.=.j.Y.K._._._._.5XhXmXnXl.KXKXnXzXvXzXlXkXzXkXjXkXzXkXjXjXzXzXzXjXjXjXjXjXjXjXjXuXtX1.P.KXKXvXzXzXlXjXlXlXjXjXjXjXjXjXjXjXjXjXjXgXjXjXjXjXgXtXeX@XtX].K.nXKXmXvXjXjXjXjXxXxXjXjXtXtXgXtXtXtXpXOXe.q.! ! ! Y a p f f > > F ;.4.5.j.A.v. XfX.X{.{.[.}.}.[.}.}.[.[.{.[.[.[.[.[.[.{.}.}.(.]..X{.[.[.[.[.[.[.[.[.[.[.[.[.[.[.[.[.[.[.P.G.m.j.5./ #.).cXcXfXfXfXrXrXfXfXfXrXrXrXrX{.jXlXfXfXfXfXfXfXrXrXrXjXzX{.rXrXrXrXrXeXeXrXrXrXrXrXeXeXeXeXwXwXzXtXH.@X}.}.}.|.|.+XR.e.e.! T t $ $ t i t p p p p p a p p s f f s f f f f f f s s s p p : : 3 l } } } { c 3 & & & & & & & & & & & ",
"[ [ [ [  .[ 8...[ ..:X$X:X$X....0.=X6X;X;X;X>X>X>X8X8XNXNXNXNXNXNXNXNXNXNX8X8XVXVXsX<X0.V V U U K I I P P P P I <.1.j.B.H.H.H.J.J.P.P.P.J.J.J.H.H.H.B.5.<.=.o.G w P P X.@.=.6.1.j.j.h.c.Y.K.).)._.2X4X5XoXoX5X3XlXbXJXLXLXvXpXvXxXxXpXxXvXvXLXLXxXLXLXpX|.5.e.e.e.q.! ! ! ! ! R T T x f p # $ : t p f f j j A A G &.m.H.H.P.P.(.`.P.P.`.(.`.`.`.`.].[.`.].`.[.[.`.[.[.`.[.`.[.[.[.[.[._.[.[.[.[.[.[.[.].P.P.P.A.A.G.y.t.t.3.o.P 8 J W.1X1XuXxXvXbXvXbXpXW.3.P g s > - + + = C X.=.j.A.K.)._._._._.rXvXbXc.bXKXzXK.vXzXxXzXzXzXjXkXzXzXlXjXzXzXzXjXjXzXjXxXxXjXjXuXxXL.j.KXKXmXzXzXlXjXjXlXlXjXjXjXjXjXlXzXjXjXjXgXjXjXjXjXjXgXtXwXyXwXv.rXKXnXmXzXjXjXjXxXxXjXjXjXtXgXtXtXtXtXaXp.q.R ! ! ! x p f f y : F ;.4.4.j.A.v. XfX.X{.[.}.[.[.[.}.[.[.[.[.{.[.[.[.[.[.[.}.{.).(..X[.[.{.[.[.[.[.[.[.[.[.[.[.[.[.[.].[.[.T.D.y.j.5./ @.).kXcXfXfXfXfXrXrXfXfXrXrXrXrX2XrXzXfXfXrXfXfXfXrXrXrXjXzX2X2XrXrXrXrXrXeXrXrXrXfXrXeXeXrXeXwXwXjXxXI.}.}.}.}.|.|.+XR.r.e.! T p # : t i i i p p p a p p f f f j f f f j f f f s s s s p y : @ e } } c 7 o & . & & & & & & & & & & ",
"..[ [ [ [ [ 8. .[ #X$X$X$X....$X-X-X;X;X;X;X>X8X>XNXNXNXNXNXNXNXCXNXNXNXNXNXNXNXNXBXVXsX<X7.V V P P I K K P P I @.<.5.h.v.H.J.H.J.P.P.P.P.P.P.H.H.H.B.5.6.=.o.P w P P X.@.<.6.1.j.l.j.c.Y.K.K.)._.2XoXoXoXoXoXoX2X{.pXLXLXLXvXvXvXxXxXxXxXxXJXJXLXpX~.<.#./ -.e.e.q.! ! ! E ! T T T x f p # $ : t p f f j j A A G &.m.V.L.P.P.(.(.P.(.(.(.`.].(.`.].`.[.`.(.[.[.`.`.`.`.`.`.[.[.[.[.[.[.[.[.[.[.[.[.[.[.P.P.P.L.A.G.t.t.t.3.o.P 8 U ~.T.).yXxXKXPXKXuXF.y.&.G g 6 > = + + + F X.=.6.A.K.)._._._.{.3XvXnXK.KXKXuXl.bXvXxXzXzXzXjXkXzXzXkXzXzXzXzXzXzXzXxXxXxXxXjXjXxX|.%.nXKXnXzXzXzXlXjXzXzXlXlXjXjXjXjXjXjXjXjXgXjXjXjXjXgXjXtXyXwXpXT.T.bXKXnXzXzXjXjXxXxXjXjXjXgXgXgXtXpXtXaXR.e.! R ! ! Y a p f p : l O.4.6.j.A.v. XfX3X X{.[.[.}.[.[.[.[.[.{.{.[.[.[.[.[.{.{..X[.(. X[.[.[.[.{.[.[.}.[.[.[.[.[.[.[.[.[.[.[.].D.y.j.5.@.#.T.lXmXfXfXfXrXrXrXfXfXrXrXrXrXrX2XzXfXrXfXfXfXfXfXrXfXfXzXrX{.rXrXrXrXrXrXeXrXrXrXrXrXeXrXeXwXeXjXcXP.].}.}.}.|.|.+XE.i.e.! R a # $ t i i i p p p p f f f f j j f f j j f f s f s s s p p : - @ @ o .   . . & & & & & & & & & & & ",
"8.[ [ [ [ +...[ 0.*X$X$X....:X-X-X;X;X;X;X>X8X8XNXNXNXNXNXNXNXNXNXBXBXBXNXBXVXVXBXNXNXNXVXsX<X .V U P K K P P I @.=.5.j.h.H.J.H.J.P.P.P.P.P.J.J.H.H.B.g.6.=.o.P w F P X.@.=.<.1.j.j.j.c.v.Y.K.).oX2XoX_._._._._.).,.A.qXLXLXvXLXLXLXLXxXxXxXxXyXE.<./ ( / / *.e.e.~ ! ! E E ! T T T x f p # $ : t p f f j j A F G ~ m.L.L.P.P.P.(.P.(.(.`.`.].(.`.`.[.`.(.`.[.[.`.(.`.`.`.`.[.[.[.[.[._.[.[.[.[.[.[.[.[.P.P.P.L.A.G.y.t.4.-.o.P 8 I ~.).Y.T.yXxXJXbX[.j.<.~ F s > > = + O + C X.=.6.A.K.)._._._._.3XvXbXrXKXKX2XY.JXvXxXzXzXzXkXlXzXzXkXjXzXzXzXzXzXzXzXxXxXxXjXuXxXyX%.xXKXKXnXzXzXzXzXzXzXlXjXlXzXlXjXjXjXjXjXjXxXjXjXjXjXjXgXtX}.tX0Xl.4XKXKXnXzXjXjXjXxXxXjXxXgXgXxXuXpXpXaXaXi.q.R R R R f p f p - g o.3.4.j.A.v.{.fX3X X}.[.[.}.}.}.[.[.[.[.[.[.[.{.[.[.{..X.X[.(..X{.[.[. X[.{.{.{.[.[.[.[.[.[.[.[.[.[.].].D.y.j.6.*.( K.lXmXjXfXrXrXrXrXrXfXfXrXrXrXrX2XzXjXfXrXfXfXfXrXrXrXfXjXjX{.rXrXrXrXrXrXeXrXrXrXrXrXrXrXeXeXeXtXcX].P.@X}.}.+X|.+XOXu.e.q.R f # $ t i i p p p p p f f f f j j j j j j j j f f f f s p p : : @ + O O O O O & & & & & & & & & & & ",
"8...[ [ [  .[ ..$X#X0.....:X-X-X;X;X;X>X>X>X>X>XNXNXNXNXNXNXNXNXNX8XNXNXNXNXNXBXBXBXNXNXBX8XZXsX9. .V P P J U P I *.<.g.B.H.J.J.J.P.P.P.P.P.P.J.H.H.B.g.5.3.&.P g F P X.@.=.<.6.j.j.l.c.v.Y.K.K.oXoX_._._._._._.c.%.$.4.W.vXLXvXpXyXqX|.E.m.<.#.( ( ( / / / ) -.;.O.! ! E E R T T T j f p # $ t t p f f j j A A T ~ m.L.L.P.P.(.(.P.(.(.`.`.`.`.`.`.].`.(.`.[.[.`.`.`.[.[.].[.[.[.[.[.[.[.[.[.[.[.[.[.[.(.P.P.L.A.S.y.t.t.-.o.P 8 X.W.).v.Y.Y.~.1X2X[.A.-.K C s > > = + O + g o.=.6.A.K.)._._._._.3XcXbXbXKXKXK._.KXvXzXzXzXzXzXzXzXzXzXzXzXzXzXzXzXzXzXzXzXzXxXjXxXxXl.1XKXKXnXcXzXzXzXzXlXzXlXzXzXlXjXjXjXjXjXxXxXjXjXjXjXjXjXtXwXwXtXY.v.zXKXnXvXlXlXxXxXxXjXjXgXxXxXjXuXpXtXaXR.e.R R R R x p f p : f O.3.4.j.A.v._.fX3X X[.[.[.[.}.[.}.}.[.[.{.{.[.{.{.[.[.}.{.[.(.[.{.[.[.[.[.{.[.{.[.[.[.[.[.[.[.[.].[.].].D.5.5.m.=.( H.rXmXlXfXrXrXrXrXfXfXrXrXrXrXrX2XjXlXfXfXfXrXfXfXfXeXfXrXlX2X3XfXrXrXrXrXrXrXrXrXrXrXeXrXrXwXeXrXcXwXP.@X}.}.@X+X+X+XZ.e.e.R x t : t i i p p p p f f f j j j j j j j j j j g s s f s p p : $ + + O . & & & & & & & & & & & & & & ",
"8.8...[ [ [ [ $X$X0.....*X-X-X;X;X;X;X>X>X>XGXGXNXNXNXNXNXCXCXNXVXVXCXNXNXNXNXNXNXNXBXBXBXBX8X8XVX<X+.V H H P P I @.*.5.j.H.P.P.P.P.P.P.P.J.P.J.H.H.B.m.5.4.;.P C C P I @.=.%.6.j.j.l.c.c.Y.K.).oX_._._._.)._.(.,.( B B $.qXpXI.5.<.:.#.( ( B ( ( ( U U L / ) -.;.~ ! ! E T R T T T j f p # $ : t a f j j j A F G ) m.L.L.L.P.(.P.P.(.(.`.`.`.(.`.[.`.`.`.(.`.[.`.`.[.[.[.[.[.[.[.[.[.[.[.[.[.[.[.[.[.].P.P.P.I.A.S.y.t.t.;.o.P 8 X.I.).v.v.H.H.H.T.~.j.*.K C 0 > > = + O X g o.=.6.A.T.)._._._.5X4XcXbXnXKXbXl.1XPXvXxXzXzXzXzXzXzXzXzXxXzXzXzXzXzXzXzXzXzXzXxXjXjXxXH.Y.KXKXnXzXzXzXzXlXzXzXzXzXzXzXlXlXlXlXjXxXjXjXxXjXjXjXjXuXtXwXtXwXH.[.nXnXbXzXjXxXxXxXjXxXxXxXxXuXuXpXtXpX+Xr.q.R R Y T s f p : 0 P ;.4.j.A.v._.hX3X X[.[.[.[.[.[.}.[.[.[.[.[.[.{.{.[.{.{.}.{.).[.[.[.[.[.{.{.{.}.[.[.[.[.[.[.[.[.].].].E.S.5.5.u.-.( c.3XmXlXfXfXrXrXrXfXfXrXrXrX2XrX2XrXzXfXfXfXrXfXfXrXrXrXrXjXrX2XfXrXrXfXfXrXeXrXrXrXrXeXrXrXeXrXrXcXtXP.}.}.}.@X@X}.+XR.e.e.! x t : t t i p p p p f f f j j j j j j j j j g g g f f s p : : @ + . o 4 3 4 4 o o o o . & & & & & & ",
"8.8...[ [ ] ..$X8. ...*X-X;X;X;X;X;X;X>X>XGXNXNXNXNXNXCXCXCXCXCXVXCXCXCXVXVXVXBXBXBXBXBXBXBXBXBX8XBX9X9.V H P P P I &.<.1.c.H.J.P.P.P.P.K.J.P.P.L.L.B.j.5.4.=.X.F w P X.@.$.%.6.1.1.j.c.c.v.K.).oXoX_._._.).).z.#.B B J B 6.g.$.( ( ( ( ( U B U U U U U L L ) -.;.~ ~ ! E T T T T T j f i + $ $ t a f f j A F F G &.m.H.H.L.P.(.P.P.(.(.`.`.[.`.`.[.`.`.`.`.`.[.`.`.[.[.`.[.[.[.[.[.[.).[.[.[.[.[.[.[.[.(.P.P.I.A.G.y.t.4.-.o.P 8 X.I.).v.H.H.v.v.H.1.=.~ K C s > - = + O X w o.=.6.Y.K.)._._._._.4XcXbXKXKXvX7.2XKXvXzXzXzXzXzXzXzXzXzXzXzXzXzXzXzXzXzXzXzXzXxXxXjXzX].l.JXKXbXzXzXzXlXzXzXzXzXzXzXzXjXjXzXxXxXlXjXxXxXxXjXjXjXgXtXwXyXtX].H.wXbXnXbXzXlXxXxXxXxXjXjXjXjXxXxXtXaXaXS.q.R R R Y f f f y p R ;.4.6.A.v.).lX3X X[.[.[.[.[.}.[.[.[.[.[.[.[.{.[.[.{.{.}.{.].].}.[.[.[.[.[.[.{.[.[.[.[.[.[.[.[.].].].E.m.u.<.u.<.B j.1XmXkXfXfXrXrXfXfXfXrXrXrXeXfXrX2XzXfXfXfXfXrXrXrXrXrXrXgXjX2XrXfXrXfXrXrXrXrXrXrXrXrXrXrXeXrXrXxXxXI.|.@X}.}.}.}.+XE.i.e.q.x : $ t i p p p p a f f f j j j j j j j j j j j j f f p p : @ o 7 ] { } } } } } } [ { { e e 4 o & & ",
"8.8...[ e [ 8.8. ...*X:X:X;X;X;X>XGXGXGXNXNXNXNXNXNXNXNXNXNXNXCXVXVXCXCXVXVXVXCXVXVXVXVXBXBXBXBXBX8XsXsX<X .H P E ~ &.=.1.j.H.J.P.P.P.P.P.P.P.P.L.L.H.m.5.4.-.o.J q G P @.$.<.6.1.6.j.c.v.v.v._._._.oX_.n.(.v.l.@.B B B m B ( ( ( ( ( U U B N U U U U U L L / ) _ ~ ~ ! E T T T T T j f t + $ : t a f f j j A T G &.m.H.H.P.P.P.P.P.(.(.`.`.[.`.`.`.`.`.(.`.[.`.`.`.[.[.(.`.[.[.[.[.[.[.[.[.[.[.[.[.[.[.(.P.P.I.A.G.y.y.4.-.o.G 8 X.I.T.Y.H.v.v.v.A./ J K G C s > - = + . X w o.=.j.c.K.)._._._.5X3XmXbXKXKXrXl.rXKXvXzXzXzXzXzXzXzXzXzXzXzXzXzXzXzXzXzXzXzXzXxXxXxXxXyX,.cXKXbXnXzXzXzXzXzXzXzXzXzXzXzXjXxXxXxXxXxXxXxXxXxXjXjXgXtXtXtXtX}.P.].rXbXbXmXlXxXzXzXxXxXxXuXjXxXxXpXpXtXqXr.q.R Y Y x f f 6 6 F ;.3.6.A.v.).fX3X X[.[.[.[.[.[.[.[.[.[.[.[.[.{.[.[.[.{.{.{.[.].}.}.[.[.[.[.{.{.[.[.[.[.[.[.[.[.].].].E.m.u.=.4.<.B 1._.mXcXhXfXrXfXfXrXfXrXrXrX3XrXfX2XzXjXfXfXrXrXfXfXrXrXrXfXlX3XrXfXrXrXrXrXrXrXrXrXrXeXrXrXeXeXeXjXcXT.].@X}.@X}.|.+XOXu.e.q.Y t $ t t i p p a f f f f j j j j j l j j j j j j f f s 6 - 7 } +.+.} | } } } } } } } } } { { { c 4 ",
"8... .[ 5  .8...$X=X;X;X;X;X;X;X>X>XGXGXGXNXNXNXNXNXNXNXNXNXNXNXNXNXNXVXBXBXBXNXBXBXBXBXBXVXBXBXBXBX8X8XsX<X+.P P ~ ) *.<.j.A.H.H.J.P.P.K.P.P.P.P.P.H.B.5.4.3.;.P w F P X.$.<.6.6.1.j.c.v.v.K._._._._.(._.).v.%.( B B m m m B B B B B B N N N N N J J J J L I ) ~ ~ ! E T T T T T T j f t + $ : t a f f j j A T G -.B.L.H.P.P.(.P.P.(.(.(.`.`.(.`.`.`.].`.`.[.[.[.[.`.`.(.[.[.[.[.[.[.[.[.[.[.[.[.[.[.[.].P.P.I.A.G.y.t.4.-.o.P q X.Y.K.v.c.v.v.v.g.U J Z Z g 0 > - + + . X w X.6.j.c.K.)._._._._.3XnXnXKXbX4X2XjXKXbXzXzXzXzXzXzXzXzXcXzXzXzXzXzXzXzXzXzXzXzXxXxXxXxXxXl.rXPXbXnXzXzXzXzXzXzXzXzXzXzXzXzXzXxXlXlXxXxXxXxXxXxXjXxXgXtXtXyXyX].).[.jXnXnXvXlXzXxXxXjXxXxXjXjXxXxXuXtXaXR.q.! Y Y T f f 6 8 F O.-.6.m.c.(.fX3X[.[.[.[.[.[.[.}.[.[.[.[.[.[.[.{.[.[.{.{.{.[.].[.[.[.{.[.[.{.}.{.[.[.[.[.[.[.].].[.E.D.m.y.-.=.4.U 1.).kXcXhXfXrXfXfXrXfXfXrXrXrXrXfX2XkXlXfXfXfXrXfXfXrXrXrXrXgXrXrXfXfXfXfXrXrXrXrXrXrXeXrXrXrXeXrXuXcX].P.0X@X@X}.@X+X+Xp.e.q.R p $ t t i p p p s f f j j j j j j l j j j j j j f s 0 6 l +.+.+.} } } | | } } } } } } { { { { { { ",
"....[ [  .0.$X:X;X;X;X;X;X;X;X;X>X>X>XGXGXGXNXNXNXNXNXNXCXCXCXNXNXNXBXBXVXVXBXBXBXBXBXBXBXBXBXBXBXBXBX8X6XsX<X+.H P ~ &.*.5.h.h.H.H.P.P.K.K.P.P.P.H.H.A.j.4.3.;.O.w w P X.$.<.<.1.1.j.c.v.v.K.)._._._._.(.v.v.,.U B m m m m N U B N N N N N N N N N N N N J L ~ ~ ~ E E R T T T T T j f t + $ t y a f j j A F T G -.D.H.H.P.P.P.P.P.(.(.(.`.`.(.`.`.`.`.[.[.`.[.`.`.[.[.`.[.[.[.[.[.[.[.[.[.[.[.[.[.[.[.].P.P.I.A.G.y.t.4.-.o.P q U A.v.v.v.v.v.H.$.N m n C 0 6 > - + + O X 0 X.=.6.c.K.)._._._._.4XnXnXKXlXlXlXlXKXbXvXzXzXzXzXzXzXzXzXzXzXzXzXzXzXzXzXcXzXzXzXxXxXxXcXv.].PXKXnXzXzXzXzXzXzXzXzXzXzXzXzXzXlXzXzXxXxXxXxXxXlXxXxXtXtXyXyXtX}.].].}.zXnXnXkXkXzXxXjXxXxXxXxXxXxXxXtXtXOXr.q.T l l f f p > g O.;.5.m.c.K.rX3X X[.[.[.[.[.[.[.[.[.[.[.[.[.{.[.[.[.{.{.{.[.].[.[.}.{.[.[.[.}.}.[.[.].[.[.[.[.[.].E.A.Z.y.t.&.<.( <.T.jXmXhXfXfXfXfXrXfXfXfXrXrXrXfX2XjXlXfXfXfXfXfXfXrXrXrXfXjXfX3XfXfXfXrXfXrXrXrXrXrXrXrXrXrXrXrXtXcX0XH.0X@X@X}.}.@X+XR.e.e.R f $ t t p p p p f f f j j j j j l F j j j j j j f s 6 7 +.+.} } } } } } } } } } } } } { { { { { { ",
"....$X#X:X:X-X;X;X;X;X;X>X>X>X>XGXGX>XGXNXNXNXNXNXNXCXNXNXCXNXNXNXNXNXNX7X6X9XBXBXZXVXBXBXBXBXBXBXBXBXBX6X7XsX<X+.U o.&.*.<.j.B.B.H.P.P.P.P.P.P.P.H.H.A.m.5.4.;.o.F w P X.$.=.6.1.1.6.c.v.v.).).).).(.).(.v.h.,.U m J Z n n m J B B B N N N N N N N N N N N K I ~ E E ! T T T T T T j a : # : : p a f j j j A F G -.D.H.J.P.P.P.P.P.(.(.`.`.].].(.`.`.`.[.[.`.[.[.[.[.`.`.].[.[.[.[.[.[.[.[.[.[.[.[.[.[.].P.P.P.F.G.y.t.4.-.o.P q U A.c.v.h.h.h.h.U m n w q 0 > : = + + O X 0 o.=.6.c.K.)._._.5X_.4XnXnXnXhXnXkXlXKXKXvXzXzXzXzXzXzXzXcXzXzXzXcXzXzXzXzXzXzXzXzXzXxXxXcX~.H.PXKXnXzXzXzXzXzXzXzXzXzXzXzXzXzXzXzXzXxXxXxXzXxXlXxXxXpXuXtXyXtXwX].].].2XmXnXnXkXlXzXlXlXlXjXjXjXjXlXgXtXaXu.O.X.+.+.w f f t f P ;.6.m.A.K.rXrX{.[.[.[.[.[.[.[.[.[.[.[.[.[.{.{.[.[.{.{.{.[.[.[.[.[.[.[.[.[.}.}.[.[.].[.[.].[.[.[.].D.m.y.t.&.-.@.<.P.hXnXlXfXrXfXrXfXgXfXfXfXrXrXfX2XfXzXfXfXfXfXfXfXrXrXrXrXgXrXeXrXrXrXrXfXrXrXrXrXtXrXrXrXrXrXrXrXzXuXH.@X@X@X@X}.@X+XR.e.e.q.x $ : i i p p p f f f j j j j j l j j j j j j j s s p 7 7 l s 6 7 7 3 4 o o 4 e ] ] ] ] ] { { { { ",
":X=X;X;X;X;X;X;X>X>XGXGXGXGXNXNXGXNXNXNXNXCXCXCXCXCXCXVXCXVXVXVXCXVXVXVX6X.. ...0.#X7XsXBXBXBXBX8X6X6X6XAX9X6XsX<X .+.o.&.<.5.B.B.H.K.P.P.P.P.P.P.P.H.A.m.6.4.-.o.P 0 J X.$.<.<.6.6.6.c.c.v.).(.).(.).).(.v.l.%.J m m Z n n b J B N N m m m m m m m m N Z Z J K E E E E T T T T T j j a : + $ : p f f f j j F F P t.D.L.J.J.P.P.P.P.(.(.].`.`.`.`.`.`.].`.[.[.[.[.[.`.(.`.[.[.[.[.[.[.[.[.[.[.[.[.[.[.[.].P.P.I.F.S.y.t.4.-.o.P w U G.c.l.h.j.h.1.B n w q 0 0 > : = + O O X 0 X.=.6.c.K.).)._._._.4XnXKXnXvXbXkXjXKXKXnXmXvXvXcXzXzXzXnXcXzXzXcXzXzXvXzXzXzXzXzXzXzXzXzXwXl.KXKXnXzXzXzXzXzXzXzXzXzXzXzXzXzXzXzXzXzXxXxXzXzXzXzXxXxXuXuXtXtXtX].].].).4XnXnXzXkXkXjXkXlXlXhXhXiXrXrXiXyX^.+.<X<XdXa.7 f i s P o.=.6.A.K.3XrX X[.[.[.[.[.[.[.[.[.[.[.[.[.[.}.[.[.[.{.{.[.[.[.[.[.[.[.[.[.[.[.[.[.].].[.[.[.].[.].D.m.y.t.=.&.*.<.Y.3XnXlXfXrXfXfXfXgXfXfXfXrXrXrX3XrXcXfXfXfXrXfXfXrXrXrXrXfXfXrXfXrXrXrXrXfXfXrXrXtXrXrXrXrXrXrXrXjXcXP.|.wX@X@X@X@X@XOXi.e.q.T $ : t i p p p f f j j l j j j l j j j j j j f s s 6 6 : : : - - o o 4 r [  . .[ [ [ [ [ ] ] ] ] ",
";X;X;X;X;X;X;X6X>X>X>XGXGXNXNXNXCXCXCXCXCXCXVXCXCXVXVXVXBXVXBXBXVXVXVXVXZX9X .5 5 r r  .8.%X7XsXZXZXBX6X6X6X9X9XsX<X .X.&.=.5.m.B.H.H.P.P.P.P.(.P.P.H.A.m.y.4.-.;.P 0 C X.$.%.<.7.1.6.c.c.v.K.n.(.).(.(.v.l.l.%.J m n n C n M m N m m m m m m m m m m Z Z Z Z K K E E E R T T A A j f p : # : : p f f f j j T T E u.L.H.J.P.P.P.P.P.(.(.`.`.`.`.(.[.`.`.].[.`.[.[.[.[.`.`.[.[.[.[.[._.[.[.[.[.[.[.[.[.[.].P.P.I.F.G.y.t.4.-.;.E w U j.l.l.h.j.h.#.M q q 0 0 1 > = + + & O X 0 X.=.j.l.K.).)._._._.4XmXKXKXnXbXmXrXvXKXbXmXzXzXzXzXzXzXnXnXzXzXzXbXzXzXzXcXcXcXcXzXxXxXxXxXh.xXPXnXzXzXzXzXzXzXzXzXzXzXzXzXzXzXzXcXzXxXxXxXzXcXxXxXpXuXuXtXtXtX0XT.[.T.{.rXnXnXhXhX5XmXmXiXiX9X9X9X9X9X9XdX9.0.#X7XdX .5 8 6 F o.=.6.c.K.2XfX{.[.[.[.[.[.[.[.[.[.[.[.[.[.[.}.[.[.[.{.{.[.[.[.[.[.[.[.[.[.[.[.}.[.].[.[.].].].[.|.D.m.y.t.-.@.#.$.Y. XnXcXrXhXhXfXrXjXgXfXfXrXrXrXrXrXcXjXfXfXfXfXfXfXrXrXrXfXfXrXrXfXfXrXrXfXfXfXtXrXrXrXrXtXrXrXfXjXcX].P.yX@X@X@X@X@X+Xu.e.q.R : : : i p p s f f j j j A j A F j j j j A j g f s p p : - - o o 5  .8.9.$X$X0.........[ [ [ [ ] ",
";X8X8X8X8X>X8X8X>X>XNXNXNXNXCXCXCXCXCXCXCXCXNXVXCXVXCXBXVXVXBXBXBXBXVXVXBXZXsX .7 8 7 7 5 r [  .9.%X7XZXZX6X7XBX9XsXa.+.@.*.1.g.h.V.H.P.P.P.P.(.(.P.H.H.m.6.4.-.;.O.w q I @.$.<.7.1.6.j.c.v.K.v.v.(.(.K.v.l.%.( J m m n n b M n N m m m m m m m m m m m Z Z Z J K K E T T T T A A j f p : # : : p f f f j A T F ~ Z.L.J.J.P.P.P.P.(.(.(.`.`.].].`.`.`.`.[.[.[.[.[.[.[.].[.[.[.[.[.[.[.[.[.[.[.[.[.[.[.[.].P.P.P.F.G.y.t.4.-.;.E g m 1.6.l.j.j.l.U M q 0 0 0 > ; = + + & O X 0 X.=.6.l.K.).)._._.5X4XvXKXKXKXnXbXlXjXbXbXmXvXzXmXzXzXzXzXnXzXzXcXvXbXvXzXcXcXcXcXcXzXzXzXxXY.yXPXKXzXzXzXzXzXzXzXzXzXzXzXzXzXzXzXcXcXxXxXzXzXzXxXxXxXuXuXtXtXtXtX[.T.T.T._.4XnXmXsXmXmXsX9X9X9XsX9X8X8X8XsXsX7X9.*X7XdXa.r 8 F ! ;.4.j.Y.2XfX X[.[.[.[.[.[.[.[.[.[.[.[.[.[.[.[.[.[.[.[.[.[.[.[.[.[.[.[.[.[.[.}.[.].[.].].].].].].I.m.y.t.4.I @.$.H._.mXcXhXhXhXfXfXgXjXfXrXfXrXrXfX2XzXlXfXfXfXfXgXfXrXrXrXfXfXrXrXfXfXfXfXfXfXrXrXtXtXrXrXtXrXrXrXfXcXyXL.wX0X@X@X@X@X+XZ.r.q.! p $ i p p p s f f j j j j j F F j j A A j j g f f p y : - o 5 +.#X#X#X#X#X$X$X$X$X$X$X8.8...[ [ ",
"8X8X8X8XNXNXCXNXNXNXNXNXCXVXVXVXCXVXVXVXVXVXBXVXVXVXVXVXVXBXBXBXBXBXBXBXVXBXZX7X5 5 7 6 8 w w w r l +.9.<X7XsX9X7XsXdX8.X.*.:.5.h.h.H.J.(.P.P.P.P.P.H.H.A.6.4.3.;.o.C 8 H $.$.<.7.1.6.l.l.v.K.v.v.v.(.v.l.l.%.( m m m n n n b M m m n n m m m m m m m m Z Z Z Z G K K E T T T Y j j f p $ # : t p f s j j j F G &.B.L.J.J.P.P.P.P.(.P.(.].].].].[.`.`.[.[.[.].[.[.[.`.`.`.[.`.[.[.[.[.[.[.[.[.[.[.[.[.[.].P.P.I.D.G.m.y.4.-.;.o.F n 3.1.,.l.l.=.m 8 8 0 0 > > - = + X & O + 6 P =.6.c.K.)._._._.5X2XkXKXKXKXKXKXvXvXnXbXvXvXvXvXzXzXzXzXnXzXzXnXbXbXcXzXcXcXzXzXcXzXzXxXcX[.[.PXKXvXzXzXzXcXzXzXzXzXzXzXcXcXcXcXcXzXzXxXxXxXxXxXxXuXpXtXtXtXtXuXrX4X9X5X9X9XmXsX9X9X9X9X-X:X-X8X>X-X,X:X-X*X*X9. .9.<X<XX.6 l R ;.4.j.v. XfX X[.[.[.[.[.[.[.[.[.[.[.[.[.[.[.[.[.[.[.[.[.[.[.[.[.[.[.[.[.[.[.[.[.[.[.[.[.].].].].I.m.y.u.4./ U &.A.).kXnXhXhXfXfXfXfXjXrXrXrXrXfXfX2XkXkXfXfXfXfXgXfXrXrXrXfXfXrXrXfXfXfXfXgXfXrXfXfXfXrXrXgXrXrXrXrXzXxXP.@XwX@X@X@X@X+XR.i.e.q.a : i y p p s s f j j j j j F F j j T F g g f f s p 6 * 5  .9.*X*X*X*X$X$X$X$X$X$X$X$X#X$X$X....",
"NXNXNXCXVXCXVXCXNXNXNXCXVXVXVXCXVXVXVXVXVXVXVXVXVXBXVXVXVXVXVXBXBXBXBXBXBXBXBXZX#X5 7 - 8 g C n F F V l  .+.a.<XdXdXsX<X+.&.-.5.j.B.H.P.P.P.P.P.(.P.H.H.A.m.4.3.;.O.P ; F $.$.<.<.1.6.j.l.v.v.v.v.v.(.v.l.%.%.U m n n n n n b 8 m m n n m m m m m m m m Z Z Z Z Z S G G T T T Y j j f p # # : t p s f j j j F G =.D.L.J.P.P.P.P.P.(.P.(.`.].].`.[.`.`.`.[.[.[.[.[.[.(.(.[.[.[.[.[.[.[.[.[.[.[.[.[.[.[.[.].P.P.P.F.G.m.y.t.3.;.o.J n =.1.,.l.1.( n 8 8 8 ; > ; = + + X & O + 0 P =.6.c.K._._._._.2X4XhXKXKXKXKXKXnXbXKXJXnXvXvXvXvXvXzXzXnXnXzXcXbXcXzXbXbXcXbXcXcXzXzXxXcXwXP.KXKXnXzXzXzXzXzXzXzXzXzXzXcXcXcXcXcXzXzXxXxXxXcXxXxXxXpXtXtXyXiXrXiXmXDXmXVXVX8X8X8X-X,X-X8XCXCX8X>X;X>X8X6X*X0.0.5 [ 8.w 0 f g P X.6.j.v.{.rX X[.[.[.[.[.].[.[.[.[.[.[.[.`.[.[.[.[.[.}.[.[.[.[.[.[.[.[.[.[.[.[.[.[.[.[.[.].].].].E.m.y.t.t.*.J &.h.K.hXnXhXhXhXfXfXfXjXrXrXrXrXrXfX2XhXcXhXfXfXfXfXfXrXrXrXfXfXfXfXfXfXfXfXfXfXfXfXfXfXrXrXgXgXfXrXrXjXcX].].yX@X@X@X@X+X~.i.e.q.f : t i p p s s f j j j j j F A g j j j g g f s s 6 5 5 8.<X<X=X*X$X$X$X$X$X$X$X#X#X#X#X#X#X#X$X",
"NXCXNXNXCXVXVXVXVXCXNXVXVXVXVXVXVXVXVXVXVXVXVXVXBXVXBXBXVXZXVXVXVXVXBXBXBXBXVXVXZX+.4 8 6 g C C C Z G G J H H +.9.a.<XdXp.P &.<.g.B.H.J.P.(.K.P.P.J.H.H.L.m.y.t.;.O.P 8 w X.$.<.6.6.6.j.l.v.v.v.v.v.v.v.l.,.%.U Z n n n n n q 8 n m n n n m n n n n m m n Z m Z Z Z G G T T A Y j f f p $ $ $ t p s f j j l F G <.D.L.J.P.P.P.P.(.(.(.(.].`.(.].[.[.`.`.[.[.[.[.[.`.`.[.[.[.[.[.[.[.[.[.[.[.[.[.[.[.[.[.].P.P.P.D.G.m.y.t.3.;.o.P n @.1.,.,.6.B b q 8 0 ; - - + + + & & O + 0 P =.6.c.v._.)._._.5X4XrXnXKXKXnXKXbXnXKXKXbXnXvXvXvXvXzXxXnXnXvXbXbXbXbXbXbXcXcXcXcXcXzXxXxXuXH.nXKXnXzXzXcXzXzXzXcXvXzXzXcXcXcXcXcXcXcXxXxXxXcXxXxXxXtXpXuXiXiXiX9X9X9X9XVXVX8X8X8X9X-X:X-X-X;X8X8X;X>X8XBX9X<X7X<X#X9.r 0 j g F X.=.6.v.{.rX.X[.[.].].[.[.[.[.[.[.[.[.[.].[.[.[.[.[.}.[.[.[.[.`.[.[.[.[.[.[.[.[.].].].[.].].].].~.m.y.t.t.=.J I j.Y.3XnXkXhXjXjXfXfXjXjXrXrXrXfXfX3X3XmXhXfXfXfXgXfXfXrXrXfXgXfXfXfXgXfXfXfXfXfXfXfXfXfXfXgXgXfXrXfXjXcXwXP.yXwX@X@X@X+X+Xu.e.q.x : t i p p s f j j j j j j l j g g g g g g s p 6 5 [ #X*X=X*X:X:X:X=X:X:X:X=X:X*X#X#X$X$X0.8.8.",
"NXNXNXNXNXCXCXVXVXVXVXNXVXSXVXVXVXVXVXVXVXVXVXVXVXVXBXBXVXVXZXVXVXVXVXVXBXBXBXBXZX7Xr 5 8 0 C C C Z S G K G K P P  .+.a.p.o.~ *.,.g.V.H.K.(.(.P.P.P.H.I.L.m.y.t.-.o.R 0 8 P @.$.6.6.6.h.h.v.v.v.z.v.v.v.l.1.#.B m n n n n b b 8 8 m n n n b b b b b b b n n n n C Z S G T T A A j s f t # $ $ t p s f j j T F P 4.L.L.P.P.L.P.P.P.P.(.(.].].(.].[.[.`.`.`.[.].[.[.`.`.[.[.[.[.[.[.[.[.[.[.[.[.[.[.[.[.].(.P.P.I.D.m.G.y.y.3.;.;.P n X.6.1.l.#.M 8 q 8 ; - - + + + + & & + - w X.=.6.c.v._._._.oX5X4X3XnXKXKXnXKXbXvXbXKXbXnXvXvXvXvXvXzXbXnXzXbXbXbXbXbXbXbXcXcXcXcXcXzXxXxXY.uXKXbXvXzXnXzXzXzXnXnXzXzXcXcXcXcXcXcXcXxXxXxXcXxXxXxXxXuXpXiXiXiXsXsX9X9X9X9X9X9XsX8X9X8X8X6X-X,X=X-X*X=X$X0.9.%X9.<XdXa.e f f T o.=.5.c._.rX.X_.[.].].].].].[.[.].[.[.`.`.[.[.[.[.[.[.[.[.[.[.[.].[.[.[.[.[.[.[.].[.].[.].`.].].].D.y.y.4.<.U I 6.Y._.nXmXhXjXjXfXfXjXjXrXrXrXfXgXrX2XmXlXhXfXfXgXgXfXrXfXfXgXfXfXrXfXfXfXgXfXfXfXfXgXfXfXfXgXgXrXrXgXxXxXP.@XyXwX@X@X@X+XS.e.q.R : : t i p s s f j j j j j j j j l j g j f s 6 5  .<X-X:X,X=X-X;X;X-X:X:X:X$X$X$X$X$X$X$X$X$X$X",
"CXCXVXCXVXVXVXVXCXVXVXVXNXFXSXSXZXVXVXVXVXVXVXVXBXBXVXBXBXVXVXVXVXZXZXZXVXVXBXVXVXZX8.5 0 0 g C C C Z J G K K K E P H X.o.o.I ) <.g.B.H.P.(.(.P.P.P.P.P.L.m.6.4.=.o.O.w < G @.$.<.6.1.l.c.v.v.v.z.v.K.h.1.1.#.B m n n n b b b 8 8 n b b b b b b M b b b n n n b C Z Z S G T A A j s p t # $ : t p p f j j F G I 5.L.P.P.P.L.P.P.P.(.(.(.].].(.`.`.(.`.[.`.[.[.[.[.`.`.[.[.[.[.[.[.[.[.[.[.[.[.[.[.[.[.].(.E.~.L.G.m.m.y.y.4.;.;.O.H ;.6.1.5.U M 0 1 ; ; - - + + O O & & @ - F X.=.6.c.v.).)._.oX4X4X4XnXKXnXnXKXbXzXvXKXbXnXnXbXvXvXvXzXzXJXbXcXbXbXbXbXbXbXbXcXcXbXbXzXxXcX].1XPXJXbXzXcXzXzXzXzXnXcXcXcXcXcXcXcXcXcXcXxXxXcXxXlXxXxXxXvXpXiXiX5X<X*X*X*Xb.9.b.*X-X-X-X-X-X-X,X$X=X,X=X*X....9.[ 5 +.O.l f f l P ;.4.j.).3X.X_.).].].].].].[.[.[.[.`.`.`.[.[.[.[.[.[.[.[.[.[.[.].[.[.[.[.[.[.[.[.[.].[.].].].].].D.m.u.t.4.I J 5.Y.).cXnXhXjXjXfXfXjXjXrXrXfXfXfXfX2XzXcXfXfXfXgXjXfXfXrXfXgXfXfXrXfXgXfXgXgXfXfXfXgXfXfXfXgXgXrXtXjXjXzX].|.yXwX@X@X@X+XE.e.q.w.y : i i p p f j j j j j j j j j l j j j f 0 5 +.<X7X-X-X-X-X-X:X=X:X:X$X$X$X$X$X$X$X:X$X$X$X$X",
"CXVXFXVXVXVXCXCXCXCXVXVXCXVXSXSXZXZXZXVXVXVXVXVXVXVXVXVXBXVXBXBX=X7XsXZXZXZXBXBXBXZX<Xr g 0 w C C F J J G J K K E E E P P P I ) *.<.g.B.L.P.(.(.(.P.P.P.I.m.6.4.3.;.O.g ; C @.#.=.6.1.l.c.v.v.z.z.v.H.%.( <.#.B m n n b b q q 8 < n n b b b b b M b b b b b n b b C C A F A A j j f p : # $ : t p s f j j F G ~ m.L.P.P.P.L.P.P.P.(.(.(.].].`.(.].`.`.`.`.[.[.[.[.[.[.[.[.[.[.[.[.[.[.[.[.[.[.[.[.[.[.].(.E.P.D.G.G.S.y.y.3.-.;.o.P &.6.$.#.m 8 0 ; ; = - + + O O . & . @ ; H ;.$.6.c.v.)._._.oX4X4X4XmXKXnXnXKXKXvXlXKXbXnXnXbXvXvXbXvXxXJXbXcXbXbXbXbXbXbXbXbXbXbXbXcXxXbXwX].KXKXnXmXvXvXzXzXzXnXnXnXcXcXnXcXcXcXcXcXcXxXcXcXzXxXuXyX1X1X5X5X5X5X*Xb.b.<X5X<X,X,X,X,X,X,X,X,X,X;X8X8X6X-X#X<X%X5 5 7 h f f f P ;.4.j.P.2X2X[.].].].].].].[.[.`.[.[.`.`.[.[.[.[.[.[.[.[.[.[.[.].[.[.[.[.[.[.[.[.[.].[.[.].].(.].I.m.u.u.u.&.J =.Y.K.hXnXjXjXjXjXfXjXjXfXrXfXfXfXfX3XlXmXhXfXfXgXgXfXfXrXfXgXfXfXfXgXgXfXfXjXfXfXfXgXgXgXgXgXgXtXtXgXjXzXwXP.yXwX0X0X@X+X+Xu.e.q.s : i p p p s j j j j j j j j j l j j j 0 5 9.<X7X-X6X-X-X=X=X:X:X:X$X$X$X$X=X;X;X;X:X:X$X:X$X",
"FXFXDXSXFXFXFXCXFXVXCXVXCXNXZXZXDXDXZXZXZXZXZXVXVXVXVXVXBXBXBXBX6X0. .9.<XsXZXZXZXZXsX .g w w C C Z J G G G G G E E L L E P ~ ~ ) *.1.m.B.H.P.P.P.P.P.J.L.A.6.4.3.;.o.g ; q @.$.<.<.1.l.c.z.v.l.h.H.v.( B #.#.B Z n n b q q q q < q b b b b b b M b b b q b b b b D D C A A A j j f p $ # $ : i p s f j j F G &.B.L.P.P.P.L.P.(.(.(.`.`.`.].].].`.(.`.(.[.[.[.[.[.[.`.[.[.[.[.[.[.[.[.).[.[.[.[.[.[.[.(.P.E.I.A.S.G.G.y.y.t.3.;.O.P U =.=.U 8 ; ; - = + + + X . O . & . : 8 X.=.$.6.c.v.)._._.oX4X4X4XcXKXnXKXKXKXnXjXKXKXnXnXnXvXvXbXbXjXbXbXcXbXbXbXbXbXcXbXbXbXbXbXcXcXcXxXK.KXKXnXnXnXnXzXzXzXnXnXnXvXcXcXcXcXcXcXbXcXxXxXcXxXxXxXtXyXyXiXiXrXiX1XT.b.5X9X-X*X,X8XVX8X-X8X-X,X-X8XNXNX8X8X*X7X#X..+.l 7 f f F O.=.j.K.2X2X_.(.`.].].(.].[.[.[.`.`.`.(.`.[.].[.[.[.[.[.[.[.[.].[.[.[.[.[.[.[.[.[.[.[.[.].].`.].~.m.y.u.u.-.J @.A.K.4XnXkXhXjXjXfXjXjXjXrXfXrXfXfX3XrXnXjXfXfXgXjXfXfXfXrXfXjXfXfXfXjXfXfXjXfXfXfXgXjXfXgXgXgXtXtXjXjXjXxXP.@XyXwXwX@X@X+XS.e.q.j : : p p s s j j j j j j j j j F l j g r 0.7X7X-X:X=X:X-X-X-X:X:X:X$X:X-X8X8X;X:X:X:X:X:X:X:X",
"DXSXDXFXSXSXSXFXFXSXVXCXVXBX#X#X7XZXDXZXZXZXZXZXVXVXVXVXVXBXBXBXAX7X .r [ ..9.<XsXZXsX+.0 F P A S S S S G K K G G E L L E E ~ ~ ~ ) *.1.j.B.L.P.P.(.P.J.L.D.y.y.3.;.o.F ; < I $.$.<.1.l.c.l.l.h.h.h.h.( B @./ B n n b q q q q q 8 8 b q b M 8 8 8 8 8 q q b q q b q q C A A j j j f p # # $ : i p s f j j F G -.B.L.P.P.P.P.P.P.(.(.(.(.].].].].`.`.`.`.[.`.[.`.`.[.`.[.[.[.[.[.[.[.[.[.[.[.[.[.[.].).).].E.H.m.G.y.m.y.t.4.3.-.O.O.n X.=.M ; * = = + + + + X & O . & @ 7 g ;.$.=.6.c.v.K._._.oX4X4X4XkXKXnXKXKXKXKXjXJXKXnXnXnXvXvXbXJXuXbXnXcXbXbXbXbXbXbXbXbXbXbXbXbXcXcXcXP.xXPXJXnXnXnXnXzXzXnXnXnXnXcXcXnXcXbXcXcXcXxXxXcXcXxXxXxXpXyXpXiXyX0XI.,.b.<X*Xb.9.9.-X,X-X*X0.#X6X-X>X8X8X6X=X7X7X7XdXdX+.5 f f l X.=.j.Y.{. X).(.`.].(.(.].].[.[.(.`.`.`.`.}.[.[.[.[.[.[.[.[.[.].].[.[.[.[.[.[.[.].[.].[.].].].].~.G.y.u.u.-.J / j.K.oXnXmXhXjXjXfXrXjXjXrXrXrXgXgXrX3XmXlXfXfXjXjXjXgXfXfXfXjXfXfXfXjXgXgXgXfXfXfXgXjXfXfXgXgXtXgXjXjXjXzX|.|.yXyXwXwXyX+XE.r.q.T : i i p f f f j j j j j j j g l l F 0 +.7X8X7X=X:X-X-X-X-X=X:X$X:X;X8X;X:X:X:X:X:X:X:X:X:X$X",
"DXDXFXFXFXDXDXDXSXSXSXVXVXVX..5  .8.7XZXZXZXZXZXZXVXVXVXVXBXBXVXAXBX<Xr r r r l  .9.<X+.8 F F S S S S G G G G G G K K E E E E ~ ~ ~ ) *.<.g.A.H.P.P.(.J.P.L.m.u.-.;.;.P 8 ; U @.$.<.,.l.c.l.l.h.l.l.j.$.( #./ m w q q q q q q q 8 8 q q 8 8 q 8 q 8 q q q q q q q q q g g g g j g s p # # $ t i p s f j x A K <.H.L.P.P.J.J.K.P.(.(.(.`.`.`.`.`.`.].[.`.[.[.`.`.`.[.`.[.[.[.[.[.[.[.[.[.[.[.).).[.].).).).P.A.m.G.S.y.y.y.t.t.-.o.o.m M o.8 - = = + + + + O . . . & . : 0 H ;.;.$.6.A.v.K._._._.5X4X5XhXKXnXKXKXKXKXkXbXKXbXnXbXbXbXbXJXjXzXbXvXbXnXnXnXbXbXbXbXbXbXbXbXcXcXLX[.2XPXKXnXnXnXnXzXcXvXnXnXnXvXcXvXbXbXbXcXcXxXxXcXxXxXxXxXxXpXpXpXpXpX+Xc.5X9X8X8X9X9X5Xb.0.0.0.$X*X,X:X6X$X#X9...#X9.<X<X<X .f f f P ;.6.A.|.1XT.P.(.`.(.).].].[.].(.).`.(.`.}.].[.[.[.[.].[.[.[.[.].[.[.[.[.[.[.].].].[.[.].`.`.].].A.5.u.t.r.J U j.K._.cXnXjXjXjXhXrXjXjXrXrXrXjXfXrX3XzXzXrXrXgXjXgXgXfXfXfXjXfXrXjXjXfXfXjXfXfXfXjXjXjXfXfXfXgXfXjXjXjXzXwXP.yXyXwXwX@XqXOXt.e.R : t i p p f f j j j j j j g g g j f  .<X7X*X:X-X6X-X-X-X=X:X:X-XNXNX;X:X:X:X:X:X:X:X=X=X=X:X",
"DXFXDXDXDXDXDXDXDXSXSXVXCXZX+.o 5 [  .#X7XZXZXZXZXZXVXVXVXVXBXBXBX6XsX9.r w w w r r r w F C Z S Z G G G G G G K K K K K K K E E ~ I I &.*.1.j.B.Y.P.P.J.P.L.A.4.;.&.;.E 0 ; H @.=.<.7.l.h.l.l.h.l.h.h.%.#.@./ m q q q q q q 8 q 8 8 q 8 8 8 8 8 q 8 8 q 8 8 q q q q q q d g g d g s y # # $ : i p s f j j F I u.L.H.P.J.J.J.K.P.(.(.(.`.`.`.`.`.].[.[.`.[.`.`.[.`.[.[.[.[.[.[.[.[.[.[.[.[.[.[.[.[.].).).P.I.B.m.G.S.y.y.y.y.t.-.;.o.X.J < ; * = + + X + + . & . & & - 6 w U ;.;.$.6.A.Y.v._._._.4X4X5XhXKXnXKXKXKXKXkXmXKXJXnXnXbXbXbXJXxXuXJXvXbXnXnXbXnXbXnXbXbXbXbXcXcXcXbXyXT.KXKXbXnXnXnXvXvXvXnXnXnXnXnXcXbXbXbXbXbXcXxXxXcXxXxXxXxXpXtXpXpXpXyXc.b.5X9X9X5X*X*Xb.<X9X-X-X<X-X-X6X0.0.*X$X0. .5 +.X.+.l f f P ;.6.c.A.c.T.K.P.(.].].].].[.).].(.(.(.).[.].].[.[.[.].[.[.[.[.].[.[.[.[.[.[.[.].].].[.].`.(.].].L.j.u.t.t.K J 5.Y.n.hXnXlXjXjXjXfXjXjXjXjXfXfXhXfXrXjXnXfXhXgXjXgXjXfXfXfXfXjXgXjXjXjXjXjXrXrXrXjXjXjXjXfXrXgXgXjXjXjXlXxXL.@XyXwX@X@X@X+XZ.e.q.y t i p p f j j j j j j g g j j g w <X<X=X-X-X-X6X-X=X:X:X:X8XNX>X;X:X;X:X:X-X:X:X:X=X=X=X:X",
"DXDXDXDXDXDXDXDXDXDXDXVXVXZX0.* o 4 e [ ..&XBXZXZXZXZXZXBXVXVXBXBXBX6X7X .r l l g C w C A A S Z Z G G G G G K K K K K K K K E E ~ ~ ~ ~ ) *.1.m.B.H.P.J.P.I.A.4.=.&.o.o.0 8 U @.$.<.6.l.h.l.l.h.l.l.h.1.%.@./ m w q q 8 8 8 8 8 q 8 8 8 8 8 q 8 8 8 8 8 8 8 8 8 q q 0 q q g g d g s y # $ $ : i p f f j j G &.m.H.H.J.P.J.J.P.(.(.(.`.(.`.`.`.].`.[.[.[.`.[.[.`.`.[.`.[.[.[.[.[.[.[.[.`.[.[.[.[.[.].).].~.I.m.m.y.G.G.y.y.y.t.-.;.O.o.o.F ; X X X . . . & X - 6 : - : 6 g X.;.$.$.6.c.v.v.)._._.4X4X5XhXnXKXKXKXKXKXmXzXKXKXnXnXnXbXbXJXbXrXKXbXbXnXnXnXnXbXbXbXbXbXbXbXbXcXbXcXK.nXKXbXnXnXnXnXvXcXnXnXnXnXvXcXbXbXbXbXcXcXxXcXcXxXxXxXxXpXtXxXxXtXtXE.,.7.b.1X5XT.T.*X9X9X8X9Xb.9.<X7X<X*X<X*X#X8.r - 6 f f f p F o.4.6.6.7.b.c.K.(.(.E.`.].[.`.].(.(.(.).].].].[.[.[.[.[.[.[.[.].].[.[.[.[.[.[.].[.].[.[.].`.].].E.m.u.y.t.I m 6.Y.v.4XnXkXhXjXjXjXjXjXjXjXfXjXjXjXrXrXnXhXhXfXjXjXgXgXfXfXfXjXjXjXjXjXjXjXrXrXjXjXrXjXgXfXfXgXgXjXjXjXxXxXP.E.tXwXwX@X@XaXR.r.q.f t i p s f f j j j j j g j j x 0 9.<X*X6X6X-X-X-X=X=X:X-XNXNX;X;X;X;X;X;X;X-X-X-X=X=X=X=X=X",
"DXDXDXDXDXDXDXDXDXDXDXDXVXsX .5 - o o 7 e  .9.7XZXZXZXZXVXVXVXBXNXBX6X9X#Xr g g C C C C A A A Z Z Z G G G G K K K K K E K E E ~ L L ~ ~ I ) *.<.j.B.H.J.J.I.A.5.=.&.o.O.g ; V &.$.<.6.l.l.l.l.l.l.l.h.1.%.@.I m w 8 8 q q 8 8 < 8 < 8 8 < < 8 < < < < < < < < < < 0 0 0 0 d d d s s : + $ $ t i p f j j F G &.m.H.H.H.J.J.J.P.(.(.(.`.`.`.`.`.].`.[.[.[.[.(.`.(.(.[.(.`.`.[.[.[.[.[.[.].[.[.[.[.[.].).).E.A.y.5.4.m.G.y.G.y.t.-.;.;.&.o.o.P 0 * X X X X 8 l l g f s > 6 V X.;.@.$.1.c.Y.v.)._._.4X4X4XhXnXKXKXKXKXKXnXkXKXKXnXbXnXbXbXnXJXyXJXbXbXnXnXnXbXbXnXnXnXbXnXbXbXbXcXLX).rXPXKXbXnXnXnXcXvXnXnXnXnXnXcXbXbXbXbXbXcXcXcXcXxXxXxXxXpXtXpXpXtXtX@Xh.c.K.1X}.yXiX5X5X9X9Xb.6.9.9.<X<X9.<X7X7X%X+.7 p p 6 s s F o.3.6.9.9.9.b.c.v.K.Y.K.).[.].(.).(.(.).].].(.[.[.[.].[.[.[.[.[.].[.[.[.[.[.[.].[.[.[.[.].].].].~.m.u.y.t.&.n =.A.v._.nXmXlXjXjXjXhXjXjXjXfXjXjXjXrXrXzXkXrXfXjXgXjXjXfXfXgXjXjXfXjXjXjXjXjXjXjXjXjXjXfXfXfXgXgXjXjXjXxXzXwXB.yXwXwX@XyXqXOXi.e.j : i p p f j j j j j j j j j 0  .*X*X6X6X6X7X7X*X#X=X-XNXNX;X;X;X;X;X;X;X;X;X-X-X-X=X=X=X=X",
"DXDXDXDXDXDXDXDXDXDXIXDXDXsX .5 - - . o 4 e [ 8.&XZXZXZXZXVXVXVXNXBXBX8X7X .w g g g g C A A A A Z G G G G G G G K K E K E E E E L E E E I ~ ) *.5.g.A.H.H.H.D.6.=.&.X.O.g * w &.$.=.7.6.l.l.l.l.l.l.h.l.%.@.U m w q 8 8 8 0 0 0 0 8 8 8 < < < < < < < < < < < < 1 1 1 0 0 s s s s p : # $ $ : i a f j j A G *.m.H.V.H.J.J.J.P.(.(.(.`.`.(.`.`.`.`.`.[.`.[.`.[.[.[.[.`.`.`.[.`.].[.[.[.`.[.[.`.`.].].(.P.I.m.5.<.4.m.G.m.m.y.t.-.;.;.;.o.O.O.O.P l w 0 F O.R F F g f 6 0 F X.$.@.6.1.c.v.v._._.oX4XMX4XMXnXnXnXnXKXKXnXzXKXKXnXnXnXbXbXbXKXyXbXJXbXnXnXnXbXnXnXnXnXnXbXbXbXbXcXLX4X_.PXKXnXnXnXnXcXnXnXnXnXnXnXnXbXbXbXbXcXbXcXxXcXcXxXxXxXpXpXtXpXpXaXaXE.A.].wXwXyXpXiXb.b.b.c.E.W.W.F.6.7.+.9.<X9X<X+.7 p p s 0 g X.=.3.7.9.9.<X<X*X5X5Xn.K.).).).).K.).).].[.(.[.[.[.[.[.[.[.[.[.].[.[.[.[.[.[.].].[.[.[.].].].].~.A.y.y.t.-.n X.A.v.).mXnXlXjXjXjXhXjXjXjXjXjXjXjXjXrXkXzXrXjXlXjXgXjXfXfXgXjXjXjXjXjXjXjXjXfXjXjXjXjXjXgXfXjXjXjXjXjXjXxXxXL.}.tXwXwXyXqX+XZ.e.T : i p p f f j j j j j j j 0 r #X7X6X6X9X7X<X8. .$X6XBX8X;X;X;X;X;X;X;X;X;X;X;X:X:X:X:X:X:X",
"DXDXDXDXDXDXDXDXDXDXDXDXDX7Xr 8 ; * X . . o 5 r  .#XsXZXZXZXVXVXBXBXBX6XBX9.8 g g w w g C A A A C S G G G G K G K K K K E E E E L E E E L L I ) *.1.g.B.H.H.D.j.4.@.I O.l * 8 o.@.$.7.1.l.l.l.l.l.l.h.j.%.#.U n q q 8 8 0 0 0 8 8 8 < 8 < < < < < < < < < ; ; < < ; ; 1 1 1 0 0 s p : # $ $ : p a f j j F T &.5.B.B.V.H.H.J.P.(.(.(.`.`.(.(.`.`.`.`.`.`.[.[.[.`.[.[.`.`.[.`.`.[.[.[.[.].].].`.].].(.(.E.D.5.4.-.<.y.G.G.m.y.t.3.r.;.;.;.O.O.O.o.o.P O.r.o.E R F F f 6 8 F X.$.$.6.1.c.c.v._._.oX4XMX4X4XnXnXnXnXKXKXKXvXJXKXJXnXnXnXbXnXKXuXjXKXbXnXnXnXnXnXnXnXnXnXnXbXbXbXbXnXzXK.KXKXbXnXnXnXvXnXnXnXnXnXnXnXbXcXbXbXnXnXcXxXcXcXxXxXxXxXxXtXpXpXpXpX+XA.}.tX0X}.0X1X1X1X|.@X+X+X+XW.E.R.t.t.9.9.9.a.e 6 a f 6 0 P o.7.+.0.0.9.<X*X*X*X<X<XY.T.K.v.n.K.K.).{.(.).[.[.].[.[.[.[.[.(.[.[.[.[.[.[.].(.[.].].].].].].|.D.6.y.u.-.F U j.Y.K.hXnXkXjXjXjXjXjXjXjXjXjXjXgXjXrXrXmXhXjXjXjXjXjXgXfXgXjXjXjXjXjXjXjXjXjXjXjXjXjXjXjXgXjXjXjXjXjXjXxXzX@X].wXwXwXyXyXqXOXr.T : : p p f f j j j j j f f 8 9.<X9X7X<X9. .5 5 #X8X8X8X8X8X8X;X>X;X;X;X;X;X;X;X;X;X;X-X:X=X",
"DXDXDXDXDXDXDXDXDXDXDXDXDX#X5 8 - - X X O & . 4 e [ 8.7XZXZXZXZXZXBXVXBX9X9X .w g C g C C A A C C S S G G G K G K K K K E E E E L E L E E L I ~ / *.1.g.B.B.A.j.4.&.I P F ; ; P @.$.6.6.l.l.l.l.l.l.l.h.%.#.U n q 0 8 8 0 8 8 8 < 0 < < < ; ; ; ; ; ; ; ; ; ; ; ; ; ; ; > 1 0 0 p p : # $ $ : p f f j F F P ~ <.m.m.B.V.H.P.J.P.P.(.[.`.`.`.`.].[.[.[.`.`.`.[.`.[.[.`.`.[.`.[.[.[.[.[.].].].(.].].(.(.P.m.4.-.=.4.y.S.D.G.y.t.r.r.-.;.;.;.;.;.;.;.;.t.r.o.O.R F F g > 8 F X.@.$.6.1.c.v.v.)._.oX5XMXMXoXlXnXnXKXKXKXKXbXJXKXJXnXbXnXnXnXJXzXyXKXbXnXJXnXnXnXnXnXbXnXnXbXbXbXLXnXnX).uXPXJXnXnXnXnXnXnXnXnXnXLXnXbXbXbXbXnXnXcXxXcXcXxXxXxXxXxXpXxXxXpXpXaXL.L.tXyX1X@X0X0XyXyXyX0XqXqX+X~.W.p.p.dXdXa. .l 6 p p p 0 F X.+.0.9.0.0.0.9.*X*X*X*X5X5X5X5X5X5X5XK._.(.].[.[.[.[.[.[.[.[.`.].[.[.[.[.[.[.].].[.[.].].`.].|.I.6.6.u.4.G m 6.H.v.3XnXcXjXjXjXjXjXjXjXjXjXjXjXjXrXrXmXkXlXjXjXjXjXjXgXgXjXjXjXjXjXjXjXjXjXjXjXjXjXjXjXjXjXjXjXjXjXjXlXzXpX].wXwXwXwXyXyX+Xi.R > y p p f s j j j j j j s +.<X9X<X9.r 5 o 5 *X8X8X8X6X8X8X8X8X8X>X;X;X;X6X8X8X6X6X-X-X6X8X",
"DXDXDXDXDXDXDXDXDXDXDXSXSX0.5 6 : - + + + & & . o 4 5 [ 9.sXZXZXZXVXBXBX9XsX9.w A C C C C C C Z Z Z S G G G K G G K K K E E E E L K E E E E I L I *.:.5.g.j.B.m.5.=.X.P F ; ; P @.$.<.1.1.,.1.l.l.l.l.h.,.#.J n 8 8 8 < 8 < < < < < < ; ; ; ; ; ; ; ; ; ; ; ; ; ; ; ; ; ; > > > 6 > : # $ : 7 p f j j T R E ~ &.1.5.m.B.H.P.K.P.(.(.(.`.[.(.(.`.[.[.`.`.`.].[.`.[.[.(.`.[.[.[.[.[.[.[.`.].].(.`.].(.P.L.5.<.=.;.4.G.F.I.F.y.t.t.r.3.3.-.3.3.3.4.4.t.y.3.;.O.R F F g 6 0 F X.X.;.6.6.c.v.v._._.oX5XMXMXoXMXnXKXKXKXKXPXKXJXKXKXJXJXbXnXbXbXbX4XbXnXnXLXnXnXnXnXnXnXnXnXnXbXbXbXnXKXyX{.PXKXnXnXnXnXnXnXnXnXnXnXnXnXbXbXbXnXbXcXxXxXcXxXxXxXxXxXxXxXxXxXpXpX~.j.0XyXwXyX@X0XyXyX0XyXyXqXqX+X~.S.;.r.dXdXa.l 6 p p p s f w  .9.9.9.9. .0.b.*X9.,X9X9X9X<X5X5XiX1XT.).).[.[.[.[.[.[.[.[.].(.[.].[.[.[.].].].[.[.].`.`.].].E.6.5.5.4.P n 6.c.v.{.nXnXjXjXjXjXjXjXjXjXjXjXjXjXgX3XkXmXjXlXjXjXjXjXgXgXjXjXjXjXjXjXjXjXjXjXjXjXjXjXjXjXjXjXjXjXjXjXjXxXxXP.].tXwX@XyXyXaXR.E > p p p f f j f f j f f 0 +.dX9.[ * - 5 5 #XsX8X8X8X8X8XNXNXNXNX>X>X8XNXNXNX8X;X;X6XBXBX8X",
"DXDXDXDXDXDXDXDXDXDXDXSX9X .5 6 - - @ + O . & O @ @ @ 5 r +.<XZXZXZXBXBXBXBX<Xw g j A A C C A A C S S S G K G G G G K K E E E E E E K E E K L ~ I ) *.<.5.g.g.g.5.=.X.P F 8 2 P @.$.$.1.1.,.,.1.1.1.,.l.l.$.B n 8 8 8 8 < ; < ; ; ; ; ; ; ; ; ; ; ; - - - - - - - - - - - ; > > > : $ # $ t t p f j F T R O.o.&.*.<.g.h.V.H.P.P.P.(.(.`.[.].`.].`.`.[.[.[.`.`.(.[.[.`.[.[.[.[.[.[.[.[.(.].].`.(.`.E.E.B.<.4.;.-.4.G.A.A.F.S.y.y.t.3.3.r.t.3.t.t.y.y.y.3.;.o.E P F g 0 0 P X.X.;.6.6.c.v.v.)._._.5XMXMXoXrXnXKXnXKXIXIXKXKXKXKXJXbXbXbXnXbXnX3XvXbXnXJXbXbXnXnXnXnXnXnXnXnXnXnXnXJXzXT.KXKXbXbXnXnXnXnXnXnXnXnXLXLXbXbXcXnXnXbXcXxXbXxXxXxXxXxXxXpXxXxXpXpXyXm.~.tXtXyXwXyXyXtXyXwXyXyXqX+X!.p.;.O.O.p.dXO.8 p p 6 f f 0 +.;.0.0.9.9.0.0.0.*X-X*X,Xb.0.b.<Xv.c.T.).(.].].[.[.[.[.[.[.[.(.[.[.[.[.[.].].].[.[.].].`.`.].E.m.5.5.4.P q -.A.v.).mXnXkXlXlXjXjXjXjXjXjXjXgXjXjXrXjXkX2XzXjXhXjXjXgXfXgXlXjXjXjXjXjXjXjXjXjXjXjXjXjXjXjXjXjXjXjXjXjXzXcXP.B.yXwX@X@XyXaXOXE > y p p s f f f f f f f 0 H w * * : : 4 9.8X8X8X8X8XNX8XNXNXBX8X8X8XNXNXNXNX8X8X8XBXBXNXBX",
"DXDXDXDXDXDXDXDXSXSXSXSX<Xr 8 6 - - @ + O O . O @ @ + - 8 5  .9.sXZXZXBXBXBXsX+.w A A A C C A A S S S S G G G K K G K K E E K E E E E E E K K ~ I ~ ) *.<.5.5.5.5.6.@.P F F 8 U @.#.$.1.,.%.,.1.1.1.%.1.l.%.B M 8 8 8 < < ; ; ; ; ; > ; ; ; - - - ; - - = = = - - - - - = = - : : : $ $ v i p f j F T R O.o.;.;.*.<.5.g.h.H.J.P.P.(.`.`.].].].].(.`.[.[.[.`.`.`.[.`.`.`.[.[.[.].[.[.[.(.].].`.`.(.E.L.5.<.-.;.-.4.m.A.A.G.R.S.y.t.t.t.t.t.t.y.y.y.p.y.3.;.o.E P F g 0 0 P X.X.;.6.6.c.v.v.)._._.5XMXMXoX4XlXmXnXKXKXPXIXKXKXKXKXJXJXJXbXbXKXlXxXKXbXJXJXJXnXnXLXLXnXLXLXnXbXLXLXLXLX).zXPXJXJXnXLXcXbXLXLXLXLXLXLXLXLXcXbXnXLXbXcXcXxXxXxXxXxXxXpXxXxXxXpXtXL.D.tXpXtXyXyXyXtXtXyXyXaXyX0X!.u.e.e.O.P O.;.7 p p 6 7 f l l V +.0.9.9.9.9.0.*X9X*X*X<X<X<Xb.c.c.~.].(.].[.).).[.[.[.[.[.(.[.[.[.[.[.[.].].].[.].].].`.].|.B.5.u.t.o.q ;.G.v.K.rXnXcXlXlXjXjXjXjXgXjXjXjXgXjXrXrXjXP.nXjXjXjXjXgXfXgXjXjXjXjXjXlXjXjXjXlXjXjXjXjXjXjXjXjXjXjXjXjXzXcXwXB.}.yXwX@X@XyX+XO.> y p p s s f f f f f s 0 8 - 8 ; 6 o 8.8X8X8X8X8XBX8X8X8XNXNX8X8XNXCXVXBX8XNXBXBXVX8XBXBX",
"DXDXDXDXDXDXDXDXDXSXSXSX9.5 8 8 - - - + + O . O + @ + : 6 0 8 r +.<XZXZXBXBXBX9.w C C A C C A S S S S S G G K K K K K E E E K E E E E E L L L ~ ~ ~ ) *.<.1.5.5.5.4.&.P F P w X.@.#.$.7.%.%.,.1.1.1.%.,.j.%.B w 8 < < < < ; ; ; ; ; > ; - - - - - = = = = = = = - = = = + + = - - : : $ t i p f l F R E O.O.;.-.*.=.<.5.m.V.H.J.P.P.(.`.].`.`.`.(.`.[.`.].[.`.[.[.].].(.`.[.[.`.[.[.].(.`.].`.`.(.E.A.<.=.=.&.-.4.y.G.A.m.G.E.A.y.t.t.t.t.t.y.y.S.S.p.t.;.O.O.R F g 0 0 P X.X.$.6.6.c.v.v.)._._.5X4XMXoX4XMXhXkXvXmXKXKXKXKXJXKXJXJXJXLXLXKXbXuXKXLXJXJXJXJXJXLXLXLXLXLXbXLXLXLXLXLX].@XPXJXLXcXpXyXtXpXxXxXxXLXLXLXLXcXcXLXLXLXcXLXLXxXxXxXxXxXpXpXxXxXpXpX|.j.0XxXpXtXyXyXtXpXtXyXtXaXqX+Xi.e.O.E R 0 f 6 p p p f l l l l V +.8.9.0.9.9.9.*X<X9X5X5X5X1XT.P.].].(.].[.[.].[.[.[.[.[.(.].[.[.[.[.[.].].[.[.].].].(.].|.D.u.5.t.;.n X.G.v.v.1XbXnXlXlXjXjXjXjXgXgXjXjXgXjXtXrXjXl.nXjXhXjXjXjXjXjXjXjXjXjXjXlXlXjXjXlXlXjXjXjXjXjXjXjXjXjXjXjXjXcXxXE.L.tXwXwX@X@XaXO.> y p p p f f f f f s s 6 6 6 > 6 *  .7X8X8X8X8XNX8X8XVXVXVXNX8XNXVXVXVXNXNXVXNXVXVX8XBXBX",
"DXDXDXDXSXDXDXDXSXSXSXsX .5 0 8 - - - + + O . O + $ : : p s g w 8  .%XsXZX8XBX7XV n C A A C A A S S S G G G K K K G G K K E E E E E E E L L L ~ ~ ~ ) &.*.<.1.5.4.4.;.P F l 8 P $.#.$.%.%.%.<.<.<.<.%.%.1.%.B 8 0 8 8 ; ; ; ; ; ; ; ; - - - = = = = = = = = + + + + + + + + + + : p t $ i p p l F P E O.O.O.;.-.-.*.*.<.g.B.H.H.J.P.(.(.`.].].`.(.`.[.[.[.`.(.].[.`.(.`.[.[.[.`.[.[.`.(.(.].`.`.E.P.j.=.=.&.&.;.4.y.m.m.m.m.A.I.G.y.p.y.t.y.y.S.S.F.R.y.3.O.O.R F g 0 0 P X.X.@.6.j.c.v.v.)._.oXoX4XMXoX4X4XhXhXhXhXkXzXrXjXvXvXxXcXLXLXnXLXJXyXJXLXLXLXLXcXLXLXcXxXxXxXxXpXtXpXyX}.B.g.pXpXxXtXE.L.B.L.R.E.|.+XyXtXyXtXxXLXLXcXxXLXLXLXLXxXxXxXxXpXxXxXxXpXyXj.].xXxXxXtXyXtXtXtXaXtXtXaXOXi.e.O.R T s : p p p p p l l l l l +.+.+.9.0.9.9.9.9.*X5Xb.7.7.I.].).].).].[.[.[.[.[.[.[.[.].(.[.[.[.[.[.[.(.].[.].].].`.`.].L.5.5.t.;.b P G.c.v.).vXnXkXjXjXjXjXjXjXjXjXjXgXjXtXtXwXl.rXnXhXjXjXjXjXgXjXlXjXjXjXjXlXjXjXjXjXjXlXjXjXjXjXjXjXjXjXjXjXzXxXyXB.yXwXyX@X@XaXq.: y p p p f f s s s s s 6 p 6 6 : 5 <X8X8X8X8X8X8X8XVXVXVXVXNXNXVXVXVXNXVXVXBXBXVXVXNXVXVX",
"DXDXDXDXSXDXDXDXSXSXSX7Xr 8 6 ; - - = + + O . O O $ $ : 6 s d q f 8 r 9.dXZX9XsX=.w F A A C S S S S S G G G G K K G K K K E E E E E E E E L K ~ ~ ~ ) &.*.<.1.1.4.4.=.X.P q 8 X.@.$.#.$.%.%.<.<.<.<.<.%.1.<.m 8 0 8 ; ; ; ; ; ; - - ; - - = = = = = = + + + + + + + + + + + $ : p p $ t i p j F P E o.;.;.o.;.-.3.-.*.=.1.m.B.V.H.P.P.(.`.(.`.].`.[.`.[.[.].`.[.[.[.(.`.[.[.[.`.[.[.`.(.(.`.(.(.P.L.4.=.=.&.&.=.4.G.A.B.5.j.A.A.I.D.D.m.y.y.p.F.F.W.F.p.3.;.O.P F g 0 0 P X.X.@.<.6.h.v.v.)._._.5X4XMXoX4X4XMXhXrX4XrXrX(.v.J.P.P.].wXtXtXxXxXI.yXzXuXrXeX}.tXyX}.].|.].P.H.B.h.h.g.%.( h.A.wX}.x.x.x.x.x.g.m.B.B.D.L.E.E.tXLXxXxXxXxXLXLXLXLXLXxXxXxXxXpXpXpXA.D.pXpXxXpXtXtXtXtXtXpXtXaXqXr.e.O.R T p > p p p p p l l l l l l r  .0.9.9.*X9.9.7.$.$.7.j.P.).).].].].[.].[.[.[.[.[.[.].(.[.[.[.[.[.).].].].].`.].].].|.E.6.4.t.-.C J p.c.v.).lXnXzXkXjXjXjXjXjXgXjXjXgXjXgXtXtXH.).nXhXjXjXjXjXgXjXjXjXjXjXlXlXjXjXlXlXjXjXjXjXjXjXjXjXjXjXxXjXzXxXtXL.].tXwX@X@XaXq.: y p p p f f s s p s p 6 6 ; 6 o +.9X8X6X8X8X8XNXCXVXVXVXVXCXCXCXVXVXVXCXVXVXVXVXVXBXVXBX",
"DXDXDXDXSXDXDXDXSXVXZX9.5 0 > ; ; - = + + O . O # $ $ @ 6 0 0 d j g w 8 +.%XsXsXr.w F A A A A S S S S S G G G G G K G K E E E K E E E E E ~ L ~ ~ ) &.*.*.<.1.1.<.5.=.X.P w P ;.U @.@.$.$.$.%.<.%.<.%.%.<.=.m 8 0 ; ; ; ; ; - - - - - = = = = = + + + + + + + O + + + $ : i p p p i : i p f F P P o.;.;.-.;.;.r.4.4.=.*.<.5.g.B.V.L.P.P.(.(.`.(.].[.[.`.[.[.].[.[.[.(.`.[.[.[.[.[.[.`.(.(.`.(.(.E.m.<.=.;.&.&.3.y.F.~.I.5.5.m.G.m.j.m.G.F.F.F.T.T.T.F.S.t.;.O.P F C 0 0 P P X.$.6.6.c.v.v.)._.oX5XMXMX_.oXMXMXMXMX4XMX3Xn.l.l.x.%.%.%.h.h.H.j.B %.1X).K.v.H.H.h.h.g.g.l.x.,.%.%.%.%.%.( ( ( P.P.%.%.%.%.%.%.%.%.:.,.5.f.g.E.@XqXE.g.m.D.~.+X+XyXqXaXpXxXpXpXpXE.5.yXxXxXpXtXtXtXpXpXpXaXaXaXr.e.O.R T p : p p p p p f l l l e l +.+.+.0.0.9.9.T.G.6.j.H.P.).).).].].].[.].[.].[.[.[.[.].P.[.[.[.[.[.].`.].].[.].].].].].E.m.4.4.3.J n 6.c.c._.lXnXmXkXkXjXjXjXjXjXjXjXjXjXtXtXtX].v.nXkXhXjXjXjXgXjXjXjXjXjXlXlXjXjXjXlXjXjXlXjXjXjXjXjXjXjXxXjXlXxXyX|.A.tXyX@X@X+XO.: y p p p a f a p s p p 6 6 8 5 r <X8X6X8X8X8XBXVXVXVXVXZXsX8XCXCXCXVXVXCXVXVXVXVXVXNXVXVX",
"DXDXDXDXSXDXDXSXSXVXsX .5 0 ; > - - = + + O . O # $ $ - > 0 0 d d g w g 0 r 9.dXo.w A A A S S S S S S G G G G G K K G K E E E K E E E E E L L ~ ) ) &.*.<.<.1.g.<.5.4.&.P F 8 m U @.@.@.$.#.$.$.$.$.#.$.%.=.n 8 1 ; ; ; ; - - = - = = = + = + + + + + + + O O + + : i p p p a a p i : p s l P E o.;.r.r.3.-.-.3.4.4.4.*.*.5.g.m.B.V.L.P.(.`.(.(.`.[.[.[.[.[.[.[.[.[.`.[.[.[.[.`.[.[.`.(.(.`.(.P.L.5.=.-.;.;.$.4.D.|.].I.A.4.5.y.y.<.<.6.|.tXyX2X[.T.T.F.p.3.O.P G F g 0 P X.U @.<.1.h.v.v.)._.oXoX4XMXoXoXMXMXMXMX4XMX3Xv.l.x.x.%.%.%.%.%.%./ M ( ~.H.l.x.%.x.,.%.%.%.%.%.%.%.#.#./ #./ B B L.h.( ` ` ( / / / / / / %.` %.,.B.g.( ( ( ( ( / *.<.1.m.~.OX+XqXaX|.<.qXxXxXxXtXtXtXpXxXxXyXaXqXr.! ! R F > : p p p p 6 f g l l +.+.+.+.+. . .9.T.Y.c.Y.P.P.).(.).].].].(.].[.[.[.[.[.[.[.[.P.].[.[.[.[.[.].(.].[.].].].].].].m.5.4.3.P M 6.c.c.[.cXkXnXzXlXlXjXjXjXjXjXjXjXjXjXjXtX0Xx.hXmXhXjXjXjXjXgXjXjXjXhXlXjXjXjXjXlXjXlXlXjXjXjXjXjXjXjXjXjXxXzX0XyXj.0XwX@X}.+X~ : y p p p p p p p p p p 6 6 6 5 8.7X6X6X8X8XVXVXZXZXZXZX9X9.9XVXCXCXVXVXVXVXVXVXVXVXVXVXVX",
"DXSXSXSXVXSXDXSXZXVX7Xr 8 8 ; > - - = + + O . O + # @ - : s s d d g g g g w w H F g A A A C S S S S S G G G G G G K K K E E K K E E E E E L L ~ ) ) *.=.<.1.g.m.5.5.5.;.X.J 8 M U X.U @.@.$.#.#.#.#.#.$.%.@.8 < ; ; ; - - - - = = = = = = + + + + + + O & + @ : 7 7 p p f f f f a i : p f F E ;.3.3.t.r.3.3.-.4.4.4.4.<.*.<.5.g.B.B.H.P.(.(.(.(.`.[.[.[.[.[.`.[.[.[.`.[.[.[.[.[.[.[.`.(.`.`.P.P.D.<.=.;.;.&.=.y.|.1X).Y.I.y.<.4.4.4.6.6.A.wXrXrXrX1X[.W.S.4.o.P F F g 0 P U U @.$.1.j.v.v.)._.oXoX4XMXoXoXMXMXMXMX4XrX3Xv.x.x.%.%.( ` ` ` / / M B A.l.%.%.%.%.%./ ( / / / / ( ( ( ( / / N N B.%.( / ( / ( ( ( ( ( ( ( ( ( ( ( / ( ( ( ( ( / ( / / / *.<.u.<.Z.+X4.|.xXxXxXtXyXtXtXxXxXpXpX!.-.~ ! T j - : 6 p p p 6 f f 0 l +. .+.+.+.+. .7.6.c.l.c.K.K.).).).].].].(.].[.[.[.[.[.[.[.[.P.].[.[.).[.[.].].[.[.].`.].].].].A.5.4.3.P 8 =.c.c._.vXhXKXmXzXjXjXjXjXjXjXjXjXjXjXjXtXtXl.).nXjXjXjXjXjXgXjXlXjXfXlXjXlXjXjXjXjXjXlXlXjXjXjXjXjXjXjXjXjXzX0XyXL.E.tX@X}.OXE > y p p p p p p p p p p 6 6 - r %X6X6X6X8XNXVXVXZXZXdX9.r r sXVXCXVXVXVXCXZXSXZXVXVXVXBX8X",
"ZXSXSXSXVXFXDXSXVXZX*Xr 0 8 ; > : - - + + O . O + + $ @ : 6 0 q d g g g g g C g C C C C A A S S A A S S S G G G G K G G K K E E K E E E L L ~ ~ ) &.-.<.5.u.g.m.5.5.5.=.o.P w w H U U @.@.@.@.#.#.#.$.@.=.U 8 < ; ; - - - = = = = = + + + + + + + X & + # $ t 7 p f f j f f f f a t 6 s l E ;.t.4.t.t.r.t.4.4.y.6.4.4.t.-.=.<.5.g.B.V.J.J.(.(.(.].'.[.[.[.[.(.[.[.`.`.[.[.[.[.].[.[.].(.].].P.E.m.=.-.;.;.;.4.E.1X{.P.H.P.D.4.=.=.<.<.<.1.T.{._.{.{.}.|.E.y.&.R G F g q P P X.@.$.1.j.v.v.(.oXoXoXMXMXoXoXMX4XMX4X4XMX4Xz.x.%.%.( ( / / ( ( U M M 5.,.` %.%.#./ ( ( ( ( / ( ( ( ( U U U M N m.( ( / ( ( ( ( ( U ( U ( ( ( U ( / U U U U U U ( / ( U U ( ( ( #.Z.*.OXLXxXtXtXpXpXxXtXxXxXHXOX;.~ E R j - : 6 6 p p p f f 0 w +.+.+. .[ +. .X.6.6.A.c.H.P.).).).].).].).].[.[.[.[.[.[.[.].(.(.[.[.].[.].].`.].].].`.].(.].|.L.u.t.3.o.8 =.c.c.K.bXlXbXbXkXjXzXxXxXjXjXjXjXjXjXjXtXtXP.l.nXkXhXjXjXjXgXjXjXlXfXlXlXjXlXjXlXjXjXlXlXjXjXjXjXjXjXjXlXxXcXwXyX@XA.tX@X|.OXG > y p p p p a p p p 6 6 6 6 5 8.7X7X-X8X8XVXVXZXsX9.r * o r sXVXVXVXSXVXVXSXSXSXVXVXVX8X6X",
"9.DXDXSXVXVXSXSXVXVX9.2 0 6 ; > - - - + + O O O + @ $ @ : 6 0 d d g g g g g C C C C C C A A S S A A S G S G G G K K G G K E E K K E E E E L ~ ~ ) ) -.<.u.m.m.B.m.5.y.4.;.X.J w V U U U U @.@.@.@.@.( @.@.J < ; ; ; - - = = = + + + + + + X + X O O + @ : : p f l T Y R x f f f a : p g P o.r.p.t.y.t.t.t.4.4.G.m.5.4.t.t.=.=.4.g.h.B.H.J.(.(.(.`.`.`.[.[.[.[.[.[.[.`.[.[.[.[.[.[.[.].(.).(.E.L.5.=.-.;.;.=.m.@X1X).P.P.P.L.m.=.=.=.<.<.<.H.].).).(.P.P.L.m.o.R P F g q G P U @.$.6.l.v.v.n._.oX4X4XMXoXoXMXMXMX4X4XMX4Xz.x.%.` ( ( ( ( ( ( U M M 4.,.( ( ( ( ( ( ( ( ( ( ( U U U U U U M B <.( ( ( ( ( U U U U U U U U U U ( / U U U U U U U ( U U U U U U / I M E.xXtXtXtXtXtXtXtXpXpXHXR.;.! ! R j = : > 6 p p p s f g 0 e l l l [ +.+.+.3.6.6.c.l.c.H.P.).).).].].(.[.[.[.[._.[.[.].).P.{.[.[.[.).].(.].].].`.`.).(.].E.y.t.3.o.8 @.c.c.v.xXrXlXnXkXkXjXjXxXjXjXjXjXjXjXjXtXtX}.x.jXmXhXjXjXjXgXjXlXlXfXjXlXjXlXjXlXjXjXlXlXjXjXjXjXjXjXjXjXxXcXtX0XtXB.0XwX|.E.C > t p p p p p p p p 6 6 6 : r %X7X=X6X8X8XVXZX9X .5 o * o [ ZXVXVXVXVXZXSXSXSXSXVXVXVX6X9X",
"r 9.UXDXZXZXSXZXVX9X .5 0 > ; ; : - = + + O . O + @ $ @ - 6 s d d g g g g g C C C C C C A A S S S S S G S S G K K K K K K K E E E E K K L L L ~ ) &.-.1.m.m.B.B.B.j.j.5.=.;.P w n J U U U U ( @.@.@.( ( @.n < ; ; ; - = = + + = X X X X + . X . O @ : - 6 l F R O.O.q.R Y x f f a : p F o.r.p.S.y.p.y.t.t.4.5.R.F.6.4.t.t.-.*.<.5.g.B.V.P.(.(.(.(.].`.'.'.`.[.[.[.[.[.[.[.[.[.[.[.[.].(.].(.P.D.4.-.;.;.;.=.~.2X].).P.P.P.L.B.<.=.;.=.=.<.h.].).(.P.P.H.H.m.&.P G F g 0 F U X.@.$.<.%.v.v.n._.oX4XMX4X_.oXMXMXMX4X4XMXoXz.%.` ( ( ( ( ( ( ( U M M <.%.( ( / ( ( ( ( ( U ( U U U B U U J M U *.' ( U U U U U U U U U U U B B ( ( U U J J B U U U U U U U U U I m M u.+XaXaXaXaXtXaXpXaXaX+Xu.e.! E T s + : : p p p p f f g l 0 e l l l [ +.+.+.X.7.9.c.Y.Y.H.).(.).].).(.[.[.[.[.[.[.[.].].J.[.}.).].].].`.(.].].`.].(.(.].E.m.t.3.;.8 I c.v.v.1X1X4XKXmXkXkXkXzXjXjXjXjXjXjXjXtXtXyXl.[.KXjXjXlXlXgXjXlXlXgXfXlXlXlXjXjXjXjXlXlXjXjXjXjXjXjXjXjXjXcXxX}.xXI.E.yX~.R.g : t p p p p p p p p p 6 6 @ +.<X7X=X;X8XsXsX<Xr o o X * o [ ZXVXVXZXVXSXDXSXSXZXZXZX9.9.sX",
"r 5 9.DXZXVXSXZXVX7Xr 8 0 6 ; ; - - = + + O O O + $ $ $ - 6 0 d d g g C C C C C C C C C A A S S S S S S S G G K K K K G K E K E E E K E E L ~ ~ ) &.-.1.m.B.B.V.B.B.m.m.4.;.o.V 8 V J U U U U U / / U U I 8 ; ; - - - = + + + + X X + O O O O + $ : 6 l O.;.r.t.r.q.O.R Y x x f p : g E 3.p.R.S.y.p.y.t.t.4.G.~.E.m.4.t.4.4.-.=.<.5.j.B.H.P.P.P.(.].`.[.'.`.].[.[.[.[.[.[.[.[.].[.[.`.(.].P.P.m.<.-.;.;.;.G.0X.X).P.P.P.I.H.D.5.=.=.;.=.=.5.P.).(.P.H.H.H.m.&.P G F g 0 C U U @.$.#.%.v.v.n._.oX4X4XoXn.oXMXMXMX4X4XMXoXl.%.` ( ( ( ( ( ( ( J M 9 *.%.( ( ( ( ( ( U U U U U U U B B J J 9 / @.B U U U U U U U B U U U U N N ( U J U J J N J U U U U J J U U K 8 m *.<.m.R.+X+X+XaX+XE.Z.p.i.O.E T T s + : : 6 p p p f j j f l l l l [ [  . . . . .9.6.c.T.T.(.(.].].].(.).[.[.[.[.[.[.[.].J.].[.).).].].].(.].].].`.(.P.`.~.m.4.3.;.w J j.v.v.).K._.nXnXzXzXzXkXjXjXjXjXjXjXjXjXtXtXI.h.nXkXlXjXlXjXjXjXlXjXeXlXlXjXjXjXjXjXlXlXlXjXjXjXjXjXjXjXjXzXcX}.pX|.B.qX|.S.q > t y p p p p p p p p 6 6 7 #X=X7X7X6X9XsXa.5 o X X + X   r ZXZXZXVXSXDXDXSXSXSXZX9.5  .sX",
"8 r 5 9.DXZXZXZXZX9.2 8 0 > > ; - - = + + O & O + $ $ $ - > 0 q d g C C C D C C C C A A A A S S S S S G G G G G K K G G G K E K K K K E E L ~ ~ ) &.*.1.m.B.H.H.H.B.B.m.6.=.;.H 8 w F J J U U U U I U U J 8 ; - - - = + + + + + + . O O O O $ : > g P 3.p.p.p.u.e.q.! R T x f f p > l o.t.G.S.m.p.S.y.t.u.5.W.|.~.D.5.4.t.4.4.=.=.5.g.B.B.H.J.P.(.(.`.].[.[.].].[.[.[.[.[.[.[.[.[.].`.P.(.P.I.5.-.=.;.;.3.~.2X_.P.P.P.K.H.H.L.B.=.=.&.=.=.6.L.).P.P.H.H.H.B.&.K F g g 0 w H U X.$.$.1.v.v.n.n.oXoX4XoXn.oXMXMXMXMX4XrXoXx.` ( ( ( U U ( ( U J b 2 #.%.( ( ( ( ( U U U U U U J J U U J m M &./ U U U U U U U U B B B B B N N I J J J J N N J U U U J J J J K Z < J / / ( / *.<.<.<.<.*.-.-.;.O.E T T 6 + : : p p p p s j j g l l l l l +. .+.9.9.9.9.7.,.v.T.).).(.].].(.).[.).[.).[._.).[.P.(.}.].).].(.].(.].].].].(.(.`.E.m.4.3.;.n m m.v.v.Y.Y._.hXKXnXkXkXkXzXjXjXjXjXjXjXgXtXtX}.%.jXnXjXlXlXjXgXjXlXlXeXlXzXjXjXjXjXjXjXxXlXjXjXjXjXgXjXjXjXzXcX}.yXyXB.|.+Xy.0 > y y p p p p p p p p p 7 [ <X*X7X7X6X7X8.o   X + + X X o r sXVXFXVXDXDXDXDXDXZX9.5 * * a.",
"8 8 2 5 9.sXZXsXsX+.; 0 ; > > ; : - = + + O & O + $ $ $ : > s d d d C C C C C C C A A A A S S S S S S S G G S K K K G G K E K K E E K K E E ~ ~ ) &.*.1.m.B.H.H.H.B.B.B.m.4.=.o.w 2 w F J J J J U U U I J < ; - = X + + + + + + + + O O + @ : 0 F O.u.S.R.R.S.t.e.O.! R x j f f 6 0 O.t.S.S.G.G.S.p.y.t.t.m.|.}.].L.5.5.t.t.4.4.<.=.5.m.B.H.H.J.P.P.].].[.[.].].[.[.[.[.[.[.[.[.[.].`.P.(.E.D.4.-.&.=.=.D.0X[.(.(.P.P.P.K.H.L.L.5.*.&.=.=.<.H.).P.J.H.H.H.D.-.P G C g 0 w H U I $.$.1.c.v.n._.oXoX4XoXn.oXMXMXMXMXMXrX_.x.` ( ( ( ( U U U U J b 2 @.#.( ( / ( ' U U U J U U U J B N J m M ) U B B N U B J J B B B B B B N N I N J J J N N J U J J N Z N J K b < U ( ( U U U ( ( / / / -.) ~ E R T F > + : : p p p p f j j j j l l l H +.+.9.9.9.6.c.A.c.c.P.P.T.(.`.].(.).[.[.[.[.[.[.[.[.(.P.}.[.).[.[.].`.`.].`.].].P.E.E.D.5.4.;.C n y.c.K.K.Y.).2XnXKXvXzXkXzXjXjXjXjXjXxXgXtXtXwXl.{.KXlXlXlXjXgXgXlXlXeXgXkXlXjXjXlXjXlXlXlXjXjXjXjXjXjXjXjXxXbXwX0XtXL.E.+Xi.0 t t y y p p p p p p p 6 7 8.&X=X7X7X<X+.o o X . + + X X o r sXFXVXSXDXDXDXUXsX .5 * * * 5 ",
"8 8 8 8 5 0.sXsX<Xr > 6 8 ; > > : - = + + O & O + $ $ $ + : s d d D C C C C C C C C A A A S S S S S S S S G G K K K G G K E K K K K E E E E L L ) ;.*.<.m.B.H.P.L.H.H.A.m.6.=.;.X.2 8 w F J J J J U J U n ; - = X + X + + . . . X O O + - 6 f P 3.p.S.F.R.R.y.r.e.O.R T x j f f : g O.y.S.F.S.S.S.p.y.t.4.F.0X}.].L.B.y.4.4.t.4.4.-.<.5.j.B.H.H.P.P.(.`.].[.`.(.[.[.[.[.[.[.[.[.[.[.(.P.(.E.B.4.-.;.=.5.}.}.).K.P.J.K.J.K.P.L.L.m.<.*.;.=.<.B.P.K.J.H.H.H.L.t.P G F g 0 w J U X.$.#.%.c.v.n._.oXoXoX4Xn.oXMXMXMXMX4XrX_.x.` ( ( ( U U U U U J b 2 / #.( ( ( ( B U U B B J J N J B N J b n / U B J B B N N N N N B N B B m J U N N J m m N N N J N N m m J J < q I U U U J U U U U L I ) K K E G T j : + $ : p p p p f j g l l g l l l w H  . . .7.6.c.H.K.P.P.(.(.].].(.(.).[.).].[.[.[.[.].P.[.[.).).[.].`.`.].`.].].P.`.|.D.5.4.;.F 8 4.c.v.K.K.).{.lXKXKXvXzXzXjXjXjXjXjXjXjXtXtXtXH.l.nXzXlXlXlXgXgXjXlXrXrXzXlXlXlXlXjXlXlXlXjXjXjXjXjXjXjXjXxXbXtX|.pX~.B.+Xr.1 y t y y p p p p p p 6 7 7 9.&X<X<X%X+.  . . . . . X X + X r sXSXZXDXDXDXUXdX .* * * X o o ",
"; > > 0 8 5  .<X .5 1 > ; ; > ; : - = + + O & O + $ $ $ + - 0 0 d d D C C C C C C A A A S S S S S S S S S G G K K K G G K K K K K K E E E E L L ~ ) *.<.m.B.L.H.L.H.H.H.A.m.4.=.o.H ; 8 w n J J m m J J 8 ; = + + X X X . O O . . . @ 7 f l O.t.S.R.F.F.F.S.u.e.q.O.R T x x f s - F ;.y.D.G.S.S.S.y.y.t.y.~.wX}.].P.L.m.u.t.t.4.4.4.<.<.g.B.h.H.H.P.(.(.].[.`.].[.[.[.[.[.[.[.[.[.[.P.J.(.I.g.<.;.;.#.I.wX].P.P.P.P.P.K.K.P.L.L.L.5.*.&.=.=.j.P.P.K.J.J.H.H.u.P G F g 0 0 F U I @.%.1.c.v.(.)._._._.oX_.oXMXMX4X4XMXrX(.%.( ( ( ( U U U U U J b 2 U #.' ( ( ( B U B B N N N N N N N J M Z I B B N N N N N N N N N m N m M U B N N N m m N N N N N N m m N Z 2 C L L N N J N N U J J ~ L K K G G F j - + $ : y p p p f g g l l l l l l l P X.X.V @.6.c.H.Y.P.P.(.(.].].`.(.).].).).[.[.'.[.].H.].[.[.].].].(.].].].].].(.P.`.E.5.6.;.G < 4.A.v.K.K.K._.4XvXKXbXvXzXjXjXjXjXjXxXjXjXtXtX|.%.jXnXhXlXlXfXgXjXlXgXeXzXlXlXjXjXjXlXlXlXjXjXjXjXjXjXjXjXxXcXxX].tXqXB.OXr.> t t p p p p p p p p 6 7 l 9.%X<Xa.e   O & & O . . . X + X 5 sXSXDXDXIXUX<Xr * * * * X X + ",
"; ; 6 ; 8 8 5 2 8 8 6 > ; > > > : : - + + O & O # $ $ $ : = 0 d d d d C C C C C C A A A S S S S S S S S G G S K K K G G G E E E E K K K E E L ~ ~ ) ) :.u.B.H.L.I.L.H.L.L.A.y.6.;.o.V ; 8 w n F m m F n ; * X X X X + O O O X . O @ 7 l P 3.p.R.R.R.W.F.R.p.r.e.O.! R T x f f p - P 3.G.F.S.S.S.p.y.t.t.G.}.2X{.].P.P.L.m.y.t.t.4.4.4.=.<.m.B.V.H.P.P.(.`.].(.[.[.[._.[.[.[.[.[.[.[.(.P.E.D.5.-.;.&.6.1X{.(.P.P.P.P.P.P.P.P.L.L.L.A.<.=.=.=.g.P.P.J.J.J.J.L.m.I J F g 0 0 F U I @.%.1.h.v.n.)._.n._.oXn.oXMXMX4X4XMXrXv.%.( ( ( U U J U U B J b 2 U #.' U U U U U N B N N N m N J J J M J L N B N N N N N N N N m m N m m U m m m m m m m m N N m m m m Z n * Z J J N N N N N N J J I K G S G G A s + + : : > p p 6 s j j l l l l l l H P O.o.;.<.6.G.H.H.P.P.(.`.].].].(.[.[.[.[.[.[.[.[.[.P.(.[.).(.].].(.`.(.].].(.(.P.E.I.5.4.;.G < =.A.v.v.K.K.).4XlXnXnXnXcXxXxXxXxXjXxXjXtXgXtXwX%.[.KXjXjXjXjXgXjXlXjX2XzXlXlXlXjXjXlXlXlXjXjXjXjXjXjXjXjXjXzXcX].wXyXD.R.O.> t i y y p p p p p p 6 7 +.a.%X9.5   . O O O & . O . X + X * 9XSXIXIXDX9.5 * * * X + + X X ",
"; ; ; 6 8 8 8 8 8 8 6 ; > > > > : : + + + O & O # $ $ $ : = 1 d d d d D C C C C C A A A S S S S S S S S G G S K K K T G E E E E E K E K E E L L ~ ) ) -.1.m.B.L.P.P.P.L.L.D.m.6.=.;.o.w ; 8 8 w n n C 0 * * X . X . + O O . X X 6 l P o.t.S.F.W.W.W.W.E.R.u.e.O.! R T T j f f 6 - O.t.S.F.S.D.S.p.t.t.4.I.2X2X{.].].(.P.L.m.y.4.4.4.4.-.*.5.g.B.B.H.P.P.`.`.(.`.[.[.(.[.[.[.[.[.[.].P.P.I.m.4.*.;.#.~.wX].(.P.P.P.P.P.P.P.P.H.L.L.L.5.=.;.=.1.H.P.J.J.H.H.P.D.&.J C g 0 0 g U U @.%.1.l.v.v.(.).v._.oXn.oXMX4X4XoXMX4Xz.` ' ( ( U B N J B B m M 2 U @.B U U U J B B B N N N m N N m m 8 J J N N N N N N N N m N m m m m m J m m m m m m m m m m m m m m Z q 2 J J m m m Z Z N N J J K J Z S S C g s + + : : > p p p f j j g l f 0 l F l F O.o.=.<.5.m.H.H.P.P.(.(.].`.].(.].].].].[.[.[.(.[.P.P.}.[.).].(.].].(.].].`.P.P.E.E.m.=.;.E < $.A.v.v.K.K.).2XhXlX3XrXxXcXxXxXxXxXxXxXgXgXtXtXh.j.bXkXjXjXjXgXjXjXlX XkXcXlXjXjXjXlXlXjXjXjXjXjXjXjXjXjXjXzXbX|.0XtXQ.S.E > t i y p p p p p p p 6 7 l +.[ 5 o O & & & O O O . . + X @ o <XIXIXsX8.5 * * * * + + + + + ",
"; ; ; 6 6 8 6 6 8 ; ; ; > > ; : : : - + + O & O # $ $ : : = > s d d d C A A C C C C A A S S S S S G S S G S K K G G E E K K E E E E K E E E E L ~ ) ) *.<.m.B.L.P.J.P.P.L.L.D.G.4.=.;.o.w * 8 8 q q g ; * X + O . . . . . X 8 l P o.3.p.S.W.W.W.W.W.~.~.S.r.O.~ ! R T x j f f : 6 O.t.F.G.G.S.D.y.t.t.4.Q.wX{.{.].].).~.I.D.m.5.4.t.t.t.-.=.<.m.B.H.L.P.(.`.(.(.[.].(.[.[.[.[.[.].].P.P.L.y.<.&.@.6.0X[.).(.P.P.P.P.P.J.L.L.H.L.L.I.m.*.&.=.%.H.P.H.H.H.J.P.D.=.J A g s 6 w U U @.$.1.l.v.v.(.).v._.oXn.oXMX4X4XoXMX4Xx.` ( ( ( U B J B N N m b 2 J / B U J J B N N N N m m m Z m m m M J J N N m m m m m m m m m m m b J B m m m m m m m m m m m m m m C < 8 J N m m m Z Z Z N Z J J Z C A A C g 6 + + $ : > p p p f j f l l w 0 l H l H P I &.<.4.m.A.L.P.P.(.(.`.`.].(.`.].].[.[.[.)._.].(.H.[.[.).].].].].].].].(.P.P.E.E.m.6.;.E < @.c.v.v.v.n.).4XhX2X(.K.].}.xXxXxXxXxXxXjXtXtXuX].%.xXkXhXjXjXfXjXjXlX2XhXmXlXjXlXlXlXkXlXlXjXjXjXjXjXjXjXjXxXbXwX|.yX+Xp.G > t t : p p p p p p p 6 6 7 3 @ @ $ + . & . . O . . O + + @ o +.IXdXr * * * * * X + + + + . ",
"> ; ; > > > 6 > 8 8 > > ; > : : : - + + + O & O + # $ : : = > s d d d D C A C C C C A A A S S S S S S S S G E G G E E E G K E E E K E E E E E L L ~ ) ) :.g.B.L.P.J.P.P.P.L.I.A.m.4.=.;.O.F * ; 8 0 0 - + + O . . . X - 0 F X.o.3.y.G.S.W.W.~.Q.Q.1XyX+Xy.r.~ ! ! T T x j f p - g ;.y.F.m.G.S.G.y.t.4.G.1X2X.X}.[.].].].T.E.D.6.4.4.r.r.r.-.*.<.g.B.H.L.P.`.(.(.].].(.].].].[.[.].).P.I.G.u.-.@.#.W.1X).P.P.P.P.P.P.P.J.H.L.L.H.H.H.D.=.&.&.<.H.P.J.J.H.J.L.D.=.G F g s ; 0 J U @.$.6.l.l.v.v.v.v._._.n.oXMX4XMX4XMX_.%.' ( U B B B J B N N m b 2 J / B B J B B N m m m m m m m Z Z m b J Z m m m m m m m m m m m m m b J m m m m m m m m m m m m m m m n * b J m m m m Z Z Z Z J K Z C C C C g s > + # : : > p p p f j f l l l w w w l F P P &.=.<.m.B.H.P.P.(.P.(.`.].(.(.].].].].[._.).].].J.[.[.).].].`.].].].].`.P.P.P.E.A.4.;.E 8 I G.c.v.v.n._.4XrX_.v.z.h.h.L.].wXtXxXxXuXuXtXtXwX%.}.zXrXjXjXjXjXjXlX2X3XnXlXjXlXjXjXzXlXjXjXjXjXjXjXjXjXjXxXbXxX~.yX+Xi.A > t t : p p p p p p p p 6 7 7 t : $ # O & & & O . O . X + @ * 5 +.5 o * * = + X + + + + + . ",
"> ; ; > > > > > ; 8 6 > > > > - - = - + + O & O + # $ $ : : : s d d d D C A C C C C A A S S S S S G S G G G K K G E E E K G E E K K E E E E L L L ~ ) ) :.5.m.L.P.P.P.(.P.P.I.L.D.m.4.3.3.O.P 8 * ; - X .     X ; 0 F O.O.3.t.y.p.S.F.^.W.~.Q.~.yXpXyXS.t.e.! ! R R x x j f p - F 3.p.G.m.G.S.G.y.4.6.I.wX2X.X}.[.].].].].].P.A.6.4.t.t.r.3.-.*.<.j.B.H.L.(.(.(.].].(.].].].].[.).).P.L.m.u.=.X.6.}.[.).(.P.P.P.P.P.J.H.L.P.H.H.H.H.I.4.&.&.5.P.P.J.H.H.H.H.I.4.G F g f 8 8 J U @.$.6.l.l.v.v.v.v._._.n.oXMX4XMX4XhX(.` ' B B B B N B B N N m 8 2 J / B B B B N m m m m m m m m m m b m J m m m m m m m m m m m n n n m J n m n m n b n n n n n n m m n q * Z m m m m m m Z Z Z J Z C C C C g d s : + # : : > p s s f g g l l H [ +.H l l G E ~ &.<.5.B.H.J.P.(.(.(.(.(.(.(.].].].].[._.).[.[.J.(.[.[.).].].].].].].].(.P.P.E.D.4.-.O.< U c.c.v.v.n._.4X4Xn.z.h.g.l.g.g.B.L.|.tXpXpXtXtXtX,.j.xX2XlXjXjXhXhXkXrX{.nXzXjXlXjXjXzXzXlXlXjXjXjXjXjXjXjXxXcXcX~.yX+Xr.g : i : y p p p p p p p p 7 : : : t : # O & & & & O O . + + + = * o o - X X + X X + + + + + O ",
"; ; - - > > > > > ; > > - - > - - - - + + O & O + # $ $ : : = p d d d C C C A C C C A A S S S S S S S G G G G K K K G E G G E E K K E E E E E E L ~ ) ) *.1.m.B.P.P.P.(.P.P.P.P.I.A.y.4.3.3.3.;.H 8 ; * 8 0 H O.O.3.3.t.t.y.S.F.F.W.W.W.Q.~.~.yXxXpXE.u.r.O.! ! R T j j j f > - E 3.p.m.y.G.S.G.y.4.6.[.yX X.X}.[.[.{.[.].].].P.m.6.4.t.t.4.4.-.*.<.m.B.H.P.P.P.`.`.].`.(.].].].[.P.P.L.m.4.@.@.L.1XT.P.(.P.P.P.P.P.L.H.H.I.H.H.H.H.D.6.&.@.j.].(.P.H.H.H.H.I.5.K C g f 6 ; F P @.@.<.1.l.v.v.v.v.(.n.n.4XMX4X4X4XrXv.( B B N N N m N N m N m 8 * J U N J J m m m m m m m m m m m n n m m m m m m m n m m m m n n b M m Z n n n n b b n b b b b n n n C q 2 J m n n m n n n Z Z J C C C g g g s p + + # : : > p s s s f f 0 0 l +.+.+.F F G K ~ &.-.<.m.B.L.P.P.P.(.(.(.(.(.].].].)._._._.[.[.P.P.{.].).].].].].].].].(.P.I.I.D.4.-.O.8 J j.c.v.v.n._.MXoXv.z.h.x.x.f.1.,.g.g.B.~.@XyXyXaXZ.( yXrXhXzXkXhXhXjXjX[.zXcXjXlXjXxXlXlXlXzXlXjXjXjXjXjXjXxXzXLX|.|.+Xr.s : t t y y i p p p p p p t : : : : : # O & & & & . O O + + + + @ - @ @ X X X X + + + + + X . ",
"> > - - ; ; ; ; > > > > > > : - : - + + + O & O @ $ $ $ : : : 6 s d d D C C A C C C A A S S S S S S S G G E G S S G E E E E G E K K E E E L E E L ~ ) ) *.<.m.B.P.P.J.P.(.P.P.P.P.I.G.6.4.t.3.3.t.3.;.3.3.r.3.t.t.t.y.G.D.F.R.W.Q.Q.~.1X|.|.yXbXxX~.m.t.r.O.! ! R T x x f s : > o.3.y.y.y.y.S.G.y.6.m.0X3X X2X}.[.[.[.[.[.].].].I.j.5.4.t.t.4.4.-.*.<.g.B.L.P.P.`.(.(.(.(.].].].].P.L.A.y.<.@.$.|.}.P.(.P.P.P.P.P.L.L.V.H.L.L.H.A.B.A.6.@.@.B.].(.P.L.H.H.H.H.m.P F g f 6 ; g P X.@.$.,.l.z.v.v.v.(.).n.4X4X4X4XMX4Xx.' U N N N N m m m m m m 8 2 J I N N Z m m m m m m n n n m n n n m m m n n n b n n n n n b b b b Z n b b b b b b b b b b b n b n C < < J M b b n n n n n Z Z C C C C g s s > + # # : : 6 p p s s j f 7 8 e l l e l P G G E ~ -.<.5.B.H.L.P.P.(.(.(.(.(.].].).).)._._.[.[.(.J.{.].).].].`.`.`.(.].(.P.I.I.D.6.-.O.8 m j.c.v.K.n.oXMX_.z.h.g.,.,.,.,.,.,.,.5.5.g.B.L.R.m.N ~.rX3XcXkXjXhXjXxX{.xXnXjXjXjXxXlXzXzXzXlXjXjXjXjXjXjXxXvXJX0XE.+Xr.s : : : y p p p p p p p p y t : : : : # O O & & & . . O + + + + + + + X X X X X + X X + . + X ",
": : - - ; ; ; ; > > > > > : - - : : + + + O & O @ $ $ $ : y : : s d d d C C A C C C A A S S S S S S S S G G G G G G E E E E G E K K E E E L E L E L ) ) _ <.m.B.H.L.H.P.].P.P.P.~.~.F.G.p.p.y.y.y.y.y.t.y.y.y.p.S.S.F.F.W.Q.Q.~.1X|.1X1X[.yXxXuX}.A.u.t.e.! ! ! R T x j f s - 0 O.r.y.6.y.p.S.y.y.6.I.yX2X X.X{.{.{.[.[.[.].].].].I.j.6.y.t.y.4.3.-.*.<.m.A.L.P.P.`.(.(.(.`.`.].].P.H.B.y.=.U 5.wX).K.(.P.P.P.P.L.H.H.B.L.L.L.B.A.B.j.<.I @.H.].(.K.P.H.H.H.L.m.I J g f 6 ; 0 P X.@.$.%.l.l.v.v.v.n.n.n.4X4X4X4XMXoX%.B N N N N M m m m m m m 8 2 m U N m m m m m m b n n n n n b b b m n n b b n n n n n b b b b b b Z b b M M b b b b b b b b b b b n * q n M b b n b b b b Z C C D C g d 0 0 : + # # : : > p p s s j l 6 0 e l l l w H P G K ~ &.-.5.m.B.L.P.P.P.(.(.(.P.`.].).).)._._._.[.[.J.[.).(.].].(.(.`.`.].`.P.L.A.D.5.=.o.8 m 6.l.v.K.(.oX4X(.z.h.x.,.,.,.,.,.,.,.,.,.1.,.,.1.4.M G.rX2XlXkXhXhXjXzX{.rXnXjXjXjXjXlXzXzXzXzXlXjXjXjXjXjXjXzXbXpXI.~.r.0 : : : p p p p p p p p y t t t t t $ $ + O & & & . . O + + + o + + + X + + + X X + + + + + + ",
"- : - - - - > > ; ; ; ; > : - - - - - + + O & O # @ $ : : > : : s g d d C C A A C C A A A S S S G S S S G K G G G E K E E E E G K K E E E E E K L ~ ~ ) ) -.1.m.H.H.L.P.(.(.P.].].].P.A.G.G.G.S.p.p.S.S.S.S.S.S.F.F.W.Q.~.~.~.1X1X1X1X1XiXbX0X~.I.m.t.r.e.! E T R T j j f p = g ;.3.y.6.y.G.G.y.y.j.[.rX X X.X{.{.{.[._.[.[.[.[.[.].P.B.m.y.t.t.t.<.-.=.4.m.A.L.K.P.P.P.P.(.).].].P.A.m.u.@.( I.wXT.).).P.P.I.L.B.m.g.g.m.B.B.B.B.j.4.&.I @.I.].(.P.H.H.H.H.L.B.X.G g f s ; ; G P @.$.$.1.l.c.v.v.(.(._.4X4X4X4XrX).%.N N N m m m m m m m m n 8 2 n U m m m m n n n b n n b n n b b n b b b b b b b b b b b b b M M n m b b b b b b b b b b b b b b n q * n n b b b b b b b C Z C C q g d s 0 > + O + + $ : > p s s p f f f l l l +.+.+.H F J K P ~ *.<.g.B.H.P.P.P.(.(.(.(.`.].`.].[.).[.[.[.[.J.].[.(.`.`.`.(.`.(.`.`.P.L.D.D.5.-.o.8 m 5.h.v.v.n.4X4Xv.l.l.x.,.,.,.,.:.,.,.:.,.1.,.,.1.t.m 5.jX2X3XkXhXhXhXzX2X2XnXkXlXjXjXxXzXzXzXlXjXjXjXjXjXjXuXxXbXLXE.S.e.0 : t : y p p p p p p y t t t t : : $ $ O O & & & O O . O + + + + + + + + + + + + + + . . O + ",
": - - - - - > > > ; ; > > : - - - - = + + O & O # + $ : : : > : u d d d D A S A A A A A A S S S G G S G G K K K G K K E E E E E K E E E K ~ E E L ~ ~ ) ) -.<.g.B.H.H.P.].].(.].].}.[.I.F.S.S.S.S.S.S.D.F.R.R.^.W.W.~.Q.|.1X1X1X1X1X1XyXxXyXH.I.D.m.t.r.q.! ! T T x j j a 6 = F ;.4.4.6.y.m.y.y.y.G.2XrX X}..X X{.{.[.[.[.(.[.[.[.].].P.A.G.y.y.y.t.-.=.*.<.m.H.J.P.P.P.P.(.(.].].I.A.m.4.@.#.|.}.P.).P.P.P.B.5.*.#./ / / *.5.m.j.5.<.X.J =.E.(.P.P.H.H.H.H.H.A.&.J g 0 s ; ; F P X.#.$.%.l.l.v.v.(.(._.MX4X4X4XrXv.' N N M m m n n M m m n n 8 2 n J m m n m n n b b b b M M M b b b b b b b b M b b b b b b q 8 8 n n q 8 8 8 M M b b q b b b b b b 8 2 n b b b b b b b b n C D q q q d 0 6 : O O + + $ : > p p s s f f f f l H X.+.+.H H G G K I &.<.1.g.B.P.P.P.(.(.(.(.`.`.`.].).).[.[.[.[.P.(.[.].].`.`.(.`.(.`.].P.A.D.A.u.;.o.8 n 5.h.v.v.n.4X4Xv.l.l.x.,.,.,.:.:.:.:.:.:.:.<.%.,.r.M 6.xX4X{.jXjXrXrXlX4X{.nXzXlXjXxXjXkXzXkXjXjXjXjXxXxXjXuXxXcXLX~.y.e.> : : : y p p p p p p p t t : : t : $ $ # O & & & O O O O + + + + + + + X + + + + + + O . O . ",
"- - - > > - - > ; ; > > > : : : : : - + + O O O + @ $ : : : y : > d g d C C C S S S C A S S S S S G S S G G K K G K E E E E E K E K E E K ~ E L L L ~ ~ ~ ) :.g.B.H.B.P.].`.].].{.}.}.[.I.F.F.F.F.F.F.F.R.E.W.W.~.~.~.|.1X1X1XyXyX1XiXxXtXP.H.A.B.m.e.e.O.! ! T Y j j f a : = P 3.t.4.6.y.y.y.y.6.F.yX2X{..X X X{.{.{.[.[.[.[._.[.].].].~.I.I.G.y.6.t.-.-.*.4.m.H.H.K.H.P.P.(.(.P.H.B.m.<.U 5.wX].P.(.P.P.B.:.#./ / @.@.@.@./ *.5.5.=.X.U 4.~.(.P.J.H.H.H.H.L.D.;.J F 0 s > * g P X.@.$.%.1.l.z.v.v.n._.4X5XoXMX4Xx.B N m M M n n M M M M n n 8 2 n J M m n b b b 8 b b b b b b b b b b b M M b M b b M b q q 8 8 8 n q 8 8 8 8 8 8 8 8 8 q q q q q q < < n q q b b b b b b n C q q q q 0 6 > + O O O + $ : : p p s s f f g l g l X.+.H F F G K K P ~ *.<.g.B.V.P.P.P.(.(.P.(.].].).].[.[.[.[.[.(.(.[.(.].(.(.(.(.(.`.`.P.A.B.B.y.-.o.8 M 5.h.v.v.).4XoXz.l.x.,.%.%.%.:.:.:.:.:.:.:.<.%.1.-.M 5.xX2X).2XrXrXrXjXrX].nXzXjXjXjXjXkXkXkXjXjXxXjXxXxXxXxXxXcXLX!.r.q.> : : : p p i p p p p p p t t t t : $ $ # O & & & O O O O O + + + + + + + + + + + + + . . . . ",
"- - : - : : : : ; > > > > : : : : : - + + O O O # + $ : : : > > > d g d D C C A S S C S S S S S S G S S G E K K G K K K K E K K K K E E L K E L L L I ~ ~ ) *.5.m.B.h.B.E.(.(.].[.}.}.}.[.T.T.F.^.^.F.E.W.W.~.~.~.~.|.1X1X1XyXiXyXyXxXyXP.L.L.C.Z.u.-.;.O.! R T T j j f p : = O.3.t.4.6.y.y.y.6.6.~.rX2X{.}.{.{.[.[.{.[.[._.[.[.].).).].].].}.[.A.6.t.t.-.-.#.6.B.H.H.H.H.P.P.).P.A.B.m.=.U G.yX(.K.P.P.L.<.:.:.#.<.6.5.6.4.*.( <.4.;.I U m.E.P.P.P.H.H.H.H.L.L.4.J F 0 p > = 0 U U @.$.$.6.l.l.v.v.v._.4X5XoXMX_.%.N m m M M M b b M M M b b 8 * n J M n b b b M q q 8 q 8 b b 8 b 8 8 8 8 8 8 8 8 8 8 8 8 8 8 8 q n 8 8 8 q q 8 8 8 8 q 8 q q 8 q q 2 8 w q 8 b q q q q q C b q q 0 0 0 6 : + O O + $ $ : > p p s s f g j F F l H l F P F S G K P I ) *.1.g.B.L.P.P.P.(.(.(.`.].(.].[.).)._.[.(.P.[.`.`.`.(.(.(.(.(.`.P.B.B.m.y.-.o.q M <.h.v.v.).4X_.z.l.x.,.,.%.%.:.:.:.:.:.:.:.:.:.5.&.2 m.wXK.K.K.2XrX2XjXyXY.nXnXjXjXjXjXzXkXkXxXxXxXxXxXxXxXxXpXyX~.y.r.O.- : : t y p i p p p p p y t t t : : $ $ + O & & & O O . . . O + + + + + + + + + + O O O . O . ",
"- - > > : - - - > > > : > : : : : : + + + O O O # + $ : : : > p > s g d D C A A S S A A A S S S S S S G G E K S K K K K K K K K K K E E E E L L L L ~ ~ ~ ) *.<.g.B.g.g.P.P.(.].[.{..X}.1X[.W.W.W.W.W.W.~.~.~.|.~.1X1XqX1XyXiXpXpXpXyXT.P.L.C.B.Z.u.r.q.O.R R T T j j f p - ; O.4.t.4.y.y.y.y.4.j.}.rX X X.X X{.[.[.[.[.[.).[.[.].).).[.].{.{..X1XI.y.t.t.-.;.@.5.B.H.H.H.J.P.(.P.A.m.y.&.( I.wX(.(.P.P.g.<.<.<.5.m.G.W.D.m.4.@./ -.&.U @.D.E.P.P.P.J.H.H.A.H.L.u.J G 0 6 6 = > J P X.@.$.<.1.l.l.v.v._.5XoXoXMXJ.` N m m n b b b b b b M b b 8 * n J n b b q b q 8 q 8 8 8 q q q q 8 8 8 8 8 8 8 8 8 8 8 8 8 8 8 w q 8 8 8 8 8 8 8 8 8 8 < 8 8 8 q q ; q q 8 8 8 q q q q q w q q 0 0 0 6 > + & O O + + $ : > p p s s j g A G F F F F F G G G E E K ~ ~ *.<.1.B.L.P.P.P.(.(.P.`.].(.(.[.).(.[.[.].P.[.`.`.`.`.(.(.(.`.`.L.B.B.m.y.3.o.n 8 <.c.v.v._.MX(.l.l.,.,.,.%.:.:.:.:.:.:.%.*.:.%.5.P 2 I.P.l.c.l.P.wX}.rX1Xc.zXnXjXjXjXlXxXxXzXxXxXxXxXxXxXyX~.D.1.<.-.e.O.- : t t t p i i p p p i t t t : : : $ $ # O & & O O O O . O O + + + + + + + O O O O O O O O O ",
"- - : : : : : : - > > > > : : : : : + + + O O + # @ : : : > > p > s g d C C C A S S A A S S S S S G S S G G K K K K K K E K K E K K K E L K K L L L L ~ L ~ ) <.5.B.m.g.P.E.(.).[.{.2X2X1X1X[.~.~.~.W.~.~.Q.|.1X1XyXyXiXuXxXxXbXlX[.].P.P.L.B.B.Z.t.;.O.! R R T j j f p p - 8 ;.4.4.4.y.y.y.5.5.A.wXeX X X.X X{.[.[.[.[.[.].).[.].).).).].[.[.{.2X1XF.y.t.4.-.=.$.5.A.H.H.P.P.P.I.A.m.5.@.#.|.2XP.).P.L.5.5.5.m.A.A.~.0XI.G.5.=./ &.o.J =.D.P.P.P.P.J.H.V.B.A.D.y.P J f p > : - F U X.@.#.<.1.l.l.v.v._.oXoX4X4Xl.B m b b b b b b b b M M M q 8 * w m M b q q q 8 8 8 8 8 8 q 8 8 8 8 8 8 8 8 8 8 8 8 8 8 8 8 8 8 w q 8 < 8 q 8 8 8 8 8 8 8 < q 8 q 8 ; q 8 8 8 q q q q q q q 0 0 1 0 6 > : O . O O + + : : > p p s s d g F G G G G G G G T G E E E E ~ ) *.1.g.B.L.P.P.P.(.P.`.].(.(.(.(.)._.).].P.`.(.(.`.(.(.(.(.`.`.P.B.m.m.y.4.o.n < =.c.v.v._.4X(.l.x.1.,.%.%.%.:.:.:.:.:.%.:.:.<.<.J M ~.h.l.j.l.g.I.{.wX|.l.xXnXjXjXjXxXxXxXxXxXxXxXyXE.A.5.<.:.*.-.r.e.O.- : t : : p i i p i i i t : : : : : $ $ # O & & O O O O . O O + + + + + O O O O O O O O O O O ",
"- - : : : > : : - > > > : : : : - : @ + + O O # $ $ : : : > y p > 6 g g C C C A S S A A S S S S S G G S G K K K K K K K K K K K K K K E K L L ~ ~ L L ~ ~ ~ ) *.5.m.B.B.I.P.(.(.]..X2X2X2X{.{.|.~.Q.Q.Q.Q.1X1X0XyXpXxXbXbXbXxXjX[.c.P.P.L.L.D.B.m.u.;.O.! T T T j f f p p = 0 ;.3.t.4.y.y.y.5.5.P.rX3X X.X.X{.{.[.[.[.[.].[.).[.].].(.(.(.[.[.[.{..X|.A.5.t.t.3.=.=.m.B.A.L.I.P.H.B.m.4.@.<.1X2X).).T.h.1.1.g.A.A.I.I.I.I.D.5.=.I I I U 4.A.P.K.P.P.J.L.H.B.B.L.m.I J g p 6 : = w J I @.@.$.6.1.l.z.v._.oXoXMXoX%.N M b b M b q b 8 M M 8 8 8 8 * w n M 8 8 8 8 8 8 8 8 8 8 8 8 8 8 8 8 8 8 8 8 8 8 8 < 8 8 8 8 8 q 8 < < 8 8 < 8 8 8 8 8 0 < 8 8 8 < < q 0 8 8 8 8 8 q q q 0 0 0 0 > > : - & O O O + + : : > p p s s j j A G G G G T E E E K K E E E ~ ~ &.<.1.m.B.L.P.P.(.P.(.].(.(.).).(.).[.[.(.`.`.(.(.(.(.(.(.(.`.P.B.m.m.y.4.;.F 2 #.h.v.v._.4Xv.l.,.1.,.,.,.%.:.:.:.:.:.%.:.:.,.<.m I |.l.g.g.1.1.h.P.}.E.,.xXbXxXxXxXxXxXxXxXtX@XL.5.%.:.*.*.*.*.-.e.q.O.+ t : : : : i i i i i t t t : : : : $ $ # O O & & O O O . . . + + + + O . . O O O O O O O O O ",
": - : : > > > : - > > > : : : : : : + + + O O # # @ : : : > > p s 0 d g C C C A S S S A S S S S G G G S G E K S K K K K K K K K K E E E K K L L L L P E L L ~ *.<.g.B.D.L.P.(.P.]..X.X2X3X X{.}.1XQ.[.1X1XiXuXxXxXxXuXrXrX2X X{.P.l.P.P.L.L.D.B.Z.e.;.! R T T T j f f p : + w 3.3.4.4.y.6.y.5.j.}.rX2X X.X.X{._.[.[.[.[.[.).).).].].(.(.].].[.[.[.{.1X~.j.6.y.t.3.=.<.j.B.A.I.I.A.m.y.=.@.6.1X{.).].P.j.5.1.j.m.G.5.m.I.D.m.4.&.~ K J X.4.D.P.K.P.P.P.H.V.B.B.B.m.&.J F 6 > : + ; J U U @.$.7.,.l.l.v._.oXoXMXv.' M M b b M 8 8 q 8 8 8 8 8 q 8 * w n 8 8 8 8 8 8 8 8 8 8 8 8 8 8 8 8 8 8 8 8 8 8 < 8 8 8 < 8 8 0 q < < < < < 8 8 < < < < < 8 < 8 8 < 8 0 0 8 8 8 8 0 8 q 0 < 0 > > > ; - X & & O O + + $ : > 6 p s s d j G T G G G G E E E K K E E E E ~ ) *.<.g.B.H.H.P.(.P.(.(.(.(.(.(.(.(.).].(.(.(.(.(.(.(.P.P.(.P.P.B.m.m.y.4.;.J 2 @.h.Y.v._.4Xz.l.,.,.,.,.,.%.%.:.:.:.:.:.:.:.1.*.M u.E.%.g.5.,.,.j.H.P.m.( pXcXxXxXtXyX}.E.L.m.1.:.:.#.*.*.) ) &.-.e.q.R + t : : : : t t i i i t t t : : : : $ $ # O & & & O O O . O O O O O O O O . . O O O O O O O O ",
"- - : : : : : : : : : > : : : : : : $ + + O O # # # : : : > > p s s d g C C C A S S S S S G S G G G G G G G G G K K K K K K E K E K E E E E E L E L ~ ~ L L ~ &.-.1.m.B.V.P.E.`.).{. X.X3X2X.X.X2X1X2XjXjXjXlXrX.X.X{.{.{.{.[.[.`.l.L.L.L.L.B.B.Z.e.;.! R T T T j f f p : = F r.3.3.4.t.t.6.5.c.4XrX X X X X{._.).].[.`.`.(.).).].).(.(.(.].}.[.[.{..X}.I.6.y.t.t.-.=.4.m.D.H.H.h.5.5.&.@.A.wX{.).T.I.B.m.5.j.G.j.j.A.A.m.5.-.&.E G J =.5.L.P.P.P.J.H.H.H.B.B.B.B.-.J F p 6 : = * g H U @.#.$.6.l.l.v.n.n.oX4Xx.N M M b q q 8 8 8 q 8 8 8 8 8 < * q q 8 8 < < < < < < < < < 8 8 8 < 8 < < < < < < < < < < < 8 < 0 0 < ; ; < < < < < < < < 8 8 8 < 0 8 8 0 0 0 8 8 < < 8 0 0 0 0 < > ; - @ & & O O + + # : : > 6 s s s d g G T G G K K K E E K K E E E E ~ I ) :.1.g.B.H.J.P.J.P.`.`.].`.`.`.`.`.].(.(.(.(.(.(.(.(.P.P.(.P.B.m.y.u.4.;.G 2 I j.v.v. X Xz.l.x.,.,.,.,.,.,.%.%.:.:.:.%.:.<./ M E.v.,.5.1.1.,.g.H.L.<.B 2X2X`.E.B.l.,.:.:.:.:.:.*._ _ _ *.) -.-.e.q.R = : t : t t i i i i i t t : : : : : $ $ # O & & O O O & O O O O O O O O . . O O O O O O O O O ",
"- : : - : : : : : : : : : : : : : : $ @ + O O # # $ : : : > 6 p s s s j C C C C S S S S S S G S G G G G G K G K K K K K E K K E E K E E E L L L L L ~ ~ ~ ~ ~ ) *.<.1.m.B.L.P.P.(.[. X X2X2X X2X2X2X2X2X2X2X2X{.).[.{._.[.[.[.[.`.g.L.L.L.V.B.B.m.e.O.E R T T T j f s p : + G r.3.3.4.4.t.4.5.P.rX2X X X X{.[.[.).P.P.P.P.P.P.(.(.(.).(.].[.[.[.{.{.{.2X].m.y.y.t.t.-.=.u.m.A.j.j.5.4.=.#.Y.wX{.).T.H.B.B.m.6.G.A.A.A.m.m.4.-.o.P Z J -.5.L.P.P.P.J.H.H.H.B.B.A.B.4.K F f > : - X 6 F U U @.#.%.,.l.v.n.n.oX_.` M M M q q 1 < < 8 < < 8 < < 8 < * 0 q < < < < < < < < < < < < 8 8 < 8 < < < < < ; ; ; ; ; ; ; ; 0 ; ; ; ; ; ; ; < < < < < < 8 8 < < < < 8 < 0 < < < < 0 0 1 1 ; > ; - - + & & O O O + + : : > p s s s d A G T G G K K K E E E K E E E E ~ L / *.:.1.m.V.H.P.P.J.(.(.`.`.(.`.`.`.].(.(.(.(.(.(.(.P.P.P.P.P.B.m.m.u.4.-.P < U j.v.K.2X_.l.l.x.,.,.,.,.,.<.:.:.:.:.:.%.:.<.J B |.l.,.1.1.,.,.g.H.L.U $.}.T.g.,.%.%.%.%.%.:.*.*._ ) ) ) ) ) ;.;.e.q.R = $ $ : t t t t t t t t t : : : : $ $ $ # O O & & O O O O O O O O O O O O O O O O O O O O O O ",
": - : : : : : : : : : : : : : : : : $ @ + O O $ # $ : : : > 6 p s s s g g C C C S S S S S S G S S G K G G G K K K K K K K K E K K K E E E E E E L E ~ ~ ~ L ~ ~ ) -.1.g.m.B.L.L.P.).{. X2X2X X.X2X2X{.).{. X{.{.)._.[._.[.[.[.`.`.g.L.I.L.C.B.m.u.-.O.E T T T T f f s p : = E r.3.=.4.t.4.4.6.}.rX2X X X X{.[.].P.L.A.B.B.B.H.P.(.(.(.(.].[.[.[.{.{.{.}.}.I.y.y.y.t.4.=.=.y.m.5.5.5.<.=.$.P.2X].).P.B.B.B.m.j.G.D.G.G.m.5.-.&.P J Z o.4.5.L.P.P.P.P.P.L.H.H.B.B.B.u.I F j > : : + = g H U @.#.%.,.l.v.n.n.oXz.B M M 8 < < < < < < < < < < < < < * 0 0 < < < < ; ; ; ; < ; ; < ; < < < < ; ; ; ; ; ; ; ; ; ; ; < 8 ; ; ; ; ; ; ; ; ; ; ; ; ; ; ; < < ; < < < < < < < 8 0 1 1 ; ; > ; - + & & & O O O + + : : > p s s d d A G G G K E K K E E E E E E E E L ~ ~ ) *.1.g.B.H.J.P.J.(.(.(.(.(.(.`.(.(.(.(.(.(.(.(.(.P.P.P.P.P.B.g.m.5.5.-.P < J j.v.K.2X(.l.l.x.,.,.,.,.,.<.:.:.:.:.%.:.<.<.N *.].x.l.1.1.,.<.l.I.g.N A.].h.,.%.:.%.%.:.#.*.*._ ) ) ) ) ) ) ) -.e.q.R = : $ : : t t t t t : : : : : : $ $ $ $ % O & O O . . . . O O O O O O O O O O O O O . . . . . ",
"- : : : - : : : : : : : : : : : : : $ $ @ O O $ # $ : : : > 6 6 s s s g C C C S A S S S S G G S S K K K S S K G K K K K K K K K K K E E E E L L ~ E L ~ L L ~ ~ ) *.-.<.5.m.B.H.J.P.[.{. X X X X X X X(.[.{.[.[.(.)._.[.[.).).`.].h.H.L.L.B.B.m.i.;.~ ! T T T x f f s p : - O.3.3.3.4.4.4.4.A.wXrX X{. X{.{.].P.P.B.5.<.=.<.g.H.P.].(.].).[.[.[.[.{.{.}.2X~.m.y.y.t.t.3.;.-.u.5.6.4.=.=.<.P.}.].P.H.B.B.m.m.m.m.6.m.m.6.4.=.o.J F J ;.4.g.E.P.P.P.P.P.L.H.H.B.B.B.m.@.J j 6 > : $ + ; F U U @.#.%.l.v.n.n._.%.N M < < < < < < < < < < < < < < ; * 0 0 ; ; ; ; ; ; ; ; ; ; ; ; ; ; ; ; ; ; ; ; ; ; ; ; ; ; ; ; < < ; ; ; ; ; ; ; ; ; ; ; ; ; ; ; ; ; ; < < ; < < < < < 0 > > ; ; ; - - . & & O O O + + # : > 6 p s s d g A G T G K E E E E E E E E E E L L L L ) *.:.1.g.V.J.P.J.P.(.(.(.(.(.(.(.(.(.(.(.(.(.(.P.P.P.P.P.P.B.g.5.5.5.3.o.8 m 5.H.).4X(.l.l.,.,.,.,.,.,.:.:.:.:.:.:.:.<.=.M m.L.%.x.,.,.:.<.g.I.#.B ].P.l.%.:.:.:./ *._ *.*._ ) ) ) *.) ) ;.-.e.q.R = $ $ : : t t i i t : : : : : : : $ $ $ # O O . & & & o & & & & & . . O O O O O O O O O O O O ",
": : : : : : : : : : : : : : : : : : $ @ O O O $ $ $ : : : > 6 6 s s s g C C C C S S S S Z S S S S G K K S G K K K K K K K E K K E E E E E E L L L L L ~ L L I ~ ) ) ;.-.<.5.m.B.H.P.).[.{. X X X X X[.(.[.[.[.[.(.(.[.[.[.).(.`.].h.A.L.L.B.B.u.e.;.! R T T T x f f p 6 - - o.3.=.=.4.4.4.5.I.eX2X X X X{.[.).P.B.<./ U U ( %.m.P.].].].).[.[.[.{.{.{.{.2X}.D.y.y.t.t.r.3.&.=.4.4.=.=.=.1.P.].].H.h.h.j.m.m.6.6.5.4.6.6.=.&.o.J n P =.4.B.E.(.(.J.J.J.H.P.H.V.B.B.m.*.J F s > : : - - 8 J U @.#.%.,.v.v._.v.' M < < < < < ; ; < < ; ; ; ; ; ; ; * ; ; ; ; ; ; - ; ; ; ; ; ; ; ; ; ; ; ; ; ; ; ; ; ; ; ; ; ; ; ; ; ; ; ; ; ; ; ; ; ; ; ; ; ; ; ; ; ; ; ; ; ; ; ; < ; < 0 > > > > - - + & & & & O O + + + : > 6 p s s d g A G E G K K E E E E E E E E ~ L L L L ~ / *.1.g.h.V.P.J.P.(.(.(.(.(.(.(.(.(.P.(.(.P.P.P.P.P.J.P.P.V.g.5.5.5.4.;.8 M 4.H.).4Xv.l.l.1.,.,.,.,.,.:.:.:.:.:.:.:.<.@.N E.h.,.,.,.,.,.%.m.L.B ,.].h.,.:.:.:.:._ / *.*._ _ ) ) ) &.) &.&.;.e.q.O.= $ $ $ : t t t i t t : : : : : : : $ $ $ + O & % 3 3 c c c i 3 3 % & & O O O O O O O O O O O ",
": - : : : : : : : : : : : : : : : : $ @ @ O O # $ $ $ : : > 6 p s s d g C C C C Z S S S Z S G G G G K K G S K K K K K K K K K E E K E E E E E L L L L ~ ~ ~ I ~ ~ ) ) -.-.<.g.m.B.L.P.(.[.[.[.[.[.[.[.(._.[.[.[.`.(.[.[._.).(.(.].V.A.I.L.B.B.u.-.O.! R T T T x f f p 6 - ; O.3.=.=.4.4.6.6.].rX2X X X{.[.].P.B.1./ U @.@./ #.5.P.`.].].)._.[.{.[.{.{. X}.1X~.m.y.y.y.t.t.-.@.=.3.=.=.=.1.T.T.I.A.B.B.m.m.m.6.6.4.4.<.=.;.o.P F J o.-.6.L.P.(.(.P.P.J.H.H.H.V.B.B.m.<.J F f 6 : $ @ - ; 8 J U @.%.,.l.v.v.%.M 8 < < < ; ; ; ; ; ; ; ; ; ; ; ; - X ; ; = ; ; - - - - - - - - ; ; ; ; ; ; - - ; - - ; ; ; - - ; ; - - - - - ; - - ; ; ; ; ; ; ; ; ; ; ; ; ; ; ; ; ; ; > > > > > - - = + & & & & O O + + = : > > 6 s s d g A G T K K K E E E E ~ E E E L L L L L L ) *.:.1.g.V.J.J.J.(.(.(.(.(.(.(.P.(.P.(.P.P.P.P.P.P.J.P.P.L.m.5.5.5.4.;.q 8 =.H._.oXv.l.g.1.,.,.,.,.:.:.:.:.:.:.:.*.<.U ' E.l.,.,.,.,.,.%.A.m.N L.L.,.%.%.:.:._ / / _ _ _ ) / ) ) ) ) &.) ;.e.q.O.= $ $ $ : : t t i t t : : : : : $ $ $ $ $ O O & 3 c c c c c { { { c c 3 & & & & . . O O O O O ",
"- - - : : : : : : : : : : : : : : , $ + @ O O # $ $ : : > > > p s s d g C A A S Z Z S G Z S G G G G K K G S K K K K K K K E E E E E E E E E E L L L L L L ~ I ~ ~ ~ ) ) *.:.<.5.m.B.L.P.(.[._._._.[.[.(.[.[.[.[.`.(.(.[.).).(.(.].H.A.L.L.B.Z.u.-.O.! R T T j f f f p 7 + 0 ;.=.;.=.4.6.6.j.}.rX3X{. X{.[.(.H.g.@./ =.*.&.*.=.<.H.`.].].(.).[.[.{.{. X X X}.].B.y.y.y.t.3.-.&.&.=.&.;.=.j.P.I.H.B.A.m.G.m.m.6.5.4.4.<.=.&.o.G F H ;.=.5.P.P.(.P.J.J.J.H.L.L.V.B.B.B.5.P F g p : : - 6 g 8 w U X.$.,.l.v.l.' M < < ; ; ; ; ; ; ; ; ; ; ; - - - = X - - = = - = = * - - * - - - - - - - - - - - - * - - - - - ; - - - - - - - - - - - - - - - ; - ; ; ; ; ; ; ; ; ; ; ; ; ; : : - = + & & & & O O O + + - > > > 6 s s d A G G K K E E E E E E ~ L E E I ~ ~ L K ~ ) ) *.,.f.h.V.P.J.P.(.P.P.(.(.(.(.(.P.P.P.P.P.P.P.P.H.J.L.L.m.5.5.4.4.;.n < *.H._.oXz.l.g.1.,.,.,.,.:.:.:.:.:.:.:.*.=.N ,.P.%.,.,.,.,.:.<.L.#.( `.g.:.%.%.#.#./ / / _ / / / / / ) ) ) &.&.;.e.e.O.= $ $ $ : : t t t : : : : : $ $ $ $ $ $ O O O O % i c c c c { { { { { { c c 3 o & & & & . . O ",
": : : : : : : : : : : : : : : : : : $ @ + O O $ $ $ : : > > > s s s d g C A A S S S S G Z S G G S G K K K S G K K K K K K E K E K E E E E L L E L L L L L ~ ~ ~ ~ ~ ~ ) ) _ :.1.g.m.V.H.(.(._._._._._.(._.[.[.[.(.(.`.[.).[.(.(.).J.A.L.L.B.Z.t.;.O.! R T T j f f s p : + 0 ;.=.;.3.4.6.6.A.2XfX2X{.{.{._.P.h.<.@.=.=.*.-.-.<.<.B.].].(.(.)._.[.{.{. X{.{.}.}.Y.y.y.y.y.t.3.-.X.X.o.;.=.A.I.H.h.j.m.m.j.m.m.6.6.5.<.-.=.&.P G F X.-.4.m.~.P.(.P.P.P.J.J.L.L.V.B.B.B.u.I F l p : : - 6 l w 8 V X.@.7.,.h.%.M 2 < ; ; ; ; ; - - = - ; - - = = = X   = * * = = = * * = = = = = = = - = - = - = = - = = = = = - ; = * - - = = = = = - - = - - - - - - - ; - ; ; ; ; ; ; ; ; - - : = + + & & & & O O + + + - > > > 6 s s d C G E E K K E E E E ~ ~ L E ~ ~ ~ ~ I I L L / _ :.1.g.V.H.V.P.P.P.P.P.P.(.P.(.P.P.P.P.P.J.P.P.H.J.L.L.B.5.5.4.4.-.Z 2 @.A. X_.z.l.g.1.,.,.,.,.:.:.:.,.:.:.%.*.*.N H.v.%.,.,.,.<.<.,.L.B m.P.,.%.%.%.#.#./ / / / / / / / / ) ) ) ) ;.;.e.O.q.: $ $ $ : : $ : t : $ $ $ $ $ % % % % % % & & & & 3 c c c c { { { { { { { { { { c 3 & o 3 3 3 ",
"$ $ : : : : : : : : : : : : : : : : $ $ $ O O $ $ $ : : : > > p s s d g C A A S S S S G S Z G G G G K K K S G K K K K K K K K K K K K K L L L L L L L L ~ ~ L ~ ~ ) ) ) ) ) *.-.<.g.m.B.H.(.(.)._.[.[.(.(.[._.).(.(.[.].].].(.(.).P.H.L.V.B.m.e.;.O.! R T T j j f f p : + g ;.=.;.3.3.6.6.T.rXfX2X{.{.[._.K.j.#.=.3.=.4.<.<.4.<.j.~.).).).).[.{.{. X{.[. X{.{.).G.y.m.p.y.3.3.;.X.X.;.<.D.A.A.j.m.m.m.m.j.y.6.5.4.<.=.&.o.P J P ;.4.1.H.~.E.P.P.P.P.P.J.P.L.H.V.B.B.m.&.G F f 6 : - f l F w 8 J @.$.,.l.( M < ; - * - = = = = = = = = = = + + X X X + + + = = = + = = = = = = = = = = = * * * = = = = = = = = = = * = = = = = = = = = = = - = - - - - - - - - - - ; ; - - - - @ + O & & & & & O O + + - : > > 0 s d d A G K E E K K K P K ~ ~ ~ L I ~ ~ ~ ) ~ L L ) _ :.,.g.V.V.z.P.P.P.P.P.J.J.J.(.P.P.P.P.P.P.P.P.H.H.H.H.B.g.5.u.4.-.K < I H. X_.z.h.f.,.f.1.,.,.:.%.:.,.:.%.%.:./ B E.l.,.,.,.,.<.%.g.g.B P.g.%.%.:._ :.*./ / ) ) ) / / ) ) ) ) ~ ) _ _ ;.O.q.: $ v t t t t : : $ $ @ 3 3 3 c c c c c c c c c e c c { { { { { { { { { { { { { { { c e 3 3 e ",
"$ $ $ $ $ $ : : : : : : : : : : : $ $ $ $ O O $ $ $ $ : : > > p s s d g C C A S S S S G G Z G G K K K K K S K K K K K K K K K L K K K K L L L ~ ~ L L L ~ ~ L L ~ ~ ) ) ) ) ) *.:.1.g.B.V.J.(.(.(.[.[.(.(.[.)._.).(.(.).(.).(.(.).P.B.L.L.B.u.<.;.~ E ! R T x j f f p : = g ;.;.;.3.3.<.1.[.rXrX X{.{.[.).J.g.=.4.4.4.6.4.4.4.<.<.~.[._.).).].[.{. X{.[.{.{.{.}.F.m.m.y.y.y.r.-.;.X.&.4.m.m.m.j.5.m.m.y.y.6.5.4.4.=.=.&.o.P P o.;.<.1.P.].E.P.P.P.P.P.J.P.L.H.V.B.B.m.=.J F f 6 : - f l F P F 8 U $.%.%.M 2 * * * * X = = + + + + X X + X X X X X X + + + + + + + + + + + = + + = = = = = = = = = = = = = = = = = = = = + = = = = = = = = = = = = - - = - - - - - - - - - - + + O & & & & & & O O + + : : > > 0 s d g S G K E E K K P K K ~ ~ ~ L I ~ ~ ~ ) ) ) ) ) _ :.:.f.h.V.z.J.P.P.P.J.J.J.J.(.(.P.P.P.P.P.L.L.H.H.H.H.B.j.g.u.u.<.~ < J H.4X(.h.l.g.f.f.1.,.,.:.:.:.:.:.:.%.:.B <.P.%.,.,.,.,.:.%.g.( %.P.%.%.%.` _ *./ / / _ / / / / ) ) ) ) ~ ) ) ;.;.O.q.> # $ $ $ : $ $ $ 3 c c c c c { { { { { { { { { { { { { { { { { { { { { { { { { { { { c e e e ",
"$ $ $ $ : $ : : : : : : : : : : : $ $ $ $ + O $ $ $ : : : > > p s s d g A A S S S S G G G S G K K K K K K Z K K K K K K K K K K K K K K E L L L K L ~ ~ L L ~ ~ ~ ~ ~ ) ) ) ) *.:.1.1.g.B.V.J.(.(.(.).(.(.[.).).).(.(.[.(.).(.(.(.(.H.L.L.B.u.e.;.~ ! R T T x j f f p : = C ;.;.=.3.-.=.1.{.rX3X X{.[.[.(.H.5.*.4.6.m.m.5.<.<.<.#.I.{._._.).].[.{. X{.{.[.{.{.}.~.m.m.y.p.y.t.3.;.X.&.4.5.5.6.5.5.6.5.5.y.5.4.<.<.=.&.o.I P P o.-.<.B.].].E.P.P.(.P.P.P.P.L.L.V.B.B.B.<.K F j 0 : - f l P P o.J 2 B $.@.2 * * * + + X X + + + + X + + X X X X X & . + + + + + + + + + + + + + + + + + X + + X X + + + + X + X X + X X + X + + + + + + + = = + = = = = = - = - - - - - - + + + + O & & & & & & O O + + : : > 6 s s d C S K K E E K E K K K L ~ ~ ~ ~ ~ ~ ~ ) ) ) ) ) _ *.:.f.h.V.z.H.J.J.J.J.J.J.J.(.(.J.P.P.P.H.L.P.H.H.H.H.H.j.g.u.4.<.o.0 J Y.3XK.h.h.f.f.1.1.,.:.:.<.:.:.:.:.:.:.B m.B.%.,.,.,.<.<.<.g.' B.g.%.%./ _ *._ / / _ / / / / / ) ) ) ) ~ ) ;.;.;.O.e.6 # $ $ $ @ 3 3 c c c c c c c c { { { { { { { { { { { { { { { { { { { c { { { { { { { { c e e ",
"$ $ $ $ $ $ : : : : : : : : $ : : $ $ $ $ # O $ $ $ : : : > > p s s d g A C Z S S S G G K S G K K K K K K Z K K K K K K L K K K K K K K E L L L L L L ~ L L ~ L ~ ) ) ) ) ) ) ) *.:.1.1.g.B.V.J.(.(.(.(.(.[.).).(.(.(.[.].].(.(.(.(.H.L.L.m.u.r.;.O.! E T T x x f p i : = F ;.&.=.=.=.$.j.1X3X3X X{.[.[.).J.,.=.5.m.G.G.5.<.=.*./ B.}.[.[.].].[.{.{.{.{.[.{.{.{.|.I.m.m.y.y.t.t.r.X.P =.-.4.4.4.4.4.4.4.4.4.<.=.*.&.&.~ P J G &.=.6.I.].P.P.P.(.P.J.P.J.P.P.H.H.B.B.B.5.P F F s > > g F H P o.;.J 2 U P * X X   & & . & & . . . . . . . . . . . . . O O O O O + + + + + + + + + + + + + + + + + + + + + + + + + + + + + + + + + + + + + + + + + = = + = = + = - = = = = + + + O & & & & & & & O O + + : : > 6 0 s d C G K K E E E K K L L ~ ~ ~ ~ ~ ~ ) ) ) ) ) _ _ _ *.:.,.g.h.h.V.P.J.J.J.J.J.J.P.(.J.J.P.P.H.H.H.H.H.H.V.H.B.g.u.5.4.&.q m P.3Xv.l.g.x.x.1.1.,.:.:.<.,.:.:.%.:.#.B L.g.,.,.,.,.<.<.,.<.( L.<.%./ / / _ _ / / / / / / / / ) ) ) ) ~ ) ) ;.;.O.e.s + $ $ $ 7 c c c c c c c c c { { { { { { { { { { { { { { { { { { { { { c c { { { { { { { { e ",
"$ : : : : : : : : : : : : : : : : $ $ $ $ $ # # $ : : : : > > p s s d g A Z Z Z J K G G K G G K K K K K K G K K K K K K K K K K K K K K K E L ~ L L ~ ~ ~ L ~ L ~ ~ ) ) ) ) ) ) *.:.<.1.g.m.V.H.J.(.(.(.(.[.].[.).(.(.(.(.].].(.(.].L.L.B.m.u.r.;.~ E R T T x x f p p : = F ;.;.$.=.=.#.j.2X3X3X{.{.[.[.).P.5.<.5.5.5.5.4.<.=.&./ j.}.[.[.].].[.{.{.{.{.{.{.{.{.}.].A.m.m.y.y.t.t.-.X.X.&.;.-.-.-.3.3.-.-.=.-.=.&.&.o.~ P J o.;.=.6.].].(.P.P.(.P.P.P.J.P.P.P.H.B.B.B.5.I G F f > 6 l F J X.o.;.3.U 2 w * & X X . O + + O . . . . . & & & & & & . . & . O . . O . . O O + + + + X + + + O + + + X + + + + + + + + + + + + + + + + + + + + + + + + + + + + + + + + + + + + + + . & O & & & & & O O + + : > > p s s g C G K E E E K E L E L ~ ~ ~ ~ ~ ) ) ) *._ _ *._ *.:.:.,.g.B.h.V.J.P.J.J.J.J.J.P.(.J.P.H.H.H.H.H.H.H.H.V.V.B.g.5.5.<.&.q m T.2Xv.l.l.x.,.1.1.,.%.,.<.<.:.:.:.:.( ( I.x.,.,.<.:.:.:.1.( ,.B.%.%.%.%./ #./ / / / / / / / ) ) ) ) I ~ ) ) &.O.O.e.g + $ $ 7 7 v c c c c c c c { { { { { { } { } } } } } } } { { { { { { { { { { { { { { { { { { ",
"$ $ $ $ $ $ $ : : : : : : : : : : $ $ $ $ $ $ # $ : : : : > > p s s d g A Z Z J K K G K K G K K K K K K L K K E K K K K K K K L K K K K E E E E ~ ~ ~ ~ L L ~ ~ ~ ~ ~ ) ) ) ) ) ) -.:.<.1.g.B.V.J.P.(.(.(.[.].(.(.(.(.(.(.].].(.(.].P.L.B.m.u.r.;.~ E R T T T x f p p : = F ;.@.$.=.=.#.g.}.3X X[.{.[.).).P.g.<.5.5.5.4.4.4.=.&.U 5.wX{.[.[.[.[.{.{.{.{.{.{.{.{.{.}.I.j.m.y.y.y.t.t.3.;.I I &.&.&.&.;.-.-.&.&.&.&.o.~ E K J &.-.=.F.].).(.P.P.P.(.P.P.J.J.P.P.H.B.h.h.5.X.G F g 6 6 l F P X.&.-.3.t.X.2 X = : 7 : : : : : : : : $ $ $ @ + + O O . . . & & & & . & . . . . O O O O O O O O O O . . . . . + + + + + O + + + + + + + + + + + + + + + + + + + + + + + + + + + O O & & O O & & & & O + + + : : > p s d g A G E K K E K L L E L L ~ ~ ~ ~ ) ) -.*._ _ *.*.:.:.1.1.g.B.h.V.H.H.J.J.J.J.J.P.(.J.P.H.P.H.H.H.H.V.H.H.V.B.g.5.5.<.&.b m ]. Xz.l.x.f.,.,.1.,.,.,.<.:.:.:.%.:.B <.L.,.,.,.<.:.:.%.,.' g.,.%.:.:.*./ / / / / / / / / / / ) ) ) / ) ~ ) ;.;.O.r.j + $ $ $ % % % % % 3 3 e c { { { { { { { { { { { { { { { } } { { { { { { { { c { { { { { { { ",
"$ $ $ $ $ $ $ $ : $ : : : : : : : $ $ $ $ $ $ $ $ $ : : > > > p s s d d A S J J K K K K K K K K K K K L I K K I K K K K K K K K E K L K L L E E L ~ ~ L L ~ L ~ ~ ~ ~ ) ) ) _ _ ) -.:.<.1.g.m.B.H.P.(.(.(.).(.(.(.(.(.(.).).).(.(.].P.D.B.m.u.-.;.~ ! ! T T x x f p p - X F ;.&.$.=.=.#.1.{.2X2X[.[.[._._.P.j.<.<.<.4.4.4.<.=.@.J 6.wX{.{.[.[.[.{.{.{.{.{.{.{.{.{.{.].A.y.S.S.y.t.t.t.3.;.o.I X.X.o.o.o.o.o.&.~ &.o.P P J o.;.=.4.~.].(.P.P.P.(.(.P.P.J.J.P.P.H.B.h.B.j.@.G F g > 0 F G P X.;.4.4.6.p.=.J F f 6 p p p p p p p p p p p p p i : : : : : $ @ + O O O . & & & & & & & & & & & . . . . . . . . . . . O O O O O O O O . . . . O . . O + + + + + + + + + + + O O O & & & O O & & & O O + + + : : > p s s g A K K K K E L ~ ~ L L L ~ ~ ~ ) ) *.-.-.*.:.:.:.:.:.1.1.g.B.h.V.H.J.J.J.J.J.J.P.].J.J.H.H.H.H.H.H.H.H.B.V.V.g.g.5.<.*.n B {. Xl.l.g.f.,.,.,.%.,.,.,.:.:.:.:.:.N j.h.,.,.,.%.:.:.<.#.( m.:.:.:.:.:.#./ / / / / / / / ) / / ) / I ~ ~ ) ;.~ O.r.F + # # $ @ % $ $ % % 3 e { { { { { { { { { { { { { { { { { { { { { { { { { { { c { { { { { { ",
"$ $ $ $ $ $ $ $ : $ : : : : : : : $ $ $ $ $ $ # $ $ : : : > > p s s d d C S J J K K K K K K K K K K K K I K L I K K K K K E K K L E L L L L L L K L L L ~ ~ L ~ ~ ~ ~ ~ ) ) ) ) ) -.-.:.1.1.g.B.V.J.(.P.(.(.(.(.(.(.(.(.).(.(.(.(.].P.B.B.m.t.-.;.~ E R T x x j f s p : + F ;.@.$.;.&.#.1.[.2X X{.[.[.[.).(.A.<.*.=.*.*.=.&.&./ J m.yX{.{.[.[.[.{.{.{..X X{.{.{.{.{.}.~.G.m.G.y.5.t.y.t.t.-.;.X.P ~ o.~ ~ ~ ~ ~ ~ ~ P J P ;.-.=.A.}.].(.(.P.P.(.(.P.P.J.J.P.P.P.B.j.B.m.&.G F g > 0 F J U X.;.=.4.j.c.T.G.r.O.F f f s s s s p p p p p p p p p p p : i : : : : $ @ @ @ @ + O O . . & & & & & & & & . . . . . . . O . . O . . . O . . . . . . . . . . . . O O O O O O O & O & & O & O & & & & O O O + + : : > 6 s s g G K K K K L L ~ ~ L L ~ ~ ~ ) ) ) *.-.-.:.:.:.:.:.:.1.1.g.m.h.h.V.H.H.H.J.J.J.J.(.J.J.H.H.H.V.H.H.B.V.V.V.B.B.g.5.1.-.b B 2X_.l.l.g.f.,.,.<.%.,.%.<.:.:.:.:./ B H.l.,.%.,.%.:.:.,.( <.,.%.%.:.:.:.#./ / / / / / / / ) / / ) / / ) ~ ) ;.~ E r.T O # + # $ $ $ $ % 3 c { { { { { { { { { { { { { { { { { { { { { { { { { { { { c c { { c { { ",
"$ $ : : $ $ : : : : : : : : : : : $ $ $ $ : $ $ $ $ : : : > > p s s d g A G J J K K L L L L K K K L L L ~ K K ~ K K K L L L K K K L L L E L E E L L L L L L L ~ ~ ~ ~ ) ) ~ ) ) ) ) -.:.<.1.1.B.V.H.P.P.(.).(.(.(.(.(.(.].(.(.(.(.).P.A.B.u.t.-.;.~ E R T T x j j f p : + C &.@.$.;.$.@.<.~.2X_.{. X[.[.].].H.1.#.&.&.) ~ ) ~ L U F.tX2X X{.{.[.{.{.{.{.{.{.{.{.{.{.{.[.I.m.m.G.y.y.y.t.4.4.-.;.o.P P P P P K E P P K ~ ;.;.=.<.T.}.].(.P.(.(.(.(.P.P.P.P.P.P.P.A.g.B.m.&.J P g 8 0 H +.7.7.@.=.4.j.K.4X1XT.F.6.3.P F g f f f f s s s s s p p p p p p i p p t t t : t i : : $ $ $ $ + O O . & & . . . & & & & & O & & O O O & O & & & & & & & & & & & & & & & & & & & & & & & & & & & & & & & & O + $ : : > 6 0 s C G K K K E L L ~ K L L I ~ ~ ) ) _ -.-.:.:.:.:.:.<.1.1.1.g.h.h.h.H.H.H.J.H.J.J.J.`.J.H.H.H.H.H.L.V.V.V.V.V.V.j.g.g.5.-.m ( wX(.l.h.x.f.,.1.,.,.,.:.:.:.:.:.<.( ( L.,.,.,.<.%.<.<.:.( g.%.:.#._ :./ / / / / / / / / / ) ) ) / I ) ) ) ) &.E E r.R + # # $ $ $ % % 3 c c { { { { { { { { { { { { { { { { { { { { { { { c c c e { { c c { { { { ",
"$ $ $ $ : $ : : : : : t t : : : : : : $ $ : $ $ $ $ : : t > > p s s d d C G K K L L I I L L L L I I L I ~ K K ~ K K L L L I L K K L L L L E K E L L L L L ~ ~ L ~ ~ ) ) ~ ) ) ) ) ) -.:.<.1.1.m.B.H.P.J.P.).(.(.(.(.(.(.].].].(.(.).P.B.B.u.e.-.O.~ ! R T T x j j f p : + g ;.;.;.;.;.@.$.Y.2X X{.{.{.[.].P.Y.h.<.@.U U P P U U B |.yX}. X X[.[.{.{.{.{.{.{. X{.{.{.{.{.[.A.m.m.y.y.y.y.t.4.t.3.-.;.o.X.P K J P P I &.;.-.3.=.j.}.].].(.P.(.(.`.(.(.P.P.P.P.P.P.A.g.B.m.*.J P g 8 w  .9.9.b.7.=.4.j._.kXcXlXuX0X!.W.p.i.e.E T T A g j j f f f f s p p p p p p p i p p i : : : : : : : : $ $ $ + O O . & & & & & & & & & & & & & & & & & & & & & & & & & . % 3 3 3 3 3 3 3 3 3 3 3 3 % & & & & O O + + : : > 6 0 s C G K K K L L ~ ~ K K L ~ ~ ~ ) ) ;.-.-.:.:.<.<.<.1.1.1.1.g.h.h.h.V.H.H.H.H.z.H.J.`.H.H.H.H.H.V.H.H.V.V.V.V.B.g.g.g.5.-.m #.wXJ.l.l.x.f.,.,.,.,.%.:.:.:.:.:.<.N 5.C.,.,.<.<.%.:.<.%.%.,.%.%.#._ *./ / / / / / / / / / ) ) ) I I ) ) ~ ~ ;.~ E r.O.+ O % # # $ % 3 c c c c c c c e e e e e c e e { { } | | | | | | | | } } { c e e c { c { { { ",
"$ : : $ $ $ : : : : : : : t : : : $ $ : $ $ $ $ $ $ : : t > > y s s d d C G K L I I / / / / I L I I I ~ ~ L J ~ I L L L L L I I I L ~ L L L L L L L L L L ~ ~ ~ ~ I ) ) ~ ) ) ) ) ) -.:.:.1.5.g.B.V.P.P.P.(.(.(.(.(.(.(.].].].(.(.(.(.H.m.m.t.-.;.O.! R T T x f f f p : + g ;.@.=.=.;.@.$.h.{. X X{.{.(.K.K.T.T.T.T.c.$.X.V B  .j.yXyX2X X{.{.{.{. X{.{.{..X X{.{.[.{.{.[.~.G.m.y.y.Z.y.t.4.t.4.4.4.3.3.3.-.;.-.=.=.=.-.3.6.6.I.0X].].P.P.(.(.(.(.(.P.P.P.P.(.P.L.1.A.m.&.H P g X.+. .b.<X^.6.=.6.l.{.kXkXhX2X].I.D.Z.Z.u.r.;.~ ! E E R T T j j j j f s s s s p p p p p 7 : 7 7 : : : : : $ $ $ $ $ # + O . . & & & & & & & & & . . . . . . O O % 3 3 3 3 e 3 e e e c c c { { { { { { c c % & & & O @ : : > p s s C G K K K E L ~ L L K L ~ ~ ) &.-.) ) :.:.<.1.1.1.1.1.1.f.g.B.h.h.V.H.V.V.H.H.H.H.(.J.H.H.H.H.V.H.H.V.V.V.V.B.m.g.g.5.<.m %.wXv.l.l.x.x.,.,.,.,.,.:.:.:.:.:.#.N B.h.,.,.<.<.%.<.<.#.5.:.%.%.#.:.:./ / / / / / / / / / ) ) / I I ) ) ~ ~ &.E P e.O.+ O $ O O % $ 3 3 3 3 3 3 3 3 3 3 3 3 4 4 e } | | | | | | | | } | | | | | | } { e e c { { { ",
"$ $ $ : $ : : $ : t : : : : : : : $ : $ $ $ $ $ $ $ : : t y > y s s s g C G K L / ) ) / / / / I I / ) ) ) I Z ~ ~ L I I I L I L L L I L L L L L L L L L L L ~ ~ I ~ ~ ) ~ ) ) ) ) _ -.-.:.<.1.g.g.B.H.J.P.).(.(.(.(.(.(.].].].(.(.).].L.m.u.t.-.O.O.! R T T x f f f p : + s o.&.=.;.&.&.#.1.T.}.{.{.{.K.K.[.{.]. XlXzXjX1XT.T.[.yXrX2X2X2X X{.{.{.{.{.{.{.{.{.{.{.[.[.[.].|.I.m.m.y.G.p.6.y.y.t.y.y.4.4.4.4.4.4.3.4.3.4.4.4.6.|.}.].].`.(.`.`.`.(.(.P.P.P.P.(.P.L.,.B.B.=.J P g H a.9.0.9.X.X.=.=.j.{.rX_.K.v.l.l.,.<.:.*.*.) L ~ E E ! ! ! E R T T F F j j j s s f s f p 7 p i : : : : : : t $ $ $ $ $ $ @ O O O O & O O O O O . o % % @ @ @ 3 3 3 3 3 3 3 3 3 e e c c { { { { { { { } | } { 3 & & @ - > > p s s C G K K E L L L K ~ L I ~ ~ ) ) -.*.*.:.<.1.1.1.1.1.1.1.g.g.h.B.V.V.H.V.H.H.H.H.H.(.J.H.H.H.V.V.H.H.V.V.V.B.h.g.g.g.u.<.N 1.}.h.l.l.g.1.,.,.,.,.,.:.:.:.:.:.( B L.g.,.,.<.<.,.<.%.%.,.%.%.#.#.:.:./ / / / / / / / / ) ) ) I ) ) ) ) ~ ~ ) K K e.q.+ O O O @ O @ % O O % % % $ $ @ % o & 3 { } | | | | | | | | | | | } } } } } } | { e c { { { ",
"$ $ $ $ $ v $ $ t t : : : : : : : : : $ $ $ $ $ $ $ : : t > > > s s d d C G K I / ) *.#.#./ / / / / ) ) / / J I &.I I L I I I L L L L L L L L L ~ ~ L L ~ ~ ~ ) ~ I ~ ) ) ) ) ) ) ) -.-.*.:.1.g.m.B.H.J.P.(.(.(.(.(.(.(.(.[.].(.(.).`.L.m.u.t.-.;.~ E R T T x s f f p : + 0 O.&.&.;.@.@.@.%.B.].[.{. X_.{.2X{.{.[.3XcXnXcXnXcXjXrX3X2X X X{.{.{.{.{. X{.{.{.{.{.[.[.[.{.{.].[.A.m.m.G.G.y.y.y.y.y.u.u.u.u.u.t.4.4.t.4.4.y.5.D.wX].].].(.(.`.].`.(.(.P.P.(.P.P.P.L.,.B.D.=.J P C 8 V 3.7.+.H X.$.=.j.2X Xv.v.l.l.,.,.:.*.#.*./ L K K K E E E T E T T R T T F F l j f f f p 6 p p t i i : : : $ $ $ : $ $ $ $ $ $ $ $ $ $ @ $ $ 3 3 3 @ @ 3 3 3 3 3 3 3 3 3 3 3 e e c c c { { { { } } } } } | | | } c % @ : 6 p p s C E K K K E L ~ L ~ L I ~ ~ ) ) -.-.*.<.1.5.5.5.5.1.1.g.g.h.h.B.h.B.V.V.H.H.J.J.J.`.H.H.H.H.V.h.H.H.V.V.B.B.B.m.g.g.u.<.N B.{.h.l.x.f.,.,.,.,.,.,.:.:.:.:.<.B #.L.,.,.<.<.<.%.:.%.,.,.%.%.*.#.:.:./ / / / / / / / / ) / ) I I / ) ) ~ ) ) K P ;.e.- O O + + # @ @ @ O + O O + + + . o e } | | | | | | | | } } } } } } } { { { { { { { { c { { ",
"c 3 $ $ v t $ $ : : : : : : : : : : : $ $ $ $ $ $ $ : : : : > > s s d d C G K I / *.:.:.*.*.#.*./ / &.) ) &.J I &.I I I I ~ L L L L L L I ~ L L L ~ L L ~ ~ ~ ~ ~ ~ ~ ) ) ) ) ) ) ) &.*.*.:.1.1.g.B.B.H.J.(.(.(.(.(.(.(.(.).(.).(.(.].L.m.u.e.-.;.O.! R T T j p f f p : + 0 o.&.&.;.@.X.@.@.=.A.[.}.2X2X2X2X X{.{.{.{.jXlXzXlXfX3X2X X{.{.{.{.[.{.{.{.{.{.{.{.{.[.[.[.[.{.{.{.].A.m.m.G.y.y.y.y.y.y.y.y.y.y.u.u.5.u.u.u.y.y.|.wX[.].].(.(.].`.`.(.(.P.P.(.P.P.P.L.,.B.D.=.J P C 8 2 V  .+.X.X.=.=.j.2X_.v.h.l.l.,.<.:.*.#.@./ L K K G G S G G G G G G G G F F F F l j f p 6 p p t i i : 7 $ $ 3 $ $ $ $ $ $ $ $ $ $ $ $ $ 3 3 3 3 3 3 % 3 3 3 3 3 3 3 3 3 e c c c c c { { { { { } } } } } } } | | s.} e 3 7 6 s s A G K K K E ~ ~ ~ ~ L L ~ ~ ) &.*.<.<.1.5.u.g.g.g.g.g.g.g.h.B.V.h.V.V.V.H.J.H.H.V.`.P.H.H.V.V.h.H.H.V.B.B.B.h.m.g.g.u.<.N I.).l.g.l.f.1.,.,.,.,.,.:.<.:.:.*.N g.B.,.,.<.<.<.%.%.%.5.:.%.%.#./ :.:./ / / / / / / / / ) ) ) I ) / / ~ ~ ~ ~ K E o.e.: O O + + + + + + + + + # + + @ o e { } | | | } } } } } } } } | | | | | | } } { { { { { e { ",
"} c 3 3 $ : $ $ 7 $ $ 7 : : : : 7 : : $ $ $ $ $ $ $ : : : : > > s s d d C Z K I / *.:.:.:.:.:.*.*.*.*.*.*.&.L J *.) I ~ ~ ~ L L L L L L L L L ~ ~ L L ~ ~ ~ ~ ~ ~ ~ ~ ) ) ) ) ) ) ) &.-.*.:.1.1.g.g.B.H.K.(.(.(.(.(.(.(.(.).).(.(.].].L.m.u.t.r.O.~ ! R R T j p f f p 7 + ; O.;.@.;.;.X.X.I / #.j.}.2X2X X X X{.[.[.).[..XwX2X2X X{.{.{.{. X[.[.{.{.{.{.{.{.{.{.[.[.[.{.[.{.[.{.P.j.m.G.G.S.m.y.m.m.y.y.y.y.y.y.y.y.m.m.y.A.1X}.].].].(.(.].].`.(.(.(.(.(.(.(.P.D.,.B.D.-.J P F 6 8  . .9.b.7.$.<.l. X_.v.z.h.x.,.,.:.%.#.#./ L L K G S S Z S Z S Z A S A A C A A j j j s 6 p i i i 7 7 7 7 7 3 3 3 3 $ $ $ $ $ $ $ 7 7 3 3 3 3 3 3 3 3 3 3 3 3 3 3 3 3 e e e c c { { { { { } } } | | | | | | | | | s.s.{ 7 6 s s A G K K K L L K ~ ~ ~ L ~ ~ ) &.-.<.<.1.g.m.m.g.g.m.g.g.g.m.B.V.B.h.V.V.V.J.H.V.J.`.H.V.V.V.V.h.H.H.V.V.B.h.h.g.g.g.m.<.B ~.K.l.l.l.1.,.,.,.,.,.,.:.:.:.:.#.N L.g.,.,.:.<.%.:.#.,.1.%.%.#.#.*.:.:./ / / / / / / / / ) / / I ) / ) ~ I ~ ~ K K E e.p & + O + # # $ # # + + + + + % e { } } } } } { } } } } } } } } { { } } } } } } { { { { ] ] ",
"{ { 3 3 3 $ 3 i c 3 3 3 3 3 3 3 $ $ $ $ $ $ $ $ $ $ : : t > > > s s d d C Z K I / *.<.,.,.<.<.:.:.:.:.*.*.*.I J *.&./ ~ ~ ~ ~ L L L L L ~ L L L L ~ ~ ~ ~ ~ ~ ~ ~ ~ ~ ~ ) ) ) ) ) ) -.-.*.:.:.1.5.g.B.H.J.(.(.(.(.(.(.(.(.).).).(.).].P.m.u.t.r.;.~ ! R R x j s s f s i + - E ;.X.;.=.;.&.I I U ( j.}.2X X2X X{.[.[.[.[.[.{.[.[.[.[.[.[.{.[.[.[.{.{.{.{.{.{.{.{.[.[.[.{.[.[.[.[.[.Y.j.G.S.G.m.m.G.m.m.m.m.m.m.6.m.G.A.A.G.~.2X[.].].].(.(.].].`.(.(.P.P.(.(.P.P.L.<.B.R.-.J P F p * +.9.9.*X7.$.%.h.{._.v.z.h.h.x.,.%.:.%.#./ / L K K Z S Z Z C Z Z C C C C C g g g g f p : : : 7 7 7 7 7 e e e e 7 3 3 3 3 $ $ $ 3 7 7 7 3 3 3 3 3 3 3 3 3 3 3 3 3 e e e e { { { { { { { { { } } | | | | | | | | | | | s.w.s p g A G K K K L L K ~ ~ ~ ~ ~ ~ ) -.-.<.5.u.m.m.g.g.g.m.m.g.g.B.B.V.h.V.V.V.V.J.J.H.H.(.H.V.V.V.B.h.V.H.B.h.B.h.h.h.g.g.g.*.( ].v.l.l.1.1.,.,.,.,.1.1.<.:.:.:.( ( I.,.%.:.:.<.:.%./ 5.,.%.%.%.#.:.:.:./ / / / / / / L / ) / I I / / / L ~ ~ ~ S K G q.p O # + # # # $ # # $ @ + @ % 7 c { { { { } } } } { { e e e ] [ 8.8.8.8.8.8.8.} } { { { { ] ",
"{ { c 3 i i i c c c { { } } } { c c 3 3 % % # $ $ v t v : : 7 7 p s d d g C G I @.*.<.,.,.,.,.<.<.<.:.:.:.*.) J *.*./ I ~ ~ ~ I I I L L L L L L L I L L ~ ~ ~ ~ ~ ~ ~ ~ ~ ) ) ) ) ) -.-.*.:.<.1.g.g.g.V.H.(.(.(.(.`.(.(.(.`.`.(.(.].].P.B.m.u.r.;.O.! ! R T j f p f s p : = P o.&.;.=.=.=.&.I I U ( A.}.1X X{.{.[.[.[.[.[.[.[.[.[.[._.[.[.[.[.[.[.[. X{.{.{.[.[.[.[.[.[.[.[.)._.[.].H.G.G.G.G.m.G.G.j.G.m.A.A.I.I.~.~.Y.P.2X}.[.[.[.].(.(.].].].`.(.(.P.(.(.(.P.L.,.B.L.4.J P F s * +.9.0.b.7.$.7.c.{._.v.z.h.l.l.x.,.:.:.:.*./ L L N Z Z Z C C C C Z C C C D d q w 0 6 7 7 3 7 e e e e e c c c e e e e e 3 3 $ 3 3 c 3 3 3 3 3 3 3 3 3 3 3 3 3 3 e c c c c { { { { { { } } } } } } } | | | | | | s.| | | s.w.c f A G K K K K L L L ~ L ~ ~ ) ) -.-.<.5.g.m.g.1.5.5.5.m.g.g.j.B.h.h.V.V.V.V.J.J.H.H.P.H.H.V.V.V.h.H.H.B.B.B.h.h.h.g.g.m.#.#.].h.g.g.g.f.,.,.,.,.,.,.:.:.:.:.N <.H.%.,.%.%.<.<.%.%.g.%.%.:.%.%.%.:.#./ / / / / / / / ) ) / I I I / / L ~ ~ K C G g Y : O O O + + # @ @ $ @ + @ @ o c c { { } } { { e e 4 4 4 [ 8.#X#X#X#X#X#X8.8.8.8.8.8.} } } { ",
"{ c c c c c c { } } } } } } | | | w.| } { c 3 % $ $ : t : : : 7 p s q d g C J L #.:.,.1.,.,.1.1.,.1.<.<.<.<.*.U *.<.) ) ) ) ) / L ~ ~ ~ I I I I I I L L ~ ~ ~ ~ ~ ~ ) ) ) ) ) ) ) ) -.-.*.*.<.<.g.g.g.B.H.(.(.(.(.(.(.(.(.`.`.`.(.(.].`.B.m.u.e.;.;.~ ! R T j f p f s p : + F o.&.;.=.=.=.4.=.&.@.U #.I.}.{. X{.{.)._._.[.[.[.[.[.[.[._._.[.[.[.[.[.{.{.{.[.[.{.[.[.[.[.[.[._.[.[.[.].P.P.I.I.L.I.I.I.~.].|.].}.1X}.].).}..X[.[.[.[.[.`.(.].].].`.`.(.P.(.(.P.P.L.,.B.E.4.J E F s * V a.9.9.7.@.$.l.2X_.v.z.h.l.l.g.1.,.<.:.:./ / L K Z Z Z Z C C C C D D d d 0 8 0 7 7 7 r r r e r e e e e e e e e e e e e e 3 3 3 3 3 3 3 3 3 3 3 3 3 3 3 3 3 e e e e e e c c c { { { { { } } } | | | | | | | | s.s.s.s.s.s.w.f A G K K K K L K K ~ ~ L ~ ) &.-.<.<.5.g.m.g.1.1.5.5.u.m.g.g.B.B.h.h.V.V.H.J.H.H.H.P.H.H.B.V.V.g.H.L.B.B.B.h.h.h.g.g.m.#.<.].l.g.g.g.f.,.,.,.,.%.,.<.<.:.*.N B.h.%.,.,.<.%.:.( ,.g.%.%.%.:.:.%.:.#./ / / / / / / / ) / / I I I ) I I ~ ~ G d A s : + O O O + + # @ + $ $ @ @ + 7 c { { { { { e 4 4 4 o r 8.&X7X#X$X$X$X#X#X#X#X#X8.8.8.| } } { ",
"{ c c c c { { { { { } } } } | | | | | | | | | { i % $ : : : > > p s d d g C J I / :.,.g.g.l.g.5.5.1.1.1.<.<.<.U / <.*.) ) &.) ) ~ ~ ) ) ) ~ ~ I I I I I ~ ~ ~ ~ ~ ~ ~ ) ) ) ) ) ) ) ;._ *.:.<.<.5.g.g.h.H.(.(.(.P.(.(.(.(.`.`.`.(.(.(.].B.m.u.e.;.O.~ ! R T j f p s f p : + g O.&.;.=.6.6.4.y.3.;.@.( <.~.}. X X[.[._._.[._.)._.[.[.[._.[.[.[.[.[.[.[.{.[.[.[.{.[.[.[.[.[.[.[.[.[.[.[.}.}.}..X}.wXwX1X}.}.}.[.}..X}.].{.wX.X[.].].[.].(.(.].].].].(.(.P.`.`.P.P.L.,.B.E.4.J E F d ; r a.9.7.7.@.$.l.{. Xv.v.h.h.l.g.g.,.,.,.<.#./ / L J Z Z Z C C C D d w 0 8 e l l e e e e e e e e e e e e e e e e e e e e e e 3 3 3 3 3 3 3 3 3 3 3 3 3 4 3 3 3 e e e e e e e c { { { { { { { } } } | | | | | | | s.s.s.s.s.s.+.l G K K K E E K L ~ L L ~ ) &.-.<.1.g.m.g.5.1.1.1.<.<.1.5.m.B.B.h.B.z.V.H.H.H.V.H.P.H.z.h.H.B.x.L.H.B.B.h.h.h.h.h.g.m.( j.~.l.g.g.f.1.,.,.,.,.,.,.<.<.<./ B L.g.%.%.%.<.<.:./ g.,.%.:.:.:.:.%.%.#./ / / / / / / / ) / I I I ~ ) ~ ~ ~ E C 0 g 6 + O O O O + + # $ $ $ @ @ @ $ c c { { e 7 4 o o 4 4  .&X7X=X:X:X&X$X$X$X$X$X$X$X#X$X8.8.8.| } ",
"{ c c { { { { { { } } } } } } } } | | | | | | | | { 3 @ 7 : y y p s d d g C Z L / *.1.g.g.g.g.g.g.g.5.1.,.<.<./ / 1.<.*.*.&.&.&.) ) ) ) ) ) ) ~ I I I I ~ ~ ~ ~ ~ ~ ~ ) ) ) ) ) ) ) -.-.*.:.<.1.1.g.g.g.V.P.(.(.(.(.(.(.P.`.`.`.(.(.).`.H.m.u.e.;.;.~ ! R T j f p f f p : + 0 O.;.;.=.=.4.6.y.p.4.=.$.( g.[.{.{.{.[.)._._.[.[.[.[.[.[.[.[.[.[.[.[.[.[.{.[.[.[.{.[.[.[.[.[.[.[.[.[.[.[.[.[.}.XX.X}.{.[.[.[.[.[.{.}.{.[.2X.X[.[.[.[.[.[.(.(.].].].].].(.P.`.`.P.P.L.,.B.E.4.J E G g ; 5 ;.6.7.@.@.$.1._. XK.v.h.h.h.g.g.g.l.,.,.:.*./ / J Z Z Z Z C C g w 2 r +.+.} ] ] ] ] ] ] ] e e e e e e e e e e e e e e e e e 3 3 3 3 3 3 3 3 3 3 3 4 4 3 e e c c c { { { { { { { { } { { { { { { } } } | | | | | | s.s.s.s.w.F F K K K E E L ~ L K L ~ ) &.*.:.1.g.m.g.1.<.<.<.-.) ) / <.m.B.B.V.V.V.H.H.H.H.H.(.H.V.B.H.B.x.L.L.B.h.h.h.h.g.h.h.g.( D.I.l.g.f.g.1.,.,.,.,.,.,.<.<.<.B %.P.,.,.,.,.,.,.#.%.g.%.%.:.:.:.%.%.%.#./ / / / / / / ) / / I I ) ~ ) I ~ ~ E q 0 6 : O O O O O + + # $ $ $ $ @ + p c { c 4 4 o o o 4 4 8.7X7X=X:X:X:X:X=X:X&X&X#X$X$X$X#X#X$X8.8...",
"{ { { { { { { } { } } } } } | | | | | | | | | | | | } c $ : : p 6 s d d g C Z K / *.,.g.h.h.h.h.g.g.g.g.1.,.5.#.( 5.<.*.*.*.*.*.&.) ) ) ) ) ) ) ) ) I ~ ) ) ) ) ) ~ ~ ) ) ) ) ) ) ) _ -.*.*.:.1.1.g.B.g.V.P.(.(.(.(.(.(.(.`.`.`.(.(.[.].L.m.u.t.;.O.~ ! R T T j f f f p 7 = 0 o.;.;.=.=.6.6.6.F.G.4.-.*.#.A.{.{.{.[._._.[.[.).[.[.[.[.[.).[.[.[.[.[.[.[.[.[.[.{.[.[.[.[.[.[.[.[.[.[.[.[.[.[.[.[.[.].[.].].[.).[.[.[.[..X[.].[.).].].[.].(.].].].].].(.(.(.(.`.P.L.%.B.E.5.J E R g ; ; H  .+.X.X.@.1.).2X(.v.z.h.h.h.g.l.l.l.,.<.:.*./ U J N Z Z C C 8 5  .9.9.0.[ ] ] ] ] ] ] ] e c ] ] ] ] c e e ] ] e e e e e e e 3 3 3 3 3 3 3 3 3 4 3 e e e e e e c c { { { { { { { { { } } } { c 3 c c { } } } } } } | s.s.w.O.G K K E E E K L ~ L K ~ ) *.*.:.<.g.g.1.<.<.&.&.G n b n m &.m.B.B.h.V.H.H.H.V.H.P.H.V.B.H.B.x.L.L.B.B.B.h.h.g.g.h.g.( I.H.l.g.g.g.1.,.,.,.1.,.,.<.<.:.N g.B.,.<.<.<.<.<.( ,.1.%.%.:.:.:.%.:.%./ / / / / / / / ) / / I / ) ~ ~ I E E G > 6 : $ O O O O O # $ $ + $ $ $ $ @ 7 7 7 4 o @ @ @ o o 8.9X-X=X=X:X:X:X:X=X:X:X:X:X&X$X$X$X$X$X#X#X#X",
"{ { { { { { } { { } } } } | | | | | | | | | | | | } | | c $ : t 6 s d g g C J K / *.<.g.g.h.h.h.h.h.g.g.g.l.5.:.U 5.5.<.:.:.:.*.*.*.*.*._ ) ) / ) ) ) ) ) ) ) ) ) ) ) ) ) ) ) ) ) ) *._ *.:.<.,.5.g.g.g.h.P.(.(.(.(.(.(.(.`.`.`.(.(.[.].L.D.m.4.r.;.O.E R R T x f f s p i = 0 o.;.;.=.=.4.6.4.S.F.m.4.=.$.%.P.{.[.[._._.[.).[._._.).[.[.)._.[.[.[.[.[.[.[.[.[.[.[.[.[.[.[.[.[.`.].[.].].[.].`.[.[.].).].].].].[.[.[.[..X[.).].[.].[.[.].(.].].[.].].).(.(.(.(.P.L.,.B.I.5.J O.R g > ; F X.X.X.X.@.6.K.2X_.v.z.z.h.h.g.g.l.l.l.,.,.:.:./ U J Z C w r r 9.#X#X#X$X$X....[ [ [ ] ] ] ] ] ] ] ] e { e e e e e e e e e e e 3 3 3 3 3 3 3 3 4 e e e e e e e { { { { { { { } { { { { } } } } c 3 3 c c c c c { { { } } l l G K E G K E K L ~ ~ L ~ ) ) *.-.<.5.5.<.<.*.I n q q q G I J :.B.B.V.V.H.V.V.V.P.P.H.V.B.V.B.x.L.L.B.B.B.h.h.h.h.m.g.#.E.h.l.g.1.1.1.,.,.,.1.,.,.<.<.#.B L.g.<.,.,.<.,.:.( g.<.%.:.:.:.:.:.%.%./ / / / / / / / ) / / L ) ) ~ I K E T g - : : $ O O # O O # # # + $ $ $ @ : @ - o * @ @ @ o o 8.9X7X;X;X;X=X=X:X:X=X:X:X:X:X:X$X$X$X$X&X$X&X$X",
"{ { { { { { } } } } | | | | | | | | | } } } } } } } } } } a $ t > s d d g C Z K / *.<.l.h.h.h.h.h.h.h.h.g.g.g.1.U 1.m.1.<.<.<.<.:.*.:.:.*.*.*.#.*.) ) ) / ) ) ) ) ) ) ) ) ) ) _ ) *.-.*.:.:.:.,.1.g.B.h.h.P.(.(.(.(.(.(.P.`.`.(.(.(.).P.P.L.m.u.r.;.O.! ! R T x j j s p p - ; O.;.=.=.=.4.5.5.m.E.F.y.=.<.#.g.].[.[.[.[.[.[.[.).).).[.[.[.).[.[.[.[.[.[.[.[.[.[.[._.[.[.[.[.[.[.].[.[.[.[.[.`.`.[.].(.(.`.].`.].[.[.[.[.[.].].].].[.[.].(.].[.[.[.].).(.(.(.(.P.L.%.A.E.4.J O.R j 0 ; C O.X.&.&.&.<.v.2X_.v.z.z.h.h.h.g.g.l.l.,.,.<.<.#./ J J Z r  .#X*X:X:X-X-X-X=X7X#X$X8..... .[ [ [ [ ] ] ] e ] e e e e e e e e e e e 3 4 3 3 4 4 e e e e e e e ] ] ] { { { { } } } } } } } } } } | { 3 3 3 7 i c a s s s s 7 g G G G G K E L L L L ~ ~ ) ) *.-.<.1.1.<.&.I n w C g g J ;.&.( g.L.H.H.H.H.V.V.P.P.V.V.V.V.B.x.L.L.m.h.h.h.h.g.h.m.,.,.E.g.x.g.g.g.,.,.,.,.,.1.,.:.<.( ( L.,.,.,.,.,.<.%.%.g.%.:.:.:.:.:.%.%.#./ / / / / / / ) ) / I / ) ) ~ K J K G 0 - : $ # # O O O O # # # $ @ $ : : @ @ - @ - - @ 4 o ..9X6X6X;X;X;X=X=X=X=X=X=X:X:X:X:X:X:X=X=X&X$X$X$X",
"c { { { { { } } } | | | | | | | | | | } c 4 4 3 3 3 c c c z i : > s d d g C Z K / *.,.l.h.h.h.h.h.h.h.h.h.g.g.g.( <.m.g.,.1.,.<.<.:.:.<.:.:.:.*.*.*.*.*._ _ _ _ &.) ) ) ) ) ) ) ) *.-.*.:.:.:.1.5.g.h.B.h.J.(.(.(.(.(.P.P.`.`.(.(.(.).H.H.I.D.y.-.;.O.! ! T T x j j s p p : ; O.;.=.-.<.<.4.6.6.D.F.S.4.6.$.%.H.[.[.[._.[.[._.).).(._.[.[.)._.[.[.[.[.[.[.[.[.[.[.[.[.[.[.[.[.[.].[.[.[.'.'.(.`.`.(.`.`.`.`.`.`.[.[.[.[.].[.].].].].].[.(.].[.[.[.].).(.(.(.(.P.L.,.A.L.4.J O.R F 0 ; g O.X.X.&.&.<.c.{.{.v.v.z.z.h.h.h.l.l.l.x.,.,.<.%.#.I K n  .<X7X-X:X:X;X:X:X:X:X$X#X#X#X#X#X#X$X8.8...[ [ ] ] ] ] e e e e e e 4 4 4 4 4 4 4 4 e e e e ] ] { { { { { { { { } } } } } | | | | | | } | } 3 3 i p p p p p s f f j G G G G K K K E L ~ K L ) ) &.*.*.<.<.*.K Z J G G A d Z &.<./ ,.L.H.H.H.H.V.h.L.P.V.V.V.V.h.l.P.H.h.h.h.h.h.h.h.B.,.5.L.g.g.g.1.g.,.,.,.,.,.,.,.<.<.N ,.B.%.,.,.<.,.,.( ,.5.%.:.%.:.:.:.%.%./ / #./ / / / / ) ) / I / ) ) I Z G G F ; : : $ # O O # + O # # # $ + $ $ @ @ $ : @ - - - 4 +.9X8X6X;X;X;X-X;X;X-X:X:X:X:X:X=X=X=X:X=X=X=X=X=X:X",
"{ { { { { { } } } } | | | | | | | | | | | | c 4 & & % % $ i i : : s s g g C Z K / *.,.g.h.h.B.V.z.h.h.h.h.h.h.h./ #.B.g.l.g.5.1.1.,.,.1.,.<.<.:.:.:.:.*.*.*.*.*.*.*._ ) ) ) ) _ *.*.*.*.:.:.<.1.1.g.g.h.h.H.P.P.(.(.(.(.P.(.(.(.(.(.].H.j.I.D.m.-.;.O.! ! T T x x f f p p : ; E ;.=.-.=.=.4.4.5.m.F.F.y.4.<.:.1.P.{.[._.[.[._.].).).).[.[.).).[.[.[.[.[.[.[.[.[.[.[._.[.[.[.[.`.(.[.[.[.`.[.`.`.].(.`.`.`.`.`.`.[.].].[.].].[.].[.[.].].(.].[.[.[.[.].(.(.`.(.P.L.%.L.L.4.J E R F s ; g O.X.X.o.@.=.j.[. Xv.v.z.z.z.l.h.h.h.l.x.,.,.,.%.%./ U V *X8X-X;X-X-X:X:X:X:X:X:X:X:X$X$X$X$X$X$X#X#X$X..8...[ [ [ .............. .[ [ 5 ] e e e ] ] ] ] ] ] ] { { } } } } } } } } } } | | | | | | | } 3 7 p i p p s s s s g A G G G K E K E E ~ K I ~ ) &.*.*.-.-.;.Z G E S A A d J *.<.<.B.I.H.H.H.V.V.B.L.L.H.B.B.V.h.g.I.H.h.g.h.h.h.h.h.B.,.g.H.l.g.f.g.g.1.1.1.1.,.,.,.1.#.N B.g.,.,.,.<.<.<.( g.,.:.:.:.:.%.:.%.%.*.#./ / / / / / / / / I / ) ) J n J A j - : $ $ # O O O + + + + + + @ @ - : : - $ @ - : o  .9X8X;X;X;X;X;X;X;X-X-X:X-X-X;X;X;X-X-X-X;X;X-X:X:X$X",
"{ { { } } } } } } } } | | | | | | | | | 8.s.s.+.{ 3 & % $ $ i $ : s d d g C Z K I *.<.g.h.h.h.z.V.V.V.h.B.B.h.B.:.#.A.B.g.g.g.g.g.1.1.1.1.1.1.,.,.<.<.:.:.:.:.*.*.*.*.*.*.*.*.*.*.*.:.:.:.<.1.1.g.g.h.B.B.V.(.(.(.(.(.(.P.(.).(.(.(.[.P.l.I.D.m.-.;.O.! E R T x z j f p p : - R ;.;.=.4.=.6.4.6.6.F.F.G.y.<.<.<.h.].[.[._._.).).).).).[.[.).[.[._.[.[.[.(.[.[.[.[.[.[._.].[.[.`.`.[.[._.`.`.(.`.`.`.(.(.`.`.`.`.].[.].[.].`.`.[.[.].].].].].[.[.[.[.[.`.P.`.(.P.L.,.L.I.t.J E E F g ; w O.I X.X.$.$.1.).{.K.v.h.z.z.h.h.l.h.h.l.l.,.,.,.%.#.V 9.8X-X-X:X:X-X-X-X;X;X:X=X:X:X:X&X$X$X$X$X$X$X$X$X#X$X8.#X#X#X#X$X$X$X#X$X#X8.8.8...[ [ [ ] [ [ [ [ [ [ [ [ [ } } } } } } | | | | | | 8.| | | | } c 7 i t p s s s s g A G G G K K K E E E E ~ ~ ) &.*.*.*.-.-.K J Z C g g w J <.5.B.E.P.H.H.H.V.V.B.L.H.V.V.V.H.h.l.P.V.h.g.h.h.h.h.h.B.,.B.B.g.g.g.g.g.,.1.1.1.1.,.<.<.( ( A.,.,.,.,.,.,.%.%.B.,.:.:.:.:.:.:.:.#./ / / / #./ / / / / / I ) ~ I n Z J F s = : $ $ # O O O + + + + + + + @ - : : - : - - - 5 <X8X8X6X6X6X6X;X;X;X;X;X6X;X;X;X;X;X;X;X;X;X;X;X;X:X$X",
"] { | 8.8.8.8.8.8.8.8.8.| | 8.| 8.8.| | | 8.8.s.s.+.{ o o 3 $ $ : p d g g C Z K I *.<.g.h.h.z.z.H.V.V.V.B.h.B.B.1.( B.B.h.g.g.g.g.g.5.g.g.5.5.1.1.1.,.,.<.<.<.<.:.:.:.:.*.*.*.*.*.*.:.<.<.,.1.1.g.g.h.V.V.V.(.(.(.(.(.(.(.(.(.(.(.).[.P.1.I.I.B.<.;.O.! E R T T x j f p p : - P &.;.-.4.3.=.4.6.6.G.F.S.m.y.<.<.1.K.[.[.[.[._.[.[._.).[.[.).[.[.[.[.[.[.[.[.[.[.[.[.[.).`.[.`.`.`.`.[.[.`.`.`.`.].`.(.`.`.`.`.`.].[.].[.].`.].].].].[.[.].(.[.[.[.[.[.(.P.`.(.P.H.,.L.D.u.J P O.G g ; 0 P I I X.@.$.1.Y.2X).v.h.z.h.h.h.l.h.h.l.l.x.f.,.<.@.0.9X9X*X0.$X;X;X-X-X-X:X:X=X=X:X$X$X$X$X$X&X&X$X$X$X$X$X:X=X$X$X$X$X#X$X$X$X$X$X#X$X$X#X$X8.8.....8.8.8.8.8.8.8.8...| | | } 8.8.8.8.8.| 8.8.s.s.8.8.+.c 7 t y s s s s d A G G G K E K E E E K L ~ ) ) &.&.*.-.-.*./ J n n n m ;.m.G.I.P.P.H.V.H.V.B.B.L.H.V.V.V.H.h.l.P.V.h.g.h.h.h.h.B.B.,.B.h.g.g.g.g.g.,.1.1.1.1.,.,.<.N ,.B.,.,.,.,.,.,.$.,.g.%.:.:.:.:.:.:.%.#./ / / / / / / / / / / ) ) ) J m K C F 0 = : $ # # O O O + # + + + + @ $ : : : - : - 7 o 9.sX8X8X6X6X6X;X;X;X8X8X8X8X8X8X6X;X8X8X8X8X;X;X;X;X:X:X",
"{ } } ..8.8.$X#X#X#X#X#X8.8.| | 8.8.8.8.8.8.8.8.8.8.s.| e o 3 $ : 6 d d g C Z K I @.<.5.g.h.z.z.H.H.H.V.V.B.B.B.g.( B.L.B.h.h.B.B.g.g.g.g.g.g.g.g.5.5.,.1.,.1.,.<.<.<.<.:.:.:.:.:.:.:.<.,.,.1.g.h.h.h.z.V.z.J.(.(.(.(.(.(.(.).(.(.(.).`.,.L.E.H.t.;.O.! ! R T T x j j f p : - F ;.;.-.3.3.=.6.5.6.6.D.D.S.G.y.4.%.j.].[.[.[._._.[.[.).).[.[.[.[.)._.[.[.[.).[.[.[.[.[._.`.[.`.`.`.`.[.[.].`.(.`.`.`.`.(.(.(.`.`.].[.].].].(.`.[.].].[.[.].(.[.[.[.[.[.].P.`.(.P.B.l.L.D.u.J F E R g 6 0 P P X.X.@.$.6.c.{.).v.z.z.z.h.h.h.h.h.l.l.g.x.,.,.@.Y.<X7.r 0.9X;X-X:X-X:X:X:X:X:X$X$X:X:X=X=X=X=X$X$X$X:X:X:X:X:X:X:X:X$X$X$X$X$X$X$X$X$X$X$X$X#X#X#X#X#X#X#X$X#X#X#X#X8.8.8.8.8.8.8.8.8.8.8.8.s.s.s.s.s.} 3 : y f s p s s A G G G K E K E E E K L ~ ~ ~ ) &.&.*.=.u.y.4.=.@.=.y.F.~.I.J.J.P.J.V.H.V.B.B.L.H.V.V.V.H.h.h.J.V.g.g.h.h.h.h.m.m.,.B.g.g.g.g.g.1.,.1.1.1.1.,.1.:.B m.g.,.,.,.,.,.,.( g.g.%.:.:.:.:.:.:.%./ / / / / / / / / _ / / &.~ ~ b J J C A > - $ $ + # O O O + + + @ + $ $ @ : : : - : : o r 9X8X;X8X6X6X;X8XNXNXNXNXNX8X8X8X8X8X8X8X8X8X8X8X;X;X:X;X",
"[ } ......$X$X$X$X$X$X#X#X#X#X..| | | 8.s.8.8.s.8.8.8.8.| { 3 @ 7 6 d d C C Z G L / *.,.g.h.h.V.z.H.H.H.H.V.V.B.B.( g.L.B.B.h.B.B.h.h.h.h.h.h.h.g.g.g.g.g.5.1.1.1.1.,.1.1.<.1.<.<.<.,.,.1.g.g.g.h.h.h.V.H.H.J.(.J.(.(.(.(.(.).(.(.).).].%.B.E.L.u.;.O.! ! R T T x j j f p : - F ;.;.-.=.4.4.6.6.6.y.G.F.G.G.m.y.<.,.I.].[.[.[.).[.).[.[.[.[.[._.[.[.[.[.[._._.[.[.[.[.[.`.`.[.`.`.`.[.[.[.`.(.(.`.(.`.(.`.(.(.`.].[.].].].(.`.[.`.].].].].].[.[.[.[.].(.P.`.(.`.A.g.L.L.u.J F O.E g 0 0 P P X.&.@.=.<.h.{._.v.z.z.z.h.h.h.l.h.l.g.f.x.%.%.#.$.V 5  .9X8X;X;X;X;X-X-X:X:X:X:X:X:X=X:X-X;X-X:X:X:X:X-X:X:X:X:X:X:X$X$X$X$X$X$X$X$X$X$X$X&X&X&X$X$X#X$X#X#X#X&X&X#X#X#X#X#X#X8.8.8.8.8.8.8.8.8.s.%Xs.s.c @ p s s p s d A G G K E E K E E E E ~ ~ ~ ~ ) &.*.*.*.5.D.E.~.~.|.0X}.~.H.H.K.P.H.V.V.V.m.B.L.H.V.V.V.L.h.h.H.h.g.h.h.h.h.h.B.m.g.B.g.g.f.g.g.1.1.1.1.1.1.,.1./ ( B.,.,.,.,.,.,.%.$.B.,.%.:.:.:.:.:.:.#./ #./ #./ / / / / _ / ) ) ~ J C K C F j : $ $ $ # # O O O + + + + $ $ $ : - - : - - - o 9.8X;X8X8X;X>XNXVXVXVXVXCX8X8XNXVXNX8X8X8X8X8X8X8X8X-X:X;X",
"8.$X#X$X$X$X:X:X:X:X$X$X$X#X#X#X8.| | | | 8.s.s.s.s.8.8.| | } 3 3 7 0 d C C C J J / *.<.g.h.h.H.v.H.H.H.H.V.V.B.B.%.,.P.V.V.h.V.B.h.h.h.B.B.B.B.h.h.h.g.g.g.g.g.g.g.g.1.5.1.1.1.1.,.,.1.g.g.h.h.h.V.V.H.J.V.J.(.(.(.(.(.(.(.).).(.(.).].<.1.E.L.m.-.O.O.! R T T T j j f p : - F &.&.-.3.4.4.4.4.y.6.m.F.A.G.G.G.6.$.j.].[.[.[.[._._._._._._._._.[.[.[.[.[.[._.).[.[.[.[.(.[.`.`.`.`.[.[.`.(.(.`.`.`.`.(.`.(.(.(.].[.].].].(.`.].].].].[.[.`.].[.[.[.[.`.P.`.(.`.A.g.H.D.u.J F O.E F 0 6 F P X.o.X.;.<.l.).{.K.z.z.z.h.h.h.l.h.l.f.f.1.%.%.U 2 2  .9X>X>X;X6X6X;X-X-X-X:X:X:X-X:X:X;X6X;X;X;X-X:X-X=X:X:X:X:X:X:X:X:X:X:X:X$X=X=X:X:X=X=X=X=X=X$X$X$X$X#X$X:X:X=X=X&X&X#X#X#X#X#X#X%X%X%X8.8.8.s.%X%Xs.r 7 p p s s d A S G G K E K E E E E ~ ~ ~ ~ ~ ) &.*.*.<.5.D.|.@X}.].P.H.H.H.J.J.H.V.V.B.g.L.L.H.H.H.V.L.B.g.B.g.1.g.h.h.h.h.m.m.g.h.g.g.g.g.g.f.1.1.,.1.,.,.1.B :.B.,.,.,.,.,.,.$.%.B.<.,.,.:.:.:.:.:.#.#.#.*.*.#._ / _ _ _ / ) ~ K b G Z C A f : $ $ $ + O O O # + + + @ $ $ : : - : : - - * r 7X8X8X8X8X8XCXVXZXZX9X*X:X8XVXVXVXCXNXNX8X8X8X8X8X8X-X-X8X",
"#X:X=X=X=X:X-X:X=X;X=X=X=X:X#X#X&X8.8.| | | | 8.s.s.s.s.s.| 8.} 4 3 0 d C C C G K L @.:.,.g.h.z.z.H.H.H.H.H.H.B.B.,.%.P.H.H.z.V.H.H.h.V.V.V.V.V.z.h.B.h.h.h.h.g.g.g.g.g.g.g.g.g.g.g.g.h.h.h.h.h.V.V.V.V.J.J.J.(.(.(.(.(.(.(.).).(.(._.|.1./ R.L.D.-.O.O.! R T T T j j f p : - g &.;.-.=.-.4.4.4.4.y.y.G.A.A.G.G.G.4.<.I.].[._._._._._.)._._.[.[.[.[.[.[.[.).).[.[.[.[.[.[.[.`.`.`.`.`.].`.`.(.`.`.(.(.(.(.(.(.(.(.[.[.(.].`.`.`.].].].[.[.].].].[.[.[.`.(.`.(.`.L.g.H.D.t.J F O.o.G f 6 C P X.o.&.;.=.1.K.{.J.z.z.z.h.h.h.h.h.l.x.,.,.,.%.n 2 V *X9X>X;X6X6X-X=X=X=X=X-X;X;X;X;X;XNX6X;X;X-X:X;X6X;X;X-X-X:X:X:X:X:X:X:X:X$X=X6X=X-X-X-X-X=X=X=X$X$X$X$X$X$X&X=X=X=X7X7X#X#X&X&X&X&X&X&X%X%X%X%X%X%X%Xs.7 6 s s s d A S G G E E K E E E E ~ ~ ~ ) ) ) &.&.*.*.<.5.B.B.H.H.h.H.V.H.H.H.V.B.V.B.g.L.L.V.V.H.H.H.B.5.5.%.%.g.g.B.h.h.h.m.g.h.g.g.g.g.g.1.1.5.5.,.,.1.:.B g.g.,.,.,.,.,.,.( g.g.<.,.:.:.:.:.:.:.#./ #.*.#./ _ / / / / / / L m Z G C C A s - $ $ # + O O O O + + + @ $ $ : : : - : : : o +.9X8X8X8X8XVXZXZX9X9.[ ..8XVXVXVX8X8X8X8X8X8X8XNXNXNX6X;XNX",
"$X$X:X:X=X;X;X=X=X=X=X=X=X7X=X=X&X#X8.8.8.8.8.| | 8.8.s.%X%Xs.8.+.7 8 g C C C G K L I *.<.,.h.z.z.H.H.H.H.H.V.B.B.g.%.P.L.H.H.H.H.H.V.V.H.H.H.H.H.V.V.V.V.h.B.B.B.h.h.m.h.g.g.m.g.g.g.h.h.h.B.V.V.V.H.J.P.J.J.(.(.(.(.(.(.(.).(.(.(._.|.u.J u.D.Z.-.O.O.! R T Y T j j f p : - g o.;.=.-.4.4.4.4.4.y.y.j.D.A.G.G.G.6.<.j.).[.[.[.[._._._.[.[.[.[.[.[.).[.[._._.[.[.[.[.[.[.`.`.`.`.(.`.].`.`.(.`.(.(.(.(.`.(.(.(.(.[.[.(.].`.`.].].].].[.[.].`.[.[.[.[.(.(.`.`.`.L.j.H.L.<.J C O.o.P g > g P X.o.@.&.=.6.Y.{.K.z.z.z.h.h.h.h.h.l.x.,.,.,./ M 2 7.7X9X8X7X7X*X*X,X$X*X;X8X6X8X;X;XNXNX;X;X-X;X;X;X;X;X;X;X;X;X;X-X-X-X:X;X:X$X:X6X6X;X=X-X-X-X-X=X&X$X#X#X#X$X$X&X&X:X7X7X7X&X#X&X&X&X&X&X&X&X&X%X%X%X%X%X+.7 s s s d A A S G E E K E E E E ~ ~ ~ ~ ) ) ) ) ) ) *.<.g.j.h.B.h.V.V.H.H.H.B.B.B.h.B.P.L.V.H.H.H.V.B.5.<.U ( B.h.h.h.h.h.g.g.B.g.g.g.g.g.1.1.5.,.,.,.1.( ( m.1.,.,.1.,.,.,.( B.,.,.,.:.<.:.:.:.:.#./ *.*.#./ #.*./ / / / L J n K G C A g p + $ $ + + O # # O + # @ @ $ : : : : : : : : o 9.sX8X8X8XVXZXsX9.r 5 r <XVXVXVXCXCXNXNX8X8XNX8X8XVXBX6X;XBX",
"=X:X:X:X:X=X;X;X:X:X:X=X=X=X=X=X=X7X#X8.8.8.8.8.8.8.8.8.8.%X%Xs.s.+.r 0 g C C J J K L / *.,.g.B.V.V.H.H.H.H.H.V.B.B.%.L.P.H.H.H.H.H.H.H.H.H.H.H.H.H.H.V.H.V.V.V.h.B.B.h.B.h.h.B.h.h.h.h.V.h.V.V.V.H.H.J.P.P.H.P.(.(.(.(.J.(.[.[.].).(.|.m.N @.S.G.4.;.O.! R T T T j x f p > - f o.;.=.=.=.3.4.4.4.6.y.6.G.A.m.G.G.G.5.<.P.[.[._.[.[.[.[.[.[.[.[._._.[.[.[.[.[.[._.[.[.[.[.`.`.`.`.(.].[.`.`.P.E.(.`.`.`.`.`.(.(.(.].[.].).[.`.`.].].].[.[.[.(.[.[.[.].].(.(.`.`.L.h.H.L.-.G C o.O.R F 0 w P X.X.@.;.=.%.c.{.K.z.h.z.h.l.h.l.h.g.,.,.,.,.U M V b.7X7X<X#X#X$X,X,X:X8X8X8X8X-X:XNX8X>X;X;X;X;X;XGX;X;X;X;X;X;X;X;X;X;X6X6X=X:X:X;X6X6X;X=X-X=X=X=X=X$X$X#X#X#X&X&X&X&X=X=X=X=X&X&X&X&X&X&X&X&X&X&X&X%X%X%Xs.c 6 s s s j A S S G E E E E E K ~ ~ ~ ~ ) ~ ) ) ) ) *.:.1.g.g.h.h.h.z.H.H.h.B.B.B.g.B.P.L.V.V.H.H.L.B.5.<.J U B.h.h.h.h.h.g.g.B.g.g.g.g.g.1.1.1.1.1.,.<.B #.B.1.,.,.,.,.,.%.%.B.,.,.%.%.:.:.:.:.:.*.#.*.*.*./ / *.#./ / / U m K K G A A g 6 - $ $ # O O + + + # # # $ @ @ - : : : : : : 5 <XBX8XBXZXZX<Xr * 5 5 ..8XVXVXVXVXVXVXVX8XVXVX8X8XVXVX8X-XVX",
";X;X=X:X:X:X:X;X;X:X:X:X=X:X=X=X=X7X&X#X8.%X%Xs.%X8.8.8.8.8.s.%Xs.s.+.e w C C J J J K I / :.,.g.h.h.H.J.J.H.H.H.H.V.%.B.P.J.H.H.H.J.H.H.J.J.H.H.H.H.H.H.H.H.H.H.H.V.V.V.V.V.B.B.B.B.B.V.V.V.H.V.H.J.J.J.J.P.P.P.(.(.(.(.(.(.[.[.[.[.].|.m.B J y.D.4.;.O.! R R R T x x f f > = s o.;.=.=.=.-.4.4.4.6.6.m.m.A.G.G.A.G.m.<.h.].[._.[.[.[.[.[.[.[.[._._._._.[.[.[.).[.[.[.[.].[.].`.`.`.].`.`.`.E.`.`.`.`.(.`.`.`.(.(.`.[.[.[.].`.].].].].[.[.[.].[.[.[.[.].(.(.`.`.L.h.L.R.-.G F O.O.E F q 0 P o.X.@.;.;.%.h.{.K.l.z.h.h.l.l.l.l.g.,.,.%.<.U M  .<X<X0. .0.*X#X*X-XBXNXNXsX*X0.8XBX8X;X;X;X;X;XGX>X;X;X;X;X;X>X8X;X;X;X8X6X6X=X;X=X6X6X6X;X=X=X=X=X=X$X#X#X#X#X#X&X&X=X=X=X=X=X7X7X7X7X7X7X&X&X&X7X7X7X%X%X%Xs.7 s s s j A S S G E K E E E K L ~ ~ ~ ) ~ ) ) ) ) ) *.:.1.g.g.h.h.V.H.B.B.B.B.B.g.B.P.L.C.V.V.H.L.m.5.-.Z J B.h.h.h.h.h.g.g.m.g.g.g.g.g.1.f.1.1.1.,.*.B 1.m.,.,.,.,.,.,.( 1.B.<.,.%.%.:.:.:.:.:.#.#.#.*./ #.#.#.#./ / L N m ~ G G A A g > + $ $ O O + + + # # # $ $ @ @ : : : : : : - r sX8X8XZXsX8.5 * 5 5 5 *XVXVXVXVXVXVXBX8XVXVXBXBXBXBXVXNX-XVX",
";X;X6X;X=X=X=X:X:X;X;X:X:X=X:X:X=X=X7X&X#X8.8.s.s.s.s.s.8.8.8.8.s.s.s.+.0 C C Z J J K L / *.:.1.g.h.V.H.J.H.H.H.H.V.,.g.P.J.J.H.H.H.J.H.P.P.J.J.J.J.J.H.H.H.H.H.H.H.H.H.H.H.V.V.H.H.V.V.H.H.H.J.J.P.J.J.P.P.P.P.(.(.(.(.(.(.).(.[.[.].|.m.B J 4.F.u.;.O.! R R R T x j x f 6 : 6 O.&.=.=.=.3.4.4.4.5.6.6.6.G.D.G.D.A.m.5.1.P.[.[.[._.[.[._.[.{.[.[._._.[.[.[.[.[.[.[.[.[.[.[.(.(.`.`.].].].].(.(.(.`.`.`.`.`.`.(.`.].[.[.[.`.`.[.].].`.[.[.[.].].[.[.[.].(.(.`.`.L.h.L.D.&.G F O.O.O.R g 0 G X.X.@.;.4.$.l.{.).h.z.z.h.l.l.l.l.g.,.%.%.<.( M 7.c.@.B B 7.9.#X*XVXBXVXsX9. .#XVX8X8X6X;X;XGXNXNX;X;X>XGXNXNX8X6X6X8X8XNXNX6X;X6X;X;X6X6X6X;X;X=X=X7X$X#X$X&X&X&X&X=X=X=X=X=X7X7X&X#X%X%X%X7X7X7X7X7XdXdX7X%Xa.} 6 s d j A S G K E K E K E K L ~ ~ ~ ~ ) ) ) ) ) ) _ :.<.5.g.g.h.B.H.B.B.B.h.B.g.H.P.H.H.V.H.H.B.m.<.-.m J D.h.h.h.h.h.g.g.m.g.g.g.g.g.g.g.1.1.1.,./ U m.g.,.1.1.1.,.,.( B.g.,.,.,.%.:.:.:.:.:.:.*.*.:.*.#.*.*.*./ L J m o.P G G A A j > @ @ $ O O + + # # $ $ + $ @ - : : : : : > * +.sXZXZX<Xr o 5 5 - *  .9XVXVXVXVXVXVX8XVXVXVXVXVXBXBXVXVX;XVX",
";X;X;X6X;X;X-X=X=X:X-X;X=X=X:X=X:X&X&X&X&X[ 4 { } 8.s.s.%X%Xs.8.8.s.s.s.[ w C Z J K K L L / :.1.g.h.h.H.H.H.H.H.H.L.x.x.P.P.J.J.J.J.J.J.J.J.P.P.J.P.P.J.J.J.J.J.H.H.H.H.H.H.H.H.J.H.H.H.J.P.J.J.P.P.P.P.P.P.P.P.(.(.(.(.P.(.(.(.[._.].].m.J Z -.F.y.;.O.O.R R R T x j x f p : : P ;.=.=.=.-.4.6.4.4.5.5.6.m.A.G.A.D.G.m.<.h.].[.[.[.[._._.[.[.{.[.[._._.[.[.[.[.[.[.[.[.`.[.(.(.`.(.`.[.`.`.(.(.`.`.`.`.`.`.`.(.`.`.[.].[.].`.[.[.[.`.[.[.[.].].[.].[.].(.(.(.(.P.h.L.R.o.G G o.O.O.R F 0 F o.X.@.=.R.$.l.].P.h.z.z.h.l.h.l.l.g.,.%.%.<.%.#.7.$.@.@.U +.7.#X9XCXVX9X9.r  .9XVXNX6X;X>XNXNXNX>X;XNXNXNXNXNX8XNXNX8XNXNXNX6X6X6X6X;X6XGXGX;X;X=X=X=X$X#X$X7X7X7X7X=X=X=X7X=X7X7X7X8.[ +. .+.8.a.%X%X<XdXdXdX%X+.7 s s j S S G G E K E E E K L ~ L ~ ~ ~ ) ) ) ) ) ) *.<.1.5.g.g.B.H.B.h.B.B.B.g.L.P.H.V.V.H.H.B.m.<.-.n N D.h.h.m.h.h.g.g.g.g.g.g.g.g.g.g.1.1.1.,.( ( m.5.1.f.1.,.,.<.( D.,.,.,.,.%.:.:.:.:.:.:.:.:.#.*.*.*.*.*.I J m I ;.J G G A g j > $ $ $ O O + + # # @ $ $ $ - - : : : : : > * 9.UXsX9.5 * ; - - - o 0.VXVXCXVXNXVX8XVXVXVXVXZXVXVXNXVXVX6XVX",
";X;X;X6X6X;X;X-X7X=X:X=X;X=X=X=X:X&X&X7X7X%X5 4 5 7 e } 8.s.s.s.8.8.s.s.+.e g G K K K L L / _ :.g.h.h.V.J.H.H.H.H.L.h.,.P.P.J.J.J.J.J.J.J.P.P.P.P.P.P.J.J.J.J.J.J.J.J.J.P.P.H.J.P.J.H.H.J.J.J.J.P.P.P.P.P.P.P.P.(.(.(.(.(.(.).).[._.).].m.U J &.D.S.-.O.O.R R R T T j x f p : - P ;.;.=.=.-.=.6.4.4.6.6.6.j.A.G.A.A.S.m.6.1.P.[.[.[.[.[._.[.{.[.[._.[.[.[.[.[.[.[.[.[.[.`.`.[.(.[.`.`.(.`.`.`.(.`.`.`.(.`.].`.`.(.].[.[.).`.[.`.[.].].[.].[.].].[.[.[.[.].(.(.`.P.B.I.D.o.C P O.;.O.R F 0 w O.X.X.$.W.6.1.).(.h.z.h.h.h.g.l.l.g.,.%.%.%.,.%.1.%.$.#.U  .0.9XVXVX9X8.5 5  .ZXCX8X8XNXCXVXVXVXCX8XCXCXNXNXNXNXNXNXNXBX8XNX8X6X8X6X;X6XAXNX6X;X;X=X=X$X#X#X&X7X7X7X7X=X7X7X7X7X7X7X<X .X.X.l e l l +.+.a.%XdXdXa.0 s d g A S G K E K E E E K L ~ ~ ~ ~ ~ ~ ) ) ) ) ) *.:.<.,.5.g.B.V.B.B.B.B.B.,.L.L.H.V.V.H.H.B.5.<.;.b J R.B.h.B.h.h.g.g.g.g.g.g.g.g.g.g.1.1.1.<.B #.B.1.f.f.f.1.,.%.%.C.,.,.,.,.,.,.<.:.:.:.:.:.:.#.*.*.*.*./ U J J r.I J G G A g j : $ $ # O O + + # + + $ @ @ - : : : : : : > o a.dX .5 * ; ; - - - 5 <XVXVXVXNXNX8XVXVXVXVXZXZXZXVXBXVXZX8X9X",
";X;X;X;X6X6X6X;X=X-X=X=X:X7X7X=X:X&X#X&X&X7X8.o 7 7 7 7 7 e +.s.s.s.8.8.s.} w F K K K L L / / :.,.g.h.V.H.H.H.H.J.H.V.,.P.P.P.J.J.J.J.J.P.P.P.P.P.P.P.P.P.P.P.P.J.J.J.J.P.P.P.P.J.P.J.J.J.J.P.P.J.P.P.P.P.P.P.P.(.(.`.`.(.(.).).[._.).].B.U J / I.D.t.;.O.! R R T T x j x f : - F ;.;.=.=.=.=.6.4.4.5.6.6.6.G.A.G.G.S.y.4.1.H.[.[.[.[.[.[.[. X X{.[.[.[.[.[.[.[._.[.[.[.[.[.`.(.`.[.`.(.(.`.(.`.(.(.`.`.`.].`.`.(.].[.[.).`.`.`.].].].[.[.[.[.`.[.[.[.[.].`.].`.P.H.I.R.~ C O.;.;.O.O.F g 0 P X.X.$.R.6.,.{.).h.h.h.h.h.h.l.l.g.,.%.%.%.,.%.,.<.#.@. . .6XZXZX9X+.5 r 5 9.DXCX8XNXVXVXZXZX9X*X9XNXNXVXVXVXBXNXNXBXBXNXBXNX6X8X6X6X6X6XNXNX6X6X=X&X$X$X$X&X7X7X7X7X7X7X7X7X7X7X7X7X+.P O.O.R x j x l l +.+.a.%XY > d g A S G G K K E E E K L ~ ~ ~ ~ ~ ~ ~ ) ) ) ) ) *.<.<.1.g.m.B.B.B.B.B.g.,.P.L.H.B.V.A.A.B.5.<.&.b J E.h.z.m.h.h.h.g.g.g.g.g.g.g.5.g.g.1.1.%.B 1.m.,.x.x.f.,.5.( 5.B.,.,.,.,.,.,.:.:.:.:.:.:.:.*.*.*.*.*.I I m -.-.P G G G A j f : $ $ # O O + + + + + @ @ @ - : : : : : : : - l l * 5 ; ; ; ; ; *  .9XVXVXBXNXNXVXVXVXVXZXZXZXVXBX8XZXZX<X .",
"6X6X;X;X;X6X6X6X;X;X=X=X=X=X=X=X=X=X&X&X&X&X%X5 @ 7 7 7 7 7 7 r } s.s.8.8.+.l C K K L L L / / *.,.g.h.h.V.H.J.H.J.J.H.,.H.P.P.J.J.P.P.J.J.P.P.P.P.P.P.(.P.J.P.K.P.J.J.P.P.P.P.P.J.P.P.J.K.P.P.J.P.P.P.P.(.(.(.P.(.`.(.`.(.(.[.].].)._.].A.@.U / I.Q.u.;.O.R T R T T x f j f p : F o.;.=.=.=.6.6.6.6.4.6.6.6.m.G.j.G.y.4.4.1.A.].[.[.[.[.{._. X X X[.[.[.[.[.[._.).[.[.[.[.[.`.(.`.(.[.`.(.`.`.`.(.`.].`.`.`.].`.(.].[.[.[.[.`.].[.[.[.[.[.[.].].].[.[.[.[.`.`.(.P.H.I.R.E C O.;.;.O.O.R g 8 G o.X.@.S.6.,.{.(.h.h.h.h.h.g.g.g.g.,.%.%.<.,.%.1.<.@.@. .<XZXZXdX+.2 2 8 5 9.DXNXBXZXSXDXsX<X . .sXVXVXVXVXVXNXNXNXVXBXBXBXBX8XNX8X7X#X8X8XBX6X6X6X$X$X$X&X&X7X7X7X7X6X7X7X7X7X7X7X7X8.H O.3.R R l T R T Y F F O.l 1 d g A S G K E E E E E K L ~ ~ L I ~ ~ ~ ) ~ ) ) ) *.:.<.,.1.m.B.h.B.g.B.g.f.P.H.H.V.H.A.H.B.5.<.&.b U E.z.z.h.B.h.h.m.g.g.g.g.g.5.g.g.5.5.1./ B 5.m.1.,.f.x.1.,.( B.m.,.,.,.,.,.,.:.:.:.:.:.:.*.*.*.*.*./ I J U y.I P K T F j j f : $ $ # O # + + + + + @ @ @ : : : : : : > : > - * 7 : : - ; ; > o 9.VXVXBXBXVX8XVXVXZXZXZXZXZXZXVXBXZX<Xr 5 ",
"6X6X6X6X;X;X6X6X6X=X=X7X=X=X:X:X6X7X&X&X&X&X&X8.o 7 7 6 6 6 6 6 6 7 [ +.+.+.O.F K I ~ ) / / / *.<.g.g.h.H.H.J.H.J.J.L.l.B.(.P.P.J.P.P.P.J.P.(.(.(.(.(.(.P.J.P.P.P.P.J.J.P.P.P.P.P.P.P.J.P.(.K.K.P.P.(.P.(.(.(.P.P.(.(.`.(.(.[.[.].(._.[.L.<.I U I.|.y.;.O.E T R Y T x j x f p : g o.;.;.=.=.4.<.=.6.6.4.5.6.6.m.j.6.4.4.4.5.H.).[.{.{.[.{._. X X X{.[.[.[.[.[.[.[.[.[.[.[.[.].`.[.(.`.`.`.`.`.(.(.`.].(.`.`.`.`.(.].[.[.[.[.[.[.[.[.].[.[.[.[.].].[.[.[.[.].].`.E.H.I.S.P g e.;.;.O.o.R C 8 F o.X.@.p.6.,.{.).h.h.h.h.h.g.g.x.g.,.:.%.%.,.%.1.%.$.$.<XDXSX9X .2 8 8 0 2 9.DX9XDXDXsX<X .r 9 r <XSXVXVXVXVXNXNXBXVXBXBXBXBXBXNXBX#X[ <X9XBX8X6X6X&X$X$X7X7X7X7X7X7X7X6X7X7X7X7X7X7X9.w O.3.o.O.R l R R R R R R j s g g A S G K E E E E E K L ~ L I ~ ~ ~ ~ ~ ~ ) ) ) *.*.<.,.1.m.B.g.m.g.B.g.g.P.H.H.V.H.H.L.m.1.<.&.b / ~.z.z.h.B.g.g.m.g.g.g.g.g.5.g.g.5.5.<.( ( m.1.,.x.f.f.1.,.( L.g.,.,.,.<.,.<.<.:.:.:.:.:.*.*.*.*.*./ U m y.=.I P G G F j j f : $ $ O O # + + + + @ @ @ - - : : : : : > > : > ; - : : : - ; > 5 <XVXNXNXVXCXVXVXVXZXZXZXZXZXZXZXZX9.r 5 * ",
"6X6X6X6X6X-X-X6X6X6X=X=X=X=X:X:X=X7X7X=X&X&X&X%Xe 4 8 6 6 6 6 s p 6 7 l +.X.P C K I / / / / / #.:.,.g.g.B.V.J.J.J.J.P.h.h.`.P.P.P.P.P.P.J.P.(.(.P.P.P.P.(.P.(.(.P.P.P.P.P.P.P.(.P.(.(.P.P.(.(.(.P.P.(.(.(.(.(.P.(.(.(.(.(.(.[.[.).].[.].L.5.( $.].|.S.-.O.O.R R R T x j j f p : d o.;.@.=.=.3.<.=.=.4.4.5.5.6.m.j.5.4.3.3.5.Y.{.{.{.{.{.{. X X X X{.[.[.[.[.[.[.[.[.[.[._._.[.[.`.`.`.`.(.(.`.(.(.`.].].(.].(.(.(.(.[.[.[.).).[.[.[.[.[.[.[.[.[.].[.[.[.[.].(.].(.H.I.S.J C e.r.;.o.o.O.F 0 C o.X.X.4.7.,.{.).l.h.h.h.g.g.g.g.l.,.<.:.<.,.%.5.<.( 9.DXDX9X+.w n w q q 2  .sXsXdX<X .2 ; ; ; 2 +.ZXVXVXVXVXNXNXVXVXBXBXBXBXNXBX6X .5  .7X6XBX6X6X#X&X$X7X6X6X7X7X7X7X7X6X6X7X7X7X6X%Xl O.r.r.O.O.F F R R R R ! x s d g A A G K K E E E E K L ~ L ~ ~ ~ ~ I ~ ~ ~ ) ) *.*.:.<.,.g.B.g.g.g.B.1.g.I.L.H.H.H.V.H.m.5.=.&.n ( ].H.B.B.B.g.g.g.g.g.g.g.5.5.g.g.5.1.*.U #.B.5.1.x.,.,.,.:.%.L.,.,.,.,.,.:.,.:.:.:.<.<.:.:.:.*.*.) I N #.Z.U I P G T F j j f : $ $ O O O # + + + @ @ - - : : : : : : : > : : > > > : : - > - r 9XVXBXVXBXNXVXVXZXZXZXZXZXZXZXsX9.5 * - - ",
"6X6X6X6X6X6X6X;X6X6X;X=X7X6X=X=X=X=X=X=X&X#X#X&X8.4 6 6 6 6 p s s s f f g F C n K ) @.&.*.*.*.%.<.,.g.j.B.H.J.J.J.J.P.h.l.(.(.P.P.P.P.P.P.P.(.(.(.(.(.(.(.P.P.(.(.(.(.P.P.(.(.P.P.(.(.(.P.(.(.(.(.(.(.(.(.(.(.P.P.(.(.`.`.(.].[.[.).].}.P.j.$.I.yX|.D.-.e.O.R R Y T T j f f a : 6 O.X.$.$.;.=.=.=.=.<.4.5.5.6.y.m.5.4.4.4.6.T.rX X{. X{. X X X X X X[.[.[.{.{.[.[.[.[.[.[.[.[.[.`.`.].`.`.`.(.(.(.].].].(.].].`.`.`.[.[.]._._.).[.[.[.[.[.[.[.[.].[.[.[.[.].].].(.L.E.S.J C r.r.;.;.o.O.F 0 w o.X.@.4.$.,.{.).h.h.h.h.g.g.g.g.g.g.,.:.,.,.%.5.<.@.T.IXdX .5 n n M q q q 2  .9.r r 2 ; * - * 2 5 <XSXVXBXVXNXBXVXBXBXBXBXBXBXsX#Xr 5 5 +.sX9X6X7X$X&X#X7X6X6X6X6X7X7X7X6X6X6X6X7X6X<X+.P r.r.O.O.O.l T R R R R T s s g A A G K K E E E E E L ~ ~ ~ ~ ~ ~ I ~ ~ I ) ) _ *.*.<.1.g.g.g.g.g.B.,.h.I.L.L.L.H.H.H.m.<.=.&.M ( ].H.B.B.h.g.g.g.m.g.g.g.5.5.g.5.1.1.*.U ,.m.1.f.1.f.,.5.( ,.L.,.,.,.,.,.,.,.:.:.:.<.<.:.:.*.*.&.I I B D.*./ &.K T T A j j f : $ $ O O # # @ + # @ @ - : : : : : : > : : > > > > > > > ; > *  .sXBXVXBXNXVXVXZXZXZXZXZXZXZXsX9.5 * * * - ",
"8X6X6X6X6X8X8X6X;X6X6X=X=X6X7X=X=X=X=X=X7X&X#X#X%X5 8 p p 6 s s s s f g g F C C K I *.=.=.<.<.,.,.,.g.h.B.V.H.J.J.P.P.H.l.P.(.(.P.P.(.(.P.P.P.(.(.(.(.(.(.P.P.(.(.P.(.P.P.(.(.(.P.(.(.(.P.(.(.(.(.(.(.(.`.(.(.(.P.(.(.`.`.(.].[.[.).).}.].c.Y.uXjX[.L.4.;.O.! R T Y T j f f f : 8 P o.;.;.;.=.=.=.=.6.6.4.6.6.6.5.4.4.4.4.6.[.hX3X X X X X X X X X X[.[. X X{.[.[.[.[.{.[.[.[.[.[.`.`.[.(.`.`.(.(.].].`.(.].].].`.`.[.[.[.[.[.[.].[.[.[.[.[.[.[.[.].[.[.[.[.[.].].L.E.S.Z G r.r.;.;.O.O.R 0 q E X.&.=.$.x.{.).h.h.h.h.h.g.g.l.g.l.,.,.,.,.%.1.%.$.6.T. .V M 8 q 8 q q q 8 2 8 8 2 8 < = = ; 8 8  .sXVXVXVXBXVXVXVXBXBXBXBXZX<X .5 8 8 5 9.sX6X6X&X7X8.#XdX7X6X6X6X7X7X7X6X6X6X6X7X<X+.H ;.t.;.O.q.T T R R R R R s s g A A G G K E E E E E E ~ ~ ~ I ~ ~ ~ ~ I I ) ) _ *.:.:.,.g.g.g.l.h.B.,.B.I.H.H.A.H.H.L.g.<.=.) 9 #.{.H.B.B.h.g.j.h.m.j.g.g.5.g.g.g.5.<./ U m.g.,.1.,.f.1.g.( B.B.,.1.,.,.,.,.,.:.:.1.:.<.:.:.*.*.@./ m 4.m./ &.&.E T T A j j s : $ # O # # # $ # $ $ @ - : : : : : : > : : > > > > > : : : 6 * 9.sXBXVXNXBXBXZXZXZXVXZXZXZXsX+.o * * * - - ",
"6X8X6X6X6X6X6X6X;X6X6X6X7X7X7X=X7X7X7X&X7X&X&X#X%X[ 5 s p p s s s s d g g C q C P =.4.5.5.1.1.5.g.g.g.g.h.V.V.J.J.P.P.L.l.H.].(.P.P.(.(.P.P.P.(.(.(.P.(.(.(.P.(.(.(.(.(.P.(.(.(.P.(.(.(.(.(.(.(.(.(.(.(.(.P.(.`.(.(.].(.].(.].[._._.).{.).v.rXnXjX].I.4.;.O.! T R Y T j f f f p - F ;.&.&.;.;.=.3.=.=.4.4.5.5.5.5.4.-.4.4.j.1XhXfX2X X{. X.X X X X X[.[.{. X{.[.[.[.[.{.[._.[.].[.`.`.`.`.(.`.`.`.].].].`.].].].`.].[.[.[.[.[.[.[.[.[.[.[.[.[.}.[.].[.[.[.[.].].].P.E.y.C P r.r.e.O.O.O.R d 0 P o.X.@.$.x.{.).h.h.h.h.h.l.g.g.l.l.,.%.,.,.,.l.%.%.$.B $.( n q q 8 q q q 8 q q d q 0 0 ; ; ; 0 w r 9.SXVXBXVXVXVXVXVXBXBXZXsX+.5 8 6 6 8 r %XZX6X7X<X[ r 9.<XsX6X6X6X7X7X7X6X6X6X7X<X+.F o.t.r.O.q.O.F T R R R R f s g A A G G K E E E E E L ~ ~ L ~ ~ ~ ~ ~ I I ~ ) ) *.:.:.<.5.g.,.g.B.B.,.B.L.H.H.A.H.H.L.5.<.=.&.9 1.[.V.B.B.h.g.h.g.m.j.g.g.5.g.g.g.1.:.U / B.g.,.1.1.1.5.,.( L.g.,.x.,.,.,.,.,.,.:.1.<.<.:.:.:.*./ U U R.#.#.&.&.E T T A j j p : $ # O # + # $ $ $ $ @ - : : : : : : > > > > > > > > > : > 8 * 9.9X8XNXNXBXVXZXVXVXZXZXZXsX .o * * = - * * ",
"-X8X8X6X6X6X6X6X6X7X7X7X7X7X7X7X7X7X7X=X&X&X&X#X&X8.5 p p p 0 s s f f g g g d C K -.5.m.m.5.m.g.g.h.h.h.h.V.V.H.H.P.P.P.l.h.].(.P.(.(.(.P.P.P.(.(.P.(.(.(.(.(.(.`.(.(.(.(.P.(.(.(.(.(.(.(.(.(.(.(.P.(.(.`.(.(.(.P.(.`.`.`.(.).[.).).(.{.{.K.kXnXrX].~.m.&.O.! R T T T x j f f p - l o.&.@.&.=.=.3.3.4.6.4.4.5.5.5.4.3.3.4.A.3XhXhX3X2X X X.X X X X X X{. X X{.{.[.{.{.{.[.[.].[.[.[.(.`.`.(.`.`.`.(.].].].].].].[.[.[.[.[.[.[.[.[.[.[.[.[.[.[.[.[.].[.[.[.[.].].].P.E.y.C E r.r.e.;.;.O.R s < P &.X.@.$.l.{.).h.h.h.h.h.l.l.l.g.l.%.:.,.,.,.1.%.%.%.$.1.<.N n q q q q q q q q q q 0 0 0 ; ; 0 q w  .9XVXBXVXZXVXVXVXVXVXsX0.5 5 8 8 0 6 5 r 7XsX7X8.r 8 5  .%X7XBX7X7X7X7X7X7X6X6XdX+.P P r.u.O.q.q.T T R R R R j s d j A G K K E E E E K K ~ ~ L I ~ ~ ~ ~ ~ ~ ) ) &.*.*.:.<.1.1.,.g.B.m.,.B.H.H.B.B.A.V.A.5.4.=.I 9 m.].V.B.h.h.g.j.g.g.g.j.g.g.g.g.5.5.#.B <.B.5.1.,.,.,.5.%.( L.g.,.f.,.,.,.,.,.%.:.<.<.<.:.:.*.*./ N y.m./ #.*.&.E T T A j f p : $ # O O # # @ $ $ : @ - : : : : > > > > > > > > > > > : > 8 5 <X8X8XNXNXVXZXZXVXVXZXZX9Xr o * * = = - * * ",
"-X6XBX8X6X6X6X7X6X7X7X7X#X..<X7X7X7X7X7X7X&X&X#X#Xa.7 6 p p 0 s s f f g g g g g G &.m.m.5.,.m.j.h.B.h.B.V.V.H.J.J.H.H.P.h.l.].(.P.P.(.(.P.P.P.(.(.(.(.P.P.(.(.(.(.(.(.(.(.P.(.(.(.(.(.(.(.(.`.(.(.P.(.`.(.(.(.`.(.P.`.`.(.(.(.[._._.(._. X{.zXkX2X].].B.;.O.! R R R T x j f f p : 0 O.X.@.;.;.-.3.=.=.=.4.4.5.4.4.3.-.4.5.Y.rXhXfX3X3X.X X.X X.X X X X X X X.X X[.{.{.{.[.[.[.[.[.[.(.`.`.`.`.`.].(.].].].].].].[.[.[.[.[.[.[.[.[.[.[.[.[.[.[.}.[.[.].[.[.[.[.].].P.E.y.C E r.r.;.;.;.o.R g ; G o.&.@.$.l.{.).h.h.h.h.h.h.g.g.g.x.,.:.,.,.,.l.,.%.%.%.1.m.( m w w q q w q q 8 q q q q q 8 ; 0 w w 9 7.ZXVXVXZXVXVXVXZXsX9.5 5 8 8 8 0 0 8 5 +.dX%Xr 8 0 0 5 5 +.%XsXBX7X7X7X7X7X9X<X .G K O.p.e.O.e.R T R R R R x s g j A G K K K E E K K K ~ L I I ~ ~ ~ ~ ~ ~ ) ) &.*.*.:.<.1.1.1.g.B.g.,.H.H.H.B.B.A.H.B.5.<.=.J 9 L.].z.B.h.g.g.h.m.g.g.m.g.g.g.g.5.1./ ( m.m.,.1.1.1.1.g.$.%.L.x.x.,.,.,.,.,.,.:.,.1.<.:.:.*.*.) U @.D.:.*.*.-.~ K T T A A f p : # # O O + # $ $ $ : : : : : : > > > > > > > > > > > > : > ; r <X8X8XNXNXVXVXVXZXZXZX<Xr o * - - - - - * - ",
"=X6XBXBX6X7X7X7X6X6X7X7X<X[ 5 +.%X7X7X7X7X7X&X#X#X%X[ 8 s 0 s s f s g g g C g C G I u.j.g.g.B.B.B.B.B.V.V.V.V.J.J.P.P.P.h.l.).].(.P.P.(.P.P.P.(.(.(.(.(.(.(.P.(.(.(.(.(.(.(.(.(.(.(.(.(.(.(.(.(.(.(.(.`.(.(.(.`.(.P.].(.(.(.(.[.[.[.(.).2XrXzX2X{.].].L.-.O.O.R R R T T j f f f : 8  .X.X.X.;.-.-.=.=.6.4.4.5.4.4.=.=.4.5.P.hXhXrX3X2X2X X X X.X.X X X X X X.X X[.[.[.[.[.[.[.[.[.[.(.[.[.(.(.`.].].].].].].[.[.[.[.[.[.[.[.[.[.[.[.[.[.}.[.[.}.}.[.(.[.[.[.[.[.].P.E.y.C ! r.r.;.;.&.o.R g ; F o.&.&.#.l.].).h.h.h.h.h.l.g.g.l.x.,.%.,.,.l.g.,.%.,.%.l.L.#.J m n q n q q q q 8 q q q q q 8 8 w 8 n V 7XSXVXSXZXZXZXZX9.2 8 0 8 8 8 0 0 0 8 5  .+.8 0 s 0 0 8 8 r 9.dXsXsX7X7X6XsX<XH T K E i.r.q.e.q.T T R R R x s s g A G K K E E E K K L ~ L I I I I I ~ ~ ~ ~ ) ) *.*.*.:.1.,.,.g.B.g.,.L.H.H.B.A.H.H.A.1.<.&.J n E.).z.B.h.g.g.h.g.m.m.m.g.g.g.5.1.<.U ( B.g.1.1.,.1.1.5.( l.H.x.x.f.,.,.,.,.,.<.,.<.<.:.:.:.*./ U S.5.%.:.*.-.~ E T T A j f p $ $ O O + + # @ $ $ $ : : : : : : > > > > > > > > > > > > > ; r 7X8X8XNXNXZXVXVXsXsX%X5 * * X - * * * - - - ",
"-X-XBXBX8X6X6X6X6X6X7X7X<X[ o o 4 [ a.%X7X7X7X&X#X%X+.* 0 0 s s s g g g C C C C G L *.m.A.A.H.H.V.V.H.H.V.H.H.H.J.P.P.P.H.%.P.].(.P.(.(.(.P.P.P.(.(.(.(.(.(.(.(.(.(.(.(.(.(.(.(.(.(.(.(.(.(.(.(.(.(.P.`.`.(.`.(.(.P.(.`.(.(.(.[.[.[.(.(.{.rXrX2X[.].].E.4.o.O.R T T T T j f s p - 5 9.a.9.+.;.=.-.=.3.4.4.4.6.4.6.=.=.=.5.T.hXhXhX3X X X X X X.X.X X X X X X.X{.[.[.{.[.[.[.[.[.[.[.(.].[.`.(.`.].].].].].].[.[.].].[.[.[.[.[.[.[.[.[.[.}.[.[.}.}.[.].[.[.[.[.[.].E.E.y.C O.r.-.;.;.;.O.R g ; A o.o.&.#.l.].].c.h.h.h.h.l.g.g.l.x.,.%.,.,.,.g.,.%.,.,.l.H.<.( J m b b b D D q 8 8 q q q w 0 8 w 8 w w 0.SXZXSXZXZXZX9.5 8 0 0 0 0 0 0 0 0 0 0 8 8 0 0 0 q q q d 0 7 +.<XsXsX7X7XdX9.F E E P q.p.r.e.q.T T R R R T s s g A G K K E E K E K K ~ L L I ~ ~ I ~ ~ ~ ) ) ) *.*.*.:.1.:.,.g.B.g.,.L.H.H.B.A.H.H.B.4.<.&.N U |.P.z.B.g.g.h.B.g.g.m.m.g.g.g.5.1.#.B <.B.g.1.1.,.1.g.5.( B.h.,.x.f.,.,.,.,.,.,.,.<.<.:.:.:.*.U 4.m.#.:.:.*.-.~ E T F A j f p $ : O O + + $ $ $ $ : : : : : : : > > > > > > > > > > > > 6 ; r 9XBXBX8XVXZXVXZXsX9.5 * ; = + - - - - - - : ",
"8X7X8X8XBX8X6X6X6X6X7X7X<X[ o @ .   4 [ a.%X7X7X&X%X8.5 6 s s d g d g g g C g d G P / 5.D.L.P.H.z.H.H.H.H.H.H.H.H.H.P.P.H.x.H.].(.P.(.(.(.P.P.(.(.(.(.(.(.(.(.(.(.(.(.(.(.P.(.(.(.(.(.(.`.`.(.(.(.(.(.`.`.(.(.(.`.P.(.`.`.`.(.[._._.).(.[.rXjX{._.[.].E.u.&.O.E R T T x x f s 6 e a.#X9.9.+.;.=.=.=.=.3.4.4.6.4.6.=.3.3.6.).rXhXhX3X2X2X2X.X2X X2X.X X X X X X X{.[. X{.[.[.[.[.[.[.(.`.[.[.(.`.[.].].].].`.[.[.[.[.[.[.{.[.[.[.[.[.[.[.[.[.[.}.[.[.].[.}.].].[.].E.E.y.C O.r.;.;.;.O.O.R g ; g o.X.;.$.j.].).v.h.h.h.h.l.g.g.g.g.,.:.,.,.,.g.,.<.,.,.l.K.l.( U B n b b q b b q q q q q w q 0 q q q F V 9XDXZXZXZX*Xr 8 0 0 0 0 0 0 0 0 0 0 q q 0 q q 0 q q q q d g 0 w a.dX7X7X<X .G T R R O.i.r.e.q.R T R R R T s s j A G K K K K K E K K ~ ~ ~ ~ ~ ~ ~ ~ ~ I / ) ) _ / *.:.1.<.5.g.B.,.g.L.H.B.B.H.H.L.m.<.<.&.m / }.K.h.B.m.g.B.B.h.g.m.g.5.g.g.5.<.( ( m.B.5.f.x.x.f.g.,.( H.h.,.,.,.,.,.1.,.<.,.,.,.:.:.:.:./ / D.<.:.:.:.<.<.~ T T F A j j p : i O O # # # $ $ : : : : : : : y > > > > > 6 > 6 6 > > > > ; r 9XVXNXBXZXVXZXsX9.5 * ; - - X - - - - - - - ",
"BX8X6XBXBX8X6X6X7X6X7X7X<Xr o + X . . & o e 8.%X%X%Xs.7 6 s s s d g g g g C g g G K / *.g.L.P.L.V.H.H.H.J.J.J.H.J.P.P.P.P.l.B.].(.(.P.(.(.(.P.P.(.(.(.(.(.(.(.(.(.(.(.(.(.P.`.(.(.(.(.(.(.(.(.(.(.(.(.`.`.(.(.(.`.P.(.`.(.`.J.(.[._.(.(.[.gXrX{._._.].E.Z.&.O.! R T T x j f s - +.<X9.9.9.+.;.-.=.=.=.=.4.4.5.5.6.=.;.3.6.[.hXhXfX3X2X2X2X2X2X2X.X.X.X.X X X X X.X[.[.{.{.[.[.[.[.[.(.(.`.`.(.`.[.[.].].].].`.`.].].[.[.{.[.[.[.[.[.[.[.{.{.[.{.{.{.].].[.[.[.[.].E.E.y.Z E r.;.;.;.;.O.G g ; g o.X.;.$.j.[.].H.h.h.h.h.l.g.g.g.g.,.,.,.,.,.g.,.<.,.,.l.P.h.%./ U m n n D b n b q q q w q d q q w q C w 9.IXDXZX<Xr 2 q d 0 0 0 0 0 0 0 0 q q q q d d d d q q q g g g 0 9 +.<XdX7.V P T T T E e.r.e.e.! T R R R R f s j A A E K K K K E E K ~ K E ~ ~ ~ I ~ I I ) ) ) ) *.*.:.1.,.5.g.B.,.g.H.V.B.V.H.H.L.j.<.=.&.M <.}.H.h.B.g.g.B.B.h.g.m.g.g.g.g.5.<.N *.B.g.1.g.g.f.f.g.<.#.P.l.x.,.,.,.,.1.,.,.,.,.,.:.:.:.:.( m.B.:.:.:.:.:.-.E R T F A j j p : i O O # # $ $ : : : : : : : y y : > > > p p 6 6 6 6 6 6 6 > r 7XVX8XVXZXsX7X0.5 5 ; ; - - X + - - - - - - ",
"BXBX8XBXBXBX6X7X7X7X7X7X<Xr X + . . O O & . o 7 +.s.s.6 6 s s f d g g g g C g d G K I / <.j.L.H.H.H.J.H.J.J.J.H.J.J.P.P.P.h.l.].(.(.P.(.(.(.P.P.(.(.(.(.(.(.(.(.(.(.(.(.(.(.(.(.(.(.`.(.(.(.(.(.(.(.(.(.`.(.(.`.`.(.(.(.`.[.J.(.[._.).(.).rXrX[._.[.].E.B.*.~ E R T T l j f s - +.a.+.9.+.+.;.=.=.=.=.=.4.4.5.5.4.=.;.3.6.1XjXhXrX4X2X2X X.X2X2X2X.X.X X.X.X X X{.[.[.{.[.[.[.[.[.[.).].[.[.`.`.[.[.].].[.[.].[.[.].[.[.[.[.[.[.[.[.[.[.[.{.[..X{.{.[.].}.}.[.].].].E.Z.G E r.;.;.;.O.E F f ; d X.X.;.#.h.].).H.h.h.h.h.g.g.g.g.g.,.:.,.,.,.g.,.%.,.,.x.K.c.1.%./ J Z C b C n b q q n n n w g q w q w V V sXIXa.r 8 0 d d q 8 0 0 0 0 0 q q q q d d d d q q d q w w g g n M H O.V P P E E T ! e.r.e.e.q.T R w.! R j u j A S G K K K K E L K ~ ~ K ~ ~ L ~ I L ~ ) ) ) ) *._ :.<.,.g.g.m.,.B.H.B.B.V.H.H.H.5.<.=.&.M 5.@XH.h.h.g.h.B.h.g.m.m.g.g.g.g.1./ B 5.m.g.5.f.g.f.f.g.#.,.P.l.,.,.,.,.,.1.,.,.1.,.,.:.:.:.#.#.D.1.<.:.:.:.<.=.~ R T T F j j p : i O O # # $ $ : : : : : : > > y > > > > 6 6 6 6 6 > > > > > 5 <XVX8XZXZX<X .* 5 ; ; ; - - X X - - - - - - ",
"VXBXNXNXBXBX8X6X7X7X7X7X%X5 X + . O O O O O % @ o 7 7 > y s s s d g d g g C C D S K I / *.,.g.h.V.H.J.J.H.H.J.J.P.P.J.P.P.h.l.(.(.(.P.(.(.(.P.P.(.(.(.(.(.(.(.(.(.`.(.(.(.(.(.(.(.(.`.(.(.`.(.(.`.(.(.(.`.(.(.(.`.(.(.`.`.[.H.J.[._._.(.)..X2X).).[.).E.D.-.~ E T R T F j f s 6 8 +.+.r V X.;.=.=.=.3.4.4.4.6.6.4.;.;.3.6.2XjXhXrX4X2X2X.X.X.X X.X.X.X X X.X.X X{.{.[.{.{.[.`.[.[.[.[.`.`.`.[.`.].[.].].].[.`.[.[.[.[.[.[.[.[.[.[.{.{.[.[.{.[.{.{.}.}.].[.}.[.[.].].E.S.G R e.e.;.;.O.R F s ; g E X.;.#.c.).).H.h.h.h.h.g.g.g.l.g.,.:.,.,.,.g.,.%.,.,.%.H.c.1.,.#./ U Z C C n n n b b n C C b q w q q n w 3.p.2 w d q d C n q q q q q q q d q q d q q d q q d d w g d d C Z G C q E K E E ~ O.e.r.r.e.q.T R ! w.R f p j A A G K K K K E K K ~ L P ~ ~ L L ~ ~ I ~ ) ) _ *./ *.<.,.1.g.m.%.h.H.V.B.V.V.H.A.5.<.=.~ M m.}.z.h.h.g.h.B.h.g.B.m.g.g.g.5.1.U / B.m.l.g.f.x.f.g.g.( g.H.x.f.f.,.,.1.1.,.,.1.,.<.<.:.<./ 5.m.<.<.:.:.:.<.-.E R R F A j f p : $ O # # $ $ $ : : : : : : : > > p 6 > > 6 6 6 6 6 6 6 6 > > 5 <XZXZXZX<XV * ; > > > ; - - + X - - - - - - ",
"ZXVXBXNXNXBX8X6X6X7X7X7X%X5 X X . . O & O O + @ : : - > y s s s d d d g g g g d S K I I *.<.g.B.H.H.J.J.J.J.J.J.P.P.H.J.J.H.h.P.(.(.(.(.(.(.(.P.P.(.(.(.(.(.(.(.(.(.(.(.(.(.(.(.(.(.(.(.(.`.(.(.`.`.(.(.`.`.(.(.(.(.P.(.`.].J.z.{.[.).(.).[.[.[.].].].E.D.4.O.R T T T T j f f p - 6 6 8 H X.;.;.;.=.3.4.4.4.6.6.4.=.;.=.6.4XkXhXrX4X4X3X2X.X.X2X.X.X.X.X.X X.X.X.X[.{.{.{.[.[.[.[.[.[.(.[.[.].`.[.[.[.[.[.[.[.[.[.].[.[.[.{.).[.[.{.[.[.[.}.[.{.{.{.}.].[.[.[.[.].].E.S.E G e.e.;.;.~ R F s > g P I &.#.A.).).H.h.h.h.h.h.g.g.g.g.,.:.,.,.1.g.,.,.,.x.x.H.v.l.,.<.#./ U J Z n n n b b n n n n n w q q q n 8 8 8 q q d C C C C d q q q q q q q q q q d d q q d d q d d d C C G q < E K K K O.e.e.i.r.e.q.T ! q.q.R j y j A A G K K K K E K K ~ K ~ L L I I ~ I ~ ) ) ) ) *./ *.<.,.g.g.g.,.B.V.B.B.H.H.H.B.<.<.=.I M I.[.V.h.h.g.h.B.g.g.m.g.g.5.5.g.:.N <.m.g.g.g.f.f.g.f.g.( A.H.x.f.,.g.,.,.1.,.,.1.,.:.:.<.<.#.m.5.<.<.<.:.:.<.=.E R R F A j j p : $ O # # # $ : : : : : : : : > > 6 6 6 p p p p 6 6 6 6 6 > 6 w <XDXsXa.r 2 ; ; > > > ; - - - X - - - - - - ",
"#XZXVXBXBXBXBX8X6X7X6X7X9.5 @ . . . . . . . @ @ : : : > > p s s d d d g g C g d S K K I / :.5.B.V.H.P.J.J.J.J.J.P.P.J.J.J.J.h.J.(.(.(.P.(.(.P.(.P.P.(.`.(.(.(.`.(.(.(.(.`.(.(.(.(.(.(.(.(.(.(.(.`.(.(.(.`.`.(.(.(.(.P.(.(.].P.l.[.[.).(._.].].].].).).P.D.-.O.R T T F l j f p : 6 p : ; 3.3.$.;.=.=.3.4.4.4.6.6.6.=.;.4.6.yXkXhXrX4X4X2X X2X3X X2X2X.X X X.X.X.X.X{.{.{. X[.[.[.[.{.[.`.[.[.[.].].[.[.[.[.[.[.].[.].[.[.[.{.[.[.[.{.{.[.[.{.[..X.X}.}.[.].}.}.}.].].~.S.o.F r.r.;.O.E T j f > d P I &.#.A.).).J.h.h.h.h.h.g.g.g.g.,.:.,.1.1.g.1.,.,.x.x.z.H.l.l.,.<.#./ I J Z n n C n n n n n b D C q q D C C b q q D C n C C d d C q d q q q q d q q q d d d d D D d d n C F 8 1 K K K K K E e.i.p.i.e.T R ! q.R f s j A S G K K K K E L K ~ ~ ~ ~ L I L ~ ~ ~ ~ ) ) ) *./ *.<.,.5.g.g.,.B.B.V.V.V.H.H.B.5.=.=.K N ~.).z.h.h.g.h.B.g.g.g.g.5.5.g.5./ ( m.g.g.g.1.1.g.g.g.,.( I.h.x.g.f.g.l.1.1.,.,.1.1.:.:.<.<.<.m.1.<.<.<.,.,.1.*.E R T T T j f 6 : $ O # # # $ $ : : : : : : > 6 > 6 6 6 6 p p 6 6 6 6 6 6 6 0 H a.UX9.5 5 ; - > > > ; ; - - - X - : - - : - ",
"r <XZXVXBXBXBX8X6X6X6X7X9.o @ @ O . . . . . + @ $ : - : > y s s s j g d g A A d Z K K K ) *.1.g.B.H.J.P.J.J.J.J.J.P.K.J.J.J.V.H.].(.P.(.(.(.(.(.P.P.P.(.(.(.(.(.P.(.(.(.`.(.(.(.(.(.(.(.(.(.(.`.(.(.(.(.(.(.(.(.(.(.(.(.].].P.l.[.{.).).).].[.].].).).`.L.-.;.E T T T j j 0 0 8 8 6 - 8 p.S.X.-.-.=.3.4.4.6.6.6.y.-.;.4.l.2XkXhXrX4X3X3X2X2X2X2X2X.X.X.X.X.X.X X.X{.[. X X{.[.[.[.[.[.(.[.[.[.].].].[.].].[.[.`.[.[.[.[.[.{.[.[.[.{.{.[.[.[.{.}..X.X.X}.].}.}.}.[.].~.R.;.F O.r.;.O.E T j s > 0 G ~ &.#.A.T.).K.h.h.h.h.h.g.g.g.g.,.:.,.1.1.g.1.x.x.x.x.z.H.l.l.1.,.<.%.#./ U J n C n n n n C n D C C q C C C n q q C C C C C D d C C d d d d D d d d d d d d d C D d q C C F < q G S S G K K ~ r.i.i.e.T R ! ! R s s j A S G K K K K P K K ~ L ~ ~ ~ ~ ~ ~ I I ~ ) ) &._ _ :.<.<.5.g.g.l.B.h.V.V.V.H.L.B.5.=.-.J B [.T.h.m.h.g.h.m.g.m.B.g.5.5.5.1.B *.m.g.g.g.g.g.g.g.g.%.%.P.h.x.f.g.f.1.1.1.,.,.,.,.:.:.<.<.,.g.1.,.<.<.<.,.5.&.E R T F j j f : i $ O # $ $ : : : : : : : 6 > > > 6 6 6 6 6 6 p 6 6 s 0 6 6 0 P  . .5 5 ; > - - : > ; ; ; - : X + : - - - - ",
"5 r <XZXBXBXBX8X6X6X7X7X8.o @ . . . O O O O O $ $ $ - - > y s s s j g d g A A d Z K K K I / :.1.h.V.H.P.J.J.J.K.P.P.P.J.J.J.H.V.`.(.(.(.P.(.(.(.P.(.(.(.(.(.(.(.(.(.`.(.(.`.(.(.(.(.(.(.(.`.`.`.(.(.(.(.(.`.(.(.(.(.(.(.).].`.x.(..X[.).).].[.].].).(.P.L.<.;.! T F T F f w +.+.8.7 * 8 p.6.X.;.=.=.4.4.6.6.6.y.y.4.=.4.1.{.kXlXrX4X3X3X3X3X.X X.X.X.X.X.X X X.X.X{.{. X X{.[.[.[.[.[.[.[.[.[.].[.[.[.[.[.[.[.[.[.[.[.[.[.{.[.[.{.{.{.{.{.[.{..X.X.X.X}.].}.}.}.{.].|.R.r.F O.r.e.O.R T j s > 0 G E X.#.A.T.).P.h.h.h.h.h.g.g.g.g.,.%.,.,.1.g.g.x.x.x.x.h.H.l.l.1.,.,.<.<.#.@.U J Z Z n n n C C D D C C C C C n q d C A C C C D d C C C D d D D d D D d D d d D n C D d C C C < C G Z S S K K L ~ r.i.e.G R ! R T y s j A A G K K K K E K L ~ ~ L ~ ~ ~ ~ ~ ~ I ~ ) ) ) ) / *.:.<.1.g.g.g.B.h.B.V.V.H.L.g.<.=.&.Z @.[.K.h.m.g.g.B.g.g.B.g.g.5.5.5.:.B 5.g.g.g.g.g.g.g.g.g.%.,.P.l.g.f.g.g.,.f.1.,.,.,.,.:.,.<.<.,.g.,.,.<.<.,.,.4.&.E R T A T j s : i $ O # $ $ : : : : : 7 : p p p p p 6 6 6 6 p p 6 s s p 6 6 6 0 8 ; 8 ; > : - - > - ; ; > > : + X : : - - > ",
"; ; r dXZXBXVXBX8X6X6X7X+.X @ . . . . . . O + @ $ $ : : > 6 s s s d d d g C A C C G K K L ) *.<.g.B.H.J.J.J.J.P.P.J.P.J.J.J.H.h.(.(.(.(.P.(.(.(.P.(.(.(.(.(.(.(.(.(.`.(.(.(.(.(.(.(.(.(.(.(.`.`.(.`.(.(.(.`.(.(.`.`.(.P.(.`.[.l.J..X[.).)._.).).].).(.(.I.<.;.! T F j j f +.3.9.a. .X ; P X.X.;.=.=.4.4.6.6.6.y.y.4.=.-.1.[.kXlX3X3X2X3X2X3X2X2X2X.X.X.X.X.X X.X X X X X X X[.[.[.[.[.].].].].].].[.[.[.[.[.[.].[.[.[.[.[.{.[.[.{.{.{.[.{.}.{.}..X.X{.{.[.}.}.}.}.].|.R.i.G E r.O.! T T j s > 6 G P X.#.A.P.).P.h.h.B.B.h.h.h.l.g.g.:.,.,.x.g.g.,.f.f.,.h.J.h.g.l.,.,.,.<.<.:.@.U J m n C Z C C C C D D D C C b C C C C Z Z C D C C C C C b D D D D d D C D D C d C D D C C g < Z G C Z Z S G K ~ o.r.e.A R R R f > s j A A G K K E E E K K ~ I L ~ ~ ~ ~ ~ ~ I ~ ) ) ) ) / *.:.,.1.g.g.g.B.B.B.B.V.H.L.5.<.*.&.m %.}.J.h.h.h.h.h.h.h.B.g.g.5.5.5./ ( g.g.g.g.5.g.g.g.g.g.( h.P.g.g.f.g.1.1.1.,.,.1.1.,.,.,.1.1.1.1.,.,.1.1.:.1.4.&.E R T A F j p : i v O # $ $ : : : : : > 6 6 6 p p p p 6 6 s s s s s s s s 0 6 6 0 6 6 6 > > > > > > > > > > : - X - : - - - ",
"- ; 5 r 7XZXVXBXNX6X6X7X[ X # + . . . . . O O @ $ $ : : : 6 s s s d d g g C A g C G K K L I ) :.5.j.V.J.J.J.J.J.(.J.P.P.J.J.P.z.(.).(.(.P.(.(.(.(.(.(.(.(.(.(.(.(.(.`.(.P.(.(.(.(.(.(.(.(.(.`.`.`.(.(.(.(.(.(.`.(.`.(.(.`.].[.h.h..X[.[.)._._.].].).).(.I.<.;.O.G F A j f O.+.7.9.;.* 6 w V X.;.=.=.4.6.6.y.y.y.y.4.=.4.4.T.lXhX3X3X3X2X3X3X2X2X2X.X.X.X.X.X.X X X X{. X X.X[.[.[.[.[.[.].].[.].].[.[.[.[.[.[.[.[.[.[.[.[.{.{.[.{.{.{.[.{.}.{.}. X.X{.}.[.[.}.}.}.[.}.R.y.E R e.q.! T T j s > 6 F P X.@.j.P.).P.h.h.h.h.h.g.g.l.g.g.%.,.,.l.g.f.,.f.f.,.h.J.h.g.l.1.,.,.,.,.,.<.#.I J Z Z C C C C C D D D C C b D C C C Z C C C C C C C C C C D D D D C C D D C C d d D C C q < G S Z Z S S S K K P ~ E A T T f > > s j A A G K K E E E K K ~ L I ~ ~ ~ ~ ~ ~ I ~ ) ) ) ) / *.*.<.1.g.,.g.g.B.B.B.H.H.H.1.=.*.&.M 5.{.H.h.h.h.B.h.h.h.h.g.g.5.5.5.( :.B.g.g.g.5.g.g.g.g.g.( H.H.g.g.f.g.1.1.1.,.,.,.1.,.,.,.1.1.1.1.,.,.,.1.,.1.5.o.E R T F F f y t i t O # $ $ : : : : > > 6 p p 6 p p p 6 6 0 s s s s s s 0 0 0 0 6 6 6 > > > > > > > > > > : > - X - : - - - ",
"- - ; * r 7XZXBXNX6X6X7Xr + # + O O . O O O O @ $ : : : > 6 s s s d d g g g C d C G K K K I / *.<.g.B.H.J.J.J.J.(.P.P.P.J.H.P.H.J.[.(.(.P.P.(.(.(.(.(.(.(.(.(.(.(.(.P.].P.(.(.(.(.(.(.(.(.(.`.(.(.(.(.(.(.`.`.`.(.`.(.(.(.(.].H.l.}.[._._.).).].].).).(.I.<.;.O.P F T j f F X. .+.X.* 6 F H +.;.=.=.4.y.6.y.y.y.y.y.-.-.6.A.hXkXfX3X3X2X3X2X X2X2X2X.X.X.X.X.X.X X X X X.X X[.[.[.[.}.[.].].].].[.[.[.[.[.[.[.[.[.[.[.[.[.{.{.[.{.{..X{.}.}.{..X.X.X}..X{.[..X}.}.[.}.R.y.! G q.O.E T T j s 6 > C P X.@.j.I.(.).H.h.h.B.h.g.g.g.g.g.:.,.,.,.g.g.,.f.f.x.h.H.h.h.l.x.x.,.,.,.,.5.<.#./ J Z Z Z Z C C C D C C C C C Z C C Z Z C C C C C C C C C C C C C C C D C C D C D D C A 1 q G Z Z Z Z S S S K K E G A j s : : > s j j A G E K E E E K K ~ ~ ~ ~ ~ ~ ~ ~ ~ L ~ ) ) ) ) / *.*.<.1.g.,.g.g.B.B.h.V.H.B.,.*.*.I M j.{.V.B.h.h.h.j.g.g.B.g.g.5.5.<.( 5.g.g.g.g.g.g.g.g.g.1.( P.V.g.g.g.g.g.g.1.,.1.1.1.,.,.,.1.1.1.1.,.,.1.1.1.1.<.~ E R T A j s y t i i O O # $ : : : > > p p p p p p p 6 s s f s s s s s s 0 0 0 0 0 6 6 > > > > > > > > > > > : - + = : : ; ; ",
"- - > ; * r 7XZXBX6X9X<X5 + # + O O . & O O O @ $ : : : : 6 p s s d d g g g A d C K K K K I ~ ) :.5.B.B.H.J.J.J.P.J.J.P.P.z.H.J.z.(.`.P.P.P.(.(.(.(.(.(.(.(.(.(.(.(.P.`.(.(.(.(.P.(.(.P.(.(.`.(.(.(.(.(.(.(.`.`.`.`.(.P.(.`.[.P.x.[.{._._.).).].].).).).E.u.;.O.R F T j j l X.+.w 0 - 6 l H X.;.=.=.4.6.6.y.m.y.y.y.3.=.4.j.rXkXfX3X2X2X2X3X2X2X2X2X.X.X.X.X2X.X X X X X X X{.[.[.[.}.[.].[.[.].[.[.[.[.[.[.[.[.[.[.[.[.[.{.}.[.{.{..X{.}.}.{..X.X.X.X.X{.[..X.X.X}.}.E.y.q.G O.q.! R T j s 6 > g P X.@.6.I.P.).v.h.B.h.h.g.h.g.l.g.%.,.,.,.g.g.x.f.f.x.h.H.h.h.l.l.x.x.l.,.,.g.,.<.*./ L J Z Z C C C C C C C C C Z C Z Z Z C Z C C C C C C C C C C C D D D C D C C D C C C < C G C Z Z Z Z S S K K E A d s : $ : > s d g S K K L E K K K K ~ ~ I I ~ ~ ~ ~ ~ L I ) ) ) ) / *.*.<.1.5.,.f.g.B.B.h.V.H.B.<.*.*.J M I.[.z.B.h.h.B.g.g.h.h.g.g.5.5.*.( g.g.g.g.g.g.g.g.g.h.,.%.E.h.g.f.g.g.g.g.1.,.1.5.1.,.1.1.1.1.1.1.,.,.1.1.1.1.<.~ E R F A j s t i p i # # $ $ : : : y > p p p p p p p p s f f s s f s s 0 0 0 0 0 0 6 6 > > 6 > > > 6 > > > > : > = + > > ; ; ",
"* - > > ; * r dXZX8X9X%X5 = + + O O & O O O O @ $ : : : : > s s s d d g d C A d C K K K K L I ) *.<.g.B.H.H.J.J.P.J.J.P.P.H.V.J.z.(.`.P.P.P.(.(.(.P.P.(.(.(.(.(.(.P.P.(.[.(.(.P.(.(.(.(.(.(.(.(.(.(.(.(.(.(.`.`.(.(.(.(.(.`.[.].x.]..X[.(._.].].].].].`.E.u.-.;.E F T x j f F X.w 8 - p l P X.;.=.=.4.y.y.G.m.G.G.p.4.=.4.1.2XkXhX3X2X2X3X3X2X2X2X.X2X.X.X.X.X.X X X X X X.X.X[.[.[.}.[.[.[.].].[.[.{.[.[.[.[.[.[.[.[.[.[.[..X[.[.{.}.}.{.}.{..X.X.X.X.X.X[.}..X}.}.@XQ.y.e.T O.q.! R T j s p > g P o.@.5.I.P.).H.h.h.h.h.h.h.g.l.g.,.,.,.l.g.g.x.f.g.l.l.H.h.g.g.x.x.x.x.,.x.g.,.,.<.*./ L J Z Z C C C C C C C C C Z Z Z C Z Z C C C C C C C C C C C C C C C C C D C C C D < S S C Z Z Z Z S S K K G d s 6 : $ : : p d d A G K L K K K E E ~ ~ L I ~ ~ ~ ~ I L ) ) ) ) ) / *.*.<.<.1.,.g.g.h.h.V.V.L.m.<.*.*.J N ~.).z.B.h.h.B.g.g.B.h.m.g.5.1./ :.m.g.g.g.g.g.g.g.h.B.%.,.`.h.g.f.g.g.g.g.1.,.1.5.1.,.,.,.1.1.1.1.,.,.1.1.1.1.<.~ E R T F j s p p p i % # $ $ : : : > p 6 p p p p p s s s f f f f f s s s 0 0 s 0 0 0 0 > 6 6 6 6 6 6 6 6 > > : > - + : : ; ; ",
"* - - > > ; * r dXZXdX+.o - + . O O O O O O O @ $ : : : : > s s s d d g g g A D C K K K K K L / / :.1.m.V.H.J.J.(.P.P.(.P.P.H.H.V.P.].(.P.P.P.(.(.P.P.(.`.(.P.(.(.P.(.(.[.(.P.P.P.(.(.(.P.(.(.`.(.(.(.`.(.(.(.`.(.(.`.(.(.`.].[.l.J..X[._.[.).].].).).(.E.m.-.;.E G T j j g g F H 0 - 6 F X.o.;.=.4.4.y.p.G.m.y.G.G.y.=.4.1.T.jXhX3X2X2X2X3X2X2X2X2X.X2X.X.X2X.X.X X X X X.X.X[.[.[.}.}.[.[.[.[.[.[.[.[.[.[.[.[.[.[.[.[.[.[..X[.{.{.{.{..X.X{.{..X.X.X.X.X[.}.}.}.}.}.|.y.r.T R O.! T T j s p : f G P X.6.H.K.).H.h.h.h.h.h.h.l.g.g.1.,.,.l.g.g.x.f.f.l.l.H.B.h.g.l.l.x.x.x.x.l.l.,.,.<.*./ L J Z Z C Z Z Z C C C C C Z Z Z Z Z Z Z Z Z Z C C Z C Z C C C C C C C C C C C q 1 G Z C Z Z Z Z S Z K K A 0 p : + $ : : p s d C K K L L K K E E ~ ~ ~ I I ~ ~ ~ I K ) ) ) ) / ) *.*.<.<.<.<.,.g.h.h.V.V.L.m.=.*.&.m U |.K.h.B.h.h.m.g.g.B.m.g.g.,.<.( ,.g.g.g.g.g.g.g.g.g.B.( j.`.l.g.g.g.g.g.g.1.1.1.1.1.1.1.1.1.1.1.1.,.,.1.1.1.1.<.~ E R T A j p p a p i $ # $ $ : : > p p p p p p p s s f f f f g g g g s s 0 0 s 0 0 0 0 6 6 6 6 6 6 6 6 6 6 6 > > : + : > ; ; ",
"- - - - - : ; * r <XdXr X - + O O O O & O O O @ $ : : : : > s s s d d g g C A D C K K K K K I ) ) *.<.g.B.V.J.J.P.P.P.P.P.P.P.H.V.H.[.(.P.P.P.(.(.(.P.P.(.(.(.(.(.(.(.(.].(.P.P.P.(.(.(.(.(.(.(.(.(.`.`.(.(.(.`.(.`.(.(.(.`.].[.h.V..X[.[.).(.].].].].(.E.m.-.;.E T F j j j f l +.H - 0 F O.;.;.=.4.4.y.S.S.G.m.G.G.y.-.4.1.H.rXlX3X3X2X3X3X2X2X3X2X.X.X.X.X.X.X.X X X X X.X.X{.[.[.}.[.[.[.[.[.[.[.[.{.[.[.[.[.[.[.[.[.[.[..X.X{..X.X{.}..X}..X.X.X.X.X.X}.}..X}.}.}.@XZ.u.E R O.! T T j f p : 0 F E @.<.H.K.].H.h.h.h.h.h.h.h.g.g.,.,.1.l.g.g.x.x.g.l.l.v.V.h.g.g.g.l.x.x.l.l.l.x.,.,.<.*./ U J Z Z Z C C Z Z C C Z Z C Z Z Z Z Z Z Z Z Z Z Z Z C C C C C C C C D C C C 1 D T C C Z S Z Z Z S G G d 6 > @ + $ : t p s d S K K L L L E E E ~ ~ ~ I I ~ ~ I L K ~ ) ) ) / ) *.*.:.<.<.<.1.g.h.h.z.V.A.g.=.*.&.m #.1XK.h.B.h.h.m.g.g.h.h.g.g.,.<./ g.g.g.g.g.g.g.g.g.h.g.( L.P.h.g.g.g.g.g.g.1.g.g.5.1.1.1.1.1.1.g.1.,.1.1.1.1.1.<.~ E T T A j p s f a i $ # $ $ : : p p 6 p p p p s s f f f g g g g g g g g f s f s 0 0 s 6 6 6 6 6 6 6 6 6 6 6 6 > > + - 6 > 8 ",
": - - - - : ; ; * 5 V 5 - + + O O O O & O O O $ $ $ : : : > p s s d d g d C A d C G K K K K L ~ ) *.:.5.h.V.V.J.J.P.P.P.P.P.P.P.h.h.].(.P.P.(.(.(.(.P.P.P.(.(.(.(.(.(.(.`.`.(.P.J.P.(.P.(.(.(.(.`.(.`.`.(.(.(.(.`.(.(.(.(.(.].}.H.h..X[.).[.].].[.].].`.E.B.<.-.! G F j j f f f X.l * l P O.;.=.3.4.4.p.S.S.G.G.G.G.S.4.4.5.l.wXjX3X3X2X2X3X2X2X2X.X.X2X.X X.X2X.X X X X.X.X.X}.[.[.}.}.[.].[.[.[.[.[.[.[.[.[.[.[.[.[.[.[.[..X.X}.{.{..X{..X.X.X.X2X.X.X.X}.}..X2X.X}.0XS.u.q.R O.! T T j s p : 6 F P X.=.A.Y.).P.h.h.h.h.h.h.h.h.g.,.<.,.l.h.g.x.x.g.l.l.z.V.g.g.g.g.l.l.l.l.l.l.l.x.,.,.:.*./ P J Z Z Z Z Z Z C C Z Z Z Z Z Z Z Z Z Z Z Z Z Z Z Z Z Z C C C C C C C C C < S G C Z Z Z Z Z S S G G 0 > : + + # : y p d g S K L L L K E E ~ ~ ~ I I ~ ~ ~ ~ K L ) ) ) ) / ) *.*.-.<.<.:.,.g.h.h.B.V.A.5.#.*.&.M <.1Xv.h.B.B.h.h.g.g.h.h.g.1.<.:.<.g.g.g.g.g.g.g.g.g.h.1.( E.H.l.g.g.g.g.g.g.1.g.g.5.1.1.1.1.1.1.5.1.1.1.1.1.1.u.-.~ E T T j f s f f a i v # $ $ : : p p 6 p p p p s f f f f g l j g g g g g g s f s s s s 6 6 p 6 6 6 6 6 6 6 6 6 6 6 - = 6 > ; ",
"- - - - - - - - - - * - - + + + O O & & O + + # $ $ : : : > 6 s s s d j d A A g S K K K K K L ~ ) _ *.1.g.h.V.J.J.P.P.P.P.P.P.P.V.l.(.].(.P.(.(.(.(.P.P.(.(.(.(.(.(.(.P.(.].`.P.J.J.(.P.(.(.(.(.(.P.(.`.`.(.(.(.(.(.`.(.(.(.].[.P.l.{._.).).].].[.].].(.`.L.<.-.~ T F A j j j s l 0 8 F X.o.;.=.3.4.6.m.S.S.G.G.G.G.S.4.4.6.1.|.jXfX3X3X3X2X2X.X.X.X.X2X2X X2X2X.X X X X X.X.X X[.[.{.{.[.[.[.[.[.[.[.[.[.[.[.[.[.[.[.[.[.[..X.X{..X.X.X.X.X{.{..X.X.X.X.X.X.X.X2X2X.XyXR.y.e.R q.! T T j f p : 6 F P I #.A.H.).P.h.h.B.h.h.h.h.g.g.g.,.f.g.g.g.x.x.g.g.x.B.V.h.h.l.l.l.l.l.l.l.g.x.x.,.,.<.:./ / L N Z Z Z Z Z Z Z Z Z Z Z Z Z Z Z Z Z Z Z Z Z Z Z Z Z C C C C C C C C q < G Z C Z Z Z Z Z Z Z G C 0 : $ O + # : > s d g A K E E E E E L ~ ~ ~ I I ~ ~ ~ ~ K K ~ ) ) ) ) ) *.*.*.<.:.:.1.g.g.h.B.H.H.5.=.-.~ M j.2XH.h.h.h.h.m.g.m.g.g.g.,.<.:.1.g.g.g.g.f.g.g.g.g.m.<.( ].H.l.g.g.g.g.g.g.1.g.f.1.1.1.1.1.1.1.5.1.,.1.1.1.1.u.-.~ E R T Y f f x f a i v # $ $ : i p p p p p p s s f f f f g l F C C C C g g g g 0 s s s 0 0 0 p p 6 6 6 6 6 6 6 6 6 : = > > > ",
"- - - - - - - - - - - - - + + + O . & & O O + # # $ : : : : 6 s s s d j C C A g C E K K K K L ~ ) ) *.1.g.h.V.H.J.J.P.P.P.P.P.P.P.l.H.].(.J.(.(.(.(.(.P.(.(.(.(.(.(.(.(.(.].`.P.P.H.(.(.P.(.(.(.(.(.(.`.`.`.(.(.(.(.`.(.(.(.(.[.(.l._.{._.).].]._.).].`.`.L.u.-.O.T F A j j j s f 6 8 P X.o.;.=.4.4.5.m.D.D.G.S.G.S.S.y.4.6.1.I.jXfX4X3X2X2X2X.X.X X.X.X.X.X2X X X X X X X.X.X X[.[.{.}.[.[.[.[.[.[.[.}.[.[.[.[.[.[.[.[.[.[..X.X{..X.X.X.X.X.X.X.X.X2X.X.X.X X.X2XwX2XwXE.i.r.! ! ! R T j f p : > g P I @.m.H.).P.h.h.B.h.h.h.h.h.g.g.,.,.g.h.g.x.g.g.g.g.B.V.h.h.l.l.l.l.l.l.g.g.x.x.,.,.,.<.#./ L L K Z Z Z Z Z Z Z Z Z Z Z Z Z Z Z Z Z Z Z Z Z Z Z Z Z C C C Z C C A 1 q K Z C Z Z Z Z Z Z G G d > : + O + $ : > s d C S K ~ P E L L ~ L ~ ~ ~ ~ ~ ~ ~ ~ K K ) ) ) ) / &.*.-.*.:.*.:.1.5.g.h.h.B.A.5.=.;.I M H.}.z.h.h.B.h.B.g.g.g.g.g.,.:.:.g.g.g.g.g.g.g.g.g.g.m.#.%.].z.g.g.g.g.g.g.g.f.g.f.1.1.1.1.1.g.g.1.1.1.1.1.1.1.u.-.~ E R T j f f x f a i v # $ $ : : p 6 p p p p s s f f j g F F F F F F F F g g g f f f s 0 0 0 0 0 0 0 6 0 0 0 6 > 6 : + : 6 6 ",
"; - - - - - - - - - - - - + + + O O O & O O + # $ : $ : : : > s s s d g C C A C S K K K K L L ~ ) ) *.<.5.h.B.V.H.P.P.P.P.P.(.P.P.h.z.].(.J.P.(.(.(.(.P.(.(.(.(.(.(.(.P.(.`.[.(.P.J.P.(.P.(.(.(.(.(.(.(.`.(.(.(.(.(.(.(.P.(.(.[.[.l.(..X_.(.].].[.).].].].E.m.-.O.E T A j f f s 6 - 8 P o.o.;.3.4.4.4.G.F.F.S.G.A.S.S.y.4.6.6.j.2XhX3X3X2X2X2X.X.X.X X X2X2X2X X.X.X X X X.X.X.X[.[.{..X[.[.[.[.[.[.[.[.[.[.[.}.[.[.[.[.[.[..X.X{. X X X.X X X X.X2X.X.X.X.X X.X2XwX2XwX~.y.i.! R ! R T T f p : > g P U @.6.H.).(.h.h.h.h.h.h.h.h.h.g.g.,.g.g.g.x.x.g.l.l.h.V.h.h.l.l.l.l.l.l.g.g.l.l.,.1.,.,.:.*./ L K G S Z Z Z Z Z Z Z Z Z Z S Z Z Z Z Z Z Z Z Z Z Z Z C C Z Z C C g < G G Z Z Z Z Z Z Z Z G A 0 > : O O + $ : > s d C S E ~ L L L K L L ~ I ~ ~ ~ ~ ~ ~ K L ) ) ) ) / &.*.*.*.*.*.*.<.1.g.h.h.H.L.5.*.;.J M ].{.h.h.B.B.h.g.g.h.g.g.g.,.:.<.g.g.g.g.g.g.g.g.g.g.m.( l.].h.g.g.g.g.g.g.g.g.g.g.1.1.1.f.f.1.g.g.1.1.1.1.1.5.u.-.~ E R T Y f f x z a i v # $ $ : : p p p p p p s f f f j g F F F G G F F F C g g g g f s 0 0 0 0 0 0 0 0 0 0 0 0 6 6 6 + - 6 > ",
"> > - - - - - - - - - = @ + + + O O O & O + + + $ : $ : : : > s s s d g C C A C C K K K K L L I ) _ *.:.1.g.B.V.H.J.P.P.P.P.(.(.P.H.z.].(.P.P.P.P.(.(.P.(.(.(.(.(.(.(.(.(.(.[.(.P.J.H.(.P.(.P.P.(.(.(.`.`.`.(.(.(.(.`.(.(.(.(.].[.z.v..X[.).].[.[.].].].].E.Z.-.O.E T A j j f f p + 0 R o.;.;.=.3.4.4.m.F.F.D.G.G.S.S.G.6.y.m.5.[.rX3X3X2X.X2X.X.X.X.X X.X.X.X.X.X2X X X X.X.X.X[.[.[.{.{.[.[.[.[.[.[.[.[.}.[.[.[.[.].[.[.{..X.X X X X X.X X X X2X2X2X.X.X2X2X.X2X2X2XwX|.y.i.O.R ! T T T f p t : g G P / 5.H.).(.h.h.h.B.h.h.h.h.g.,.g.g.g.g.h.l.g.g.g.l.h.V.h.h.h.l.g.l.l.l.g.g.g.l.x.l.,.,.:.*./ I K K S Z Z Z Z Z Z Z Z Z Z Z Z Z Z Z Z Z Z Z Z Z Z S Z C Z Z Z A 0 0 P Z Z Z Z Z S S Z S G g 1 > $ O O + $ : > s d C G I ~ ~ ~ L L L L ~ ~ ~ I ~ ~ ~ ~ K L ) ) ) ) / &.*.*.*.*.*.*.<.1.g.h.h.V.H.5.-.;.m B }.).h.h.h.B.h.g.g.g.g.g.g.,.,.5.g.g.g.g.g.g.g.g.g.m.m.( V.(.h.l.g.g.g.g.g.g.g.g.g.1.1.1.g.1.1.1.5.1.1.1.1.1.5.m.-.~ E R T A j j x f a i v # v $ : i p p p p p s s g g j g j F G G G P G F F F g g g g g f s 0 0 0 0 0 0 0 0 0 0 6 6 6 6 - - 6 6 ",
"> > - - - - - - - - - - @ + + + O O O O O + + + + : : : : : > s s d d g C C A C C K K K L L I / ) _ *.:.1.g.B.V.H.P.J.J.P.P.P.(.(.J.h.(.(.P.J.(.(.(.(.(.(.(.(.P.(.(.(.(.(.(.[.(.P.P.V.(.(.P.(.P.(.`.(.(.`.(.(.(.(.(.`.`.(.(.(.].[.v.z..X[.).].].[.(.].`.(.`.D.<.O.E T A j f f f p - g P o.;.;.=.3.4.4.y.I.F.F.D.S.D.S.S.6.y.m.6.Y.rXrX2X2X3X3X3X.X.X.X X X.X.X.X.X.X X X X.X.X.X[.[.[..X{.[.[.[.}.}.[.[.}.[.}.[.[.[.].[.}.}..X.X X.X.X X.X.X X X.X2X2X2X.X2X2X.X2XwXwXwX+XZ.u.e.R O.R T T j s y : f G P I <.A.P.).V.h.h.h.h.h.h.h.g.1.g.g.g.h.g.l.g.g.g.l.g.V.h.h.h.g.h.g.l.l.g.h.g.l.l.g.,.,.:.%./ / L K Z Z Z Z Z Z Z Z Z Z Z Z Z G Z Z Z Z Z Z Z Z Z Z Z C C Z Z C < F G Z Z Z Z Z S S S G G d > > + # O # : : y s g C K I ~ ~ ~ ~ L L L ~ I ~ I ~ ~ ~ ~ K ~ ) ) &.) / *.*.&.*.*._ *.:.,.g.h.h.V.B.1.=.&.M @.2X).h.h.B.B.h.g.g.m.m.m.g.,.,.g.g.g.g.g.g.g.g.g.g.g.5.' P.P.h.g.g.g.g.g.g.g.g.g.g.g.1.g.g.1.f.1.1.1.1.5.1.1.g.m.;.~ E R T F j j x f a i v v v $ : i p p p s p p s j g j l F F G P P P P J F F F g g g g f s f 0 0 0 0 0 s 0 0 0 0 6 6 p : = > 6 ",
"> - - - - - - - - - - - - + + + O O O O O + + $ # $ $ : : : > 0 s d d g C C A C C K K K L I / / ) *.*.<.1.g.B.V.H.P.P.J.P.P.P.P.P.P.z.J.].P.J.J.(.(.(.(.P.(.(.(.P.(.(.(.(.(.`.`.P.J.H.P.(.P.(.(.(.`.(.(.(.`.`.(.(.(.`.(.(.(.(.].[.J.l..X[.).[.).[.`.`.].(.].E.<.;.E T T j f f f p - g O.o.;.;.;.=.4.4.6.I.E.F.G.S.F.D.D.y.y.m.y.j.2XfX3X2X3X3X.X.X.X.X{.[. X.X.X.X.X X X X X X.X{.[.[.{.{.[.[.[.[.[.[.}.}.[.}.}.[.[.[.[.[.}..X.X.X.X X X.X.X.X.X2X2X2X2X.X2X2X.X2XwXwXwX0XD.i.e.R ! R T T j f p : s F P I =.A.P.].z.h.h.h.h.h.h.h.h.g.g.g.g.g.g.x.g.g.l.l.g.V.h.h.h.g.h.h.l.g.g.h.g.g.l.l.,.,.,.:.#./ L K S Z Z Z Z Z Z Z Z Z S Z Z G Z Z Z Z Z Z Z Z S Z Z C Z A A q q P J Z Z Z Z Z S S S S C 0 6 : + # O # $ : p s g C K ~ ) ) ~ ~ ~ L I ~ I ~ ) ~ ~ ~ L K ~ ) ) &./ ) &.*.&.*.*.) *.:.,.g.g.h.B.B.1.*.&.M <.wXK.h.h.h.B.h.j.g.m.m.m.g.,.5.g.g.g.g.g.g.g.g.g.g.m.,.( ].J.h.g.g.g.g.g.g.f.g.g.g.g.1.g.g.g.f.1.1.1.1.5.1.5.5.u.-.~ E R T T j l x f a i v v t $ : i p p p s s f f j g j l F F G P P P P P G J F g g g g g f f f 0 0 f f s s 0 s 0 0 6 p : + > 6 ",
"= > : - - - - - - - - - + + + + O O O O O + @ $ $ $ $ : : : > 6 s s d g C C A A C K K K I / / / *.*.:.1.1.g.h.h.H.P.P.P.P.P.(.K.P.P.H.J.].(.J.K.P.(.(.(.P.(.(.(.(.(.(.P.(.(.`.[.(.P.H.H.(.P.(.(.(.`.(.(.`.`.`.(.(.(.`.`.(.(.(.(.[.(.l.[..X[.[.).].].`.].].].E.u.;.E T T j f f f p + g o.X.$.=.=.=.4.4.6.F.W.F.G.S.D.D.S.m.y.y.y.6.T.rX3X2X3X3X3X2X.X.X X{.[. X.X.X.X X X X X X.X{.[.[.}.{.{.[.[.}.}.[.}.}.[.[.[.[.}.].[.}..X.X2X X X X X X X X X.X2X2X2X.X.X2X2X2XeXeXwXqXD.y.r.! R R T x j f p : 0 F P I #.B.P.].H.h.h.h.h.h.h.h.h.g.g.g.g.h.h.g.l.g.g.l.l.B.h.h.h.h.h.h.l.h.h.h.g.g.l.l.l.,.,.:.#./ L K G Z S Z Z Z Z G G Z Z Z Z G Z Z Z Z Z Z Z Z S S Z Z Z A C < G G Z Z Z Z Z Z Z S S G C p p $ + O O # : : p s C Z I ) ) ) ) ~ ~ I I ~ ~ ~ ~ ) ~ ) L K ~ ) ) &./ ) *.*.&.*.*./ *.:.,.,.g.g.B.B.<.-.&.M 6.2XK.h.h.B.B.j.j.g.m.m.m.g.1.1.g.m.m.g.g.g.g.g.g.g.m.%.$.|.H.h.g.g.g.g.g.g.1.g.g.g.f.1.g.1.5.1.1.1.1.g.g.1.1.5.m.;.~ E R R F x x x f a i v v t t : i p p s s s f g g j j l F F P P P O.P P G J F C g g g g g g 0 0 0 0 0 0 f s s 0 s 6 p > - > 6 ",
"+ - : : : : : - - - - - = + + + O O O O O + + # $ : : : : : > > 0 s d g C C A A C K K L I / / _ *.:.<.1.1.g.h.h.H.J.H.J.P.P.P.P.(.P.J.H.(.(.J.J.P.(.(.(.P.P.(.(.(.(.P.(.(.(.(.[.(.P.J.z.(.P.P.(.(.`.`.(.(.(.(.(.(.(.(.`.(.(.(.`.].].l.(..X).).).].[.].`.].].~.y.;.! T T x f f f p + g o.X.$.;.;.3.3.4.6.F.W.F.S.S.S.F.G.y.y.G.p.6.Y.rX3X3X3X3X3XeX2X2X.X X X X.X.X.X X X X X X.X}.[.[.{.{.{.[.{.}.}.}.[.}.[.}.}.{.}.[.[.}..X.X2X X X X X.X.X.X.X.X2X2X2X.X2X2X2X2XeXeXwXwXE.y.r.O.R R T x j f p : 0 F P P @.j.K.].H.h.h.h.B.h.h.h.h.g.g.g.g.g.g.g.g.g.g.g.l.h.h.h.h.h.h.g.l.l.g.h.h.g.g.g.g.x.,.,.#./ / L K G S G Z Z Z S S Z S Z S G Z Z Z Z Z Z Z Z Z Z S Z Z A 1 C P J Z S S Z Z S S S G S d p p + + O O $ : > p d C K ~ ) ) ) ) ) ~ ~ ~ ~ ~ ) ) ) ~ ~ ~ K ~ ) &.&./ &.-.&.&.*.*./ *.*.<.1.g.g.m.m.<.-.I M A.2XJ.h.h.B.h.g.j.g.m.m.m.g.1.g.g.g.g.g.g.g.g.g.g.g.m./ %.|.V.h.g.g.g.g.g.g.g.g.g.g.1.g.g.1.g.g.g.1.1.g.g.g.1.5.u.;.~ E ! R j x x x f a i $ v v t : i p p p s f f f g j j l F F G P P o.P P P G F F F C g g g g f g 0 0 0 0 s s s 0 s 6 p 6 - - 6 ",
"+ + : : - - - - - : - = = + + + O O O O O + # $ , , : : : : : > s d d g C C A F C G I I I / *.*.:.<.<.1.1.g.h.B.J.J.J.P.P.P.P.P.P.P.J.H.(.(.K.J.P.P.(.(.P.P.(.(.P.(.(.(.(.(.(.[.(.P.P.V.P.(.P.(.(.(.`.(.(.`.(.(.(.`.`.`.(.(.(.`.].[.z.J..X].].].].].).).).].|.B.;.~ T T x f f f p @ 0 o.4.=.;.;.3.4.4.6.F.W.F.A.G.G.D.S.y.m.G.G.G.I.jXrX3X3X3X3X3X2X.X X X X{. X.X.X.X X X X X.X.X[.[.{.}.{.[.[.[.{.{.[.{.{.[.{.}.}.[.[.}.{.2X2X.X.X.X.X.X.X.X.X.X2X2X2X2X2X2X2X.XeXeXwXwXE.y.i.q.! R Y T j s p : > g G P U j.Y.).H.h.h.h.h.h.h.h.h.g.g.g.g.h.h.g.g.g.l.g.l.h.B.h.h.h.h.h.l.g.h.h.h.h.g.g.g.,.1.,.:.#./ L K K S J Z J Z S S S S Z G G S S S Z Z G Z Z Z Z Z S S w q P K Z Z Z G S S S G G G C 0 p p + O O + $ : > s g C K &.*.*.) ) ) ) ) ~ ~ ~ ) ) ) ) ~ K K ~ ) ) &.) *.*./ *.*._ / *.:.<.1.g.g.m.m.<.&.I M I.2XH.h.B.h.h.h.m.h.g.g.g.g.1.g.h.g.g.g.g.g.g.g.g.g.m.( l.{.V.h.g.g.g.g.g.g.g.g.g.g.5.5.g.5.5.5.5.f.g.g.g.g.1.5.u.;.~ E ! R x x x x f a i v $ $ v t i p p p s f f f g j j F F F G P O.o.O.P P P G J F C g g g g g g f 0 0 0 0 0 0 s 0 0 6 6 - - 6 ",
": + = : - - - - - - - - = + + + O O O O O + # $ , : : : : : : > s d d C C C A G C Z ~ I / / *.*.:.1.1.5.g.g.h.V.H.J.J.P.P.P.(.(.P.P.P.J.P.(.K.J.P.P.(.(.(.J.(.P.P.(.(.(.P.(.(.`.`.P.P.H.H.(.P.P.P.(.(.(.(.(.(.(.(.(.(.`.`.(.(.(.].[.J.H..X[.).(.].].).).).].].L.-.~ R T j j f f p @ 0 o.p.$.$.;.=.=.4.5.F.~.W.F.F.D.D.G.G.m.G.p.m.A.jXjX3XeX3XeXeX3X.X X X X X X.X.X.X.X X X X.X.X[.[.{..X}.[.[.[.{.{.[.}.{.[.[.}.}.[.[.}..X2X2X.X.X.X.X.X.X.X.X2X2X2X2X2X2X3X2X.XeXeXeXeX|.Z.i.e.! R R T j f p : > g G P U 1.K.).J.h.h.h.h.h.h.h.h.m.g.g.g.h.h.g.g.g.g.g.l.h.B.h.h.h.h.h.h.h.g.h.h.h.g.g.g.g.g.,.,.*./ I K K Z J J Z G G S S S N G G S S S Z Z S Z Z Z Z Z G C 8 J P J Z Z Z S G S G Z G F d s p : + O O + : : > s C Z ~ *.*.*.*.) ) ) ) ) ) ) ) ) ) ) ) L K ~ ) ) &.) *.*.) *.*.) ) *.:.:.,.g.g.m.m.<.=.K M ~. Xv.B.B.h.h.h.m.h.B.m.g.g.g.g.h.B.g.g.g.g.g.g.g.g.m.( h.].h.h.g.g.g.g.g.g.g.h.g.g.g.g.g.5.5.1.5.f.g.g.g.g.5.m.u.;.E ! R T x x x x z a i v v v t : : p s s s f f f j j j F F G P O.o.o.o.P P P G G F F g g g g g g g f 0 s f f 0 s s 0 0 6 6 - 6 ",
": - + - - - - - - - = = = + + + O O O O O + # # , , : : : : : : u d d d C C A G C Z ~ ) &.#.*.:.<.1.1.g.g.h.B.H.J.P.J.P.P.P.(.(.P.(.P.J.J.(.(.J.P.(.(.(.(.P.(.(.P.P.P.P.(.(.(.(._.(.P.P.V.`.P.(.P.(.(.(.(.(.`.`.(.(.(.`.`.(.(.(.(.[.P.h..X[.).).].].].).(.].].E.t.~ E T Y j f f p - 6 X.4.$.$.;.=.3.4.6.F.0XW.F.F.F.D.G.G.y.G.G.G.A.uXlX3XeX3X3XeX3X.X.X X X{. X.X.X.X X X X.X.X}.[.[.{.{.{.[.[.{.{.{.{.{.}.{.{.}.}.[.].}.}.3X3X.X.X.X.X.X2X2X.X2X2X2X3X2X2X3X2X.XeXrX2XrX@XZ.i.e.! R R T T j p t > g F P I <.H.).P.h.h.h.h.h.h.h.h.g.g.g.g.h.h.g.g.g.h.h.g.h.V.h.h.h.h.h.h.h.g.h.h.g.g.g.g.g.g.f.,.:.*.) L K G G G S G Z S Z G N N N N S S S Z G Z S G Z J G q q E J J N Z S S G S K G G F s p p : O O O + : : p d C K &.-.*.*.*.*._ ) ) ) ) ) ) ) ) ) ) K K ) &.&.) ) *.*.*.*.*.) _ *.*.:.,.5.g.m.m.*.;.J m [. XH.h.B.h.h.h.m.h.B.m.g.g.g.g.h.h.g.g.m.g.g.g.g.g.1.( I.).h.h.g.h.g.g.h.g.g.g.g.g.5.m.g.5.5.1.1.f.g.g.g.g.5.m.m.;.~ E R T j x x x z a i v i i t i i p s s f f f f j j j F F G P o.P o.o.P P G J G G F g g g g g g g g f 0 f 0 0 s s 0 6 6 6 - 6 ",
": : + + - : - : - : - - - # + + O O O O O # $ $ : : : : : : : : > s d d C C A G C n ~ ) *.:.:.<.1.1.g.g.h.B.V.H.P.P.P.P.P.(.(.P.P.(.P.P.J.P.(.J.J.(.(.(.(.P.P.(.P.P.(.(.(.(.(.(.).(.P.P.h.(.(.P.P.(.(.(.(.(.(.(.(.(.(.`.(.(.(.(.].[.].h.[.{.).(.].].].).(.].].|.y.&.E T Y j f f p - - P ;.$.$.;.;.3.4.4.F.|.W.I.F.F.G.G.m.y.G.G.F.A.uXlX3X3X3X3X3X3X2X.X X X X X.X.X.X.X X X X.X.X[.[.[..X.X{.[.{.}.{.[.}..X}.{.}.}.[.].[.}.3X3X.X.X2X.X.X2X2X.X2X2XeX2X2X2X2X2X2XwXrXwXrX@XR.y.r.O.R R T x f p p : 0 F P I #.A.).P.z.h.h.B.h.h.h.h.h.g.g.g.h.h.g.g.g.g.h.g.h.V.h.h.h.h.h.h.h.h.h.h.h.g.h.h.g.g.f.,.:.:._ I L K G G K G K G N N G N Z N S S G K G N G G G G C < K P J N N N G S G G K G G j s p p $ O O O + : : 6 g C K *.<.:.:.*.*.*._ ) ) &.) ) ) ) ) ) L K ) *.*.&.&.*.*.*.*.*.) ) *.*.:.,.5.g.B.m.*.&.Z N |.{.z.B.B.h.h.h.m.B.B.g.g.5.g.m.h.h.g.g.g.g.g.g.g.g.:.( ].K.h.m.g.g.h.h.g.g.g.g.g.g.g.m.g.g.g.g.1.f.g.g.g.g.5.g.m.;.~ E E T j T x x z a t v i t t i i p s f f s f f j j l F P G P o.P o.o.P P G G G G F g g g g g g g g g f f f 0 s f 0 6 6 6 - > ",
"> : - X + : : : - - - - + + + + O O O O O # $ $ $ : : : : : : : > s d C C C S S S b ~ &.*.:.<.1.f.g.g.B.B.V.V.H.P.P.J.P.P.P.(.P.(.P.P.P.J.P.(.K.H.P.(.(.(.P.P.(.(.P.(.(.(.(.(.P.).(.P.P.V.P.(.J.P.(.(.(.(.(.`.(.(.(.(.(.(.(.(.(.(.].[.h.)..X).).].].).[.).].].|.D.&.~ T F j f f p - - P 3.;.X.o.;.=.4.4.G.1X~.W.F.F.S.G.m.m.m.G.D.c.rXlXrXeXeX3XeX3X2X.X.X.X X X X.X.X.X.X.X X.X.X{.[.[..X{.[.[.{..X}.{.{.}.{.{.}.}.[.].[..XeX3X.X2X2X.X.X2X2X.X.X2X3X2X2X2X3XeX.XwXrXwXtXyXE.y.r.O.R R T T j f p : 0 F G I @.B.(.P.z.h.h.B.h.h.h.h.h.g.g.g.h.g.h.g.h.g.h.g.h.V.h.h.h.h.h.h.h.h.h.h.h.h.h.h.g.g.g.g.,.:.*./ L L G N G G N N N N G G G N Z Z K S G G G G G G q n ~ K N G G G G K K K K G A d p p p # O O O + : > 0 g Z I <.1.:.:.:.:.*.*.*._ *._ *.) ) ) &.L L ;.*.*.*.*.*.*.*.*.*.) _ *.*.:.1.1.5.m.u.*.;.n B }._.v.z.h.h.h.h.m.h.B.m.g.5.g.B.h.j.g.g.g.g.g.g.g.g./ ( ].J.h.m.g.g.g.g.h.g.g.g.g.g.1.B.g.g.g.g.1.g.g.g.g.g.g.m.Z.;.~ E ! T x T T x f a t $ t $ t i i p p f f s f f j j F F F G E E G o.o.P P P P G F F F g g g g g g g f g f f f f s s 0 s p : > ",
": : : + + + : : - - : - + + + + + O O O O # $ $ $ $ : : : : : : > s d g C C S S Z b L *.:.<.,.g.g.g.h.h.V.V.H.H.P.P.P.P.P.(.(.(.(.(.P.P.J.P.(.P.J.J.(.(.(.(.P.(.(.P.(.(.(.(.(.(.(.(.(.P.H.H.].P.P.P.(.(.(.(.`.(.(.(.(.(.`.(.(.(.(.].[.z.K.2X[.).(.].].[.).].].}.E.*.~ E F j f f p : = F o.$.X.;.;.=.4.6.m.~.0X~.W.F.G.G.m.G.m.G.D.c.uXjXrX3X3X3XeX3X2X.X.X.X.X X X.X.X.X X X X.X.X{.[.{.{.{.{.[.{.}.{.{..X.X{.}.}.}.[.].[..XeXrX.X.X2X.X.X2X2X2X2X2X2XeX2X2X2XeX2X2XrXeXeXtX~.Z.r.q.! R T T j f p : 6 g G P / g.P.(.z.h.h.B.B.h.h.h.h.g.g.g.h.h.h.g.g.h.h.h.h.B.V.h.h.h.h.h.h.h.h.h.h.h.h.h.g.g.g.g.1.,.:.*./ L K N N K J J K N G G G G Z Z K S G K G G G C < K ~ K K K G K K K J K K G A s p p p + + O + # : > 0 C J *.1.1.<.:.:.:.:.*.*.*.*.*.*.*.*.*.*.L L &.*.*.*.*.*.*.*.*.*.) _ *.*.:.,.1.g.m.1.*.;.b B 1X).v.h.h.h.h.h.m.h.g.g.g.g.g.B.h.j.g.g.g.g.g.g.g.5.( :.}.v.h.m.g.h.h.g.g.g.g.g.g.g.g.B.g.g.g.g.g.g.g.g.g.g.g.m.m.-.~ E ! T T T T x z a t $ t v t i i p s s f f f g g j F F F G E E P o.o.P P P G G F F C g g g g g g g f g f f f f s 0 0 p p 6 - ",
"> : : - + + @ : - - - - @ # + + O O O O O # $ $ $ : : : : : : : > 0 d g C Z S S G C J -.<.,.g.g.h.h.h.B.V.H.H.H.P.P.J.P.P.(.(.(.(.(.P.P.P.J.(.P.J.V.(.(.(.(.P.P.(.P.(.(.(.(.(.(.(.].P.P.P.z.].(.P.(.(.(.(.(.(.`.`.(.(.(.(.(.(.(.(.].[.J.v.2X[.].).).).).].[.[.].~.4.~ ! T l f f p : = g o.@.;.;.;.;.=.6.j.W.0X~.W.F.D.G.m.G.G.S.D.A.uXjXrX3X3XeXeXeX2X.X.X.X.X X X.X.X.X.X X.X.X.X{.{.{.{..X.X{.}.}.{.{..X.X{.}.}..X[.[.[..X3XrX.X2X3X2X.X3X3X2X2X2X3XeX2X2X2XeX2X2XrXrXrXtX+XZ.r.e.! R R T j f p : > g F P I 5.P.).H.h.h.B.B.h.h.h.j.m.g.g.h.h.g.g.h.h.h.g.h.V.V.h.h.h.h.h.h.h.h.h.h.h.h.h.g.g.g.g.l.,.<.*._ / L K K K K G G G K K G G G Z G K K G G G G q n o.K K K K K K K K K K G S A s p a i O + O + $ : > s F I <.5.5.,.<.<.:.:.:.*.:.*.*.*.*.*.*.*.L I -.*.*.*.*.:.*.*.*.*.) _ _ *.:.,.1.g.m.<.*.&.b U 1X).z.B.h.h.h.h.B.h.g.g.g.5.g.m.h.B.g.g.g.g.g.g.g.5.U 1.{.v.h.h.g.h.h.g.g.g.g.g.h.g.g.B.g.g.g.g.g.g.g.g.g.g.g.m.Z.-.o.O.E T T T T x f a t $ v v t i p p p s f f f g j j A F G P E E P o.&.P P P G G F F F g g g g g g g g g f f f g g 0 0 s s 6 : ",
"> : : : : + + $ - - : - @ + + + O O O O + # $ $ $ : : : : : : : : > d g C Z S G G Z Z *.<.,.g.h.h.B.V.H.H.H.H.H.P.P.P.P.(.(.P.(.(.(.P.P.P.J.J.K.J.h.P.(.(.(.P.P.(.(.(.(.(.(.(.(.(.).(.P.P.z.(.(.P.P.(.(.(.(.(.`.`.(.(.(.`.`.(.(.(.].[.(.z..X[.).).).).[.[.).[.].|.y.~ E T l f f p : + 0 o.&.;.$.@.;.;.4.G.F.0X|.W.F.S.G.G.G.G.S.G.A.uXjXfXeXeX3XeXeX2X.X.X.X.X X{. X.X.X.X.X.X.X.X.X{.{.{..X.X[.{..X.X.X.X.X.X}.}.}.[.[.[.}.3XrX2X2X3X3X.X3X3X2X2X2X2X3X2X2X2XeX2X.XrXrXrXtXqXD.i.e.O.R R T x f a : > 0 F P I <.H.(.H.h.h.B.h.h.h.h.j.B.g.g.h.g.g.g.h.h.h.h.h.B.V.z.h.h.h.h.h.h.h.h.h.h.h.h.g.g.g.g.g.5.,.:.*./ I L K K K G G G K K K K K J K G K K G G C < P ~ K K K K K K K K K K K S d s p a i + # O # $ : 6 g G ) 1.g.1.,.,.,.,.:.:.:.:.:.:.*.*.*.*.*.L ) -.*.*.*.*.:.*.*.*._ ) _ *.*.:.1.5.g.m.:.*.&.M / 2X).z.h.h.h.h.B.g.g.g.g.g.g.g.B.h.j.m.g.g.m.g.g.g.1.N m.].z.h.h.h.h.h.h.g.g.g.g.g.g.g.B.g.g.g.g.f.g.g.g.g.g.g.g.Z.-.~ ~ ! F T T T x f a t $ v t t i p p p f f f f g j j A F F P P P P o.o.P P P G J F F F j g g g g g g g g g f f f f 0 0 s s 6 6 ",
"> : : : : + + + - : - - = + + + O O O O + + $ $ : : : : : : : : : > s g C Z Z G K G Z *.1.1.g.B.B.B.H.H.J.J.J.J.P.P.P.P.(.(.(.(.(.(.(.K.P.J.J.P.P.h.P.].(.(.P.P.(.(.(.(.(.(.(.(.(.(.(.P.K.H.J.(.P.P.(.(.(.(.(.(.(.(.(.(.`.`.(.(.(.].[.].l.}.{.).].(.].[.[.].[.[.|.D.&.~ T j f f p > = 6 O.;.;.;.X.;.$.=.G.A.|.0X~.F.F.S.S.G.G.F.G.H.jXjXrXrXrXeXeXeX3X2X.X.X.X.X X X X.X X X.X.X X X}.{.}..X{.{.{.}..X{..X.X.X}.}.}.}.[.[.}.2XrX2X2X3X2X2X3X3X2X2X2X2XeX3X2X3XeX2X.XeXrXeXtXyXE.u.e.O.! R T x f a t y s F P I #.H.(.H.h.h.B.h.h.h.h.h.B.h.g.h.h.h.g.g.h.h.h.h.h.H.z.h.h.h.h.h.h.h.h.h.h.B.h.h.h.h.h.g.g.,.,.:.#./ I L K K K K K K K J K K G G Z N K G G q n ) L K K K K K K K K K K T F f s p a : O + O # : > 6 C P *.g.g.5.,.,.1.1.<.:.:.:.:.:.:.:.:.*.-.L ) -.:.*.*.:.:.*.*.*.*.) *._ :.1.1.g.g.m.*.;.o.M %.wX(.z.h.h.h.m.m.h.h.B.g.m.g.g.B.j.h.g.m.g.g.h.g.g.=.N L.(.z.h.h.h.g.g.h.g.g.g.g.g.g.g.B.g.g.g.g.g.g.g.m.m.g.g.g.B.-.~ ! R T T T T j a a t $ t t t i p p p s f f j j j j A F F P P P P P o.E P P G G F F F C g g g g g g g g g g f f f s 0 s s 0 6 ",
": : : : : - + + + - - - = + + + O O O O + @ $ $ : : : : : : : : : > s g C Z Z G G K Z &.5.g.h.B.V.H.H.P.P.P.P.J.P.(.P.P.(.(.(.(.(.(.K.(.P.J.J.J.P.h.H.].(.(.(.P.P.(.P.P.(.(.(.(.(.(.(.P.P.J.z.].P.P.(.(.(.(.(.(.(.(.(.(.`.`.(.(.P.`.].}.h.[..X].].(.`.[.[.].[.[.|.E.*.~ R T j f s t : - P ;.;.$.X.;.$.$.6.F.~.yX|.W.F.S.G.G.S.F.A.Y.jXjXrXeXrXeXeXeX3X2X2X.X.X.X X X X3X.X X.X.X X X}.{.}..X}.}.{.}..X[..X.X.X.X}.}..X[.].{.2XfX3X2X2X3X2X2X2X2X2X2X2X3X3X2X2XeXeX.XeXrXrXtXtXE.u.r.q.! R T x f a y : p j G I @.B.P.J.z.h.B.h.h.B.h.h.B.h.g.h.h.g.g.h.h.h.h.h.h.H.V.h.h.h.h.h.h.h.h.h.h.B.h.h.h.h.h.h.g.g.1.,.:.*./ / I L K K K K K K K K Z G K J S K C 8 P ) L K K K K K K K K K K G A f s f a : O O O $ : > 0 J I <.m.g.g.,.,.,.1.1.:.<.1.1.<.<.<.:.:.-.I &.<.:.:.:.:.:.*.:.*.*.*.*.*.:.1.1.g.m.g.<.&.o.2 1.wXP.v.h.h.m.B.B.m.h.g.g.g.1.g.B.B.g.g.m.g.h.g.j.m./ B E.(.h.h.h.h.g.g.h.g.g.g.g.g.g.m.B.1.g.g.g.g.g.g.m.g.g.g.g.B.-.~ O.R F T T x x p a t v t t t p p p s s f g j j j j F F G P G P P E o.P P P G F F F C C C g g g g g g g g g g f f f s s s s 0 ",
": : : - : : + + + = - - - @ + + + O O O + @ $ $ : : : : : : : : : > s C C Z Z G K K Z I 5.g.A.H.H.J.P.P.P.P.P.P.P.P.P.P.(.(.(.(.(.(.(.(.P.P.J.J.(.z.h.].(.(.(.J.P.(.(.P.P.P.(.(.(.(.].P.J.J.z.`.P.P.(.(.(.P.(.(.(.(.(.(.`.(.(.(.(.(.].}.v.K..X).].(.(.].].].[.].|.|.<.~ ! T j f f p : = F ;.&.;.X.&.;.@.=.F.T.0XyX~.F.S.S.S.D.F.G.P.jXhXrXrXrXeX3X3X3X2X.X2X.X.X X X X3X3X.X.X.X.X.X.X{.}..X.X.X{.{..X}.}..X.X.X.X}.}.}.[.{.2XfX3X2X3X3X2X2X2X2X2X2X2X3XeX3X2X3XeX.XwXeXrXrXtX~.y.r.e.! R R T x f p : 6 g G I I 5.P.J.z.h.B.B.h.h.h.B.h.h.g.g.g.h.h.h.h.h.h.h.h.H.V.z.h.h.h.h.h.h.h.h.h.B.h.h.h.h.h.h.g.g.g.,.,.:.*./ / I L L L K K K K K G K S K K G q n &.I L K K K L K K K K L E T g f p f p $ + O O $ : > s G &.5.B.g.g.g.,.1.1.1.1.1.1.1.1.<.<.,.<.:./ *.<.<.:.:.:.:.:.:.*.*.*.*.*.:.1.1.g.m.1.=.&.~ 2 j.2XP.z.h.h.m.B.B.m.h.h.g.g.1.g.m.B.h.g.g.g.h.h.g.5.B ( ].P.h.h.h.h.h.m.g.g.g.g.g.m.g.m.B.g.g.1.g.g.g.g.g.g.g.g.g.B.-.~ O.R F T R x x p a t v t t y i p p s f f j j j j l F F F P F P P P O.P P P F F F F C F C g g g g g g f g f f f f 0 0 s s s s ",
": : : - : - - + + + @ - - @ + + + O O O + @ $ : : : : : : : : : : > 0 d C Z Z G K K J J 5.h.A.H.H.J.P.P.(.P.P.P.(.(.P.P.(.(.(.(.(.(.(.(.P.P.J.J.P.V.,.(.).(.(.P.P.(.(.(.P.P.(.(.P.P.`.(.J.P.z.P.(.P.P.(.(.P.(.`.(.(.(.(.(.(.(.(.P.(.].[.K.H..X[.].(.(.].].].[.[.].|.m.~ E T j f f p : = g o.;.&.&.X.;.X.@.G.T.1XyX1XW.F.F.S.D.D.G.T.jXhXrXrXrXrX3X3X3X2X2X2X.X.X.X.X X2X3X.X.X.X.X.X.X{.}..X}.}.{.{.}..X.X.X.X.X.X.X}.}.[.[..XrX3X2X2X3X2X2X2X2X2X2X2X3XeXeX2XeX3X2XwXrXrXrXtX+XZ.r.e.! ! R T x f p : > g G P I <.P.P.z.h.B.B.h.h.h.B.h.h.g.g.h.h.h.h.h.h.h.h.h.z.H.V.h.h.B.h.h.h.h.h.h.h.h.h.h.h.h.h.h.g.g.g.,.1.:.*.*./ I I L L K K K K K K S J K Z b P &.L L L K L L L L K L ~ E G j j f f p + + O + $ : > d K *.5.B.g.g.g.x.1.1.1.,.1.1.1.<.<.1.,.1.<./ *.<.<.:.:.<.:.:.:.*.*.*.*.:.<.1.g.g.m.<.=.&.~ 2 A.2XJ.h.h.h.B.m.h.h.h.h.h.g.1.g.g.g.h.g.m.g.h.h.j.#.M #.].J.h.h.h.h.h.m.h.g.g.g.g.g.g.B.m.g.g.g.g.g.g.g.m.m.g.m.m.B.<.o.O.R F T R j x p a v v t t t p p p s f f j j j j j F F F P F P E P P P G G F F F C C F C g g g g g g g g g f f f s s s s 0 0 ",
": : : : : : : + + + + - - $ + + O O O O @ $ $ : : : : : : : > > : > 0 d C Z Z G K K K J 5.B.H.H.P.P.P.(.(.P.P.P.(.`.(.P.(.(.(.(.(.(.(.(.P.P.J.J.J.P.%.L.].(.(.P.P.(.(.P.(.(.P.P.(.P.`.`.J.P.V.H.(.P.P.(.(.(.P.(.(.`.(.(.(.`.(.(.(.P.].[.(.z..X[.].(.(.`.].].].[.].}.L.&.~ T j f f p : + 0 o.o.X.@.X.&.&.U 6.T.Q.yXyX~.F.F.S.D.S.j.P.jXhXrXrXrXrX3X3X3X2X3X3X.X.X.X.X X2X3X2X.X.X2X.X.X}.[..X.X.X.X{..X.X.X.X.X.X.X.X.X}.[.[..XrX3X2X2X3X2X2X2X2X2X2X2XeXeXeX2X3X3X2X.XrXrXrXtX0XS.e.e.~ ! R T x f p t > s F P I *.L.P.z.h.B.B.h.B.h.h.h.h.h.g.h.h.h.h.h.h.h.h.h.z.H.V.h.h.B.B.h.h.h.h.h.h.B.h.h.h.h.h.h.h.h.g.g.1.,.<.*.*.) / / I L L K K K K K G G b m &.@.L L L L L L L L L ~ ~ E G j f f f p O O O $ : : > g P =.m.B.g.g.g.g.g.5.1.1.1.1.5.<.<.1.,.1.<.&.:.<.<.<.<.<.<.<.:.:.*.*.:.:.1.1.5.m.m.<.=.&.K 9 I.2XJ.V.h.h.B.B.h.h.h.g.g.g.g.g.g.g.h.j.m.g.h.g.5.U M 5.|.J.h.h.h.h.m.m.g.g.g.g.g.g.l.B.B.g.g.g.g.g.g.m.m.h.m.g.m.D.t.~ O.R F R R j j p a v v t t y i p p p f f j j j j l F F F P F G E P P P J F F F F F C g g g g g g g g g g g g g f f s f s s s ",
": - - : : - : - + + + + + + + + + O O # $ $ $ $ : : : : : > > > : > 0 d C Z Z G K K K m <.L.H.J.K.P.(.(.(.(.(.(.P.(.(.(.(.(.(.(.(.(.(.(.P.J.P.J.J.P.%.h.[.(.(.P.P.P.(.(.(.(.(.(.(.(.(.`.J.J.J.z.(.P.(.(.(.(.(.(.(.`.(.(.(.(.(.(.P.P.`.[.].z.[.[.].(.(.`.].].[.].].[.|.-.~ E F j f p : + ; o.o.;.;.&.&.;.X.@.F.T.1XiX1XW.F.F.D.D.G.Y.rXhXrXeXrXeXeX3XeX3X2X3X2X.X.X X X2X3X2X.X.X2X.X.X.X}..X.X.X.X.X.X}..X.X.X.X.X.X.X.X[.{..XrXrX2X3X3X2X2X2X2X3X2X2X3XeX3X3X2X2XeXwXeXrXrXtXyXE.t.r.q.! R Y x f s p : s C P P @.B.P.V.h.B.B.B.B.h.h.h.h.h.h.h.h.h.h.h.h.h.h.h.z.H.V.h.h.B.h.h.h.h.h.h.B.B.h.h.h.h.h.h.h.h.h.h.g.1.,.<.:.*.*./ ) / L L K K K K G Z b L =./ I L I I L I I I I ) ~ E F j f f f p O $ # $ : > > g I <.B.h.h.g.g.g.g.g.g.g.1.1.5.<.1.1.1.1.<.*.<.1.,.<.<.1.1.<.<.:.:.:.:.<.1.1.g.m.u.<.*.;.J M ]. XJ.h.h.h.h.h.h.h.g.g.g.g.g.g.g.g.B.g.g.h.g.g.<.U M m.].J.h.h.h.h.m.h.g.g.g.g.g.g.,.B.B.g.g.g.g.g.g.m.m.h.m.B.m.L.y.o.! R F T R x f p a v v t t t p a p s f f j j j j l F F F F g P R P P J J F F F F C A g g g g g g g g g g g g g f s 0 s s s s ",
": : : - : - - - + O + + + + + + + O O # @ $ $ : : : : : : : > > : : > d C Z Z J J P P m *.L.P.K.P.(.(.].(.(.(.(.P.`.(.`.(.(.(.(.(.(.(.(.P.P.J.J.J.P.l.%.}.].(.P.J.(.(.P.P.(.P.P.P.P.(.].P.P.J.h.P.(.P.(.(.(.P.(.`.`.`.(.(.(.(.(.(.P.(.].[.J.(.{.].].(.(.(.].[.[.].].+X4.~ E F j f s i - ; E o.;.$.;.&.;.&.U y.W.Q.yX0X~.F.F.F.F.G.A.rXjXrXrXrXeX3X3X3X3X2X3X2X.X.X.X.X.X2X3X2X.X.X.X.X}.}..X.X.X.X}.}..X.X.X.X.X.X.X.X.X}.[. XfXfX2X2X3X3X2X2X2XeX3X2X2XeXeX2X2X3XeXwXeXrXrXrXtX~.u.r.q.! ! Y T j f p : p g G P / g.P.H.z.h.B.h.h.B.B.h.B.h.g.h.B.h.h.h.h.h.z.h.z.H.V.z.h.V.B.h.h.h.h.B.h.V.h.h.h.h.B.h.h.h.h.h.h.g.1.1.<.:.:.*.*.) / L L K K K K Z m &.=./ / ~ / / I I ) ) ) &.~ E F j x x f : O # O $ : > 0 C ) <.B.B.g.g.g.g.g.g.g.g.g.g.5.,.5.1.1.1.1.:.<.1.1.,.1.1.,.1.<.:.:.:.:.<.1.g.g.m.u.<.*.;.Z N }. XJ.V.B.B.h.h.h.h.h.g.m.g.g.g.g.g.h.g.g.h.h.g.*.J M L.E.H.B.m.h.h.h.B.g.g.g.g.g.g.g.B.g.g.g.g.g.g.g.m.m.m.m.B.m.R.y.o.O.R A T R T j a a v v t t y p p p s f f j j g j j F C F F w G P G G J J F F F F C A C F j j g g g g g g g g g f f f f s s s ",
": : : - : : : : @ + + + + + + + O O # # @ $ : : : : : : : > y y : > > d C Z Z K K P P m / I.P.P.P.(.).].(.(.(.(.P.`.`.`.(.(.(.(.(.(.(.(.(.P.P.J.J.P.B.( `.[.(.(.P.P.(.(.P.(.P.P.(.P.P.`.(.J.P.z.J.`.P.(.(.(.P.P.`.`.(.(.(.(.`.(.(.P.(.].[.J.P.{.`.].(.(.(.].[.].).].@XZ.~ E F j f f p : - P o.X.$.;.;.;.&.U 6.W.T.1XiX|.W.F.F.D.A.A.2XjXrXrXrXrXeXeXeX3X3X3X2X.X.X.X X X2X3X.X.X.X2X.X.X}.}..X.X.X.X.X.X.X.X.X.X.X.X.X.X}.[. XrXgX2X2X3X2X2X3X3XeX3X2X2XeXeX2X2X3XeXwXwXrXrXrXtX+XZ.r.q.! ! R T x f p : 6 g G P I <.P.J.z.h.h.h.B.h.h.B.h.B.g.g.B.h.h.h.h.h.z.h.z.H.H.V.h.V.V.h.h.h.h.V.h.V.h.h.h.h.h.h.h.z.z.h.h.g.g.5.1.<.<.:.*.*./ I I I K K G Z J <.*./ / ) ) ) ) ) ) *.*.-.o.E T j x x f : O $ + $ : > 0 C &.5.B.h.h.g.g.g.g.g.g.g.g.g.5.,.g.1.f.1.1.<.1.1.1.1.1.1.1.1.1.:.:.<.<.1.5.g.g.m.<.<.*.&.b U 1X_.J.h.h.B.h.h.h.h.h.g.g.1.g.g.g.5.g.g.m.h.g.5./ Z B E.E.V.B.m.h.h.h.h.g.g.g.g.g.g.g.B.g.g.g.g.g.g.g.m.g.m.m.m.m.R.Z.o.O.R F T R x f p a $ v t t p p p p s f f j j g j l F F F F w P P G J J J F F F F F A A g j j g g g g g g g g g f s f f s s s ",
"- - - - : : - - : + O + + + O O O O + + $ $ $ : : : : : : : > > > > > d C C Z J K K I J U F.].(.P.).].].).(.(.(.P.(.(.(.(.(.(.(.(.(.(.(.P.P.P.P.J.H.L.( H.{.(.(.P.P.(.(.(.(.(.P.P.P.J.(.(.J.P.H.V.P.P.(.(.(.(.(.(.(.(.(.(.(.(.(.(.(.(.[.[.(.J.{.].].(.(.(.].[.].].].|.D.I E T j j f p : + l o.@.$.$.$.4.;.U $.F.K.[.uX1XW.W.R.D.D.m.[.jXrX3XeXrXeXeXeX3XeX3X2X.X.X.X.X.X.X3X3X.X2X2X.X.X.X.X.X.X.X.X.X.X2X.X.X.X.X.X.X.X.X[. X3XgX3X2X3X3X3X3X3XeX3X2X3X3X3X3X3X3XeXeXwXrXrXrXtXyXR.t.e.! q.R T x f p : 6 f F P I *.D.L.z.z.B.B.B.h.h.B.B.h.h.h.m.B.h.h.h.B.V.h.V.H.H.V.B.V.V.h.h.h.h.H.h.B.h.h.h.h.h.h.h.z.V.V.B.g.g.g.g.5.1.,.<.<.*.) / I ~ L G m / 5.:.*.@./ _ _ _ *.*.-.-.-.O.E T x x h s @ O @ + $ : 6 0 F &.j.V.h.h.g.g.h.g.g.g.g.g.g.1.1.g.g.g.5.1.1.1.1.1.1.1.1.1.1.1.<.<.1.,.1.g.g.g.m.<.<.&.;.M $.2X_.H.h.h.h.h.h.h.h.h.B.g.,.g.g.g.5.g.g.g.g.m.<./ m ( ].(.V.h.B.h.h.h.h.g.g.h.g.g.g.l.B.h.g.g.g.g.g.g.g.g.g.m.m.m.L.Z.&.O.E A T R l f a a $ v t t i p p p p f j j j j j F F F F F q P P G F F F F F F F F F A g g g g g g g g g g f f f s f f s s s ",
"- - - - : : - - - : + O + + O O O O # # $ $ : : : : : : : : > > : > > s C C Z J K L I J B G.].(.(.].].).).).).(.(.(.`.(.(.(.(.`.(.(.(.(.(.(.P.P.H.H.E.%.l.{._.(.P.P.(.(.(.P.P.(.P.P.P.(.(.J.P.H.h.P.(.(.(.(.(.P.(.(.`.`.(.(.(.(.(.(.(.`.[.[.J.[.[.].(.(.(.].[.[.].].}.Q.&.~ R j j j f : + 0 o.@.$.$.$.4.3.X.$.A.P.T.iXyXQ.W.E.R.D.m.P.jXrX3XrXrXeXeXeXeX3X3X3X2X.X.X2X.X X3X3X.X.X.X.X.X}..X.X.X.X.X.X.X2X.X.X.X.X.X.X.X.X[. X3XjX3X3X3XeX3X3X3X3X3X2X3XeXeX3X3X3XeXeX2XrXtXtXtXtXE.t.e.! ! R T x f a i : s F K I @.m.L.V.z.V.V.B.h.h.B.B.h.h.g.h.m.h.h.h.B.V.B.V.H.H.V.V.V.V.h.h.h.z.H.h.B.B.h.h.B.h.h.V.z.V.V.V.h.j.g.g.g.g.5.,.<.<.*.&.@.) ~ Z N <.m.<.*.*.*.*.*.*.:.<.<.<.<.;.E T x x h s @ O + + : t 6 0 G *.m.H.z.h.g.g.h.g.g.g.g.g.g.1.g.g.g.g.g.g.1.1.1.1.1.5.1.1.1.1.1.<.1.1.g.g.g.g.g.<.=.&.o.< 6.2X).H.h.h.B.B.h.h.h.m.m.g.g.g.g.g.5.g.g.g.g.m.<.I M %.].P.z.h.B.h.h.h.h.g.g.g.g.h.g.g.B.g.g.g.g.g.g.g.m.g.g.m.B.m.L.Z.&.O.R A T R l f a a # v t i i p p p s f j j j j j F F F F A 0 P P G F F F F F F F F g g j g g g g g g g g g g f f s f f f s s ",
"- - : - - - : - - : + O O + O O O O $ # $ $ $ : : : : : : > > > : : > 0 d C Z K K L I U B 6.|.).).].].).].).).).(.(.`.].(.(.(.].(.(.(.(.`.P.P.P.J.H.E.,.%.[.).(.(.P.(.(.(.P.P.P.K.P.P.P.P.K.P.P.h.P.(.(.(.(.(.P.(.`.`.(.(.(.(.(.(.(.P.(.].[.K.).[.).).(.(.].[.[.].].|.+X-.~ E j j j f 6 + ; O.@.X.$.=.p.p.X.@.j.T.T.1XpX1X~.W.R.F.A.A.rXhX3XrXrXeXeXeXeX3XeXeX2X.X.X2X.X X2X3X.X.X.X.X.X.X.X.X.X.X.X.X2X2X.X.X.X.X.X.X.X.X}. X2XjX3X2X3XeX3X3X3X3X3X3X2XeX3X3X3X3XeXeX2XeXrXtXtXtX~.u.r.! R ! Y x j f p : s A G P @.5.L.V.z.B.V.B.h.B.h.h.B.h.h.h.m.h.h.h.B.V.V.B.H.H.V.B.B.V.B.B.B.V.H.V.V.h.B.B.h.B.B.V.V.V.H.H.B.B.m.g.g.g.g.5.5.<.<.=.*.&.I Z J u.g.,.<.<.<.:.:.:.1.1.u.u.u.;.E T T x h s + O + @ : : 6 0 G =.m.H.h.h.h.B.h.g.g.g.g.g.g.1.g.g.g.g.g.g.1.1.1.5.g.5.1.5.g.1.1.1.1.1.g.g.m.m.g.1.*.&.~ 2 j.2X(.z.h.h.B.h.h.h.h.h.h.g.g.g.g.5.5.g.g.g.g.m.*.L M 1.].P.z.h.B.m.h.h.h.g.h.h.h.g.g.g.B.h.h.g.g.g.g.g.g.m.m.m.B.m.L.m.~ O.R F T R l f a a $ v t i p p p p s f j j j j A A F F F g 0 P G F F F F F F F F C g g j g g g g g g g g g g f f f s f f s s ",
": : : - - : : - @ @ @ + O + O O O # $ $ $ $ $ : : : : : : > > > 7 : > > g C Z K K I I I B 6.|.[.].{.].].].].).).`.(.].].`.(.].(.(.(.(.P.(.P.P.P.J.H.P.B.' (.[.(.(.P.(.(.(.P.P.P.P.P.P.K.P.P.P.P.h.H.(.P.(.(.(.P.P.(.(.(.(.`.(.`.(.(.P.(.].[.(.(.[.(.).(.(.(.[.].].].].+Xu.I E A j j f p - - P o.;.$.$.6.S.X.X.6.Y.T.~.uXyXQ.W.E.F.A.m.1XjX3XrXrX3XeXrX3X3X3X3X2X.X.X3X.X X X3X3X.X.X.X.X.X.X.X.X.X.X.X2X2X2X.X.X.X.X.X.X.X[.[.2XfX3X3X3XeX3X3X3X3X3X3X2X3XeX3X3X3XrXrXeXwXrXtXrXpX+Xy.r.q.R ! Y T j f p : 6 g G P I <.L.H.z.B.B.V.V.B.B.B.h.h.h.B.B.h.h.h.h.V.V.B.V.H.V.V.V.V.V.V.h.h.H.H.B.B.B.B.B.B.V.V.V.H.H.V.V.B.B.g.m.g.g.g.5.1.<.<.=.&.K Z / B.g.,.1.,.,.1.1.1.m.m.m.Z.Z.;.E T T x h p + $ + @ : 6 6 q P <.B.H.h.h.j.B.h.g.g.g.g.g.g.1.g.g.g.g.g.g.5.1.5.g.g.g.g.g.1.1.1.1.1.5.g.g.m.m.5.<.*.&.K M I.2X(.V.h.h.h.h.h.h.h.g.g.g.g.g.g.5.5.m.g.g.g.u./ J M B.].J.z.h.B.B.h.h.g.g.g.g.h.g.g.g.B.g.g.g.g.g.g.g.m.m.m.m.m.m.L.m.~ ! R A T R x f a i # t t i p p p p s f j j j j A F A F F g 0 R G F F F F F F A A C F g g g g g g g g g g g f f f f s f f f s ",
": : - - : : - @ - - $ + O O O O O # $ $ $ $ : : : : : : : > > > 6 > > > d C Z J K I I @.B $.}.{.{.{.].].].].[.].].].].].].`.].(.(.).(.P.(.P.P.P.K.J.P.L.' H.}.(.(.P.(.(.P.(.P.J.P.P.K.J.P.P.K.P.V.H.(.P.(.(.(.(.P.(.(.(.(.(.`.`.(.(.(.(.].[.(.P.[.(.).(.(.(.].[.].].].@XS.o.~ A j j f p - * F ;.;.;.$.6.S.$.X.6.A.P.T.uXuX|.~.W.R.F.m.~.jXrX3XrX3XrXrXeX3X3X3X2X.X2X3X.X.X.X3X3X2X2X.X.X.X.X2X2X.X.X.X2X2X2X.X2X.X.X.X.X.X}.[..XfX3X3X3X3X3X3X3XeX3X3X3X3XrX3XeX3XrXrXeXeXrXgXtXtXqXZ.t.e.R q.R T x f p : p g F K I *.B.L.B.B.B.V.h.h.h.B.B.h.h.B.B.h.h.h.h.V.V.B.V.H.H.V.V.V.V.B.B.z.H.V.V.B.h.B.V.V.V.V.V.V.H.H.V.B.B.B.h.h.h.g.g.5.1.<.=.&.K Z <.A.h.l.5.g.5.5.g.g.m.B.B.D.Z.;.T T T x f p # $ + @ : 6 6 q P 4.A.H.h.h.g.m.h.h.g.m.g.g.g.g.g.g.g.g.g.g.g.,.g.g.g.g.g.g.g.1.1.1.1.g.g.g.m.m.u.=.@.&.Z M T.2X(.z.V.B.h.m.h.h.h.g.g.g.g.g.g.5.1.m.g.g.m.<./ N M H.].J.z.h.B.h.h.h.g.g.h.g.h.g.f.g.B.h.g.g.g.g.g.g.g.m.m.m.m.m.L.m.~ ! R F T R T f a t v t t i p p p p s f f j j j A A F l F 0 0 R F F F F F F F C C g g g g g g g g g g g g g s f f s s f f s s ",
"- - - : : - @ + - + @ + + O O O O $ $ $ $ $ : : : : : : : > 6 6 6 6 > > 0 C Z J U I I @.U @.|.2X{.{.{.].].].].].].].].].].(.].].(.(.(.(.(.(.J.(.J.J.H.P.( x..X).(.P.(.(.(.(.(.P.P.P.P.K.P.P.J.P.H.h.P.(.(.(.(.(.P.(.`.`.(.(.`.(.(.(.(.(.].[.[.K.].).).(.(.(.`.[.].].].@XE.&.o.G d j f p : + w o.;.;.$.6.S.=.X.6.A.I.T.1XxX0X~.W.W.E.D.A.tXrXrXrXrXrXrXrXeX3X3X3X.X.X3X.X.X.X3X3X3X3X2X.X.X.X2X2X.X.X.X3X2X.X.X2X.X2X.X.X.X}.[..XfX3X3X3X3X3X3X3X3X3X3X2X3XrXeXeXeXrXrXrXeXeXgXtXtXtXE.i.e.! ! R T x f a p p f F K I *.g.L.V.B.B.B.B.B.B.V.B.B.B.B.B.h.h.B.V.V.V.B.V.H.H.H.V.V.V.B.B.z.H.H.H.B.B.V.V.B.V.V.V.V.H.H.V.V.B.B.B.h.h.g.g.g.5.1.<.&.Z B 5.L.h.g.g.g.g.g.g.B.B.L.L.L.D.;.T ! R l f p # $ + - : 6 0 g I 5.B.z.h.h.B.h.h.h.g.g.g.g.g.g.g.g.g.g.g.g.g.,.g.g.g.g.g.g.g.1.1.5.5.g.g.g.g.g.5.*.&.&.Z N {. XJ.V.V.B.m.h.h.h.h.g.f.g.g.g.g.5.5.g.g.g.m.<.I m B P.).J.z.B.B.h.h.h.g.h.h.h.h.g.f.g.h.h.g.g.g.g.g.g.g.g.g.m.m.m.L.m.~ E R F T R T f a i v t t i p p p p s f j j j A A A F F l 0 g P F F F F F F F C g g g g g g g g g g g g g g f f f f s s s s s ",
"- - - = : : , , + + @ + $ + O O O $ $ $ $ $ : : : : : : 6 6 p p 6 6 p 6 6 C Z J U U I @.U ( ].rX}.{.{.].{.{.{.{.[.].].].[.[.].].).).).(.(.(.P.(.P.J.H.P.<.( }._.(.P.(.(.(.(.(.(.P.P.P.P.P.K.P.P.L.h.P.(.K.(.(.P.P.P.`.(.(.(.(.`.`.(.(.(.].].[.(.[.(.].].`.].`.[.[.].].}.~.=.&.E j j j p : + 8 o.o.;.$.6.G.4.U =.A.Y.T.[.xXyX~.W.W.E.D.B.|.jXrXrXrXrXrXrX3XeXeX3X.X.X3X2X.X.X3X3X2X2X3X2X.X.X.X.X2X.X2XeX2X2X2X2X.X2X2X.X.X}.(. XfXrX3X3X3XeX3X3X3X3X3X3X3XrXrX3XeXeXrXrXeXeXtXtXtXpXOXp.e.! R R Y x f f p > s j G P &.5.L.V.B.B.B.V.B.B.B.B.B.h.m.B.h.h.h.B.V.H.V.V.H.H.H.H.H.H.V.B.h.H.H.V.B.B.V.V.V.V.V.V.V.H.H.H.V.V.V.B.B.h.B.m.m.g.,.<.*.Z U B.P.z.h.B.B.h.h.h.B.L.L.E.E.D.;.G q.! l f p # $ $ : > 6 0 C I 5.H.V.h.h.B.h.h.g.m.g.m.m.g.g.g.g.g.g.g.g.g.1.g.g.g.g.g.g.g.g.g.g.g.g.g.j.g.m.<.&.&.o.b U 1X XJ.V.B.B.m.B.h.h.h.g.1.g.g.g.g.1.g.g.g.g.m.*.I M U ].).J.z.h.B.h.h.h.g.g.g.h.g.g.g.h.h.h.g.g.g.g.m.g.g.m.g.m.m.B.L.Z.~ E R A T R T f f i v t t i p p a p p f j j j A A j l l j 6 g P F F F F F F F A C g g g g g g g g g g f g g s f f f s s s s s ",
"- - - = - - , , + + + + @ + O O # $ $ $ $ $ : : : : : t 6 6 p p 6 p p 6 > g J J U U I @.I U I.rX2X{.{.{.{.}.{.{.}.[.].[.[.[.].[.[.[.].].`.(.(.P.P.J.H.P.g.' ].[.(.(.P.P.P.(.P.P.P.P.P.P.P.J.P.P.P.h.J.(.P.(.(.(.(.P.(.`.`.(.(.`.`.(.(.(.(.).[.(.(.].(.].`.`.`.].[.].].].|.<.&.E j f j p : - ; P ;.=.$.=.6.=.U $.G.Y.T.).uXiX1X~.W.E.R.G.I.uXrX3XrXrXrXrXeX3XeX3X2X3XeX3X3X.X3XeX2X2X3X2X.X.X2X.X2X.X2XeX2X2X2X2XeX2X3X.X.X}.]. XfXfX3X3X3XrX3X3X3XeX3X3X3XrXrXeX3X3XrXrXrXeXtXjXuXpXqXZ.r.q.R q.R x j f p > p j G P / <.A.V.B.B.B.V.B.B.B.B.h.h.B.B.h.h.B.B.V.H.V.V.H.L.H.V.V.H.V.V.z.H.H.V.V.B.B.V.V.V.V.H.V.V.H.J.V.V.B.B.B.h.B.B.m.g.5.<.-.Z U L.P.v.z.B.B.V.B.B.H.L.P.E.E.D.e.G O.O.T f t # $ $ : : 6 0 C &.g.H.V.h.h.g.h.h.h.g.g.g.g.1.m.g.g.g.g.g.g.g.1.g.g.g.g.g.g.g.g.g.g.g.g.g.g.m.m.<.&.&.o.b #.2X_.C.B.B.B.m.B.B.h.h.g.g.g.g.g.g.g.g.g.g.g.5.) I M *.[.(.v.z.B.B.h.h.h.g.h.h.h.g.g.g.h.h.h.g.g.g.g.g.g.g.m.g.m.g.m.L.Z.~ E R F T R l f a t v t t i i p p p s f f j j j j j j j j > j G F F F F C F g g C g g g g g g g g g g f f f s f f f s s s s s ",
"- - - : - - + + + + + + + # O O $ $ $ $ $ $ : : : : : y p p p p p p 0 6 6 s C J U U I @.@.B A.uX4X{.}.}.}.}.{.{.{.].].[.}.].[.[.[.].].].(.(.P.P.P.P.v.K.H.' H. X(.P.(.(.P.(.(.J.(.P.P.P.J.J.J.J.P.h.J.(.P.P.P.P.(.P.(.`.`.`.(.(.(.(.(.(.(._.[.).(.].).].`.(.`.`.[.].].].|.m.) ~ A d j f 6 - = F o.;.$.=.4.4.U &.j.A.K.T.4XpXqX~.~.W.E.S.G.yXuX3XrXrXrXrXrXrXrXeX3X3XeX2X3X3X.XeX3X2X3X.X.X.X2X3X2X2X2X3X2X2X2X2X2X2X2X.X.X}.(.[.fXhX3X3X3XeX3X3XeXeXeX3X3XrXrXeX3XrXrXrXrXrXrXjXtXpXyXR.i.q.R ! R T x f p : 6 f F T ~ <.B.L.V.B.V.V.B.B.B.V.h.h.B.B.B.h.h.B.V.H.V.V.H.P.H.H.H.H.V.V.V.H.L.V.V.B.V.V.V.V.V.V.V.V.J.H.V.V.V.B.V.B.B.B.m.m.g.1.-.N @.P.].J.H.H.H.H.H.H.H.P.E.E.~.E.r.G E O.l f 7 O $ $ : > 6 0 n &.j.H.B.h.h.h.h.h.h.g.h.g.g.1.m.g.g.g.g.g.g.g.1.g.g.g.g.g.g.g.g.1.g.m.g.g.h.m.m.*.&.&.~ M 6.rX_.z.B.B.h.h.m.m.g.g.g.g.m.g.g.g.g.g.g.g.g.<.~ P M 5.{.(.H.z.B.h.h.h.h.g.g.h.m.g.g.g.h.h.g.g.g.g.g.g.g.m.m.m.m.g.m.L.Z.~ E R A F Y x a a v t t t i p p p p p f f j j j j A j j g > F G F F C C C C g g g g g g g g g g g g g g g g f s s s f s s s s ",
"- @ - - - - + + + + + + + + + + $ $ : $ $ $ $ : : : : t p 6 p p p p s s 6 0 C J J U I @.@.B l.uXrX1X1X1X}.}.{.{.{.{.{.[.}.}.}.{.[.[.].].(.(.P.P.E.P.K.J.L.' l..X(.P.P.(.P.(.(.P.P.P.P.P.J.P.J.J.P.z.H.(.P.P.P.P.(.(.(.(.`.`.(.(.(.(.(.(.(._._.[.(.[.).].].(.`.`.].].].].|.E.&.O.G d j f p : X f o.$.=.$.4.4.U @.j.A.T.).4XxXiXQ.Q.~.E.R.p.~.jXfXrXrXrXrXrXrXrXrX3X3XeX2X3X3X3XeX3X2X3X3X.X.X2X2X2X2X2X3X2X3X2X2X2X2X2X.X.X}.].(.fXlX3X3XrXeX3X3XeXeXeXeXeXeXrXrX3XeXrXrXrXeXrXgXtXtXtXE.i.e.R R R T x f p : 6 s j G ~ *.m.L.V.B.V.B.V.B.B.B.V.h.h.B.B.h.h.V.V.H.V.H.H.P.P.H.H.H.V.V.V.H.L.H.V.V.V.V.H.V.H.V.H.V.J.J.H.V.V.B.C.B.B.B.m.m.g.1.-.N #.~.].J.H.L.L.L.H.J.P.P.E.|.~.E.r.K G R T f : O : $ : > 6 0 C &.j.H.B.h.h.h.h.h.h.g.h.m.g.g.m.g.g.g.g.g.g.g.1.g.g.g.g.g.g.g.1.g.g.m.m.m.g.g.m.*.&.;.E M j.rX).h.B.h.h.B.B.B.m.g.g.g.g.g.g.g.g.g.g.g.B.<.&.K M B.}.(.V.h.B.h.h.B.h.h.h.h.h.g.g.g.h.m.g.g.g.g.g.g.g.g.m.h.h.g.m.L.Z.~ E R A F T x a a v t t t i p p p p p s f j j j j j j j f > F F F g g g g C g g g g g g g g g g g g f f f f s s s f s s s s s ",
"+ = - + + + + + + + + + + + # # $ t t : $ $ $ : : : : : 6 p p p p s s s s 0 C J U I / @.@.U 6.tXuXyX1X1X{.1X1X}.}.{.{.{.}.}.}.}.[.[.[.].P.P.L.B.E.P.J.H.P.%.$.}.[.(.(.(.(.(.(.P.(.P.P.P.P.P.J.J.J.V.z.P.P.P.(.(.(.(.(.(.(.(.].(.(.(.(.(.(._.).[.(.(.(.(.`.`.(.`.(.].].].|.E.-.O.T j j j p : + 6 O.;.$.$.4.4.U @.j.A.K.T.1XpXuX1X~.~.~.^.G.A.yXgXrXrXrXrXrXrXrXrXeX3XeX3X3XeX3XeXeX3X3X3X2X2X2X2X2X2X2XeX3X2X2XwX2X2X2X.X.X}.[.J.3XzXfX3X3XeXeX3X3XeXeXeX3XwXrXrXeXeXrXrXrXeXrXgXjXtXpX~.u.e.R R R T x f a : > p g G P @.5.L.V.h.V.V.B.B.B.B.B.h.B.B.B.h.h.V.V.H.H.H.H.J.P.H.H.H.H.H.V.H.L.L.H.V.V.H.V.V.V.H.H.H.C.J.J.H.V.V.B.B.B.B.m.B.m.5.<.N <.].].P.P.L.P.P.P.P.P.P.E.].|.E.t.o.G T x f : + $ @ : > 6 0 Z *.B.H.B.h.h.h.h.h.g.g.g.g.g.g.m.g.g.g.g.g.g.g.1.g.g.g.g.g.g.g.g.g.g.g.m.g.g.m.m.*.&.;.K M B.3X).h.h.h.h.B.m.m.g.g.g.g.g.g.g.m.g.g.g.m.m.*.o.J M E..X(.z.h.h.h.h.h.h.g.h.B.h.g.g.g.h.m.g.h.g.g.g.g.g.g.m.m.m.m.m.D.y.~ E R A j T x a a v t t i i p p p p p p f g j j j j j j s > F F g w g g g g g g g g g g g g g g g g g f s s s s s s s s s s s ",
"+ + + + + + + + + + + + + + + $ $ v i t $ $ : t : : : : 6 6 p p s f g g f 0 w J U I / @.@.U $.yXuXrXrXrX2X2X1X1X1X}.}.}.}..X}.}.}.[.].].~.L.m.5.j.P.P.H.L.1.' ].[.(.(.(.(.P.(.P.P.P.(.P.P.P.J.H.H.h.h.P.P.P.K.K.(.(.P.(.(.(.(.(.(.(.(.(.K.(.].].].(.(.`.`.(.`.(.(.].].`.|.~.t.o.E j j j p : + - P o.;.$.6.6.X.@.6.A.Y._.{.uXuX1X~.~.~.E.F.m.].jXrXrXrXrXrXrXrXrXrX3XeX3X3XeXeX3XeX3X3X3X2X.X2X3X2X2X3XeX3X3XeX2X2X2X2X.X{..X[.H. XzXfX3XrXeXrX3X3XeXeXeX2XwXrXrXeXeXrXrXrXrXrXtXjXjXxX+Xy.e.! R R T x z p : : p g F K / <.L.H.h.V.V.B.B.B.B.B.h.B.B.B.B.h.V.V.H.H.H.H.P.P.H.H.H.H.H.V.H.H.H.H.H.V.H.H.H.H.H.P.H.V.J.J.H.H.V.B.V.B.B.B.B.g.5.<.J <.}.[.P.P.P.P.P.P.P.P.(.].|.|.~.t.O.R T x f : $ @ @ - 6 p 0 Z =.B.H.B.h.h.h.h.h.h.g.h.g.1.g.m.g.g.g.g.g.g.g.g.g.g.g.g.g.g.g.g.g.h.g.g.g.g.m.u.*.&.;.J M I.2XP.h.B.h.h.B.m.g.g.g.g.g.g.g.g.m.g.g.g.g.g.*.o.n N ].}.J.z.B.B.h.h.h.h.h.h.h.g.g.g.g.h.m.h.h.g.g.g.g.g.g.m.m.m.m.B.D.y.~ E R A j x x a a $ t t i i p p p p p s s f j j j j j j 0 6 F F g g g g g g g g g g g g g g g g g f f s s s s s s p 6 p p p p ",
"+ + + + + + + + + + + + + + $ : $ v i t $ $ $ : : : : 6 6 6 p s f g g g g 0 0 J U I @.@.$.U @.~.{.rXuXuXjXrXyXyX2X1X}.}.}.}.}.}.{.{.{.].~.D.y.4.<.D.I.H.H.j.' I.}.(.(.P.(.(.P.P.P.P.P.P.P.P.J.H.V.h.j.L.L.P.P.K.(.P.P.(.(.(.(.(.(.`.(.(.(.(.[.].[.(.(.`.`.(.`.`.].].].].].|.m.&.~ A g j s 6 - = H o.;.=.6.4.$.#.6.Y.K.T._.rXxX1X~.~.~.W.R.G.D.tXjXrXrXrXfXfXfXfXfX3XrX3X3XeXeXeXeX3X3X3X2X.X2X3X3X2X2X3X3X3XwX2X2X3X2X2X.X.X}.H.[.cXjXrXrXeXeXeXeXeXeXeXeXwXrXeXeXeXrXrXrXrXrXtXjXjXxXqXZ.e.! R R T x f a : : p s A G ~ *.B.H.h.V.V.B.B.B.V.V.B.B.B.B.V.h.V.V.P.P.H.J.P.P.J.H.H.H.H.H.H.P.H.P.H.V.H.H.H.V.H.L.H.J.P.J.H.H.L.V.V.V.B.B.B.g.5.<.B 6.1X{.(.P.P.P.P.P.P.(.].].].|.~.y.;.T x f f 7 7 c l l : p s J =.B.H.h.h.h.h.h.g.h.g.h.g.g.g.g.g.g.g.g.g.g.1.1.g.g.g.1.g.g.g.g.g.g.g.m.g.m.m.u.*.&.&.Z M P.3XJ.B.B.h.h.h.m.B.g.g.g.g.g.g.m.m.m.g.g.m.5.&.~ M U }.{.J.z.h.B.B.m.h.h.h.h.g.g.g.g.g.h.m.h.g.g.g.g.g.g.g.m.m.m.m.B.D.y.o.E R A j x z a a $ t t i i p p p p p p s s g j j j j g > 0 l g g g g g g g g g g g g g g f g g f f s s s p p s s p p p p p p ",
"+ + + + + + + + + + + + + t i i i v t t $ $ $ : : : y > 6 6 p f g g F F g 0 8 F U U @.@.$.( ( m.H.P.1XuXxXjXxXxXuXyXyX1X1X2X}.}.}.}.[.].W.F.y.3.&.4.I.L.H.A.' B..X(.(.(.(.(.(.P.(.(.P.P.P.P.H.V.h.g.g.B.L.L.P.P.P.P.P.P.(.(.).(.(.(.(.`.(.(.].].[.].(.].`.`.`.`.`.`.].].].|.R.*.O.G g j f 6 : X w o.;.$.=.6.6.6.6.A.Y.K._.4XvXyX1X~.~.W.R.S.m.+XjXrXfXfXfXfXfXfXfXfXrXeXeXeXeXeXeXeX3X3X3X2X3X3X2X2X3XrX3X3XeXwXeX3X2X2X.X.X.XH.).zXlX3XrXeXeXeXeXeXeXeXeX2XeXrXrXeXrXrXrXrXeXrXjXtXxXyXR.i.O.R R Y x f a : : p p j G E &.m.L.B.h.V.B.B.B.V.V.B.B.B.V.B.h.V.V.P.J.J.J.J.P.P.J.H.J.H.J.H.H.P.P.P.H.L.H.L.H.L.P.P.J.J.J.H.H.H.V.B.B.B.B.B.m.5.4.B 1.wX{.(.(.P.(.(.P.P.].].].|.|.|.S.e.R j f p 7 3 l +.6 : p s J <.A.A.h.h.h.h.h.h.g.g.h.g.g.g.m.g.g.g.g.g.g.g.g.g.m.g.1.g.g.g.g.g.h.g.g.g.m.m.5.&.&.&.n B ]..XJ.B.h.h.h.h.g.m.g.g.m.m.m.g.m.m.m.g.g.m.1.&.~ M #.2X[.J.V.h.h.m.B.h.g.g.g.g.g.g.g.g.h.h.h.h.g.g.m.m.g.g.m.m.m.m.B.D.Z.~ E T j j x f a t $ t t i i i p p p p p p s s g g g j f > s l g f f f g g g g g g g g g g f f f f s s s p p p p 6 6 6 p p p p ",
"+ + + + + + + + + + + # : i i i i t i i t $ $ : t : : 6 6 6 s f g F G F g g 8 w J U U @.@.#.U 5.A.c.Y.).2XjXxXxXxXxXxXuXyXwX1X1X}.}.}.].I.D.y.-.X.&.B.L.H.A.( ,..X(.(.(.P.(.(.P.(.P.P.P.P.J.V.h.j.5.<.<.m.L.L.P.P.P.P.(.`.(.(.(.(.(.(.`.(.(.].[.].].(.].[.(.`.`.`.(.].].].].E.-.O.T g f f p : + 0 o.&.$.=.6.6.j.j.Y.Y.T._.1XxXiX1X|.~.W.W.R.y.D.uXhXfXfXfXfXfXfXfXfXeXrXeXeXeXeX3XeX3X3X3X.X3XeX2X3X3XrX3X3XwX2XeX2X2X2X.X.X.XJ.(.lXlX3XrXeXeXeXeXeXeXeXeXeXrXrXrXrXeXrXrXrXrXrXjXuXuXpXE.i.q.R R T x f a : : p p f F E ~ <.L.H.B.B.B.B.B.B.V.B.h.B.V.V.h.V.V.H.P.H.J.J.P.P.J.J.J.P.J.H.P.P.P.P.L.L.P.L.L.P.P.P.J.J.P.P.H.H.H.B.H.L.B.B.B.5.<.J 1.wX.X(.(.(.(.(.(.).].].].}.|.|.R.r.R f a p 7 r } 7 - 6 p d J <.A.B.h.h.h.h.g.g.g.g.h.g.g.g.g.g.g.g.g.g.g.g.g.g.g.g.g.g.g.g.g.g.h.g.g.g.g.B.<.*.&.o.n U {. XH.B.B.h.h.m.m.m.g.m.g.g.g.g.B.B.m.g.g.m.<.;.E 8 ,.2X].H.V.h.B.B.B.h.g.g.g.g.g.g.g.f.B.h.g.g.g.g.g.g.g.g.m.h.m.m.m.D.y.o.E F j j x f a t v t t t t i p p p p p p s s f f f f s > f f f s s f f f f f s s s f f s s s s s s 6 p p p 6 6 6 6 6 6 6 p p ",
"+ + + + + + + + + + $ i i i i i i t t i t $ $ : : : : > 6 s f j F P P G F F 0 q J I I @.@.=.U <.h.l.H.H.Y.).yXxXxXxXxXxXxXxXuXyX}.}.[.~.F.S.t.;.X.P <.L.A.H.<.( [.[.(.(.(.(.(.P.(.(.P.P.P.H.V.h.g.5.=.U ( 1.B.H.P.P.P.P.(.(.(.(.(.(.(.`.(.P.`.].].[.(.(.[.(.(.`.`.(.].].].].~.t.O.E g f f p : + 8 X.X.@.$.=.6.j.c.A.Y.K.).1XxXuX1X1X|.~.W.R.S.y.[.jXfXfXfXfXfXfXfXfXfXfXeXeXeXeXeX3X3X3X3X3X3X3X2X3X3XrX3XeXeXwXeX2X2X2X2X.X.XP.J.jXlXrXrXeXeXeXeXeXrXrXeXeXrXrXrXrXeXrXtXrXrXrXtXjXjXpXQ.i.O.! R T x f a : t i p p j T ~ &.D.H.B.B.V.B.V.V.V.B.B.B.V.V.B.V.H.J.P.J.J.P.(.P.J.J.P.P.J.H.J.J.J.P.P.L.P.P.L.L.P.P.J.J.P.P.L.H.L.V.L.V.B.B.B.g.u.J 1.rX.X).(.(.`.`.].].].].[.].|.}.E.t.! f p 7 c +.+.7 7 6 s d J 5.A.B.h.h.h.h.h.g.g.g.g.g.g.g.m.g.g.g.g.g.g.f.g.g.g.1.g.g.g.g.g.g.g.g.g.g.g.m.<.&.&.~ b #.2X[.V.B.h.h.h.h.m.m.g.m.m.g.m.m.B.g.g.m.m.m.<.&.P M m..X).H.V.B.B.h.h.g.g.g.g.g.g.g.g.g.B.h.g.g.g.g.g.g.g.g.m.m.m.m.B.D.y.~ R g j j x f a t v t t t t i i p p p p p s s s s s s s > s s s s s s f f f 0 s s f f s 0 s s s s 0 6 > 6 6 > 6 6 6 6 > > 6 6 ",
"+ + O + + + . + @ : i i p i i i i t t t i $ $ : : t t 6 p s g F G P P G G P F 8 J P X.@.#.$.( / j.l.h.H.H.H.Y.[.uXxXxXxXxXvXvXpX1X}.[.E.D.y.t.;.P G &.S.A.H.5.( P.[.(.(.(.(.(.(.P.P.P.P.P.H.B.h.g.,.:.I U U <.m.H.P.P.J.(.(.(.(.(.`.(.(.`.P.`.[.].[.).(.].(.(.(.(.(.].[.).].|.m.&.E A j j s : @ * P X.@.$.=.6.j.j.A.Y.K.).[.lXpXyX0X0X~.W.R.R.y.G.uXjXhXfXgXjXrXhXfXfXfXrXrXeXeXeXeX3X3X3X3XeX3X3X3X3XrXrX3XeX3XeXeX2X3X2X.X.XP.H.tXzXrXrXrXrXrXeXeXeXrXrXeXeXrXrXeXeXrXrXrXrXrXfXjXpXpXOXi.e.! R T x f p $ t i p p s F E I u.L.z.V.V.V.B.B.B.B.B.B.B.B.B.V.V.J.(.J.J.P.P.P.P.P.P.P.P.P.P.P.P.P.P.L.P.P.P.H.P.P.P.P.P.P.P.L.L.L.L.L.B.C.B.m.u.U g.tX2X).).].(.(.].].].].}.[.|.}.Q.t.! f p 7 l +.+.7 : p s d L 5.A.B.h.h.h.h.g.g.g.g.g.g.g.g.g.g.g.g.g.g.g.1.g.m.g.1.g.g.g.g.g.g.g.g.g.g.m.m.<.*.&.~ b <.2X).V.B.B.h.m.m.h.h.m.m.h.g.m.B.B.g.g.g.g.g.=.&.G M L..X(.z.V.B.h.h.h.g.g.g.5.1.,.5.5.g.h.h.g.g.g.g.g.g.h.g.m.m.m.h.B.D.t.~ A g T x x f a v v t t t t i i i i p p p p p s s s f f s s 0 6 0 s s s s s s 0 s s 0 6 6 s s 6 6 6 6 6 6 6 > 6 p y y p : 7 7 ",
"O O . O + @ : : i p p a p p p p i t t i i $ $ : : i 7 p p s g F R E P P P O.P 8 F P I @.#.$.#.U g.g.l.h.v.H.H.H.P.|.uXxXuXuXuXuXyX1X|.E.S.t.3.o.P J K u.A.A.m.U V..X(.(.(.P.(.(.P.P.P.J.P.H.V.B.5.=.&.&.I U U <.A.L.P.P.(.(.(.(.(.(.(.(.(.(.`.[.].[.[.(.(.(.(.(.`.`.(.[.).].|.D.&.~ F j g f 6 $ * F X.X.@.$.5.j.j.A.Y.T.)._.lXvXyX0X0X!.W.^.R.S.y.~.xXhXfXfXhXhXhXfXfXfXfXrXeXeXeXeX3X3X3XeXeXeXeXeX3XrX3X3XeX3XwXeX2X2X.X.XwXP.z.eXzXrXrXrXrXrXeXeXeXrXrXeXeXrXrXrXrXrXrXrXrXrXrXjXxXpX+Xu.e.! R T j f p $ t p p p s g T ~ =.L.H.V.H.V.V.V.V.H.B.B.B.V.V.V.H.P.`.P.P.P.P.(.P.P.P.P.P.P.P.P.P.P.P.P.P.P.P.P.P.P.P.P.P.P.P.P.P.L.H.L.C.L.B.m.u.U j.tX1X).).].].].].].].].}.}.}.}.~.u.! f i 7 +.+.7 - > p s g I m.H.h.h.h.h.h.g.g.g.g.g.g.g.m.g.g.g.g.g.g.g.1.g.g.g.1.g.g.g.g.g.g.g.g.g.g.g.m.=.&.@.P b 5.2X(.B.B.B.h.m.m.h.h.h.m.m.g.m.B.B.g.g.g.g.g.*.&.J m ~..X(.V.V.B.h.h.g.g.g.5.<.*.*.<.1.g.h.g.g.g.g.g.g.g.h.m.m.m.m.m.m.D.-.P d F x x z a i v v t t t t i i i i p p p p p p p s s f s 0 6 6 6 6 p s 6 6 6 6 6 p 6 > 6 6 6 6 > > > 6 : : 7 > > > p : : : 7 ",
". + @ $ : 7 7 i p a p a a a p p i t t t p : $ : : : 6 6 6 g F G O.O.P X.O.O.O.w n P I @.#.$.=.U ,.j.1.l.h.v.v.v.H.H.P.}.yXuXuXiXpX0X~.D.p.t.;.o.P C Z =.A.A.B.( ,.}.(.(.(.P.(.(.(.P.P.P.P.H.H.H.6.$.@.X.X.I U ( 5.L.P.(.(.(.(.(.`.(.(.(.`.(.(.[.].[.[.(.].].(.(.`.].`.].).].|.E.-.o.R g g f p : X w o.X.@.@.6.j.l.A.Y.).)._.lXbXiX0X0X0X~.W.R.R.m.m.tXjXjXjXhXhXlXhXfXfXfXrXrXeXeXeXeX3X3X3XeXeXeXeXeXrXrX3XeX3XeXwX2X2X2X.XwX(.h.wXzXfXrXrXrXrXeXeXrXrXrXeXeXrXrXrXrXrXrXtXrXrXrXgXuXxX+Xu.e.! R T j f y $ t p a a f j j K &.D.L.l.B.H.B.V.H.V.B.B.V.V.V.V.H.H.(.P.P.P.P.`.P.P.P.P.P.P.P.P.P.`.P.P.P.P.P.P.P.P.P.P.P.P.P.L.P.L.L.L.L.C.B.m.u.U j.uX{.).[.[.].].].].].].}.}.}.}.|.Z.O.j p l l 5 o - > p s C I m.L.B.g.g.h.g.g.g.g.g.g.g.g.g.g.g.g.g.g.g.g.,.g.g.1.g.g.g.g.g.g.g.g.g.h.g.g.m.=.&.&.K b A.2XK.B.B.m.m.m.h.h.h.m.B.m.g.B.B.g.g.g.g.g.5.&.&.n J |. X(.H.V.B.B.g.g.u.5.=.I K J &.1.g.B.g.g.g.g.g.g.m.h.g.m.m.g.m.m.Z.;.G C R j x f a i t t t t i t t i i t i p p p p p p p s f 6 6 6 6 > 6 p p p p > 6 6 6 6 > > > p 6 > > > : > > 6 : : : : : : : : ",
": : 7 i p p p p f f s f f f p p p i t t i t $ : : i p p s l F P O.O.X.o.o.O.X.F n P U @.#.#.<.#.#.j.1.l.l.h.h.h.z.H.c.c.H.|.yXyXyX0XE.p.t.;.o.P F C C X.G.A.B.%.( [.).(.(.(.(.(.P.P.P.P.J.P.H.P.B.<.U I I I / L <.H.P.P.(.(.(.(.`.(.(.(.`.(.P.`.[.].[.).`.].`.`.(.].].(.).].|.E.u.o.R j j j p : + 0 o.X.@.U <.5.l.H.K.K.)._.lXbXpXyX0X0X~.W.W.R.S.6.~.xXjXjXhXlXjXfXfXfXfXrXeXrXrXeXeXeXeX3X3XeXeXeXrXfXrX3XeXeXeX2X2X2X2X.X2X[.h.2XzXfXrXrXrXrXrXeXeXrXrXrXeXrXrXrXrX3XrXgXrXrXrXgXuXpXqXZ.e.! R x f a t : i i a a f j j G P y.E.B.B.H.V.V.H.V.B.B.V.V.V.V.H.J.(.(.P.P.(.`.P.P.P.(.(.P.(.P.P.(.E.P.P.P.P.P.P.P.P.P.(.P.P.P.P.L.L.L.L.H.A.B.u.U B.tX{.).[.[.[.[.[.].].[.}.}.}.}.|.Z.O.j f l 7 e 6 - > p s C / m.H.h.g.g.g.g.g.g.g.g.g.g.g.g.g.g.g.g.1.1.g.,.g.1.1.g.g.g.g.g.g.g.g.g.h.m.m.u.*.&.&.J n I.2XJ.B.h.m.m.h.h.h.h.h.B.h.g.B.B.g.g.g.g.m.<.&.o.m U }.[.J.H.V.B.h.g.m.5.@.J J g q J <.g.B.h.g.g.g.g.m.g.B.g.m.m.g.B.B.t.E g G T f x z a t i i i i a a p p i i i i p i p 6 6 6 p p 6 : > : : 6 p p 6 > > > > > : : : : p 6 > : : : : : : : : : : : : : : ",
"p p p p p s s s f f f f f f f f p p : t i t $ $ : : 6 6 f F P P O.o.X.o.o.X.O.J w J U @.#.$.<.$.@.6.1.l.l.l.h.h.h.h.h.h.j.j.A.~.~.R.S.t.;.o.E G C g q P m.A.A.5.( E.[.(.(.P.(.(.(.P.P.P.J.P.P.P.E.m./ L K ~ ~ I #.B.P.P.P.P.`.`.`.(.(.`.(.(.(.`.].].].[.`.].`.(.(.`.].`.[.).].E.m.;.E A g j p : + ; E I X.@.6.1.6.A.K.).).).lXJXuXyXqXyX~.!.W.^.R.S.m.tXxXjXhXlXjXfXfXfXfXrXeXrXfXfXeXeX3X3X3X3XeX3XeXfXrXeXeX3XeX3X3X2X2X2X.X[.h.{.zXhXrXrXrXrXrXrXeXrXrXrXeXrXrXrXrXrXrXtXtXtXrXtXjXpXyXZ.r.! R x f a t t p p a a f f j T P &.m.D.D.D.L.H.H.H.H.B.V.H.B.H.H.H.(.].P.P.P.`.(.`.P.(.(.(.(.(.(.(.`.P.P.P.P.P.P.P.P.P.`.P.P.P.P.P.L.L.L.L.H.m.5.B L.jX{.[.[.].].[.[.].].{.}.}.}.}.}.S.O.f f e l l 6 = > p g C @.m.H.h.g.g.g.g.g.g.g.g.g.g.g.m.g.g.g.g.1.1.g.,.1.1.1.g.g.g.g.g.g.g.g.g.g.g.m.5.*.&.&.Z m ~. XJ.B.h.h.h.h.h.h.g.m.B.h.g.B.m.g.g.g.g.u.<.&.o.m #.}._.J.V.V.B.h.g.5.@.J o.O.O.n b :.m.B.j.g.g.g.g.g.m.B.m.m.m.m.m.S.-.J g R l f x z a t i i i i a a a a a a a a a p p p : : p > > : : : : 6 6 6 6 : : : : : : : : : > 6 6 : : : : : : : : : : : : : t ",
"f f f f f f f f f f g l F F l j f p t $ i i # $ : : 6 6 g F P o.o.X.o.;.;.X.o.P w J P I @.$.$.<.@.<.j.1.l.l.g.g.h.l.j.j.g.1.5.1.<.=.4.-.o.P G F g g 0 J y.G.B.m.U B.}.(.(.P.(.(.P.P.P.P.P.P.(.(.(.].6.X.B B B X.@.l.P.P.P.P.`.`.`.(.(.`.(.(.(.(.).).[.].].`.`.`.(.].`.`.].].].~.D.-.O.F g f f : + - P X.X.=.6.6.6.A.K.).).).uXJXpXqXyXqX1X~.W.W.R.D.m.~.xXjXlXlXjXfXfXfXrXfXfXfXfXrXeXeX3XeX3XeXeXeXrXfXrXeXeXeXeX3X2X3X2X2X.X}.h.[.zXlXeXrXrXrXrXeXrXrXrXrXeXrXrXrXrXrXrXtXtXtXrXrXuXuXaXZ.r.! R j f p v t p p a a f f j T R o.=.<.5.Z.D.D.D.L.L.B.V.H.B.H.H.H.(.].(.P.P.`.`.(.(.(.(.(.(.`.(.(.`.`.P.P.P.P.P.E.(.P.(.P.P.P.P.P.L.L.L.L.H.B.5.U P.jX{.[.[.].].].[.[.[.{.}.}.{.}.1XR.~ g f l l s - : : p 0 F @.A.H.h.g.g.g.g.g.g.g.g.g.g.g.m.g.g.g.f.g.g.g.,.1.1.g.g.g.g.g.g.g.m.g.g.g.g.m.<.*.&.&.Z B |.{.J.h.h.h.h.h.h.h.h.m.m.g.g.B.B.g.g.m.m.u.*.&.o.M <.wX(.J.H.V.B.h.j.5.U U ;.O.o.J B 1.B.h.j.B.g.g.g.m.B.B.m.m.m.m.B.y.o.C T T j f z z a t i i a a a a a a a a a a a a a a p p p 6 6 > : - - > > : > : : : : : : : : : : 6 6 : : : : - : : : : @ - : : : ",
"f f g g g g F F F P X.o.o.O.O.R x f t $ i t # $ : : > s l G P o.o.o.;.;.;.o.o.O.F C P I @.$.$.$.$.#.j.l.l.l.g.g.l.l.l.g.1.1.1.,.<.*.&.&.~ G F g d g d C 4.G.m.j.@.,.}.(.(.P.(.(.(.(.P.P.P.P.(.(.(.{.1XT.c.7.c.Q.0X}.(.(.(.P.(.(.(.`.(.(.(.(.(.(.[.).).[.].(.].(.(.(.`.(.).].].].L.4.O.R g g f 6 @ * F X.X.=.6.6.6.c.K.).).).rXJXpXiXiXqX0X~.~.W.^.R.D.m.2XlXjXjXjXfXfXfXfXrXfXfXrXrXeX3X3XeX3XeXeXeXrXfXrX3XeXeXeXeX3X3X2X2X2X.Xz.(.zXlXrXrXrXrXrXrXeXeXrXrXrXeXrXrXrXrXrXgXtXtXrXrXuXjXaXR.r.! T f a t v t p p p f f f f l R ;.3.3.-.4.y.B.D.D.L.D.B.L.B.H.L.H.(.[.(.P.(.`.].(.(.`.`.(.`.`.(.(.].].E.`.E.E.P.P.`.(.(.`.P.P.P.P.L.P.P.P.L.L.5.( ].jX{.{.[.].].[.[.[.[.[.}.}.}.}.}.D.G s 7 l l 7 + : > s 0 J =.D.A.g.g.g.g.g.g.g.g.g.g.g.g.g.g.g.g.g.g.g.1.,.,.1.g.g.g.g.g.g.g.g.g.g.g.g.m.=.&.&.o.b ( 1X_.V.h.h.h.h.h.h.h.m.h.h.g.g.m.B.B.g.m.m.u.*.*.I M y.wX(.J.H.V.h.h.h.m.=.U P X.P U =.m.B.B.h.h.g.m.m.B.B.m.g.m.m.m.B.-.J G R T f f z f p t i i a a a a a a a a a f f f f f f f f f f f p 6 6 6 : : - - - - @ @ @ @ @ @ @ - - - - : : @ @ : : - 6 7 - - : ",
"F F P P X.X.O.o.o.3.3.t.t.t.e.E x f t $ i i : # : : > f F P X.o.o.;.3.3.;.;.o.o.G n P I @.$.$.%.<.@.1.1.1.l.g.g.l.l.l.1.g.1.,.,.<.*.I ~ P G F j s s s q 3.G.B.m.<.#.].(.(.(.(.(.(.P.P.(.P.(.(.(.(.(.}.gXxXcXcXlXjX.X(.(.(.P.(.(.(.(.(.(.(.(.(.(.).).(.].].(.`.].(.(.`.`.).].].].E.u.;.E g f f 6 - X w X.X.$.6.6.6.A.K.).).).rXJXxXiXiXyX0X~.~.W.E.W.E.A.Y.uXjXgXgXfXfXfXfXrXfXfXrXfXeXeXeXeXeXeXeXeX3XfXrX3XeXeXeX3X3X3X2X2X.X2XH.J.lXkXrXrXrXrXrXrXrXeXrXrXrXrXrXfXrXrXrXrXtXtXtXrXrXuXtXR.r.! T f p t $ t p p a f f f j l R ;.r.t.t.4.4.<.5.m.D.L.B.D.A.L.L.L.P.}.`.(.`.`.].`.(.(.`.`.`.`.(.`.].].P.`.`.`.P.E.(.(.(.`.P.P.P.P.P.P.P.P.L.L.5.( }.rX{.[.[.].].[.[.].[.{.}.}.}.1X}.u.A s 8 l l - + : > s s J =.D.B.g.g.g.g.g.g.g.g.g.g.g.g.g.g.g.g.g.g.g.g.,.,.f.g.g.g.g.g.g.g.m.g.g.g.g.5.*.&.&.o.M =.2X).V.m.h.B.m.m.m.h.h.g.h.h.m.m.m.g.g.j.m.<.&.&.I M D.wXJ.J.H.B.h.z.c.D.y.X.U U X.4.G.D.A.B.h.g.g.g.g.m.B.m.g.g.m.B.Z.) G E T A j x z f p i i a a a a a a a a a f f f f f z f f f f f f f f j j f f f f f s p 6 7 : - - - + X + + + + + + = - o e w 5 5 * ",
"=.=.3.4.4.3.4.4.t.y.y.y.y.u.e.R j p : # a a : $ : : 6 g F P o.o.;.;.3.3.3.;.;.;.P n U U X.$.$.$.<.#.<.6.1.1.1.1.1.1.l.1.1.,.<.<.*.&.P K G G F j s s g q =.G.G.6.4.@.L.].(.(.(.(.(.P.(.(.P.(.(.(.(.(.(.[.eXlXfX.X[.(.P.P.P.(.(.(.(.(.(.(.`.`.`.(.(.].(.).].(.`.`.(.(.).].].].].].E.m.&.E A s f p : + 0 O.X.$.6.6.6.c.K.).).).yXKXxXiXiXqXyX!.^.W.R.W.W.R.G.E.|.pXjXuXjXgXfXfXrXrXrXfXeXeXeXeXeXrXeXeXrXfXfXrXeXeXeXeX2X3X3X2X2X2XP.h.jXzXfXrXrXfXrXrXrXrXrXrXrXrXrXrXrXrXrXtXtXgXtXrXrXtXpXR.e.~ T f p v t i p p a a f f j T P O.t.t.t.y.y.t.-.-.4.u.y.m.m.m.Z.R.L.}.(.(.P.].[.].(.`.].].).].(.].].].(.(.(.(.(.`.`.P.P.`.P.P.P.P.P.P.E.P.P.L.5./ .XeX[.[.].].[.[.].].}.}.}.}.}.@X+X-.C s p h l @ + : > 6 g J <.D.B.g.g.g.g.g.g.g.g.g.g.g.g.g.g.g.g.g.f.g.g.,.1.g.g.g.g.g.g.g.g.g.g.g.g.m.5.*.&.o.E M 1.2X(.B.m.h.h.h.h.m.h.m.g.m.g.B.B.g.g.g.g.5.*.@.&.K M P.2XP.H.H.V.V.h.B.P.].A.5.j.A.I.I.A.H.V.B.h.h.g.h.B.B.m.g.g.B.D.e.P E R T j j x z a i i a a a a a a a z h z z z z f f z z f f l l l e F R l l l l F F F l l l l l l F l l l f 0 6 6 8 7 o 4 r  .+. .r ",
"G.G.S.G.y.y.m.m.S.S.S.S.S.p.q.T f p : # a a t $ $ : 6 g G O.o.;.;.;.3.t.3.=.-.;.X.n J I @.#.$.$.<.#.#.1.1.1.1.1.1.1.1.1.,.<.<.=.*.&.I G G F A g f 0 f w ;.S.A.6.5.#.j.].(.(.(.(.(.(.(.P.P.P.(.(.(.(.(.(._.{.[.).(.(.P.P.P.(.(.(.(.(.(.(.(.`.`.(.(.[.(.).].`.`.].(.).).].].].].].E.D.-.o.F s f s : + ; P X.#.%.6.6.c.K.).).).4XKXvXiXiXqXyX~.F.^.W.W.W.W.R.4.=.m.|.tXuXtXrXrXrXrXrXrX3XrXrXeXeXeXeXeXrXfXrXeXeXeXeXeX3XeX2X2X2X2X].h.rXzXhXrXfXrXrXrXrXrXrXrXrXrXrXrXtXrXrXrXtXgXtXtXrXtXtXR.r.~ T f p $ t t a p a f f f j F G O.3.t.y.y.y.y.t.t.4.-.4.-.=.*.@.u.E.|.[.(.(.].[.[.`.].].].`.].`.(.].[.(.`.].`.(.(.`.(.(.].`.P.].(.E.P.E.P.P.L.m./ 2XwX].[.].].[.[.].].}.}.}.{.}.0X~.I C s f s f + + : > 0 d J 4.L.B.g.g.g.g.g.g.g.g.g.g.g.g.g.g.g.g.g.g.g.g.,.g.g.g.g.g.g.g.g.g.g.g.g.g.m.<.*.&.&.P M h.2XP.h.B.h.h.m.h.h.h.h.h.m.g.g.g.g.g.m.4.*.@.@.&.K N ]..XP.H.H.V.V.V.V.V.`.|.}.|.].P.H.B.B.B.B.B.B.B.B.B.B.g.g.g.B.Z.*.~ ! R T j j x f p t i a a a a a a a f f f f f f f f f f l l } r.3.+.+.+. .+.+.+.X.P P P P P P O.P P X.P P P P P P F H l +.8.9.9.0.#X",
"S.m.m.G.S.S.D.D.F.F.F.R.S.u.O.T f p : # i p i $ $ : 6 F P o.o.;.3.3.t.t.3.3.-.3.o.F J P X.@.$.=.<.$.#.<.1.1.,.,.1.1.,.,.,.<.<.#.*.&.I G G F A g s 0 s q ;.G.m.6.5.$.<.].(.(.(.(.(.(.P.P.(.P.(.(.(.(.(.(.(.(.(.P.(.P.P.P.P.(.(.(.(.(.(.(.(.`.`.P.(.[.].).].].`.].(.(.].].].].].].~.D.<.O.T g f s > + - P X.@.<.<.1.c.K.).).).2XKXvXiXiXiXyX0XW.W.~.~.W.W.R.y.4.=.#.5.~.yXuXrXrXfXrXrXrXeXrXrXeXeXeXeXeXfXfXrXeXeXeXeX3XeXeX2X2X2X|.l.wXzXhXrXfXrXrXrXrXrXrXrXrXrXrXrXrXrXrXrXtXtXtXtXrXtXtXR.e.~ T f t $ t t a a a f f f j T R O.r.t.y.p.y.y.y.y.t.t.t.4.3.-.&.X.y.|.[.(.(.].[.[.].`.].].`.].].`.[.[.(.].[.].(.(.].].`.].].`.`.].`.P.E.E.P.L.m.#.wX2X].[.].[.[.[.].[.}.}.}.{.}.}.D.K d s f x f + + : 6 s g J 5.L.h.g.g.g.g.g.g.g.g.g.g.g.g.g.g.g.g.g.g.g.g.,.5.g.g.1.g.g.g.g.g.g.g.g.m.5.=.*.&.&.P M I.}.J.h.B.h.B.B.h.h.m.h.m.m.g.g.m.m.5.<.*.&.&.I o.K U }.{.J.H.V.V.V.V.V.B.B.P.E.E.P.A.V.B.B.B.B.B.h.B.B.B.h.B.g.B.B.u.&.E ! T A j j x f p t i a a a a a f f f f f z z z x x l l l l [ +.+. .+.+.+.9.9.9.;.+.O.o.o.o.o.O.O.O.X.O.O.P P P P P P H +.+. .9.#X*X",
"*.*.=.5.D.F.F.R.F.R.R.R.R.r.! F f p $ $ a i i $ $ : 0 F o.;.;.3.3.t.t.3.3.3.3.3.;.H F P X.@.$.=.=.<.@.$.1.1.1.,.1.1.,.,.,.<.<.#.@.&.~ G G F C g g s g w ;.S.m.5.4.<.#.L.`.(.(.(.(.P.P.P.P.P.(.(.(.P.(.(.P.P.(.P.P.P.P.P.P.P.(.(.(.(.(.P.(.`.`.(.(.].].(.].].(.(.(.(.(.`.`.].].].T.I.u.&.E j s f 6 = * F X.@.=.6.6.h.Y.).).).1XnXbXuXuXuXqX0X0X0X+X+X~.~.W.R.S.y.4.=.@.5.|.tXtXrXrXrXrXrXrXeXrXrXeXeXeXfXfXrXeXrXeXeX3XeXeX2X2X2X}.l.}.zXjXrXrXrXrXrXfXrXrXtXrXrXrXrXtXrXrXrXtXtXuXtXtXtXtXS.e.~ T f : $ t p a a a f f f j T R O.3.t.y.S.S.y.y.y.y.y.y.t.r.3.3.o.@.D.}.].`.].[.[.[.[.[.].].].].].[.[.].].].].`.`.].].`.`.].`.].].`.E.E.E.P.P.B.%.wX2X].].].[.[.[.[.[.[.{.}.}.{.|.t.Z d p z x a # + : 6 0 g G u.H.h.g.g.g.g.g.g.g.g.g.g.g.g.g.f.g.g.g.g.g.1.,.g.g.1.g.g.g.g.g.g.g.g.g.m.<.*.*.&.&.K M P.{.J.B.m.h.m.m.m.m.m.h.m.g.g.5.5.<.*.&.&.) ) o.o.Z / 2X).J.H.V.V.V.V.V.h.B.H.V.V.V.B.B.B.B.B.B.m.h.m.B.B.h.g.g.B.m.u.&.~ E T j j x x f i t i a a a a z z f f f h h f h x h O.+.8.+. .+.+.+.+.+.+. . .V F P o.o.o.o.o.;.o.o.o.o.o.X.P P X.O.E O.X. . . ...0.",
"@.=.4.S.R.R.R.R.R.F.R.R.R.r.R j f p : $ p i i $ $ : 0 P o.;.3.4.3.3.3.4.3.4.t.3.;.X.F U X.@.$.#.=.6.#.#.<.<.<.<.<.<.<.<.<.<.<.*.@.@.I G G F C g g 0 g w ;.S.6.5.4.4.@.m.`.(.(.(.(.P.P.P.P.(.P.(.(.P.P.(.P.P.P.P.P.P.P.P.P.P.P.(.(.(.(.P.(.(.`.(.P.].].(.).].(.].].`.(.`.(.(.].].).P.m.-.~ A s f 6 = X w X.@.=.<.1.h.K.).).)._.bXJXpXuXpXiX0X0X0X1X1X0XqX~.!.!.R.p.y.4.@.@.D.yXtXrXrXrXrXrXrXeXeXrXeXrXrXfXrXrXeXeXeX3XeXeX2X.X2X}.l.).zXjXrXrXrXrXrXrXrXrXtXrXrXrXrXtXrXrXrXtXuXuXtXrXtXtXZ.e.~ T f : $ t a a a a f f x x T R o.r.t.y.S.S.S.p.y.p.y.y.t.t.3.t.-.@.6.~.].].].{.{.[.[.[.[.[.[.[.[.[.}.].`.[.].].`.[.].].].].].`.].`.`.E.P.P.P.B.%.wX2X].].].[.[.[.[.}.}.}.}.}.}.~.&.Z d s z x a # + - 6 s g K m.H.h.g.g.g.g.g.g.g.g.g.g.g.g.g.g.g.g.g.g.g.1.,.g.g.g.g.g.g.g.g.g.g.g.g.g.<.=.&.&.&.J B ].{.H.B.B.g.m.m.m.m.m.m.g.g.5.5.<.@.I ) &.~ ) o.&.Z *.2X).H.V.V.V.V.V.B.h.B.V.V.V.V.B.B.h.h.B.B.h.h.B.B.B.B.g.B.D.m.u.o.E ! T j j x x f i t a a a a a f z z f l l l } l l l [ 8.9.0.0.0.+.r  .X.+.H H O.O.O.o.o.X.o.o.o.o.o.;.;.;.o.o.o.o.o.o.o.+.+. .0.9.*X",
"4.R.W.^.W.W.^.R.F.S.R.R.p.e.T j f p t $ i i i $ $ : g O.;.3.4.t.t.4.4.t.4.p.p.3.;.o.F J I X.@.$.$.<.=.$.=.<.<.<.<.<.%.%.%.$.=.=.@.@.o.P G F C C g s d w ;.m.5.4.4.-.*.<.P.(.(.(.(.P.P.P.P.(.(.P.P.P.P.(.P.P.P.P.P.P.P.P.P.P.P.P.(.P.`.(.P.(.(.(.P.(.].].].].(.].].(.`.`.`.(.`.].).].D.<.o.F d f p : X 0 X.@.=.<.1.h.K.).)._._.vXKXpXpXpXiXyX0X0X|.1X0X~.W.~.0X0XW.S.S.t.=.U m.yXtXrXrXrXrXrXeXrXrXeXrXrXfXrXrXeXeXeXeXeXeX2X2X.X}.h.K.zXjXrXfXfXrXrXrXrXrXtXtXrXrXrXrXrXrXrXtXtXtXtXtXtXaXu.e.! T f $ $ t a a a f f f f x T R O.r.u.p.S.S.S.S.p.S.S.p.y.t.t.t.t.;.4.D.A.~.|.}.{.[.[.{.{.[.].[.[.}.}.[.].}.[.].`.[.[.[.].[.[.].].].`.(.(.P.P.B.:.}.wX}.].].[.[.{.].}.}.}.}.}.+XB.P A d s j f a # + : 6 s g P m.H.h.g.g.g.g.g.g.g.g.g.g.g.g.g.g.g.g.g.1.g.1.1.g.5.g.g.g.g.g.g.g.g.g.m.1.=.=.&.&.&.Z ( }.[.V.h.B.h.B.g.h.B.m.m.g.5.<.*./ I I &.&.&.o.o.o.m <.2X(.V.V.V.V.V.V.B.h.B.z.V.V.h.B.B.B.m.B.m.B.B.B.B.h.m.g.D.m.Z.e.~ ! R T j x x x a i i a a a f f f f z z h l l l +.+.l l +.8.+. . .+.X.+.+.X.$.;.;.;.;.;.3.3.3.3.;.;.;.;.=.;.;.;.;.;.;.;.X.X.+.7.<X<X*X",
"~.~.~.W.W.W.W.^.F.F.W.R.r.O.R j f p $ t i i i : $ : g o.;.3.t.t.t.t.t.6.y.S.t.3.3.;.P J I X.@.#.$.$.<.<.$.$.<.<.<.<.<.$.#.$.=.*.*.@.o.P G F C C g s q C -.y.5.<.4.4.=.#.A.P.(.`.(.(.P.P.J.P.(.(.(.P.P.P.P.P.P.P.P.P.J.P.P.P.P.P.P.(.(.(.(.(.(.`.P.(.[.).).(.(.(.`.(.(.`.(.].(.`.).].E.u.&.G g f f : X ; P @.=.<.1.h.Y.)._.)._.hXKXvXuXpXpXqX0X0X0X|.+X~.W.~.0X0X0X~.F.S.p.=.( D.uXrXrXrXrXrXeXrXrXrXrXrXfXrXrXeXeXrXeXeXeX2X2X2XwXH.v.zXzXjXrXrXrXrXfXrXrXrXtXrXrXrXtXrXrXrXjXuXtXtXtXtXaXt.e.! T p $ v i a a a f f f x x T R O.r.u.p.R.R.R.S.S.S.S.S.y.y.t.t.t.;.4.E.D.F.~.}.wX.X}.}.}.}.}.}.}.}.}.[.[.[.[.[.].[.[.[.[.[.[.[.[.[.`.(.(.P.P.L.<.P.wX}.].].[.}.}.].{.}.}.}.}.~.<.K A s s l l p + + : 6 s g I m.V.h.g.g.g.g.g.g.g.g.g.g.g.g.g.g.g.g.g.g.g.,.5.g.5.g.g.g.g.g.g.g.g.g.m.<.=.*.&.&.&.m #.1X[.V.h.m.h.h.h.m.m.m.g.5.<.&./ I I &.&.&.&.o.o.o.m 5.2XK.V.H.V.V.V.V.B.h.B.V.h.h.B.h.B.B.B.B.h.B.B.B.m.h.m.m.L.m.Z.-.~ E T Y j T x z a t i a a a f f f f x x l l l [  .+.+.r r r  .X.X.X.=.3.3.3.4.6.4.4.4.4.4.4.3.3.3.3.3.3.=.=.3.3.=.3.3.-.;.;.;.o.X. .V ",
"~.~.~.~.!.~.W.W.W.W.!.R.e.E T f f p $ t i i i $ $ 7 F o.;.3.t.4.t.y.y.p.G.S.4.4.3.;.O.F U X.@.#.$.$.$.$.$.$.$.$.<.<.$.$.$.#.#.#.@.@.o.P G F C g g s 0 C -.y.5.<.4.3.-.@.5.P.(.(.(.(.P.P.P.P.(.(.P.P.P.P.P.P.P.P.P.K.J.P.P.P.P.P.P.P.(.(.(.P.(.(.P.P.[.].(.).).(.`.`.`.`.`.`.(.(.(.`.E.Z.;.E g f f : + * P X.$.=.1.j.v.)._._.).3XKXbXpXpXxXiX0X0X0X|.+X~.~.|.0X0X1X1X~.^.S.S.=.#.1XjXrXrXrXrX3X3XrXrXrXrXjXrXrXeXeXeXeX3XeXwX2X2XwXP.l.xXzXhXrXrXrXrXfXrXrXrXtXrXrXrXrXtXtXrXuXjXjXtXtXtX+Xe.;.! x p # v i a f a f f f x x T R O.r.y.p.R.R.R.S.R.S.S.S.p.y.t.t.t.-.y.W.F.F.F.].@X}.}.}.@X@X}.|.].}.}.}.].}.[.[.].[.[.[.[.[.[.[.[.[.].`.`.(.E.E.5.h.0XwX{.{.{.}.[.].}.}.}.}.@XR.) S A s s l f p + + : 6 s g ~ D.B.h.g.g.g.g.g.g.g.g.g.g.g.g.g.g.g.g.g.g.g.,.5.g.5.g.g.g.g.g.g.g.g.g.g.<.<.*.&.&.&.m <.1X).V.h.h.g.g.h.h.h.m.1.:.#./ / I &.&.&.&.-.o.o.o.m m.}.J.V.V.V.V.V.V.B.h.B.B.B.B.h.B.B.g.B.m.h.h.B.B.m.m.g.B.D.5.Z.&.~ E T j x T x f p t a a a f f f l x x +.+.+.0.0.#X0... . . .3.3.7.7.7.6.6.6.4.6.6.6.6.6.4.4.4.4.4.4.4.4.4.3.3.3.3.3.3.-.-.-.;.3.o.V +.",
"0X0X!.+X~.~.~.~.qXqXR.-.~ E j f f p $ i i i t $ @ 6 F o.3.t.t.t.y.p.G.G.S.S.p.6.4.3.o.J J X.X.@.#.#.$.<.$.$.#.#.=.$.#.#.*.#.#.#.&.&.X.I P G A A F 0 0 C -.y.5.<.4.<.<.=.<.L.P.(.(.P.J.J.P.P.(.(.P.P.P.P.P.P.J.P.P.P.P.J.P.P.P.P.P.P.(.(.P.(.(.(.(.P.].[.(.[.].(.`.`.`.(.`.`.(.(.(.].E.D.<.E F f f p = * F X.$.%.,.l.v.).).)._.2XnXKXmXvXvXpXyX0X0X0X1X~.~.0X0X0X0X0X0X~.E.F.S.*.j.tXfX3XrXrXrXeXrXrXrXrXfXfXeXeXrXeXeXeXeXeXwX2X2X].l.uXzXhXrXfXrXrXgXtXrXtXgXrXrXrXrXgXrXrXgXjXuXuXtXpXE.-.;.R x y # t i a a f f f x x T R R O.r.y.p.R.^.^.R.S.R.R.S.p.p.y.t.t.-.y.!.^.^.R.R.W.I.A.A.I.I.F.A.j.A.I.E.~.].].].].|.}.|.[.[.[.[.[.[.].`.].E.E.E.5.5.@XwX{.[.[.{.[.].}.}.}.}.+Xu.L G A f f j f p # + : p s g &.D.B.g.g.g.g.g.g.g.g.g.g.g.g.g.g.g.g.g.g.5.g.,.g.g.1.f.g.g.g.g.g.g.m.g.5.<.<.*.&.&.o.m 1..X`.V.h.g.m.m.g.h.m.m.<.*.@./ @.&.-.-.&.&.-.&.&.~ M B..XJ.H.H.V.V.B.V.h.h.B.B.B.B.B.B.m.m.h.h.h.h.B.B.m.B.g.H.m.m.y.~ E ! T j T T x h i : s s h l l l H +.H +.9.9.9.0.9.#X#X*X*X9.b.b.9.9.9.9.9.9.6.7.6.7.7.6.4.4.4.y.t.y.6.4.4.4.3.3.3.3.3.3.3.3.3.3.3.3.;.",
"0X0X0X1X|.|.+XqX+XS.*.~ E T j s a p $ t i i : $ @ 6 F o.3.S.p.y.p.S.S.S.S.S.S.y.y.3.;.P n P X.@.@.#.#.$.$.$.$.#.#.#.#.#.#.=.#.@.@.@.X.I P G F F F g q F 3.y.5.<.4.=.=.=.@.m.P.(.(.P.J.J.P.P.P.P.P.P.P.P.P.P.J.P.P.J.J.J.P.P.P.P.(.(.(.P.(.P.(.(.(.P.(.}.].[.].(.`.(.(.`.(.`.(.(.(.(.E.E.u.~ A g f s - * g X.$.$.7.l.v.).)._._._.bXKXnXmXvXvXpXyXyXyX0X0X0X0X0X0X0XyX0X0X|.R.F.y.#.@XgX3XrXrXrXeXrXrXrXrXfXfXrXeXeXrXrXeX2XwXwX2X2X}.l.yXvXjXrXrXrXrXjXgXrXrXrXrXfXfXfXtXgXtXtXjXtXuXtXaXZ.;.q.R x t # t i a f f f f f x T T R O.r.y.p.R.W.W.^.R.R.R.S.S.p.y.t.t.3.p.qXW.W.W.R.F.F.F.D.D.D.S.S.m.G.F.D.D.D.D.D.L.E.~.|.|.].].}.[.].].E.].E.E.m.=.=.~.yX{.{.[.}.}.].}.}.}.}.E.-.K G A s f j f p # + : p s g &.L.h.g.g.g.g.g.g.g.g.g.g.g.,.g.g.g.g.g.g.g.1.,.g.g.1.g.g.g.g.g.g.g.g.g.5.<.=.*.&.&.o.m j.2X`.V.h.j.m.h.g.g.m.g.1.<.*.*.*.*.-.-.&.-.e.&.o.~ m B..XJ.H.H.V.B.B.V.h.B.V.B.V.B.h.B.B.B.B.h.g.B.h.B.B.B.j.L.g.R.u.~ E R A x T T x a : 7 0 H X. .+.9.9.9. . .0.9.9.0.0.9.*X9.0.9.9.b.b.9.9.9.b.9.0.0.9.9.9.7.9.7.3.3.6.6.6.4.4.4.4.4.3.4.t.4.4.4.4.4.3.3.3.",
"0X0X1X0X0XqXqX~.u.&.~ ~ E F s s p p $ t i i : $ $ 6 P ;.4.F.R.F.S.S.S.S.R.S.R.p.y.4.;.O.n J X.X.@.@.@.@.$.$.#.@.@.#.#.#.*.#.#.@.@./ @.X.P G F F F g w J 3.5.5.<.=.-.-.=.@.5.P.(.(.(.P.P.P.P.J.P.(.P.P.P.P.(.P.P.J.P.J.J.P.P.P.P.(.(.(.(.P.P.(.(.(.P.(.}.].].].`.(.`.`.`.(.(.`.`.(.].`.E.Z.&.G g s s : X 0 X.@.$.7.l.v.)._._._._.mXKXKXbXJXJXxXyX0XqXyX0X0X0XyXyXyXyXyX0X0X~.E.S.#.D.xXrXeXrXrXeXrXrXrXrXfXrXeXrXrXrXeXeX2XwXwX2X2X}.l.1XnXjXrXfXrXrXjXgXrXrXfXrXrXrXrXtXtXtXtXuXtXtXtX+X<.e.q.R f : $ i p a f f f f f x x T R O.e.u.p.R.W.!.^.R.^.R.R.S.p.p.p.t.3.S.0XQ.W.W.W.R.R.R.R.R.R.R.R.S.S.R.R.F.D.D.S.S.D.D.D.D.I.E.~.~.~.E.I.D.m.u.4.-.=.D.wX2X{.{.}.{.}.}.}.}.|.Z.~ K S A s f j f i # + : p s C *.D.h.g.g.g.g.g.g.g.g.g.g.g.g.g.g.g.g.g.g.g.,.1.g.g.g.g.g.g.g.g.g.g.g.g.<.<.=.=.&.;.I m A..X`.V.j.g.m.m.g.h.g.g.5.5.<.<.-.<.-.-.-.-.t.&.o.I N L.[.J.H.V.V.V.V.V.h.h.B.B.h.B.h.B.m.m.m.g.g.B.h.m.B.g.j.L.5.E.-.~ ! R F T T x f p - l ;.6.9.9.9.*X9X*X*X#X*X*X*X#X..0.$X0...0...0.0.0.0.,X*X*X*X*X*X*X*X*X*Xb.9.9.9.9.9.p.p.p.t.4.t.p.p.t.t.t.t.t.t.t.t.",
"0X0XyX0XqXqXE.<.o.~ E E T F s p p p $ t i t $ # $ f P ;.4.F.W.E.R.S.G.S.R.y.F.S.y.t.3.o.J n P I @.@.@.@.@.$.@.@.@.@.@.@.#.@.@.@.@.@.X.I P P F G F g w P 3.4.4.-.=.-.-.=.=.=.A.P.(.(.P.P.(.(.J.P.(.P.P.P.P.P.(.J.P.P.J.J.P.P.P.P.P.P.P.(.(.P.(.(.(.(.J.[.].`.].].(.`.`.(.(.`.`.`.(.(.].E.D.-.K g g f : X < P @.$.%.l.c.).)._._.).4XKXJXuXxXxXuXyXqXyXqX0XqXyXyXyXyXyXyXyXyX0X~.F.4.<.tXgXeXrXrX3XrXrXrXrXfXrXrXrXrXeXeXeX2X2XwX2X2X}.h.].nXjXfXfXrXrXjXjXrXrXfXrXfXrXtXtXtXtXtXpXaXE.m.<.-.;.! T f : : t p a f f f f f l T T R O.;.t.p.S.W.W.W.R.R.R.R.S.S.p.p.y.3.G.0X~.Q.W.W.W.R.R.R.R.R.R.S.S.S.E.R.R.R.R.S.S.D.D.S.S.G.G.D.D.G.m.y.y.y.y.t.t.=.6.0XwX}.{.[.{.}.}.}.}.E.-.~ T F j s f j f t # + : p s C -.D.h.g.g.g.g.g.g.g.g.g.g.g.,.g.g.g.g.g.g.5.,.5.g.g.g.g.g.g.g.g.g.g.m.5.<.<.=.=.=.;.I m I. X(.V.j.g.m.g.g.h.g.g.5.5.4.4.<.<.<.<.-.-.t.) o.P N L.[.J.H.V.V.B.B.h.h.B.B.h.B.h.h.h.m.B.g.g.B.B.h.B.B.g.B.B.g.E.-.~ ! T A Y Y x f : - O.p.9.b.*X*X9.9.9.9.#X*X*X$X$X*X:X:X*X$X=X$X$X$X$X,X,X,X$X=X=X,X$X$X9.9.9.9.a.9.7.=.$.4.p.p.p.y.p.p.p.p.p.p.p.t.t.t.",
"yXyXyXqX0XS.-.) ~ E E T T A s p p p $ : i t $ + - f P ;.4.F.I.I.F.G.S.F.F.6.F.p.y.t.3.;.O.n J P X.@.@.@.@.@.@.@./ @.&.*.@.@.@.@.@.@.I I I P G F g g w U -.4.4.-.-.-.-.=.=.#.j.P.(.(.P.P.P.P.J.J.(.P.P.P.P.P.P.J.P.P.J.J.P.P.P.P.P.P.(.(.(.(.(.(.(.(.J.[.[.(.].].(.(.`.(.(.`.`.(.P.(.`.P.E.t.P C g f > X * P @.$.%.l.c.K.).).).).).4XK.l.,.,.,.l.m.E.+XqXqXyXyXyXyXyXyXyXyXyX0XW.y.#.}.gXeXrXrXrXrXrXrXrXfXfXrXeXeXeXeXeX2X2XeX2X2X2XH.P.nXjXrXfXrXfXjXjXrXrXrXrXtXtXtXtXtXtXyXE.1.( ( / &.O.R T f : : i p f f f f f l x T Y R O.;.r.p.S.W.~.W.R.R.R.R.R.S.S.p.p.3.p.qX1X~.~.~.~.W.^.F.F.R.R.R.S.S.E.R.R.F.R.F.F.F.F.S.S.S.S.S.S.S.S.S.p.y.p.t.t.-.<.|.yX}.{.}.}.[.}.}.|.D.&.E T A j s f f f t # + : p s C <.L.h.g.g.g.g.g.g.g.g.g.g.g.,.g.g.g.g.g.g.,.1.5.g.g.g.g.g.g.g.g.g.g.g.1.<.<.=.=.=.-.K B P. X(.B.g.h.m.g.g.g.g.g.g.5.<.<.4.4.4.<.<.t.4.&.&.P N E.[.H.H.V.V.V.B.B.h.V.B.B.B.h.h.h.h.m.g.g.B.B.h.B.B.g.D.g.D.R.&.~ ! T A T T x p + - X.p.^.<X*X*X9.0. . . .0.9.9.*X*X*X,X,X-X-X-X-X,X:X6X*X0.0.#X#X$X$X$X9.9.9. .X.X.X.3.4.p.p.p.p.p.p.p.p.p.p.p.p.p.p.y.",
"yXyXpX!.u.&.) ~ E E E T T j s p p i $ : i : $ + - f O.3.6.F.I.I.F.G.F.W.S.y.F.S.S.y.t.3.o.J n P I X.X.X.@.X.@.@.@.@.@.@.@.@.@.@.&.X.I I I P J C g w F o.=.4.4.-.-.-.=.=.=.&.<.L.P.(.P.P.(.P.J.P.P.(.P.P.P.P.P.J.P.P.J.J.P.P.P.P.P.P.(.(.(.(.(.(.(.(.P.`.}.`.`.].(.(.`.`.(.(.(.(.(.P.(.P.E.Z.o.C g f 6 + * J @.$.<.1.c.K.).).)._._.v.` ` ` ( ( ' U U #.5.S.|.yXyXyXyXyXyXyXyX0X~.S.#.].jXeXrXrXrXrXrXrXrXrXfXrXrXrX3XrXeX2X2XwX2X2XwXP.Y.nXzXhXfXtXuXjXjXjXrXtXtXtXtXtXtXyXE.<.U B B B U I ~ T F p # t p p f f f f l x T Y R O.O.;.t.p.S.^.~.!.W.W.R.R.R.S.S.S.S.t.y.0X1X~.~.~.~.~.W.^.R.R.R.R.F.D.W.W.W.R.F.E.F.R.R.R.R.S.R.F.F.R.S.S.S.p.p.y.t.3.=.E.yX1X{.{.}.[.}.}.~.u.~ ~ T A j s f f f : # + : p d Z t.D.g.g.g.g.g.g.g.g.g.g.g.g.,.g.g.g.g.g.g.,.5.5.g.g.g.g.g.g.g.g.g.g.5.,.<.<.<.=.*.;.J B T. XP.B.j.g.m.m.g.g.g.g.g.5.<.<.<.4.<.4.-.u.<./ o.K B E.[.z.H.V.V.V.B.B.h.B.B.V.B.h.h.h.B.g.g.h.B.m.m.B.m.g.I.5.E.S.~ ~ ! F T T T f : + 8 o.=.4.6.7. . .9.9.*X=X=X,X0.0.9.$X0.#X9. .0.9.*X#X0. .9.*X*X,X,X<X9X9X<X<Xb.6.F.S.S.S.G.G.G.S.G.G.G.G.G.G.S.S.S.G.p.",
"pXpXW.-.) ~ ~ ~ E E T S Y A f p p i $ $ i : $ + : g O.3.y.F.W.I.F.F.W.W.S.y.F.W.F.p.y.t.;.O.w J P I X.I I I @.@.X.I X.@.@.@.&.X.X.X.X.I I P G F C w P ;.@.<.4.-.-.=.=.=.-.=.*.m.P.P.P.P.P.P.P.J.P.(.P.P.P.P.P.P.P.P.P.J.P.P.P.P.P.P.P.(.P.P.P.P.(.(.P.(.}.(.].].`.(.`.(.`.`.(.(.(.(.(.(.E.D.;.G g g p + X w @.$.=.1.h.v.)._.(._.(.%.( ' B B B B B B B B B ( 5.I.0XpXiXyXyXyXwX0XR.$.H.lXrXrXrXrXrXrXrXrXrXrXrXrX3XrXeXeXwX2XeXwX2XwXP.v.zXzXjXgXrXrXjXjXjXtXtXtXtXtX@XL.%.B N N N N N N J E T j p : p p f f f f x x x T R O.O.q.r.u.p.S.^.W.~.W.R.R.R.R.R.R.S.S.y.y.1X0X1X|.~.~.0X~.W.R.R.R.R.R.F.W.W.W.W.E.W.R.R.R.R.F.F.F.F.F.F.R.S.S.S.p.p.y.t.-.Z.yXyX{.{.}.}.}.}.E.*.~ ! T A j s s f f : # # : 6 d Z u.A.g.g.g.g.g.g.g.g.g.g.g.g.,.g.g.g.g.g.1.5.g.g.g.g.g.g.g.g.g.g.g.g.5.<.<.<.<.=.=.&.J U ]. XP.B.h.g.m.g.g.g.h.g.g.5.<.<.<.4.<.<.-.u.=.) o.K B E.[.V.V.H.V.V.V.B.h.B.V.B.V.h.h.h.B.g.g.B.B.h.B.B.m.B.L.1.~.u.~ ~ ! F T T T f $ + 8 ;.4.$.$.7.7.*X*X7X6X-X-X-X,X$X$X,X$X9. . . . .0.0... .0.#X*X0. . . .0.0.7.7.6.F.F.F.S.S.S.S.S.S.S.S.S.F.F.S.S.S.S.S.",
"yXI.=.) ~ ~ ~ E E E S S Y A s y p i $ $ i $ # + > l o.3.y.I.W.I.F.F.W.W.S.G.S.R.F.G.p.t.3.;.P w U P I U I U I X.X.I I I X.X.X.X.I I I I P P P F g w E ;.@.=.<.-.=.=.=.=.-.=.*.<.P.P.P.P.P.P.J.J.J.(.P.P.P.J.P.P.P.J.J.J.P.P.P.(.P.P.P.P.P.P.P.P.(.(.(.P.[.].(.].].(.(.(.(.(.(.`.`.(.(.(.E.R.-.K g f s -   8 X.@.<.6.l.v.).(.(.K.,.( B B B B B B B N N B N N B B #.m.+XpXyXyXyX0X~.%.H.lXrXrXfXfXrXrXrXrXrXfXrXrXrXrXrXeXwX2XeXwX2XwX].c.zXzXjXfXjXtXjXjXuXtXtXtX|.m.( B N N N N m m m m Z G T x t t p a f f f f x x x T O.O.O.r.u.p.R.^.^.W.!.!.W.W.^.R.R.R.S.S.y.y.1XyX0X|.~.~.0X0X~.E.E.R.R.R.S.W.~.W.W.W.W.W.E.W.E.R.R.F.R.R.R.R.F.S.S.S.S.S.p.4.4.+XrX{.{.}.{.}.|.Z.&.~ E T A j s p f f , # # : s q J y.B.g.g.g.g.g.g.g.g.g.g.g.g.,.g.g.g.g.g.1.g.g.g.g.g.g.g.g.g.g.g.g.5.5.<.<.<.<.=.=.;.m ( [.{.J.B.h.g.m.g.g.g.g.g.g.5.<.<.<.<.<.<.4.t.*.&.o.K J ~.].V.V.H.V.V.V.h.B.B.B.B.B.h.h.m.h.g.g.B.B.h.B.B.g.D.B.j.~.<.o.O.R A T T x f @ + 6 o.p.6.y.t.6.b.*X<X7X<X*X*X,X*X,X,X,X:X,X9.0.0.0.9.$X0.0.0.0.9.9.9.0.7.7.X.X.X.6.F.F.F.S.S.S.F.F.S.F.F.F.S.S.S.S.S.S.",
"u.<.*.L ~ E E E E E S S A A s y p : $ $ t $ # + 6 F ;.4.G.W.E.I.F.F.W.E.G.S.p.G.W.F.F.y.t.r.o.n V U U I I U P P I P I I I I I I I I P I P P P J n n o.&.@.=.3.=.-.=.=.=.=.=.&.*.A.P.(.(.(.K.J.J.J.P.P.J.J.P.P.P.P.J.J.J.P.P.P.P.P.P.P.P.P.(.P.P.P.(.P.P.[.[.(.).].P.(.(.(.(.(.`.`.(.(.(.`.E.y.P g g s : . * P @.=.6.l.v.v.K.).l.( B B N m m m M m m m m M m N N N B ( m.0XtXyX0X~.1.P.zXfXfXfXrXrXrXrXrXrXfXrX3XrXrXrXrX3X2XeXeXwX1X{.v.xXvXjXrXtXtXtXxXxXyXI.,.' N B N N m m n m n M n m Z G A : : p s f j x j x j T Y O.3.3.t.S.W.W.^.R.W.!.~.W.W.W.W.R.R.S.R.S.y.~.yX0X0X~.~.~.0X~.W.W.^.R.R.S.W.~.W.W.W.W.W.W.W.W.^.R.^.^.R.R.R.R.R.R.R.R.S.S.t.4.~.tX2X}.{.[.}.~.e.~ E E G A j s p f a , + + : p g J m.B.g.g.g.g.g.g.g.g.g.g.5.g.,.g.g.g.g.g.,.g.g.g.g.g.g.g.g.g.g.g.g.1.5.<.<.<.<.=.=.;.m / [.{.J.B.j.g.g.g.g.g.g.g.g.5.1.<.<.<.4.<.<.t.&.&.o.J B ].).z.H.H.V.V.V.h.B.V.h.B.B.h.g.h.h.g.h.h.h.g.B.B.g.L.g.A.E.-.~ ! T A T T x p O + 0 X.G.T.G.F.c.9.9.9.0. . .9.9X9X9X7X,X,X=X,X,X,X,X,X*X,X=X*X#X*X*X*X*X<X<XT.T.W.W.^.F.F.F.F.F.F.F.F.F.R.F.F.S.F.F.F.F.",
"-.-.-.I E E E E E T S S A j s y t : $ $ t $ + + 6 F ;.y.F.W.I.I.I.W.W.R.m.S.S.6.W.W.W.R.t.r.;.P w J J U P P U P P P P P I X.P I I I I P U P P J C n o.o.X.=.=.=.-.-.-.-.=.=.;.@.1.P.(.(.J.K.J.J.P.J.J.P.J.P.P.P.P.P.P.J.P.P.P.P.P.P.(.P.(.P.P.P.(.(.(.P.(.}.(.].].(.(.(.(.(.`.`.).(.P.P.P.E.Z.&.C g s : . o J @.=.<.l.c.v.K.v.` B N N m m m M M m m m m M M m m m B B B %.E.yXwX~.1.P.zXhXhXfXfXrXrXrXrXrXfXrXrXrXrXrXrXeXwXeXwX2X1X}.c.uXbXjXrXtXtXtX@XA.#.B B N N N m M m n b b b M M b D A g : > p f j j x j x T T R O.r.p.W.qXqX~.^.^.^.W.W.W.W.W.W.W.R.R.R.S.F.~.yXyXyX0X~.1X0X0XW.W.^.^.W.S.R.|.~.~.W.W.W.W.W.W.W.^.W.W.^.R.W.R.R.R.R.R.R.S.y.3.R.pXwX}.}.{.}.E.-.~ E E S A j s p f a # + + : p d P m.B.g.g.g.g.g.g.1.f.1.g.g.1.,.g.g.g.g.,.g.m.g.g.g.g.g.g.g.g.g.g.g.5.5.<.<.<.<.<.=.&.m / {.{.H.B.g.g.g.g.g.g.g.g.g.u.1.<.<.<.4.<.-.-.&.&.o.J U ].(.z.H.H.V.B.B.h.B.V.h.B.B.g.h.h.h.h.B.h.h.h.B.B.g.L.1.I.D.&.o.! T A T T x : O + 0 X.6.T.T.A.Y.Y.^.9.9.9.9.9.9.#X*X$X0...0.$X,X,X$X,X*X,X#X9.9.9.*X*X*X9.9.b.Y.T.W.W.W.W.I.F.F.F.E.R.R.R.R.R.R.F.F.F.F.",
"*.-.-.~ K E E E E S S A A j s : t : $ : : # + + 0 P 3.p.W.W.F.I.I.W.W.F.G.S.G.G.W.qX!.S.y.r.-.o.F w G J P U U U U P U U U I P P I P P P P P P J C C o.o.&.&.=.-.-.;.=.-.=.=.=.@.$.L.(.P.J.(.J.J.P.P.J.P.J.J.P.P.J.J.P.J.J.P.P.P.(.P.P.(.K.P.P.(.P.P.(.P.(.}.(.).].(.(.(.(.`.`.`.(.(.`.(.(.E.D.-.F g s 6 + X w @.$.%.,.l.K.K.%.B N M M m m M M M m M M M M M M M M M M N N B ,.E.~.g.}.vXlXjXjXjXgXfXrXrXrXgXgXrXrXrXrXrXeXwXwXwX2X2XwXH.yXLXxXpX@XE.g.( B N N N N M M m n b M 8 8 8 8 8 q q d 0 : p p f j x T x T T T E r.u.R.qX0X~.W.^.R.^.W.W.W.W.W.W.W.W.R.S.R.W.T.iXuXyXyX0X0X0X0X~.W.W.W.W.R.R.0X~.~.W.W.W.W.!.W.W.W.W.W.W.W.W.W.^.R.R.R.R.R.S.t.G.yXtX}.}.}.|.Z.&.~ E E S A j s p f p + + , : s d I B.B.g.g.g.g.g.1.1.g.1.5.g.,.,.g.g.g.g.,.g.g.1.g.g.g.g.g.g.g.g.g.5.5.5.1.<.<.<.<.<.&.m #.{.).V.B.g.g.g.g.g.g.g.g.g.u.5.<.<.<.<.=.=.-.&.&.&.J U |.(.V.H.H.V.B.B.h.B.h.h.B.B.g.h.h.h.h.B.h.h.h.V.B.B.L.,.~.Z.&.~ ! F T T x f $ O + 0 X.6.Y.1XQ.T.Y.Y.Y.Y.b.<X<X*X*X*X-X,X,X,X,X,X*X0.0.*X,X$X0.9.0. .9.*X<XT.T.T.^.W.W.W.W.W.W.E.W.W.W.E.R.E.W.W.W.R.R.R.",
"*.-.-.~ K E E E E S S A A j s : t t $ : $ $ + : 0 P 4.G.W.W.I.I.I.W.E.D.F.S.F.W.R.W.S.y.y.t.3.;.E n C J J J J J J P U U U P P P P P P P P P J F C F o.o.&.;.&.=.=.-.-.=.=.=.;.;.@.m.P.P.(.K.J.J.P.J.J.P.J.J.P.P.P.P.P.J.J.P.P.P.J.J.P.P.J.P.P.P.P.(.(.(.P.[.).(.[.(.(.(.`.`.].`.(.].`.P.(.E.E.t.G g s 6 +   ; X.$.%.,.l.H.j.( N M M M M M M M M M M n M M M M M M n M M N N N B g.1.}.nXlXjXlXjXtXtXfXrXrXrXfXrXrXrXrXrXrXwXwXwXwX1XwXA.~.pX+Xm.( B N N N N M M n n b M M M 8 8 < < < < < 0 > : > p s j x T T T T T T O.r.p.R.~.~.W.^.R.R.R.W.W.W.R.W.W.W.R.R.S.W.~.I.yXpXuXyXyX1X0X0X1X~.W.!.!.^.R.qX1X~.!.!.W.W.W.W.W.W.~.W.W.W.W.W.W.W.R.R.R.R.R.y.y.yXuX}.}.}.|.u.) ~ E T S j d s p f p + + + : s q / D.B.l.g.g.g.g.g.g.g.g.g.g.,.,.g.g.g.,.,.B.g.g.g.g.g.g.g.g.g.g.g.5.5.1.1.<.<.<.<.4.&.b #.{.).V.m.h.g.g.g.g.g.g.g.g.m.5.<.<.<.<.<.=.-.&.&.o.J U |.(.V.V.V.V.B.B.h.B.h.h.B.h.h.h.h.h.h.B.B.g.h.V.m.D.B.5.~.5.&.~ E F T T x f @ O + w X.$.l.T.1X[.T.Y.Y.Y.Y.T.<X<X<X<X9X9X7X*X9.9.*X*X0.$X=X-X=X,X,X0.9.b.b.9.9.Y.^.F.^.W.W.W.W.W.W.W.W.W.W.W.W.W.W.W.W.W.",
"-.-.-.) K E E E T T S A A j s > : : $ : $ + + : g X.4.F.~.E.I.I.I.W.W.F.F.S.R.p.4.S.S.y.y.y.3.;.o.P w F J J J J J P P J J J P P P P P P U P P J F J X.X.X.&.&.&.=.=.-.-.-.-.;.;.@.<.L.P.(.J.J.J.J.J.J.J.J.J.(.J.J.P.P.P.J.P.P.P.P.J.P.(.P.P.P.P.P.(.(.(.K.[.[.(.[.].(.(.`.`.`.(.(.`.`.P.P.P.E.Z.P n q s + & X P @.$.%.l.j.#.N M M M M M M M M M M M M M M M M M M M M M M M M M N ' }.LXjXlXxXgXgXjXrXrXrXfXhXrXrXrXrXrXyXyXwXyXqXqXqX1.B #.B N N N N M m M M M b b M 8 8 8 8 8 < < < ; ; - = > p s f j T T T T T R R O.i.R.W.~.W.W.^.R.R.R.R.W.W.W.R.^.W.W.R.R.W.~.T.1XlXpXiXyX0X0XyX0X~.~.~.~.W.R.qX1X~.!.!.W.W.W.R.W.~.~.~.W.W.W.W.W.W.W.R.R.R.R.S.5.0XxXwX}.}.Q.-.~ E E T A j s s y f p + + : p s C &.B.g.g.g.g.g.g.g.g.g.g.g.g.,.,.g.5.g.%.g.B.g.g.g.g.f.g.g.g.g.g.g.g.5.1.,.<.1.<.<.4.&.b :.1X).z.B.g.g.m.g.g.g.g.g.g.5.<.<.<.<.<.-.-.-.&.) o.J U }.(.z.B.V.B.V.B.h.B.h.h.B.h.h.B.h.g.h.B.h.g.B.B.B.L.g.j.~.-.~ ~ E F x x j p + + - g o.$.6.Y.4X4X1X1X1XT.T.T.Y.6. .0.9.9.0. .7. .0.<X:X,X$X,X,X,X-X<X<X<X<XY.6.6.6.G.W.W.~.W.~.W.W.W.W.W.~.W.W.W.W.W.W.W.",
"*.*.-.) K K E E E T S A A j s > : $ $ t $ + + : g o.y.I.~.I.I.I.E.W.I.F.F.S.y.4.4.t.S.S.S.S.y.3.O.E F q C F F J J J H J J J J P P P P U P P P P F F P X.X.X.&.&.=.4.4.=.-.=.=.;.&.@.B.P.P.P.J.J.J.J.J.J.J.J.(.J.J.P.J.P.J.P.P.(.(.P.P.(.P.J.P.(.P.(.(.(.P.).{.(.].].(.`.`.].`.(.(.].`.`.(.P.E.D.&.b q 0 : +   g &.=.%.1.<.N M 8 8 8 8 8 8 8 8 8 8 8 8 8 8 8 8 M 8 8 8 M M M M M M M j.P.H.{.wXgXjXtXtXrXrXrXgXrXrXrXtXyXyXyXyXqX+XR.<.N M N N N N M M M M M M 8 8 8 8 8 8 < < < ; ; ; ; = = : > p s j l T R R T R R E O.u.R.W.~.W.W.W.R.R.R.R.W.W.^.R.W.W.W.R.R.W.~.T.[.xXuXiXyX0XyXyXyX0X~.~.~.!.R.iXyX|.+X~.!.!.W.F.W.~.~.~.~.~.~.~.W.W.W.W.W.R.R.R.5.~.pXyX}.@XD.) ~ E E T A j s p y f : + # : > s C -.D.g.g.f.g.g.g.g.g.g.g.f.g.<.,.g.5.,.%.j.B.l.,.g.g.f.g.g.g.g.g.5.g.g.1.,.,.1.5.<.4.&.b <.}.).z.B.m.g.m.g.g.g.g.g.g.m.1.<.<.<.-.=.-.-.) ~ ~ J ( }.(.z.H.h.B.B.h.h.B.h.z.B.h.h.h.h.g.B.h.g.g.B.B.B.L.,.D.E.=.O.~ R F x x f : + @ - C o.=.6.c.T.rXhXiX4X1X[.Q.Q.Y.^.b.T.9.6.F.T.b.9.*X9X8X8X7X9.9.9.7.T.T.T.T.W.T.T.W.W.T.~.~.~.~.~.W.W.~.~.~.Q.Q.~.W.W.W.",
"&.) &.&.K K E T T T S A A j s > : : $ $ $ O + 6 l &.y.W.~.I.I.P.W.I.I.E.R.S.t.t.t.t.W.W.W.R.S.t.3.o.P w w C n F F J J J J J J J J P P H H P P J F F P X.X.X.o.&.6.F.G.=.-.=.=.-.;.@.5.P.P.P.P.J.J.J.J.P.J.J.P.P.P.J.J.J.J.J.P.P.P.P.P.(.(.K.(.P.P.(.P.P.P.(.{.(.(.[.(.(.(.`.`.(.).].`.(.(.(.].E.-.Z q 0 : + & ; o.@.=.<.B 2 < < 8 8 < < < < 8 8 8 8 8 8 8 8 8 8 8 8 8 8 M M M M M 2 U #.( %.,.L.].yXtXtXtXtXtXtXyXyXyXaXaX+XL.<./ N N M 2 m M M M M M M M 8 8 8 < < < < < < ; ; ; * * + = : > p p s s j T R ! ! ! ! E O.u.R.!.~.W.W.W.W.W.W.^.W.W.R.W.W.W.W.R.E.~.~.~.T.vXvXiXyXyXyXyXqX0X0X~.!.!.F.yXyX1X+X+X!.!.~.R.W.~.~.|.~.~.~.~.~.~.W.W.W.E.W.R.y.E.xXtX}.+Xu.~ ~ E T G A j f y y a : + + : y s Z <.B.g.g.g.g.g.g.g.g.g.g.g.g.:.1.5.5.<.%.L.g.,.l.g.g.g.g.g.g.g.g.5.1.g.5.,.,.1.5.5.4.) b ,.1X).z.m.g.g.m.g.g.g.g.g.m.m.1.<.<.-.-.-.-.&.&.&.~ J ( }.P.z.H.H.B.B.h.h.B.B.h.h.h.h.h.h.g.B.B.g.j.B.h.B.A.%.E.R.&.O.! T A x x f @ + + - F o.=.6.c.Y.2XcXnXhX4X1X1X1XQ.1XQ.Q.1XT.T.T.Q.<Xb.b.<X9X5X9.3.7.@.7.Y.W.Q.Q.Q.~.W.~.Q.Q.Q.~.~.~.~.W.~.~.~.~.~.~.~.~.~.",
"&.) ) &.K K E T T T S A A j s > : : $ $ # O + 6 F ;.y.W.~.I.I.P.E.I.I.I.W.p.t.t.4.S.W.R.S.S.R.p.r.;.O.P w w n n C F F J J J J F F J P P P P H J F n H X.X.X.I @.6.~.E.6.<.-.-.-.;.&.:.L.P.J.J.J.J.J.J.J.P.J.P.P.J.J.J.P.J.J.J.P.P.P.P.(.P.J.P.P.P.P.P.(.(.P.[.).(.}.(.(.].].`.(.(.(.`.`.(.(.E.~.y.J q 0 : + & X U &.=./ M 2 < < ; < 2 2 2 < < < 2 < 8 8 8 8 8 8 8 8 8 8 8 8 8 8 8 2 m U B ' ' ' ( ,.D.~.0XyXtXtXyXaXaX+XZ./ B N N N m < 2 M M M M M 8 8 8 < 8 < < < < < ; ; = = * X + = - : : p s s s j j F T ! ! O.O.O.u.W.~.~.~.~.~.~.~.!.W.^.W.W.W.W.W.~.W.W.~.~.Q.T.vXbXpXyXyXyXyXqXyX0X!.!.+XR.|.yX0X+X0X+X0X!.~.!.+X+X|.0X~.~.~.~.~.~.W.W.W.W.R.S.D.pXtX0X~.*.~ E E T A A j s y y a # + + : p s Z u.B.g.g.g.g.g.1.f.g.g.g.g.1.:.5.1.1.%.,.L.g.1.g.g.g.g.g.g.g.g.g.5.,.1.5.,.5.5.5.5.<.I M 5.2X).z.m.g.g.m.g.g.g.g.g.g.m.1.-.<.<.=.-.-.&.&.) ~ J / }.P.z.V.V.V.B.h.B.B.h.h.h.h.h.h.h.h.B.h.g.h.B.j.L.m.,.~.m.&.~ ! T j x j p @ + + - F o.=.4.j.c.1X3XkXnXcXlX4X1X1X1X1X[.1X1X1XT.[.1X1XT.Y.b.7. .7.6.6.6.F.~.|.~.~.~.~.Q.Q.~.Q.~.|.~.~.~.~.~.|.|.|.|.~.~.~.",
"&.) &.;.K K E E E G S A A j s : : : : $ # O @ 6 J 3.S.~.T.I.I.I.W.W.E.E.W.G.6.6.y.F.F.S.m.S.R.p.r.;.o.E F q w g g F n V m J F F F F J P H J G J C w J o.X.X.I I 5.~.[.c.<.=.-.-.-.&.@.m.P.P.J.(.J.J.J.J.J.J.J.J.J.J.J.P.P.J.J.P.P.P.P.(.P.J.P.P.P.P.(.(.(.P.[.[.P.[.].`.`.].].`.(.`.(.].(.P.P.~.S.I q s : + .   w o.X.n 2 2 ; ; ; ; ; < 2 < < < < < < < < < < < 8 8 8 8 8 8 8 8 8 2 M U M M N N N N B ' $.,.j.I.A.A.5.( N N N M M M M < 2 8 M 8 8 8 8 < < < < < ; ; ; ; = = + + + + + - : > > p s s s d j A G E E O.;.;.y.W.~.~.~.~.~.~.~.!.~.W.W.!.W.W.W.W.E.W.~.~.~.~.pXbXvXuXiXyXiXiXyX0X0X+XqXW.qXqX0X|.+X0X0X0X0X0X~.+X0X0X~.~.+X~.~.~.W.~.W.W.W.R.G.yXpXwXE.&.~ E E T A A d s > t a # + # : > 0 J m.B.g.g.g.g.g.g.1.5.g.1.g.,.%.5.5.1.( m.H.g.1.1.g.5.5.5.g.g.g.g.g.,.5.5.1.5.5.5.5.<.I M 5.}.).z.h.g.g.g.g.g.g.g.g.g.m.1.<.<.-.=.=.-.;.&.o.~ J / }.P.V.V.V.V.B.h.h.h.h.h.B.g.h.h.h.h.B.h.m.B.h.h.L.5.5.+Xu.&.o.! T j x f 6 + O @ 8 J o.=.6.6.v._.oXhXhXkXcXmXhXiX4X4XiX4X4X1X1X4X4X1X1X1XQ.T.T.T.~.T.G.I.0X|.|.|.|.|.~.|.|.Q.~.|.|.|.|.|.~.~.1X1X1X1X1X1X",
"&.&.) ;.K Z E E E G G A A j s : : : : # O O : 6 P 3.F.Q.T.T.I.T.W.W.E.W.W.E.S.G.F.^.F.F.D.F.R.S.t.;.O.R P w 0 g g w n V V F F F F F F J J H H G F C F P I X.I X.1.I.[.H.6.=.3.-.-.=.#.<.L.P.J.(.J.J.J.J.K.P.P.J.J.J.J.P.P.J.J.P.P.P.J.K.K.J.P.P.P.P.P.P.P.P.(.[.(.].[.`.`.(.].`.`.`.(.].`.(.P.].R.&.d s > = X & ; P C 2 ; ; ; ; ; ; * ; * * ; ; ; ; ; ; ; ; ; ; < < < < < 8 2 2 8 2 2 J M M M M M M M N N N N N N N N M M M M M M 8 8 < 2 < 8 < 8 < < < < < ; ; ; = = = + + X + + = = : > > > s s s s s d A A G K E O.;.y.W.~.~.~.~.~.0X!.~.W.W.~.~.~.W.W.W.W.~.~.0X|.T.pXJXmXlXpXpXpXiXiXyX0X0X0XW.qXyX0X+X0X0X0X0XqXqX~.~.0X+X+X|.|.~.!.!.~.~.~.W.W.R.m.qXxXyXZ.~ E E E G F j d s > t a # + # : 6 q I m.B.g.g.1.g.g.g.1.5.g.1.g.,.:.5.5.<.( L.H.g.g.g.g.5.5.g.g.g.g.g.g.g.g.5.5.5.5.5.5.-.K 8 5.2X(.z.h.g.g.g.g.g.g.g.g.g.m.5.<.<.-.=.=.-.-.~ ~ ~ J / }.K.V.V.V.V.B.h.h.B.h.B.B.g.h.h.g.B.h.h.g.B.h.B.L.,.m.+X<.&.~ ! T x j f : O O @ 0 P X.=.6.6.Y._.oXrX4X4XrXcXcXvXvXmXpXpXpXiX4X4X4XyXyXyX1X4X4X1XyX0XT.I.1X0XyX0X0X1X1X1X1X0X1X|.0X0X1X0X0X~.0X0XyX0X0X0X",
"&.&.&.;.~ Z E E T G S A A j s : $ $ $ # O O - 6 P 4.E.~.T.T.P.T.~.W.I.E.W.W.R.R.^.R.R.W.F.W.R.p.r.;.o.E P F 0 0 w w g n C C F F C F n w V F J P F w C P o.o.I @.6.I.[.P.6.4.4.-.3.3.=.=.A.L.J.J.J.J.J.J.J.J.P.J.J.J.J.P.P.J.J.P.P.K.J.K.P.J.J.P.P.P.P.P.P.(.(.[.(.`.[.(.(.(.].].`.(.(.(.].`.P.].E.;.C s 6 - + & X 0 ; ; * * * - ; * ; * * * * * * * * * ; ; ; ; ; ; ; ; < < < < < ; * Z n M M M M M M M M M M M M M M b M 8 8 8 < < < ; * ; < < < < ; ; ; * * * X + = = = + & + + = = : > > > s s d d s d C C S G E E P t.W.!.~.~.!.!.0X0X~.W.W.~.Q.~.~.~.~.W.!.1X1X|.Y.iXJXbXvXxXpXpXpXiXqXyX0X0X~.0XyX0X0X0X0X0X0X0X0X+X|.0X0X0X0X0X+X+X!.~.~.!.!.!.!.D.+XLXyX<.~ ~ E T G A j d s > y t # + # : p d I m.B.g.g.5.g.1.1.1.5.5.g.g.:.,.5.5.#.%.E.B.g.g.g.5.1.5.g.5.g.g.g.g.g.g.1.5.1.5.5.4.=.J 8 j.2X(.z.h.g.g.g.g.g.g.g.g.g.m.5.<.=.=.=.=.*.-.&.o.~ J / }.P.V.V.V.B.B.h.h.B.h.B.h.g.h.g.h.h.B.h.h.B.g.B.L.<.D.+X-.&.~ R A j f f : O O @ 0 P &.=.4.6.Y._.oX4X5XoX5X2X4X3XhXvXbXvXlXlXlXiXiXiXiXiXiXyX4X4X4X1XQ.T.1XyXyX4XyXyXyX0X1X0X0X1X0XyX0X0X0X0X0XyXyXyXyXyX",
"&.&.&.;.~ Z E E T G A A A j s : $ $ $ # O O - 0 P 4.W.~.T.T.~.T.~.~.T.W.W.W.W.W.W.R.W.~.W.W.R.G.3.;.o.E P P l 0 0 0 w g g g C C C w n w w n F F F g w P o.I X.X.<.I.].).c.4.4.3.3.3.4.=.5.L.J.J.J.J.J.J.J.J.J.J.J.J.J.J.P.P.H.P.P.J.J.J.P.J.J.P.P.P.P.P.P.(.(.[.].(.[.].(.(.(.].`.(.(.(.].(.P.].~.-.C 0 6 - + O & - - * * * * = * * * * * * * * * * * * * * * * * * * ; ; ; ; ; ; ; 2 q n 8 8 8 8 8 8 8 8 8 8 8 M 8 < 8 8 < < < < < ; ; * ; ; ; ; ; * = * X X X + @ : : : + O + + = : : > > s s s s d d d D C Z S G K Z I y.R.W.~.!.!.!.!.!.!.!.0X~.~.~.~.~.~.0XyX0XQ.Y.4XvXvXvXlXuXpXuXuXiXyX0X0XQ.0XuX0X0X0XqX0X0XqXqXqX0XqX0X0X0X0X0X0X0X!.!.!.!.!.+XW.~.LX@X*.~ E T T G A j d s : t t # + : > 6 q &.m.m.g.5.g.g.1.1.5.g.1.5.g.%.,.1.4.( 5.E.h.g.g.g.g.1.5.g.g.g.5.g.5.g.g.1.5.5.5.5.4.@.J 8 h.wXP.h.h.m.m.g.g.g.g.g.g.g.m.5.<.=.*.=.*.=.-.o.~ ~ J #.}.P.V.V.V.V.B.h.h.h.h.h.B.g.h.g.h.h.B.h.h.B.h.A.B.:.E.~.-.;.~ T T x j p @ O O @ g P &.=.6.j.T.).oX2X X_._._._._._.2X3X1XK.jXkXkXcXmXlXpXlXpXuXrXiXyX4XT.0XyXyXyXyXyXyXyXyXyXyXyXyXyXyXyXqXyXyXyXtXuXxXxX",
"&.&.&.;.) Z E E E G A A A j s : $ $ $ + O + - 0 o.y.Q.[.~.~.T.T.~.~.W.T.~.~.~.~.W.W.W.Q.Q.W.F.p.t.;.o.O.R P F f 8 0 0 g g w w w g g g w w w g F F F n G X.I X.X.=.I.].[.H.5.4.4.4.4.4.=.6.A.H.J.J.J.J.J.J.J.P.J.P.P.J.P.P.P.H.L.P.H.H.H.P.P.J.P.(.J.P.P.P.K.K.].].(.].].(.].`.(.].(.`.].].].P.].~.4.C 0 > : + & . . + X X X + X X X X X X X X X X X X X X X X X X = X = - * ; ; ; ; * 8 n 8 < < < < < < < < < < 8 < < < < < ; < ; ; = = * = = = = = + X X + + + $ $ $ $ $ # O + = : : : > > s s d d d d d d C C Z S G Z Z I *.4.y.S.R.W.W.W.W.0XaXqX0X+X0X1XQ.yXiX1XQ.T.iXvXvXbXxXlXxXuXuXyXyX0X0XQ.0XpXyX0X0X0X0X0XyXyXyXyXqXqXyX0X0X0X0X0X!.!.+X+X0X+X~.~.xX~.&.~ T T T S A j s p : t t # + : > 0 d &.m.g.,.1.g.g.f.g.5.g.5.g.5.%.1.<.=.B A.P.g.g.g.g.1.1.g.g.g.5.g.g.5.g.g.1.1.5.5.5.<.I Z 8 A.2XP.h.g.m.g.g.g.g.g.g.g.g.g.5.<.=.=.=.*.-.-.o.~ ~ J #.}.P.V.V.V.V.B.h.B.B.h.h.h.h.g.g.B.B.B.h.B.B.h.L.B.%.~.E.&.O.E T x x f p + O O - g P @.=.6.j.P.K. X X_._._._.(.).)._._.v.z.2X2X2X3XhXjXlXvXvXxXxXxXxXxXyXiXuXuXuXuXyXuXuXiXyXuXuXuXuXpXpXpXpXpXxXpXtXtXwX",
"&.&.&.) ) G K E E G A A A j s : $ $ + + O + - w o.G.|.[.~.T.~.~.T.~.~.W.W.~.~.~.W.W.~.Q.~.W.S.y.r.o.O.O.R P P F 0 ; 0 0 0 q w q w q q 0 8 0 0 w C J n J P I P X.$.A.].{.P.j.5.4.4.4.4.<.<.B.H.J.J.J.J.J.J.P.P.P.P.P.J.P.J.P.L.V.L.L.L.H.L.L.J.P.P.P.P.P.P.K.(.(.[.(.].[.(.].`.`.].`.].].].].(.].~.4.n 0 > : + . O O & . . . X X X X X X X . . . . . . . X X X X X + X + + = = * - - * ; w < < ; ; ; ; < < < < < < ; ; ; ; ; ; ; = = = = + + X X + X + + + + $ : $ : : : : # O + = : : : > > 0 s d d d d d d C C Z Z Z D C J I / @.&.&.&.=.4.4.m.~.qXqX+X0X+X~.iXiXQ.~.T.bXKXbXbXxXbXxXxXpXiXyXqX0X|.0XpXyXyXyXyXyXqXyXyXyXyXyXyXqXqXqX0X0XqX0X+X+X0X0X+X+X~.pXD.) E T T G A j d f y : t t + + : > 0 g -.m.g.f.1.g.f.g.g.1.g.g.m.1.%.1.<.@.( ~.H.g.g.g.g.1.1.g.g.g.5.g.5.g.g.5.1.1.1.5.5.=.I n M H..XP.h.g.m.g.g.g.g.g.g.g.g.m.1.=.=.=.=.*.-.-.&.~ ~ J #.}.P.V.V.H.V.V.h.h.B.B.h.h.h.g.g.h.B.h.h.B.h.h.L.g.:.+XE.&.O.E T T j f p + . O - F I @.=.4.j.K.)._._.(._.(.(.(.(.).).).v.l.[.).K.(.).).{.1X1XwXrXuXuXxXyXyXxXcXxXxXxXxXxXxXxXxXxXxXxXtXyXyXwX@X|.].P.P.P.",
"&.&.) ) ;.K S E E G F A A j s : $ $ + O O + - g ;.D.|.[.T.~.~.~.T.~.~.W.W.~.~.~.~.~.Q.~.~.R.p.t.;.O.O.E E E P G F 6 8 0 0 0 0 8 8 8 w F F H F V V J n m X.X.I o.@.A.]._.).A.5.4.4.4.4.4.<.j.L.J.J.J.J.J.J.J.P.P.P.P.H.J.J.L.H.B.B.B.m.B.B.L.L.P.P.P.K.P.P.K.(.(.[.`.].[.].`.`.].].`.`.`.].].P.P.~.<.b 0 6 : + . O O & O + . . . . & & & & & & & & & & & & & & & & & & .   X X X + * * * 8 ; ; ; ; ; ; ; ; ; ; ; ; ; ; ; ; ; = = = + + + + + X . O + + $ $ $ $ : : : : : : $ O + + : : > > 1 0 0 q d d d d d C C C Z Z C b Z J J I I J J J B U U $.y.E.E.W.!.+XiX[.I.I.A.yXxXtXwXyXpXxXxXxXxXpXpXaX0XwXcXuXyXyXtXyXyXyXpXpXpXuXpXiXyXyXqXqXqXqX0XqXqX0XqXqX!.aX<.~ E T T G A A d s y : t $ + + : > 0 C -.m.g.f.1.g.g.1.1.g.1.g.m.:.:.1.<.U #.~.h.l.g.g.1.1.5.g.g.5.1.5.g.g.g.5.,.1.1.5.4.&.I n n P.2XK.h.m.m.g.g.g.g.g.g.g.5.g.1.=.*.*.*.*.-.-.&.~ ~ J #.|.(.V.V.V.V.V.h.h.B.B.B.B.h.g.h.h.h.h.h.h.h.h.L.g.<.+XS.;.O.E F T j f : . O O 6 F I &.=.4.j.Y.)._._.(.(.(.(.(.(.).).(.v.h.].K.J.J.H.H.H.H.H.H.Y.P.P.T.1.l.xXuXwX1X}.}.|.}.}.}.1XwX|.P.P.L.L.B.H.V.V.H.V.",
") &.) ) ;.K S E E G G A A j s : $ $ + O O @ - g -.W.|.).~.~.~.~.T.[.~.~.~.~.~.~.W.~.1X~.~.R.y.r.;.O.E R R E P P G l 8 6 6 0 8 8 n P o.o.o.;.;.;.o.;.;.&.o.X.X.o.$.A.)._.].A.6.4.5.4.4.4.<.5.H.J.J.J.J.K.J.J.P.P.P.P.J.P.P.L.V.g.5.1.<.<.5.m.B.L.P.P.P.P.(.P.P.(.].].`.[.].`.].].].].`.`.].[.(.E.~.=.b 0 6 : + . & O O O @ @ + O O . . . . & & & . . & & & & . & & & & & & & &     + X X ; ; * = = * = ; ; * * * = ; = = = = = = + + X X & O + + @ $ $ $ $ : : : t : : : t $ O + = : : > > 1 s s q q d d d d D C C C Z C D Z Z J J J Z Z m I =.@.#.U U / / &.OXaXj.j.m.$.1.h.c.g.$.<.6.j.A.W.|.|.+X@XtXbXcXjXxXpXpXuXpXxXxXxXxXxXpXpXpXiXaXaXqXqXqXqXqXqXaXOXR.&.~ E T T F A j d s y : t $ + + : > 0 C -.m.g.f.g.g.1.1.1.5.1.g.g.#.<.<.<.B 6.~.h.g.g.g.1.1.g.g.g.5.5.g.5.g.g.5.,.1.5.5.<.@.I b m ~..XJ.h.m.m.g.g.1.g.g.g.g.5.g.<.*.*.*.*.=.-.-.&.~ ~ J / |.(.V.V.V.V.B.h.h.B.B.B.B.h.g.h.h.h.h.h.B.h.B.L.,.,.qXy.&.O.T T T j f : . O + 6 F X.@.=.6.A.K._._.(.(.(.(.(.(.(.(.(.(.v.h.].H.H.J.H.V.V.A.h.h.h.B.B.B.$.%.}.].Y.H.H.H.A.H.H.H.H.H.H.B.B.V.h.g.h.h.B.B.B.",
";.;.) ) ;.K Z E E G G A j d p : $ $ + O O + - F 4.~.1X_.T.Q.Q.~.].[.Q.~.Q.~.~.~.~.0XyX1X~.S.y.r.;.O.O.E R R P P P P f ; 8 8 w X.o.;.o.o.;.;.&.&.@.;.;.-.;.X.X.&.@.A.).).].I.j.5.4.5.5.4.4.6.B.P.J.J.J.J.J.J.P.P.P.J.J.J.P.H.B.5.<.@.U U X.=.5.m.L.P.K.K.P.P.P.P.].].(.[.[.(.(.).).].].].[.[.].P.E.&.q 0 6 : - O . . O O + $ : - @ @ @ + + O O O O O O O O O O O O O O O O O O O . . . . + + X + X * = = = = = = * = = = + + + + O O & O O # # + $ $ $ $ : : t t t t t t : $ O + : : > > 1 u s s d d d d d D D C C C Z C b Z Z Z Z n n n m J J I @.*.U B B M -.4.( 1.1.B B #.%.( B N N B ( ( ( ( @.#.A.rX[.(.P.J.J.H.H.P.P.E.P.~.|.|.0XqX+X0X+X~.W.!.OXW.R.t.;.~ E T T T F A j s s : : t # + $ : > 0 Z <.5.1.1.1.5.5.5.5.g.1.g.1.#.1.<.*.N A.P.h.g.g.5.1.5.g.g.g.5.5.g.g.g.g.5.,.5.5.5.=.X.P b J ]..XH.h.m.g.g.g.1.g.g.g.g.g.g.<.=.=.-.-.=.=.&.o.~ ~ K #.|.(.V.V.V.V.B.h.B.B.B.B.B.g.g.h.B.h.g.j.h.h.B.L.,.g.qXu.;.O.T T x f s @ O O + 6 P X.@.=.1.A.)._._.(.(.(.(.(.(.(.(.(.P.z.h.`.J.H.H.V.V.V.V.V.V.V.h.h.m./ %.|.P.H.H.H.V.V.H.H.V.B.h.h.B.h.B.g.,.h.g.h.h.h.",
";.) ) ) ;.~ S E T G A A j j s : $ $ + O O + - F 4.~.1X).T.Q.Q.~.[.[.Q.~.Q.~.~.~.1XyXyX1XW.y.t.r.O.O.E R R E E P P P F f 8 0 P X.X.o.o.X.X.X.@.X.@.&.;.-.;.&.X.@.@.A.).).].P.m.5.4.6.y.5.4.6.m.L.J.J.J.K.J.J.P.P.P.J.J.J.H.B.g.,.&.I J J m m I <.B.L.K.K.P.P.P.(.).].(.[.[.(.).).].].].].].}.].P.E.I q 0 6 : : + . & O O O $ : : : : : $ $ $ $ # + + O O O O O + + + + + + + + + O O O . . X X X X X X X X X + = X X X + + X . O O O O + # # $ $ $ $ $ : : : t t t t t t t : O + = : > > 1 s s s d d d D D D D C C C C C q Z Z Z n n b b b 8 8 M M m m B / U M M N #.%.N M ( @.( B B N U U U B B B N %.].l.x.x.%.,.%.,.,.,.,.,.,.,.1.,.5.5.5.<.<.<.<.<.*.&.P E ~ T T G F A j j s s : : : + + $ : > 0 J -.5.,.1.5.5.5.g.g.5.5.g.:.#.1.<.L U ~.H.h.g.5.1.1.g.g.g.1.,.5.5.g.g.g.5.,.5.5.5.@.I P b J }.}.H.m.m.g.g.g.1.g.g.g.g.g.5.<.=.*.-.*.=.=.&.~ ~ E N / |.(.V.H.V.V.B.h.B.B.B.B.B.,.,.B.m.g.g.h.B.j.B.L.<.m.qX<.;.~ T T j f p + O O @ 0 P X.=.<.1.c._._._.(.(.(.(.(.(.(.(.(.P.h.h.].J.H.H.V.V.h.h.B.V.V.h.h.m.( #.|.P.z.z.V.V.h.z.V.h.h.g.h.h.h.g.,.,.g.g.g.h.h.",
") ) ) ) ) ~ S E E G G A j g s : $ # + O O @ ; P y.1X[._.Q.Q.Q.[.[.[.[.Q.~.Q.~.1XiXyX1XyXW.y.t.;.O.O.E R R E O.P P R R F g l P P P P P X.X.X.X.;.;.;.;.=.;.X.X.;.@.I.]._.].P.A.6.6.6.y.y.6.4.5.L.J.J.J.K.J.J.P.P.P.P.J.J.L.B.g.<.&.I ~ E P J Z U <.D.P.P.P.P.P.(.(.].(.).[.)._.[.].[.[.].].}.].].D.K q 0 6 > : + O & O O O $ : : : : : : : $ $ $ # + O + + + + + # # # # # $ # # # + + + + + . & . X X + X X X X X X X + X O O O O + # + $ $ $ $ $ $ : : : t i i y y i t t : O O , : > > 1 s s d d d d d D D D D C C C C b C Z Z n b b b q q 8 8 8 < 8 M Z m M M M U #.N 9 J ( ( B N B J J J B B B N %.`.l.x.,.,.,.:.:.%.,.,.:.:.<.<.#.#.*.@./ / ~ ~ I K K K E E T T G A A j d s p , : $ O + : : 6 0 G -.<.<.1.5.1.1.5.5.5.g.5./ :.<.=.N #.[.h.g.g.g.1.1.g.g.g.1.1.5.5.g.g.g.5.,.5.g.<.@.I G M I }.[.H.g.m.g.g.1.1.g.g.g.g.g.5.<.=.*.*.*.*.=.&.~ ~ E N / |.(.V.V.V.V.B.h.B.B.h.h.B.g.g.B.B.g.g.j.h.g.L.L.<.D.+X<.;.E T T l f : O O O : g P $.$.<.5.c._.oX_.(.(.(.(.(.(.(.(.(.P.h.z.].J.H.V.V.V.B.h.h.B.B.h.h.m.( #.~.P.z.V.B.h.h.B.B.h.g.g.h.h.h.g.1.,.g.g.g.g.g.",
") ) ) ) ) ~ Z K E G S A j s s : $ # + O + + ; X.G.1X[._.[.[.[.[.|.[.[.~.Q.~.|.rXrX4XyXyXW.y.3.;.O.O.R R G R O.E P P P P F F F P P P P X.X.X.X.@.@.;.;.;.;.X.X.@.#.I.).).).~.A.j.y.6.y.6.5.4.5.B.H.H.J.J.J.J.P.P.P.P.J.P.H.B.g.,.&.&.o.~ ~ ~ K Z U 5.I.K.P.P.P.(.(.].(.(.[.[.).).].[.[.].].}.].E.Z.J q 0 6 > : + O & O O O $ : 6 > > 6 : : : $ $ # + + # + + + + $ # $ $ $ $ $ $ # + # # + + + O + O O O . & & & . . + + + + + + + + $ # $ $ $ $ $ $ : : t t i i y p i i t : + O : : > > 1 1 s d d d D D D D D D C C C C q C Z Z Z b b b q q q < q < < < b b M M M B / B 2 M U U B m m B N B B B Z m / E.g.%.%.:.:.:.:.:.:.:.:.:.:.*./ / / ) ) I P K K K E E T T T G F F A j f s p # : # O # : : 6 0 G -.<.<.1.1.1.1.1.5.5.5.<.( *.<.*.M m.T.h.g.g.g.g.1.g.g.5.1.5.g.5.g.g.g.1.1.1.5.<.X.P P 8 *.}.].V.g.m.g.g.,.1.g.g.1.5.5.1.<.=.=.*.=.=.=.&.~ ~ E J / |.(.H.H.H.V.B.h.B.B.h.B.B.g.B.B.h.g.h.h.B.g.L.D.,.E.~.=.;.E T T l f : O O O - g X.@.$.6.1.c._._._.(.(.(.(.(.(.(.(.(.P.h.z.(.H.H.V.B.B.h.h.h.B.B.h.B.m.U #.~.P.z.h.B.h.h.h.h.h.h.g.h.g.g.g.,.,.1.g.g.g.g.",
") ;.) ) ) ) Z K E G A A j s p : # + O O O - 8 X.F.1X[.].].[.[.[.}.[.[.Q.[.].1XrXyXyXrXyXW.y.r.O.O.O.R R F R O.O.O.E P P P G F H H P P X.X.X.X.@.@.;.;.;.;.@.@.&.@.A.].).).].A.j.6.6.m.y.6.6.5.B.L.J.J.J.P.J.P.P.P.P.P.P.H.B.j.g.=.*.&.o.~ ~ ~ K Z / D.P.P.P.P.K.P.).).(.[.[.).].].[.[.[.[.[.|.~.u.Z q s 6 > : + . . O O O $ : : 6 6 6 : : : $ $ # + + # @ @ @ @ $ $ $ $ $ $ $ $ $ # # $ # + + O O + + + + + + + + + + + + # # + # $ $ $ $ $ $ $ : : : t t t : t p y i i t : + + : > > 1 1 s d d d d d D C D D C C C C C q C C Z C D b b q q q 1 1 < < < q q 8 8 8 m I U 2 < J U N m m m Z J J J m m ( E.l.%.%.:.:.:.:.:.:.:.:.:.:.*./ I L I ~ ~ K K G G T T T T T G F A A d f s y , : O O + : : > 0 K -.<.:.1.1.1.1.1.1.1.5.:.#.*.-.I M P.P.g.g.g.g.,.g.g.5.5.1.1.5.5.g.g.g.,.1.5.5.=.&.E G 8 <..X].B.m.m.g.g.,.5.g.g.5.g.g.1.<.=.*.*.*.=.-.&.~ ~ E J / |.(.V.H.H.H.B.h.B.h.h.B.B.B.B.m.m.g.m.B.B.g.L.A.,.W.W.-.;.E G T x p + O O O > F X.$.$.6.1.v._.oX_.(.(.(.(.(.K.K.(.(.J.h.z.(.z.H.V.V.V.B.h.h.m.h.h.B.m.U #.E.H.z.h.B.B.h.h.h.h.h.g.g.g.g.g.,.<.1.5.g.g.g.",
") ;.) ) ) ) G K E G G A j s p : # + O O + - 8 ;.W.1X[.).[.].].[.}.[.[.[.[.1XrXhXrX4XuXyXI.t.;.O.O.R R T j A O.O.O.O.O.P P P F F H P P X.X.X.o.X.@.$.;.;.;.&.@.@.@.A.{._.).].I.m.5.6.j.6.y.6.5.m.L.H.J.J.J.J.P.P.P.P.P.P.H.V.B.m.5.$.=.;.o.~ ~ ~ K U m.P.P.P.P.K.P.).].(.[.{.).).].[.[.[.[.].|.~.-.C d s 6 > : O O O O O O # : 6 : 6 6 : : : @ @ # + + # $ $ $ $ $ $ $ : $ $ $ $ # + + + + + + + O O O + # # # # + # $ $ $ $ $ $ $ $ $ $ $ $ $ : : : t : t i i t p p p i t t + O , : > 1 1 s d d d D d C C D D C C C C C q C C Z C C b b q q q 1 1 1 ; < < q q 8 < 8 J J M 2 m J J m m m m J Z Z m m ( L.l.%.%.:.:.%.%.:.%.%.%.%.:.*./ L L ~ L K K G G G G G T T T T F A j d s s : : $ O + + : : > 0 K -.*.:.<.<.1.1.1.1.1.<.*.<.=.-.J B ].V.g.g.g.g.,.g.g.5.5.1.5.g.g.5.5.g.1.,.5.5.*.&.o.J M 5..X).B.g.g.g.f.,.1.5.5.5.5.5.<.<.*.*.=.=.=.-.&.~ ~ E K / ].).H.L.H.H.h.h.B.B.h.B.B.B.h.g.m.g.g.B.B.g.L.A.,.~.E.*.;.E G T l p + + O + 6 G X.$.$.1.l.H._._.).(.(.(.(.(.(.(.(.P.J.h.z.(.V.V.V.V.V.B.h.h.m.h.h.j.g.U ( E.L.z.h.B.h.h.h.h.h.g.g.g.g.g.g.,.,.1.1.1.g.g.",
") &.) ) ) ) K G E G G j g s y : + + O O @ - w 3.Q.1X[.[.[.[.[.}.1X[.|.[.1XyXjXrXrXrXuXyXD.<.;.! E R T F s A O.O.O.O.O.P E P P J J H P P I X.X.X.@.@.;.;.;.@.@.@.@.A.{._.).].I.B.6.5.j.m.y.6.y.u.H.H.H.J.J.J.P.P.P.P.P.P.H.H.B.B.A.5.=.-.&.~ &.~ E J 5.P.P.P.P.P.P.).].(.).{.].[.[.[.{.{.].|.|.E.I b d s 6 : @ O @ O O % O + : 6 > 6 6 : : : $ @ $ + + $ $ $ $ $ $ $ $ $ : $ # # + O O O + + + + O O + + # # # $ @ $ $ $ $ $ $ $ $ $ $ $ $ $ : : : : i i i i i p p p p i t t # O : : > 1 u s d d d d D C C C C C C C C C q D Z Z C C b b q q q 1 1 < < < < < < < < < m J n 2 M J J m m m m m J Z Z m U L.g.%.%.:.:.:.%.%.:.:.%.%.:.*.I K K E L K G G G G G G G T T T A A j f s p : : # O + # : : > s E -.*.:.<.<.1.1.1.1.1.<.*.<.=.;.M $.].h.g.g.g.1.1.g.5.5.1.1.g.g.g.g.5.5.5.5.5.<.&.o.o.J M A.}.(.h.g.g.g.1.,.1.5.5.1.5.5.<.<.=.*.*.=.-.-.&.~ ~ E J / ].).H.H.H.H.h.h.B.h.B.B.B.B.h.g.g.g.m.B.B.g.L.D.1.~.S.&.o.E R T s # O O O @ 0 P $.$.%.5.l.Y._._.(.(.(.(.(.(.K.K.P.P.J.h.V.`.z.V.V.V.B.B.h.B.m.m.h.m.5.U / E.P.z.h.B.h.h.h.h.h.g.g.g.g.g.g.,.,.5.1.5.g.g.",
") &.) ) ) ;.K S E G A A j s > : + + O O @ - w 4.|.1X[.[.[.[.[.1X1X|.|.[.yXlXhXrXrXrXuX0Xm.-.O.E R G F j 0 F E o.o.O.O.O.O.P P J F H H P P I X.X.X.@.@.;.;.@.@.&.@.I.}._.).].P.B.m.5.j.m.y.6.y.5.B.H.H.J.J.J.P.P.P.P.P.J.J.H.B.A.I.~.5.*.-.&.&.~ o.U <.L.P.P.P.P.P.P.].).).{.[.[.[.[.{.{.{.|.|.m.J w g s > - O % $ O O O O + $ : 6 7 7 : : : @ @ @ @ @ @ $ $ $ $ $ $ $ $ $ # + + O O O O O + O O O + + + + + # # $ $ $ $ $ : : : $ # $ $ $ $ : : t : i i i i p p t p p p i t # O , : > s u d d d d d D C C C C C C C C C q D Z Z C C C b q q q 1 < < < < < < < < < < 8 m n 2 2 J N m m n m Z Z Z Z m B B.g.%.%.:.:.:._ :.:.:.%.%.%.*.L J K K K K G G G G G G G G T T A A j s s y # t # O + + : : > d E &._ *.<.<.<.1.1.1.1.:.<.<.=.~ M m.).h.g.g.g.1.1.g.5.5.1.1.5.5.5.5.5.5.5.5.5.<.@.o.o.Z M L.}.P.h.g.g.g.1.1.1.1.1.1.5.,.<.<.=.=.=.*.=.=.&.~ ~ P J U E.].H.L.H.H.h.h.B.h.h.h.B.h.g.g.g.g.m.B.B.g.L.A.1.~.y.&.~ O.q.j : + O O O - 0 P @.$.<.1.l.Y._._.(.(.(.(.(.(.(.P.P.P.H.h.H.(.V.V.V.V.B.B.h.B.B.m.h.g.5.U / I.H.V.h.B.h.h.h.h.h.g.g.g.g.g.g.,.,.5.1.5.g.g.",
") ) &.&.) _ L S E G S A d s y : + O O O + - n 6.1X1X[.].[.[.[.1X}.1X1X2XjXjXhXhXrXrXrX1Xy.-.O.R G F j s > F O.o.;.o.O.O.O.O.O.P F F H U U P X.X.X.X.X.@.;.o.o.&.*.Y.{.{.].).T.A.m.5.y.m.6.6.6.5.B.L.H.H.J.P.P.P.J.J.P.J.J.H.H.H.H.].|.G.=.@.;.X.X.$.G.I.P.(.(.(.(.(.].].).{.{.{.{.[.{.[.[.|.~.=.n w g s > $ O $ 3 @ O # O O @ : 7 7 7 7 7 7 7 5 4 3 3 @ @ @ $ $ $ $ $ @ @ + O . O O O O O O O O O O + $ $ $ @ @ $ $ $ $ $ $ : $ $ O $ $ $ $ : t : : t p p p p p t : p p i i $ O : : > 1 1 d d d D C C C A C C C C C C C q D C Z C C n D b q q q 1 1 1 ; ; ; < < < < < q n < * n J m n n n m m m m m N m.h.%.:.:.:.:.%.:.:.:.:.#.*.*.L J K K K K G G G G G G G G T T A j d s s > $ t O O + $ : : > g P ) ) *.*.<.<.1.1.1.1.<.<.*.=.J M E.P.l.g.5.g.5.1.5.1.5.1.g.g.1.5.5.5.,.1.1.u.=.@.~ o.n N I.{.P.h.m.g.g.5.1.1.,.,.,.5.<.1.<.=.=.=.=.=.*.&.~ E E G L E.].J.H.H.H.h.h.B.B.h.h.B.g.g.g.m.m.m.m.B.j.L.A.j.~.u.&.e.e.T > + O O O O : g o.@.$.6.1.l.v._._.(.(.(.(.(.K.P.K.P.P.J.h.J.(.V.V.V.V.V.B.h.h.B.B.h.j.5.U ( E.P.V.h.h.h.h.h.h.h.g.g.g.g.g.g.,.,.5.1.5.g.g.",
") ) &.&.) _ L Z E G A A j s y # + O O O + * J G.2X{.[.].[.].{.1X1X1X4XrXlXhXhXrXrXrXrX~.t.;.E T G F j > > F O.3.r.O.o.o.O.O.O.P P F J H U P P X.X.X.X.@.;.o.o.&.*.I.1X{.[.).T.L.m.4.5.6.6.6.m.m.A.L.H.H.J.P.P.P.J.J.P.P.J.J.H.H.H.P.}.0XT.5.=.6.S.~.0XI.P.).(.(.(.(.].].].{. X[.[.{.[.[.}.+XD.J w g s > : @ 3 7 3 $ O O O . . . o 4 5 e e e e e 7 4 e e @ @ $ $ $ $ $ $ + O . O O O O O O O O O + + # # $ $ $ $ $ $ $ $ $ $ : : $ $ + $ : : t t : t : p y p p p p : i i i i $ O $ : > 1 0 d d D D C C C A C C C C C C A q D C Z C C C C D q q q 1 1 1 ; ; ; < < < < < < 8 8 * q J m n n n n m m m m N m.h.%.:.:.:.:.:.%.:.:.:.#.:.*.I J G G K K G G G G S G A G T T A j d s p : : $ & + + $ : : > g E ) ) &.*.:.:.1.1.1.1.<.*.*.&.M U |.H.l.g.5.5.5.1.5.5.1.g.g.f.,.5.5.5.1.,.<.<.*./ &.o.q B P.[.P.h.m.g.5.5.1.,.,.,.,.5.<.<.<.-.*.*.=.=.&.~ ~ E E G J L.[.J.H.H.H.h.B.h.B.h.B.B.g.g.g.m.m.m.m.B.m.L.B.m.~.-.O.q.F > = + O . . @ > F o.@.$.1.l.h.K._._.(.(.(.(.P.K.K.J.P.P.H.l.J.(.V.V.V.V.V.B.h.h.B.h.h.j.g.U ( E.P.z.h.B.h.h.h.h.g.g.g.g.g.g.m.,.,.1.1.5.g.g.",
"_ &.&.) ) _ ~ Z E G A A d s y # + O O O @ ; U D.yX1X[.[.[.{.{.1X1X2XrXkXlXhXhXhXrXrXuX~.<.;.E T F j s > > T r.u.u.;.o.o.O.O.O.P P P F P P P U X.X.X.X.X.&.&.o.&.#.T.3X X[.].P.D.m.4.=.<.y.5.m.B.A.L.H.H.J.P.P.P.P.P.P.P.P.J.H.J.J.J.(.}.1XyX|.|.pXpXA.g.P.(.).(.(.P.(.].).[..X[.[.}.}.}.+XE.&.n g q 0 > @ @ 3 3 3 $ % o 4 5 [ [  .+.[ 5 5 5 e e e 4 4 4 7 3 @ $ $ $ $ + . . . & . . . . . O O O @ + @ $ $ $ $ $ $ $ $ $ $ : : : i : + $ : : : : : : t p p p p p p p i p p i $ O # : p s s d d D C C C C C C C Z C C C A d D Z C Z C C C C D q q 1 1 1 1 ; ; < < < < < < < 8 * ; m m n n n n m m m m m 1.B.%.:.:.:.#.%.:.:.:.:.#.*.:.L J G G G G G G G G A A A F T F A j d s p = : # O + + $ : : 6 g P I / &.*.*.:.1.1.1.<.*.*.*.I 2 <.|.h.l.g.5.5.5.5.g.g.1.g.g.g.1.5.5.<.<.*.<.=./ &.o.E 8 U P.[.H.g.g.g.1.1.1.,.,.,.,.1.<.<.<.-.*.*.=.=.&.~ ~ E E K N D.{.J.J.H.V.h.B.B.B.h.B.B.g.g.g.g.g.m.m.B.m.R.m.Z.R.O.T s - - + O O . . @ 6 G X.@.$.6.l.v.K._.(.(.P.(.(.P.K.P.K.P.P.H.l.J.P.V.V.V.V.B.h.h.h.m.h.h.j.g.U ( E.P.z.h.h.h.h.h.h.g.g.g.g.g.g.m.,.,.5.5.g.g.g.",
") ) &.&.) ) ~ Z E G A j j s : + O O O O - ; I I.yX{.).{.{.{.2X2X2X4XhXvXhXhXhXhXjXrXyXI.<.O.T F F j p : 6 O.u.p.u.r.o.o.o.o.O.O.P P F J P H U P X.X.X.X.&.&.X.&.%._.2X X[.[.P.A.4.@.Z K *.4.m.m.m.L.L.H.J.P.P.P.J.J.P.P.P.P.H.J.J.J.P.P.).2XtXuXrX].h.B.P.P.(.(.P.(.(.].].).2X{.[.[.}.|.Q.-.Z n g 0 > - o 3 3 3 3 4 r [ 8.#X#X*X#X#X#X..[ 5 5 e 5 4 5 5 4 7 3 @ $ $ @ . & & & o o % % 3 3 3 3 o o o o % @ $ $ $ $ $ : t t t i 7 t i $ # : : : : : : y p p p p p p p p i p i $ O + : p s s d d D C C C C C Z C C C Z A A d D Z Z Z C C C C D q q q 0 1 1 > ; < ; 1 < ; ; ; < ; * b Z n n n n n m m m M <.B.%.%.:.:.%.:.:.:.:.:.%.:.:.I Z G G G Z G G G G G F A A T F j j f s > : t O & + + $ : : > g P I I ) *.*.:.<.<.1.<.*.&.&.J M G.E.l.g.g.5.5.,.,.g.5.g.5.g.5.1.5.4.=.@.@.=.&./ @.o.E 8 #.P.).h.g.m.g.,.1.1.,.,.<.<.<.<.<.<.<.*.*.=.=.&.~ E E E G Z m.}.K.J.H.V.h.B.B.B.h.B.B.g.g.g.g.g.m.B.m.m.R.-.-.e.C 0 - = + + O . . + - f P X.@.6.j.l.v.(.oX(.(.P.(.(.(.P.J.J.J.J.H.l.J.P.V.V.V.V.B.B.h.h.m.h.h.j.g.U ( I.P.z.h.h.h.h.h.h.h.g.g.g.g.g.m.,.1.g.5.g.g.g.",
") ) &.&.) ) ) Z G T A g j s : + O O . + - < @.~.4X{.[.{.{.{.2X2X2X3XlXkXhXhXhXhXjXrXyXD.-.~ T F j s > > f O.u.p.u.t.;.o.o.o.o.O.E P P F G P P P P X.X.X.X.&.X.X.6.1X3X X{.[.P.j.$.m Z K ;.4.y.y.m.A.L.H.H.J.P.J.J.J.P.P.P.P.H.J.P.P.P.J.P.P.].}.K.H.H.L.P.E.).T.P.P.(.].].).}.{.].[.}.I.*.m w 0 6 > - @ 3 e 4 4 5 5 r ..#X*X,X:X*X#X*X#X0... .[ ] e 5 5 5 e e o @ @ . o o 4 e e e e e e e e e e e e 4 o o o @ : $ $ $ : t t : 7 i i i $ : i t t : y p p p p p p p p p p p p $ O + > > s s d d D C C C C Z S Z Z Z S C A d D Z C Z Z C C C D D q q q 1 1 1 ; < ; ; ; ; ; ; ; ; * < n n b n n n m Z m m #.B.%.%.:.:.#.:.:.#.:.:.#.:.*.I Z G G G S G G G G A G A A T A j j f p : : t O O O + # : : > g K K I ) &.*.*.<.<.1.<.&.&.I b N E.L.g.g.g.5.1.,.,.5.5.1.5.5.1.<.-.*.I I @.&.I X.I o.P 8 <.P.P.h.g.g.5.,.,.1.<.<.<.<.<.<.<.<.-.*.*.=.=.&.~ E E E G b <.}.P.H.H.H.h.B.B.B.h.h.g.g.g.g.m.m.m.m.m.u.&.8 J w ; - + + O O O . . @ 6 F P X.$.1.j.l.v.).oX(.(.P.(.J.P.J.J.P.J.J.V.x.J.P.V.V.V.B.B.B.h.h.m.m.h.g.g.U ( E.P.V.h.h.h.g.h.h.g.g.g.g.g.g.g.,.1.g.g.g.g.g.",
"_ ) &.&.) ) ) Z G T A j g p : + O O O + = 8 =.[.4X{.[.{.}.}.2X4X2X3XlXhXhXhXhXhXhXuXwXm.-.E T F j p : > g r.p.S.p.t.r.;.;.o.o.O.E P P P F P P P P P X.X.X.X.X.X.6.2X3X{.{.[.P.A.6.&.U &.t.y.y.y.m.B.L.L.H.P.P.J.P.P.P.P.J.P.H.P.P.P.P.L.P.I.I.I.H.H.H.I.P.P.).P.P.P.).].].].].}.|.~.y.U n 8 0 ; - - o 7 7 4 e 4 4 e ] 8.#X$X,X,X:X*X$X$X$X$X0...8...[ [ [ [ ] 4 o o 3 7 e e e e e e e e e ] ] ] { { { { e 7 4 o @ 3 $ : t t t i i t a : $ i i i : > p p p p p y p p p p p p : O + : y s d d d D D C A C Z Z Z Z Z Z S A d D Z C Z Z C C C C C b q q 0 1 1 ; < ; ; ; ; ; ; ; ; * * q w q b n n Z m m m #.A.,.%.:.:.#.#.:.:.:.#.#.*.*.I Z G G G G G G G G G G F A F A j j f p : : $ O O O + + : : > g G K P ~ &.*.*.*.<.<.<.&.~ K < @.].h.g.g.1.,.5.,.5.5.5.5.5.1.=.@.U P K J &.X.I I X.o.G M 5.P.P.h.g.g.5.,.,.,.<.<.:.<.<.<.<.<.=.*.*.=.-.&.~ ~ ~ E S D I |.P.H.H.H.j.h.B.B.B.h.m.m.m.g.m.u.y.y.*.J q ; q ; - + + O O O O . + : 6 P X.@.$.1.j.h.v.).oX(.K.(.(.(.P.J.J.J.J.J.V.l.P.P.V.V.V.B.B.B.h.B.m.h.h.g.5.U ( E.H.H.h.h.h.h.h.h.h.g.g.g.g.g.m.,.g.g.g.g.g.g.",
"*.&.&.&.) ) ) Z G T A j j p : + O O O + = 8 4.}.2X{.{.{.{.{.2X4X2X3XjXhX3XhXhXjXrXuX}.m.;.E T F j > : > P u.R.S.S.u.t.3.;.;.o.o.O.E P P F J P P H P X.X.X.X.;.&.A.3X2X_.[._.T.~.I.m.4.6.A.A.A.m.G.m.D.P.H.P.P.J.J.J.P.P.P.P.P.J.P.P.P.L.P.L.L.L.L.L.L.H.I.P.P.P.(.P.P.`.~.~.E.~.S.U M M 8 8 ; - - @ 3 e 4 7 7 7 4 e [ ..#X$X$X,X:X$X$X$X$X$X$X0.0.8.8.8...[ [ e 4 4 e e e e e e ] ] ] ] { { { } { } } } } } { c 4 % 3 7 t t i i t t p p t t i i y p p p p p y : p p p s p i i + + : y s d d d D C C C S S Z Z Z Z Z S A D b Z C Z Z Z Z C C C D q q q 0 1 > 1 ; < ; ; = = = - * o < q 8 q b n m Z m m ( L.x.%.:.:.:.:.:.:.:.#.#.*.*./ Z G G G G G G G A G F F C A A j j f p # t # O & O + + : : > g G G K ~ ~ &.*.*.:.<.*.I ~ Z < 4.P.l.5.5.1.,.5.,.5.5.4.5.<.@.I P J K P J &.I P I I ~ Z b D.P.P.h.g.1.1.<.:.<.<.<.:.<.<.<.<.<.<.*.=.=.*.&.~ E E E T C m D.~.P.H.A.h.B.B.m.j.h.m.g.m.m.y.u.;.J 8 8 ; ; > - + + + O O O & O @ : g P I @.%.1.j.h.v._._.(.K.P.J.(.P.P.J.J.J.P.V.x.P.P.V.V.V.B.B.B.h.B.B.h.h.j.m.U ( E.P.H.h.h.h.h.h.h.g.g.g.g.g.g.g.,.g.g.g.g.g.g.",
"*.) &.&.) ) ;.K S T A j s p : + O . O + = n 6.1X2X{.{.{.{.{.2X4X4XrXjXhX3XhXhXhXrXuX|.5.;.E T j s > : 0 O.u.R.R.R.p.t.3.;.;.;.o.o.O.P P P F J P H P P I X.X.o.;.D.4X2X_._.).T.T.~.~.~.T.T.T.~.I.D.D.D.I.H.J.P.P.H.J.P.P.P.P.J.J.P.P.J.P.P.L.L.L.L.L.I.Y.I.P.P.P.E.E.E.E.B.<./ J M 8 8 < < ; - = X - 7 e 3 e 7 7 e e [ ..$X$X$X$X#X$X$X$X$X$X$X0.0.0.......[ ] e e e e e e ] ] ] ] { { { { { { { { { } } } | | | } c 3 $ i t i i p i i p p i i i p p p p p p y : 7 p s s p 7 i $ + : y s d d D C C C C C Z Z Z Z Z S Z A D b Z Z Z Z Z Z C C C C n q q 0 0 > 1 1 < ; ; - = = * = o ; q 8 q b n n Z J m U A.l.,.:.:.:.:.:.#.:.#.#.%.:.&.Z S S G G G G A A G F F A A A j j s t $ t # # & O + + : : > g J G K ~ ~ ) &.*.*.<.@.I P n b Z.H.l.1.1.1.,.<.<.5.4.<.=.@.U I P K K K P &.U I I I ~ n J I.K.K.h.g.1.,.:.:.<.<.:.:.<.<.<.<.<.=.*.*.=.&.~ E K K T Y A b @.E.P.I.B.h.B.m.B.j.j.g.m.m.u.&.Z 8 < < ; = = = + + + O O O O & O $ 6 l P I @.%.1.l.h.v._._.(.(.(.P.(.J.J.J.J.J.P.V.x.P.P.V.V.V.B.B.B.h.B.B.B.h.j.m.U ( E.L.H.h.g.h.h.h.h.h.g.g.g.g.g.g.,.1.1.g.1.g.g.",
"&.&.&.*.) ) ;.K S G A j s p : + O O O + * m c.2X2X{.{.{.{.{.2X2X3XrXjXhXrXhXhXhXrXtX~.t.o.T F j s : > g ;.t.S.W.R.S.p.t.3.-.;.O.O.o.O.E P F l F H H H P X.I o.&.D.yX{.(.).).P.P.T.].].|.].].|.~.E.L.L.L.L.H.P.P.J.H.P.P.P.P.J.J.P.P.P.J.P.H.L.L.H.H.H.H.H.I.E.E.I.B.<.( N M M 8 8 < < ; - - = * @ 7 3 3 4 4 e e ] [ [ ..$X$X$X$X$X$X$X$X$X$X$X$X0.....8...[ 4 5 e e ] ] ] ] ] ] { { { { { { } } } } } } { } } | | | } e 3 7 i i i i p p p p p p i i i p p p i : : i 7 7 6 p p , + : p s d d d D D C Z Z Z Z Z Z Z Z Z S C b Z C Z Z Z Z Z C C C C d q 0 0 1 1 1 < ; ; ; - = = = + X 0 0 8 q n n Z J B B B.l.,.:.:.#.%.:.:.:.:.#.%.:.) Z G G G G G G G G G F F A F A j j s : $ v $ # O O + + : : > g C S K K I ~ ) *.*.*.I I P M B I.A.l.1.1.1.,.<.<.<.<.=./ U I P P G K G P o.U I I E E M ( P.J.H.j.5.5.<.#.:.<.*.*.*.<.<.<.<.=.*.*.*.*.&.~ E K E T A j q b m.E.L.B.g.B.m.m.m.m.u.<.) m < < ; ; - = X + + + + O O + O & O $ : 0 G P I @.<.1.l.l.v._._.(.(.(.(.(.J.J.P.J.J.P.V.x.P.J.V.V.V.V.h.B.h.B.B.h.h.g.g.U ( E.L.H.h.g.m.h.h.g.h.h.g.g.h.g.g.f.g.g.g.g.g.g.",
"&.&.&.&.&.) ;.K C G F j s > : + . O O + * U A.2X2X{.{.{.{.2XrX3X3XrXhXhXhXhXhXhXhXtXE.e.~ G A j > : > F r.y.y.R.^.R.R.p.t.3.;.;.O.O.o.O.P P F g F P H U I U m U 4.I.I.I.P.P.P.P.~.|.~.~.~.~.~.~.W.E.I.L.L.L.P.P.J.H.P.P.P.P.P.J.P.P.P.H.L.H.A.H.A.A.H.A.A.L.D.5.@.B M M M 8 8 8 < ; ; * * X X o 3 3 o 4 4 4 e [ ....8.$X$X$X$X$X$X$X$X$X$X$X$X0.........[ ] ] [ [ [ [ [ [ [ [ [ [ [ [ } } } } } } } | | } } } } } | w.w.c 3 i i i i p p p p a p i i p p p p : : : 7 7 c 7 p p , + : p s s d d D C C Z Z Z Z Z Z Z Z Z S C b Z Z Z Z Z Z C C Z C C d d q 0 1 1 1 1 < ; ; ; = = + + X ; 0 8 q b n Z J B B B.h.%.:.:.%.%.:.:.:.:.#.#.:.&.Z C A G G G G G G A F F A A A j j s : : $ $ $ O O O + # : > s d C G K K I ~ &.*.@.I ~ J < ( E.j.,.1.1.<.<.<.<.=.*.@.I I I P K G G J P I U I P E G 8 <.P.H.H.g.5.<.<.*.*.*.*.#.<.<.<.=.=.=.*.*.*.&.&.I K G G T A d q < J E.R.B.m.m.m.u.u.*.J M 2 2 ; ; = = = X + + + + O O O O O & O $ : g P P X.#.%.1.j.h.v._._.(.(.(.(.P.J.J.P.J.J.J.B.x.P.H.z.V.V.B.h.B.h.B.B.B.h.g.m.U ( E.L.H.h.g.m.h.h.h.h.g.g.g.g.g.g.g.g.g.g.g.g.g.",
"&.&.&.*.&.) ;.~ S G A g s > : + . . O + ; X.I.4X2X{.{..X2X2XrX3XrXrXhXhXhXhXhXrXrXyXD.e.~ G j s > : > R r.t.u.R.!.W.W.R.p.3.-.;.;.O.O.O.O.P P F w J J H U P m 2 2 M X.6.5.5.6.5.4.4.4.4.<.4.y.R.R.R.D.D.D.L.I.P.P.H.H.P.P.(.K.J.J.P.J.H.L.H.A.A.B.B.D.D.m.=.U m M M M 8 8 8 ; ; * * * X X . . 3 4 o 4 4 4 5 [ 8.#X0.$X$X$X$X$X$X$X$X$X$X$X0.0.0...8... .......8.8.0.0.8.0...........[ [ [ | | | | } 8.8.8.8.8.| | | | +.s.} 3 i p i p p p p p p p p p p p p : : 7 7 s c c 7 7 : + : p s s d d D C C S S S S S Z Z Z S S C b Z Z Z Z Z Z Z C C C C D d d 0 1 0 1 1 < < ; ; - = = + X * < 8 q b b Z J J B j.h.,.:.:.%.%.:.:.:.*.#.:.:.&.Z C A G G G G G G A A F j j A j f p # t $ $ $ O O O + + : : p s g F J G P ~ ) &./ I P Z 2 <.I.5.,.1.<.<.<.<.=.@.I I I I K J G J J J ~ I U U P E Z M 5.L.V.H.g.1.<.*.*.*.*.*.*.<.<.<.*.*.*.&.&.&.&.I P K G G A j d 0 < b -.&./ @.@.I J b 2 ; ; ; ; - = + + X + + + + O O O O O O O O $ > F P P X.$.$.1.j.h.(._._.(.(.(.(.P.J.J.J.J.J.H.B.x.P.H.V.V.V.V.h.B.h.h.B.B.h.g.m.( ( E.L.V.h.g.h.h.h.h.h.g.g.g.g.g.g.g.g.g.g.g.g.g.",
"-.*.) &.&.) ;.~ S G A g s > , + & . O + ; ;.T.2X2X1X{.2X2X4X3XrXrXrXhXhXhXhXhXrXrXwXD.-.E G j s : : > R t.4.y.W.qX~.W.^.R.t.3.;.;.;.;.o.O.O.P P F w F J H U U m 8 2 8 M m m m n M M M M n n J I &.-.4.u.m.D.L.L.L.L.L.L.J.P.K.J.J.P.H.H.L.A.B.B.m.y.<./ B M M M 8 8 8 8 ; ; * * o X X X . . 3 3 4 e e ] ] [ 8.$X$X$X0.$X$X$X$X$X$X$X0.0.$X0...........$X$X$X:X:X:X:X:X:X:X:X:X:X:X#X$X$X8.8.........8.8.8.8.8.8.8.8.8.8.| s.} 3 i p p p p a p p p p p p p p i : 7 s c r c 7 7 : + : p s d d d D D C S Z S S S Z S S S S Z b Z S Z Z Z Z Z Z Z C C C C d q 1 0 0 0 1 1 < ; ; - = X X X ; 8 8 b b m J J B g.h.,.:.:.%.%.:.:.:.#.#.:.:.&.n C A F G G G S A G A A j j j j s : $ t $ # $ $ O O O + + = : > 0 q q w F G P o.I E P n M j.B.%.:.:.:.:.<.<.=.I I ~ ~ P J J J J J J o.I I P P P n m m.j.h.h.1.<.<.*.*.*.*.*.#.*.<.*.*.*.*.&.&.@.@.I P G G A A g s 1 ; q Z < 2 < 2 2 ; * * ; * * * + + + O O + O O O O O O + O O O $ : 0 F P X.X.$.$.1.l.h.(._._.(.(.K.P.J.J.J.J.J.J.H.B.x.P.H.V.V.V.V.B.B.h.B.V.B.h.j.m.U ( L.H.H.h.g.h.h.g.g.h.g.g.g.g.g.1.f.g.g.g.g.g.g.",
"&.*.) ) *.) ) ) G G A j s : , O . . O X 8 =.[.3X{.2X2X2X2X3XrXrXrXrXhXhXhXhXfXrXrXwXD.-.E A g p : : 0 O.t.4.m.!.qX0X~.W.W.S.4.3.3.;.;.O.o.O.E P P F w F F J H P P 8 ; 8 8 8 8 8 q 8 8 q q 8 8 q n n J U I =.5.m.D.D.D.D.H.I.P.H.H.P.L.A.D.D.m.<.@.N M 8 < < < < < < ; ; ; = * * X X X . X 3 7 e ] } }  . .8.#X$X$X$X$X0.$X$X$X$X$X0.0.0.0.........$X$X&X$X$X$X$X$X$X$X$X:X:X:X:X=X:X=X=X=X:X$X$X$X$X8.8.8.8.8.8.8.8.8.8.s.| s.} 7 p p p p p p p p p p p p p i : 7 e 7 r l s 7 : + : y s d d d D C Z S S S Z Z Z S S Z S Z b Z S Z Z Z Z Z Z Z Z C C C g q 1 q q 0 0 1 1 ; ; ; = + X X ; 0 q 8 n n J J B 5.B.,.<.:.#.%.:.:.*.#.#.:.:.&.Z C C G G G G G S G F A j j j f s : : t $ # $ $ $ $ + + + + = - - ; > 1 0 0 q C C P E 8 J B.,.#.%.#.#.*.*.*.@.I I I P G J G J J J J o.P P U P G 8 I 6.,.g.h.,.<.*.#.#.*.*.*.@.*.=.*.*.*.@.@.@.@.I I P G A A g s > > ; q q ; ; ; ; ; - = = = = + X + +   & O O O O O O O # + + O O @ : g P P I X.$.$.1.l.h.(._.(.(.(.(.J.J.J.J.J.J.J.L.B.x.P.H.V.B.V.V.V.B.z.B.B.B.h.g.m.( U L.H.V.h.g.m.h.h.h.g.h.g.g.g.g.g.1.g.g.g.g.g.g.",
") &.) _ *.&.) &.G G A g s : # O . . + X 8 4.{.3X2X2X2X2X2X3X3XrXrXrXhXhXhXhXrXrXrX}.S.;.T A s > = : s O.3.4.A.~.qX0X~.~.W.R.y.3.3.3.;.O.o.o.O.E P P w w F F H H P P w ; < 8 0 8 0 0 0 q q q q w w n C m m J J I *.4.5.y.m.G.D.D.D.D.D.m.u.*.J M 8 < < < < ; ; < ; ; ; ; = * = X X . . o 4 e e [ [ .... .8.#X*X$X$X#X$X$X$X$X$X0.0.............$X$X:X$X$X$X$X$X$X$X$X:X:X:X:X:X:X:X:X:X:X:X:X:X:X&X&X$X#X#X#X#X%X8.8.8.8.8.8.s.s.c 7 i p p p p p p p p p p p i : s e 7 c l h 7 : : = > s d d d D C S S S S S Z Z S S S S G D Z S Z Z Z Z Z Z Z Z C C C C q 0 d q q q 1 1 1 ; ; - = X X = ; 0 8 q n J J B ,.V.,.:.:.#.%.:.:.:.*.#.:.:.-.C D C G S G G G S A A A j g j f p + t t # # $ $ $ t : : + + = = + = - = - ; ; ; < 0 g 8 &.5.#.*.#.#.#.#.*./ I I P K J G G J J J J P I K P P P J 8 ;.5.#.5.h.<.*.*.@.#.&.&.&.&.*.*.*.@.&.@./ @.I I P G G C j g s > = - 0 ; = = * = + = + + + + + X X X   + & . O O + + $ $ $ $ O + @ 6 F G U I X.=.$.1.l.h.)._.(.(.P.P.J.J.J.J.J.H.H.L.B.x.`.H.V.V.V.V.h.B.V.V.B.B.h.g.g.( B L.H.V.V.g.h.h.h.h.g.g.g.g.g.g.f.f.g.g.g.g.g.g.",
"*.&.) _ *.*.) ) G A A j s : + O . O + X w y.1X3X2X2X2X2X3XrX3XrXrXfXhXhXhXhXrXrXrX|.Z.&.G A s : = > s O.4.5.L.E.+X0X~.W.W.R.p.t.r.3.3.;.O.o.o.O.O.P F w 0 F J H U U P V ; ; < < 8 8 8 8 8 8 8 8 w w w n n Z J J J J U @.&.*.<.u.4.4.&.J n 8 < < 2 2 ; ; ; ; ; ; ; * * * * X X X X   o 4 e ] [ ......0.$X=X:X:X:X:X$X$X$X0.0.0...............$X:X:X$X$X$X$X$X$X$X:X:X:X:X:X:X:X:X:X:X:X:X:X;X:X:X=X=X&X&X#X$X#X%X%X%X%X%X%Xs.s.s.w.e 7 p p p p p p a p p p p p : s h 7 7 l l p 7 : - > s d d D D C Z S S Z S S Z S S S S G C Z S Z Z Z Z S Z Z S Z Z C C q 0 d q q q q 0 1 > ; ; - = X * ; 8 8 q n J J B <.V.l.%.:.%.%.:.:.:.:.%.:.:.-.Z C C A G G G S S A A A g j j f : $ t : # $ $ $ i i p a p 6 - + + = = = = = = = = ; ; 8 &.@.&.&.&.@.@.&.~ I P K K J G G G G F J Z I P G G G G n b 3.=.@.<.B.<.*.*.@.@.@.&.&.&.*.=.*.@.@.@.@.I I P P G A g s p : + X + ; - X X X + + + X X +     X X X . . . . + @ : : : : i : + + - 0 F P U I X.;.$.%.l.h.)._.(.(.J.P.J.J.J.J.J.J.H.L.h.x.`.H.V.V.V.V.V.B.V.V.B.B.h.h.m.( B L.H.V.B.g.g.h.h.h.h.g.g.g.g.g.g.g.g.f.g.g.g.g.",
"&.) ) _ *.*.) ~ E G F j s : + O O . + * J G.2X3X2X2X2X3X3X3XrXrXrXrXhXhXhXhXrXrXtX|.y.~ G j s : - > f O.3.m.A.A.~.|.~.~.~.^.S.y.t.3.;.;.O.O.O.O.O.P P F w w F J U U U P F ; ; ; ; ; < < 8 8 8 8 8 8 q q q n n C J J J J J J J J n 8 8 < < ; ; ; ; ; ; ; - = * * * * * X X X X .   o 4 ] [ ....$X$X=X=X=X:X=X:X:X:X$X$X$X$X$X0...........0.:X:X:X:X:X:X-X:X:X:X:X:X:X:X:X:X:X:X:X:X:X:X:X:X:X:X=X-X:X=X=X=X#X[ ] [ | 8.8.8.s.s.s.s.{ 7 p p p p p p s p p p p p : : h e e l l 6 7 : : > s d d D C C S S S S S S Z S S S S G Z C S Z Z Z Z S S Z Z Z Z C C q q g q q q q 0 0 1 < ; ; = X X - ; 8 8 n m J B %.B.x.%.:.%.#.:.:.%.%.#.:.:.-.Z D A A G G G G A A A A g j j s : $ t v # # $ t i p p f x l f 6 : - = = = + = = = - ; 8 J J G G P P I I K K P G G G G G G F F J J P J J J G F 8 J 4.@.( $.g.<.*.&.@.&./ ) ) / &.*.&.@.I X.@.I P P G F d s p : + +   X = * X X X X + +     & & . X + @ - - - 7 6 p p p p p s i $ + : f F K U X.X.;.$.%.l.v._._.(.J.P.J.J.J.J.J.J.J.H.H.h.x.`.H.V.V.V.V.V.B.z.B.B.B.h.h.m.( B L.H.V.B.g.g.h.g.h.h.g.g.g.h.g.f.f.g.f.g.g.g.g.",
"&.&._ *.*.&.) ~ E S F j s : + O . . + * U I.4X2X2X3X3X3XrX3XrXfXrXrXhXjXhXhXrXrXrX|.u.E G j f > : > f O.4.A.h.A.P.[.[.|.~.E.F.S.y.t.3.3.;.;.O.O.O.P E P F 8 w F m H U U U J ; * ; ; ; < < < < < 8 8 0 q q w w w n n n n n F F n < < ; ; ; ; ; ; - - = = * = * * X X X X X . . & 4 5 ] [ ..$X:X-X-X-X:X=X:X=X:X:X:X:X:X$X$X$X0....... .0.#X:X:X:X:X:X:X:X-X;X;X;X;X;X;X;X;X-X:X:X:X:X:X:X:X=X:X:X-X;X=X-X:X7X#X[ r e l l [ [ +.s.s.+.c p p p p p p p p p p p p : $ 7 7 e 7 h p 6 p : : s s d d C C S S S N G S S S S S S G Z C S Z Z Z Z Z Z Z Z Z Z C C q q C C D q q 0 0 0 1 < ; - = X = ; 8 8 n J J B #.B.g.%.:.%.%.%.:.#.%.#.%.:.-.J d A F S S G G A A j A j g f p $ : t $ # $ $ t t p f j F F F R F g 0 6 - @ + X + - * 8 0 ; 8 0 0 0 w w w g g C C F C C S C C F G G F F F F g 8 X.4.U U *.5.:.#.@.&.&.) / ) / / *.@./ I o.I I P P F g 0 > : + + O & + + X + . . & . . X X o - 6 6 f g g F F F F F F T F l l f : + : g F G P X.@.$.$.$.1.h.)._.J.K.J.J.J.J.J.H.J.J.H.H.h.x.`.H.V.V.V.B.V.h.z.B.B.B.h.h.m.( B L.H.V.B.g.g.h.g.h.g.g.g.g.g.g.g.f.f.f.g.g.g.g.",
") &._ ) *.-.) ~ E A A j s : + O . O + ; @.T.rX2X2X3X3X3XfXfXfXrXrXrXhXjXhXrXrXrXrX|.<.E G A f y : p g O.4.j.A.A.H.P.}.|.~.W.R.R.S.y.t.3.;.;.;.O.o.O.E P O.P 8 w F J J U U U H 8 * ; ; ; ; ; ; ; ; < < 8 0 0 q q q w w w w q 8 8 ; ; ; ; ; ; = * * * X * * * X X X X     . . & 4 [ [ ..#X7X6X6X;X-X:X=X=X:X:X=X:X:X:X:X$X$X$X$X....[ $X:X$X$X:X:X:X:X:X:X:X:X:X:X:X:X-X;X;X;X;X;X;X;X;X-X:X=X=X=X:X=X;X;X-X=X7X#X[ r +.+.+. .[ l { } s p a s p p p p p p p a p : $ 7 r r 7 7 : : p : : s d d D C C C S G G G S S S S S S G Z Z S G G Z Z Z Z Z Z Z S S C d d C C D b q q q 0 1 1 ; ; = + X ; 8 q n Z J J @.B.j.%.%.%.` %.#.#.#.#.%.:.<.J d A A S G G G A A g j j f f 6 + t t # # $ $ t i p f F R P R r.r.O.O.P l f 8 - * * X ; ; X X + = = = = - - - - ; 0 0 0 d g g g F C g C g g 0 < ;.&.U / &.1.#.@.&.) ) ) &.I I @.@.@.I I ~ I P P F g > : + + . . . . X X X * - - 6 0 0 l F F P P O.O.O.O.O.O.O.;.O.O.O.O.O.R l 7 + 7 g F P P I X.@.=.$.1.h._.).J.J.J.J.J.J.J.H.J.H.H.H.h.x.`.H.V.V.B.B.V.B.z.B.B.B.h.h.m.( B L.L.V.B.g.g.g.h.m.h.g.g.g.h.g.g.g.f.f.g.g.g.g.",
"&.&.*.*.*.*._ ~ E G A g s : + O . O + ; 6.[.hX3X3X3X3XfXhXhXfX3XrXrXhXjXhXrXrXrXtX~.-.E S j f y : p j G =.D.I.A.H.H.].0X|.~.W.R.R.S.p.t.3.;.;.;.O.O.O.O.O.O.F ; 8 C F F H H H J w * * - - - ; ; ; ; ; ; ; ; < 8 8 0 q 0 0 8 ; ; ; - = = * = = * X X X X X X X X . .   & & & o +...0.7X6X6X;X-X-X-X-X-X:X:X:X=X:X=X:X:X:X:X$X$X....#X=X;X;X;X;X;X;X-X-X-X:X:X:X-X-X-X:X-X-X=X;X-X;X;X;X;X;X;X:X:X=X:X=X;X;X=X=X7X#X . .+.+.+.+.[ 7 7 p a f p p p p a f p p p p : + 7 7 c l 7 : p p > : y d d D C C S S G G G K G G G G S S S C S G Z Z G Z Z Z Z Z Z Z C d q C C C b b q q q q q 1 ; - + X = 0 q b m B B ( j.h.%.%.%.%.%.#.#.#.#.#.*.<.K q A A G G G F A C j j j f s : $ t $ # # $ $ t i p j T R X.;.y.t.3.;.;.O.o.O.P F g w 8 8 * X   & & & & & X X X X + = - - ; > > 0 0 0 g g 0 ; < ;.I U U #.5.#.@.X.~ ~ ~ I X.I I @.X.I I ~ E G A s > + . . . X @ @ o 6 O.X.X.o.o.3.3.3.3.3.3.3.3.3.3.r.r.r.r.r.3.3.r.r.r.e.q.O.p + 7 f F P P I @.;.;.$.1.v._.(.J.J.J.J.J.J.H.H.H.H.H.H.h.x.`.H.V.V.V.V.B.h.z.B.B.B.h.g.m.( B L.L.V.B.g.g.h.h.h.h.g.g.g.h.h.g.g.g.f.g.g.g.g.",
"&.&._ _ *.*.;.~ E S A g p : + O . + X 8 6.2XrX2X3X3X3XfXhXfXfX3XrXhXhXhXhXrXrXrXyXR.&.G A j s y : p f G -.E.E.H.H.H.I.].}.|.~.W.W.S.S.y.t.3.-.-.;.O.O.O.O.O.O.F ; ; 0 l l F J J F w ; * * - - - - - - ; ; ; ; ; ; ; 8 ; ; ; ; * * * * X X X X X X X X & & & & & &     & & & [ #X=X7X;X;X-X;X;X;X;X;X;X;X;X;X-X-X:X:X:X:X:X$X$X$X:X:X:X:X:X:X:X-X;X;X;X;X;X-X-X-X-X-X-X-X;X;X;X;X;X;X;X6X6X6X;X;X=X:X=X;X;X;X=X7X7X9. .+.+. .+.+.f p p a a p p p a p p a p a p : $ @ e 7 7 : : y p p : > s d C C S Z S G G K K K K G S S K S C S G Z Z K G G Z Z Z Z S Z D D Z Z Z C n n b b q q 0 ; - = + X ; 0 n n B B ( l.h.%.%.%.%./ / #.#./ #.#.<.I q A F G A A F A C A j j f p , : t $ + $ $ : t p s F R O.o.t.y.y.t.t.t.r.3.r.3.;.;.;.o.o.X.H F 0 8 - * X X X X X X X X X X X + - - - > 6 > - - A G J U @.6.@.@.X.~ ~ ~ ~ ~ I I I I P G C g 0 ; = X & . X - 8 0 f F X.u.W.p.t.y.y.y.p.y.y.y.t.y.y.y.t.t.t.t.t.t.t.t.t.r.r.e.O.f + : f F P P I &.&.&.=.<.H._.(.J.J.J.J.J.J.H.H.H.H.H.H.h.x.P.H.V.V.V.V.B.h.z.V.B.B.h.g.m.U B L.H.V.B.g.g.h.h.h.h.g.g.g.h.g.g.g.g.g.g.g.g.g.",
"&.*.*._ *.*.&.~ E S A d 6 : + O . + X M A.3X3X4X3X3XrXhXhXfXfXfXrXrXhXhXhXrXrXrXwXZ.~ T A j s > - p s G -.I.P.Y.H.H.H.H.|.0X|.~.W.R.S.G.y.t.3.3.;.;.O.o.O.O.O.O.P 8 o * 6 f C C F C w ; * * = = * = - - - - - ; ; - - - - * - + X X X X X X X . O & & & & & & & & & & & & o 0.7X;X;X;X>X>X>X;X;X;X;X;X;X;X;X-X-X-X:X:X:X:X$X:X:X:X:X:X:X:X:X:X:X:X:X:X;X;X;X;X;X;X;X;X;X;X;X;X;X;X;X=X=X6X6X6X6X6X6X=X:X=X6X7X7X7X7X0.[ +.+.+.F h p a a p p f a f p a a p p i : $ + 7 e @ : : y p p > > s d A A C Z Z G J K K K K K K K G Z Z G K G G K G G G Z Z Z S S C C Z Z Z Z Z m n n n n 0 ; ; = + X = 0 w n B U ( ,.h.x.%.%./ / / / / / @.#.<.) b C A A G A F A g A j d f p # t t $ + # $ t t p g F O.O.3.p.t.t.t.t.t.t.t.t.t.t.t.3.r.3.=.3.3.3.;.o.o.P P F F w 0 8 - * X . . . . . X @ - - = = 0 G P X.<./ I I I I I ~ ~ ~ E G C 0 ; * o   o X * 8 0 l F P O.o.o.;.=.F.!.F.G.S.p.S.p.p.S.S.S.t.p.S.p.p.p.p.p.y.t.t.t.r.e.O.f + : s F P I X.X.@.&.#.<.H._.(.J.J.J.J.J.J.J.J.H.J.H.L.m.f.P.H.V.h.V.V.V.h.z.h.B.B.h.h.m.( N L.H.V.B.g.g.h.h.h.h.h.g.g.g.g.g.g.g.f.g.g.g.g.",
"&.&._ ) *.*.&.~ E G A d s : + + O + X m T.fXfX3XrX3XrXhXhXfXfXfXhXhXhXhXhXrXrXrX@Xt.~ T A j s > : p s G *.D.I.H.H.H.H.H.P.}.0X|.Q.W.F.S.S.p.t.3.3.3.;.O.O.O.o.o.o.O.0 X   X ; > 0 0 0 0 ; X X X X X + - - - = = - - - = + X + + X X X X . . . . & & & & & & & & & & & & & 5 <X8X;X;X>X>X>X>X>X>X8X8X>X;X;X6X6X:X:X:X:X=X:X=X=X:X;X;X;X-X;X:X:X:X:X=X:X:X:X-X;X;X;X;X;X;X;X;X;X;X;X6X6X&X$X#X7X7X6X6X6X=X:X7X7X7X7X7X<X .l H F Y f p a a f p p f f p a f p p p t # + $ 7 @ : : y y p p > s j A A C Z Z N J K G K K K K K K G Z Z K K G G K G G G J J G G C Z J J J J Z J Z Z Z C q ; ; - + X * ; 8 n m J B %.h.x.%./ / / / / / / / / *.=.n C A A A A A C g j j s s : : t v # + # $ : t p j R o.;.t.S.y.y.y.t.y.y.y.y.y.y.y.t.t.t.4.t.t.t.t.r.r.r.3.3.3.;.;.O.o.O.F l f 6 8 - X X X X X + X 0 P P =.I I P E P P K F g 0 X o     * 8 0 H X.X.o.;.;.;.;.;.;.-.3.4.=.W.qXR.D.S.S.S.S.S.S.S.t.3.p.R.y.p.p.p.p.y.u.u.u.r.q.j + : 6 g E o.X.@.&.;.=.6.H.).J.J.J.J.J.J.J.J.H.H.J.H.H.h.f.P.H.h.V.V.V.V.h.z.h.B.B.h.h.m.( N L.H.V.B.m.g.h.m.m.h.h.g.g.g.g.g.g.g.f.g.g.m.g.",
"*.*.*.) *.*.&.~ E K C d s - + + + + * X.[.hX3XrXrXrXfXhXfXfXfXfXrXhXhXhXhXrXrXtX~.<.E T A j s : : y s A &.A.I.K.H.H.H.H.H.P.0XyX|.Q.W.F.S.S.y.t.t.r.3.;.;.o.;.;.o.o.O.R w *     X o X X - : X X + X + + + = = = = = + + + + + X X X . . . . . . & &         . . X X X   o 8.9X8X8X8X8X8X>X>X8X8X8X8X8X8X8X;X:X-X;X;X-X:X:X=X:X:X;X;X;X;X;X;X=X=X=X=X=X=X-X;X:X;X6X;XGXGX6X6X6X6X;X;X6X6X#X....8.#X&X7X6X7X=X=X7X7X7X7X9.r H F Y f p p a p f a f a a p f a p i : t $ $ 7 $ : y > y p p > s j A A Z Z Z J J K K K K K K K K K Z G K K K K K G G J K J K G b J J J J J J J J J J J q < ; - + X - ; 8 n m J U $.g.x.%./ / / / ( / / / / #.5.&.n C C A C A A C g g s p # : t v # + # $ : y s F O.;.3.p.p.p.S.S.p.p.y.y.y.p.y.y.p.y.y.y.y.y.y.t.t.t.t.t.3.t.t.r.r.r.r.3.;.;.O.O.O.F l g f 0 8 * * 8 P &.K J C w 8 ; ; * * * 8 w H X.3.r.t.u.u.t.t.y.t.t.3.;.-.r.t.4.4.4.~.qXW.F.S.S.S.R.R.R.R.p.t.t.-.p.R.S.S.S.p.p.t.i.e.j + : 6 g O.3.X.@.&.;.#.1.Y.(.J.J.J.J.J.J.J.J.V.H.H.H.L.m.f.P.H.V.H.V.V.z.h.h.h.B.B.h.h.m.( N L.H.V.V.g.f.h.m.m.g.g.g.g.h.h.g.g.f.g.g.g.g.g.",
"*.) *.) *.-.&.~ ~ E C d s : + O O + * =.1XhX3X3XrXrXhXhXhXhXfXfXhXrXhXhXhXrXrXrXR.-.E T A d s y , y s C &.A.I.H.H.H.H.H.H.P.].yX0X|.~.^.R.S.S.y.t.t.3.3.3.3.3.3.;.;.;.;.3.X.H 8 - X o           & . . X X X X X X X X X X . & &     & & & . . . X X * - 7 6 7 7 6 8 7 o  .9X8X8X8X8X8X>X>X8X8X8X8XNXNX8X-X-X;X6X6X;X-X:X;X-X;X-X;X;X;X;X;X;X;X=X7X=X=X=X;X;X;X:X;X6X6X6X6X6X6X6X6X6X6X6X6X7X..[ ..8.$X#X7X7X:X=X7X7X7X<X+.r F l f p p a a f f f f f a f f a p t t $ @ i $ : y > p p s p s j A A S Z S K K K K K K K K K K K Z K K K K K K K K G J J K K n K K J J J U J J J J J w 8 6 - - X ; ; 8 w m B U ( 1.,./ / ( ( / ( L L / / #.<.y.;.C C A A A C C g g s y # t t v O + # : : p s R O.3.t.S.S.S.S.F.S.p.p.p.p.p.S.G.p.S.y.p.p.p.p.p.p.y.p.t.t.t.t.t.t.t.t.t.4.3.r.r.3.;.O.O.o.X.X.H V 8 n P n ; ; ; 8 w H X.3.t.p.p.S.G.S.S.S.S.S.S.S.S.S.p.t.3.t.t.t.t.t.t.4.~.qXW.^.^.^.R.R.R.R.R.R.p.S.R.R.F.R.R.S.S.y.u.e.j + : 6 g O.3.$.@.;.;.$.1.K.(.J.J.J.J.J.J.J.H.H.H.H.H.H.h.g.P.V.V.V.V.V.h.h.h.h.B.B.h.h.m.( N L.L.H.h.h.g.h.B.m.h.g.g.g.h.h.g.g.g.g.g.g.g.g.",
"*.-.-.) &.-.-.) &.E A d 0 : + O + + ; 6.4XhX3XrXrXfXhXfXhXhXfXfXfXfXfXhXhXrXrXwXB.;.E T j j s y , y s C I m.I.H.H.H.H.H.H.H.H.].wXyX1X~.W.F.S.p.y.y.t.t.3.3.r.3.-.3.3.3.3.3.3.r.;.O.O.X.P l w 8 o o o         o o o * * * 8 8 8 0 w l l l H H F X.X.O.o.O.X.F l g w 5 r <XVX8XNX8X8X>X>XGXNXNXNXVX8X;X;X8X8X8X6X;X;X-X;X;X;X6X=X;X6X;X;X6X;X;X;X;X;X;X;X;X6X6X;X=X6X6X6X6X6X6X6X6X6X6X6X6X6X7X..8.8.#X#X#X&X&X#X&X7X7X7X#Xr l l f p p a a a a f f f a a f z a i t $ + $ : : y p p p s s s g A C S S G K L L L L L K K K K K J K K J J K K K K K K K K J Z K K U U U U U U U U J n 8 0 ; - X ; 0 2 w n m J U <.1./ ( ( U L U L L L / / <.t.;.Z A A A C g C g s s : : t t $ O # $ : : p g O.;.3.p.S.G.S.S.F.S.G.G.S.S.S.S.G.S.S.S.G.S.S.S.S.S.G.S.p.p.y.y.y.y.t.t.y.y.t.t.t.r.r.r.o.;.R.p.4.3.o.V V X.;.=.3.t.p.S.S.F.W.S.S.S.S.F.R.R.S.S.S.S.S.S.S.y.p.p.t.t.t.t.t.t.4.1XyX~.W.W.W.W.^.W.W.W.W.W.W.R.R.^.^.R.R.p.u.e.j # $ > g O.3.X.@.;.;.$.1.K.K.H.J.J.J.J.H.H.J.H.H.J.H.V.h.l.P.H.V.h.V.V.B.h.z.B.B.h.h.h.B./ N L.L.V.h.m.1.g.m.m.h.g.g.g.g.h.g.g.g.g.g.g.g.g.",
"&.*.*.) *.-.-.) &.K A d 6 : + O + + < G.rXhX3XrXrXhXhXhXfXfXfXfXfXfXfXhXhXhXfX.Xu.&.E T j f s y , y s C K u.L.H.H.H.H.H.H.H.H.K.].1XyX0X~.E.F.S.y.y.y.t.t.r.r.3.r.r.3.r.r.t.t.r.r.r.t.t.3.3.3.o.O.X.X.X.X.X.X.X.X.O.X.O.;.3.3.3.3.3.3.3.3.3.r.t.t.t.t.t.;.o.O.P P F r 9.sX8XCX8XGXNXNXCXCXVXVX8X-X-X8XNX8X8X8X6X;X;X6X;X;X6X;X:X6X6X6X6X6X6X6X6X6X6X6X6X6X6X6X6X=X;X6X6X6X6X6X6X6X6X6X6X6X6XAX&X8.%X#X#X#X#X#X&X&X&X7X7X<X+.0 l f p p p a f a f f f f f f f p i t $ # + : : y y p p s s s g A A S Z N K L L L I I I K K K K J K K J J K K K K K K K K J Z K L L U U / / / U I I Z q q ; - X < C 8 8 n m U B #.,./ ( U U U J N J U U ( *.<.I Z A A C g g g g s p : : i t # # # $ : : p l O.-.t.R.F.S.S.F.F.F.D.S.S.S.S.p.G.S.S.S.S.S.S.S.S.S.S.S.S.p.p.p.p.y.t.t.p.y.t.y.t.t.t.r.o.&.R.W.F.S.S.S.S.F.R.R.F.F.F.F.G.G.E.R.S.S.S.S.F.F.S.S.S.F.R.R.S.S.R.S.p.y.y.y.y.y.4.y.0XiX1X~.W.W.W.W.W.W.W.W.W.W.W.W.^.W.R.S.y.r.j # v : d O.;.X.&.;.=.$.l.K.K.J.H.J.J.J.V.J.H.V.V.V.H.H.h.l.P.H.z.z.V.B.B.h.V.B.B.B.h.h.m./ N D.L.h.j.m.g.g.m.h.h.g.g.g.h.g.g.g.g.g.g.g.g.g.",
"*.*.*.) ) *.-.) ;.E C d 0 : + O + * 8 W.hXhX3XrXrXhXhXhXhXfXfXhXhXfXhXhXhXrXtX|.u.~ E T j s s > , : s g K 4.H.H.H.H.H.H.H.H.H.P.K.P.|.0X0X~.W.F.S.y.y.y.t.t.t.t.t.t.t.t.t.t.t.t.t.t.y.p.t.t.r.r.3.3.t.t.t.t.t.u.t.t.t.t.t.t.t.t.t.t.t.t.y.t.p.S.p.y.S.y.4.3.;.o.O.H  .sXVXNX8X8XNXCXVXZXZXsX#X,X>X8XNX8X8X8X8X8X8X8X8X;X8X6X6X;X6XNX8X6X6X6X6X6X6X6X6X6X6X6X6X6X;X;X6X6X6X6X6X8X6X6X6X6X6X6X6X6X#X8.%X%X%X&X#X&X&X&X&X7X7X#Xr l f p p p a f f f f f f f f f a t t t # $ : : p p p p s s s d C S S Z K L L / / / ) I L L L L K K K K K K K K K K K K K J Z L L I / / / / / / / I J n q 0 - * < J M 8 n m J B ( ,.( U U J N J J N J U U / *.K Z A C C g g g g s > : : t t # O # $ $ t s F ;.t.S.R.F.F.F.E.E.R.F.D.S.S.S.S.S.S.S.S.F.S.S.S.S.S.S.S.S.S.S.S.S.S.y.y.p.t.t.y.t.t.t.r.;.I p.W.E.F.F.R.E.R.R.E.E.R.E.E.R.D.F.W.R.R.F.S.F.R.F.F.F.R.R.R.S.S.R.S.S.p.p.p.p.p.y.6.y.qXiX1X~.W.!.!.!.W.W.!.~.!.W.W.W.W.W.R.p.r.F # v : s O.;.X.;.;.;.$.j.P.J.J.J.J.H.H.H.J.V.V.V.V.H.H.h.g.P.H.V.V.V.B.B.h.V.B.B.B.h.h.B./ N D.L.h.h.m.g.g.m.h.h.g.g.g.m.g.g.g.g.g.g.g.g.g.",
"*.*.*.*._ *.*.) -.K C g 0 - + O + X m |.lXrX3XrXrXhXhXfXhXhXfXfXrXrXhXhXhXrXrXE.<.~ R T j s p y : : s d G <.D.H.H.H.H.H.H.H.H.P.K.K.K.P.|.0X~.W.F.G.p.y.y.t.t.t.t.y.y.y.y.t.t.y.y.p.p.y.t.t.t.t.y.y.y.p.p.y.y.y.y.t.y.y.y.y.p.G.p.p.p.p.p.S.S.p.p.S.S.y.4.3.3.;.o.V *XVXNXNXCXVXVXZXVX9X9. .0.8XCXNX8X8X8X8X8XNX8X8X;X8X8X6X6X;X;XNX8X8X8X8X6X6X8X8X6X6X6X6X6X6X;X;X6X6X6X6X6X6X6X6X6X6X6X6X6X6X&X] } 8.s.%X%X%X&X&X&X&X7X<X+.l f p p p a a a f f f f f f a a i t t # $ $ : p p p p s s d g A S Z K K L / / ) ) ) ) I I I L K K K K K K K K K K L K K Z Z I I I / / @./ / / / / J n w 0 - * 8 P m 8 M m J U U %.( B J J N Z Z N Z N J U I J C C g g g g g f 6 : : : i t # # # $ t : s R 3.t.R.E.R.R.E.W.W.W.F.F.F.F.F.S.S.S.F.F.F.F.S.S.F.S.S.S.S.S.S.S.S.S.S.S.p.p.y.y.t.t.t.t.;.X.=.W.W.W.W.W.W.W.W.W.W.W.W.W.W.E.F.W.W.R.F.F.F.R.R.R.R.R.^.W.F.R.^.S.S.S.S.S.S.S.p.p.y.S.qXpX1X~.~.~.~.~.~.~.!.!.!.!.~.W.W.W.S.r.l # $ : s O.;.o.;.&.@.$.j.K.J.J.J.J.H.J.J.V.V.H.V.V.H.H.h.h.P.H.V.V.V.B.B.h.V.h.B.B.h.h.m./ N D.L.h.h.m.g.g.h.h.h.g.h.g.h.h.g.g.g.g.g.g.g.g.",
"*.*.*.*._ -.-.) -.K C g > - + O + * U 0XjX3XrXrXrXhXhXrXhXhXfXhXrXrXhXhXhXjXyXD.-.E T Y j s p y , : p g J *.B.H.H.B.H.V.H.H.J.J.K.J.K.K.H.P.[.~.W.F.S.y.p.y.y.y.y.y.y.p.y.y.y.y.p.p.t.4.t.y.p.p.p.p.p.p.p.p.p.p.p.p.S.p.p.p.p.p.p.p.p.p.S.S.S.S.S.S.S.p.t.4.3.;.X.X.9X9XNXVXZXZXsX<X9. .5 9.VXCXNX8X8X8XNXNXNX8XNX8X8XNX8X6X6X6X;XNXNXNX8X8X8X8XNX8X6X6X6X6X6X6X6X;X6X6X6X6X6X6X6X6X6X6XAX6X6X6X7Xr o 4 e [ 8.s.%X%X%X&X&X<Xa.0 s p p a f f f f f f f f f a a p t $ # $ : : y p p p s s d g A S Z K K L ) ) *.*.*.*./ / I / L L I L K K L K K K L L L Z J I / ( / #.#.#.#.#.#./ J n n 0 ; * 8 I J m M n m B B #.( B J J Z Z Z m m m Z J I G C C g g g g g s > : : t i v # # $ $ : 6 g O.r.S.W.W.E.E.W.W.W.W.F.F.F.R.R.D.F.R.F.F.R.F.F.F.F.F.F.R.F.S.F.S.S.S.S.S.S.S.p.y.t.t.t.t.e.o.X.R.~.W.W.W.W.W.W.W.W.W.W.W.W.W.E.W.~.W.W.W.R.W.E.E.^.^.^.W.E.W.W.R.F.S.S.S.S.S.S.S.S.G.G.yXpXyX1X~.1X0X!.!.!.!.!.~.~.!.!.W.R.r.j # : : s O.o.X.;.&.@.=.h.K.H.J.J.J.H.H.J.J.V.H.V.J.H.H.h.h.J.H.H.V.V.V.B.B.z.h.B.B.h.h.m.#.N L.L.h.j.m.g.g.B.m.g.g.g.g.m.g.g.g.g.g.g.g.g.g.",
"*.*.*.*.*.*.-.*.-.K C d 0 - + O + * $.rXlX3XrXrXfXhXfXfXhXhXhXhXrXrXhXhXfXjXwXm.;.E T A d s s y , : p g C / m.H.V.B.H.H.H.H.J.K.K.K.K.P.H.H.A.P.~.~.F.G.p.p.y.p.p.p.p.p.y.p.p.p.p.p.4.y.p.p.p.p.p.p.p.p.p.p.p.S.S.S.S.p.p.p.p.p.S.S.S.S.F.S.D.F.S.S.S.p.t.t.t.3.X.6.sXZXZXsX9X9. .5 5 5 *XVXVXVXNXCXCXCXCXCX8XNXNXNXCXNXNX8X8X6X;XNXBXNXNX8XNX8XBXNX8X6X6X6X6X6X6X6X6XNX8X6X6X6X6X6X6X6X6X6X6X6XsX8.o @ % 4 o e } 8.s.%X%X%Xa.l p f f a f f f f f f f f f f a p t $ # $ : : y p p p s j g g A S J K L I ) *.*.:.:.*.*./ / ) / L I L K L L K K K L L I Z J / / / / #.#.#.#.#.#.@.J m n 0 ; * q *.I B M n m B B @.U N N Z Z n n n m m m Z K G C g g g g g f p : : : t i v # # $ : : 6 g o.t.F.~.W.W.W.W.W.W.W.I.I.F.R.R.R.R.R.F.F.R.R.R.R.R.F.F.R.F.F.F.F.F.R.R.F.S.S.S.p.y.y.p.t.r.o.o.p.~.!.Q.Q.W.W.W.W.W.W.W.W.~.W.~.W.~.W.W.W.W.W.W.W.W.W.W.W.W.~.W.W.R.F.R.S.S.R.R.S.S.p.G.F.qXiX0X1X~.0X!.!.!.!.~.!.!.~.!.W.R.e.j # # : s O.o.X.&.&.&.=.A.K.z.H.J.J.J.H.J.J.V.V.V.H.V.H.B.h.J.H.V.z.V.z.B.B.h.B.B.B.h.h.B.#.N L.L.h.j.m.g.x.h.h.g.g.g.g.h.h.g.g.g.g.g.g.g.g.",
"*.*.*._ *.*.:.*.-.K C d 0 - + O + * 6.lXhX3XfXrXrXjXrXrXhXhXfXhXrXrXhXhXhXjX@Xu.O.E T A d s s y : : p g C I 5.H.V.B.V.H.V.V.J.J.J.J.K.K.H.H.H.A.I.~.W.F.S.p.G.S.G.S.S.S.S.p.G.G.G.y.p.p.p.p.p.p.S.p.S.S.S.G.F.W.W.R.W.S.p.S.S.S.F.S.F.F.F.D.F.F.F.F.F.S.p.y.t.3.;.a.dX<Xa.+.5   * 2 5 9.SXCXCXCXVXVXVXVXCXCXCXVXNXVXCXNX8XNX8X8X6X6XVXBXBXBXBXNXNXBXNX8X6X6X6X6X6X6X6XBXBXBXAX6X6X6X6X6X6X6X6X6X6X<X4 @ $ @ @ @ 3 7 r { +.+.+.f f f f a f f f f f f f f a a a p t $ # : : : > p p s s j j C A G K K L / *.:.:.<.<.:.:.*.*.&.&.I ) I L L L L L L I I I Z L &.#./ / #.#.#.#.#.*.*.U m C w ; * n <.@.U m 8 n m N ( U m m n n b b b n b m Z K G d g g d d d s : p : t i i $ O # $ : : 6 F ;.y.W.~.~.W.W.W.~.~.W.W.I.F.F.F.E.E.R.F.F.F.R.E.E.R.R.F.R.R.F.R.F.R.R.W.R.F.S.S.S.p.p.p.y.t.;.;.4.qX1XQ.Q.~.~.~.W.W.~.~.~.~.~.~.~.~.~.W.W.~.W.~.~.~.W.W.W.W.W.~.~.W.^.R.R.W.W.R.R.R.S.S.S.R.iXpXqX0XqX0X0X0X0XqX!.0XqX!.OXW.r.j # $ : s O.o.X.&.&.&.<.H.J.V.V.V.V.J.V.H.H.V.H.V.V.V.H.V.h.J.H.V.z.B.h.B.h.h.B.B.B.h.h.B.#.N D.L.h.h.m.m.x.g.h.g.h.g.g.h.m.g.g.g.g.g.g.g.g.",
"_ *.*._ *.*.*.) -.K C g 0 - + + + ; F.vXhXrXrXfXhXhXrXrXfXfXfXhXrXrXfXfXhXtX~.<.~ R T j g s s y : : p s C K 1.B.B.h.V.V.V.H.J.J.J.P.P.J.H.H.H.H.H.A.I.W.W.F.S.S.S.S.S.S.S.G.S.G.6.y.G.G.p.p.G.G.S.G.S.S.F.F.~.0XQ.W.W.F.S.F.F.F.S.S.S.R.R.^.R.F.F.W.F.F.S.p.t.3.3.H 5 o       X ; 5 0.9XVXVXCXNXCXCXVXCXCXCXCXVXCXCXVXCXNXNXNX6X6X6XVXVXBXBXBXBXBXBX8XBX8XBX6X6X6X6X7X8XBXBXBXBXBX6X6X6X6X6X6X6X6X9X{ O $ @ @ $ i p 7 7 i s s f f f f a f f f f z z f f f f a p t $ $ : : : : p p s s g j A S G K L I ) *.:.<.<.,.,.<.:.*.*.*./ ) ) I I L I L L I ) L J &.&.*.#.#.*.:.%.%.#.*.*.I J C w 0 ; m 5.*.U J M M m m U B M b b b b b b b b b b Z S C g d 0 s s 6 : i : t i i $ O # $ : t p F ;.p.W.|.Q.W.~.W.~.~.~.~.W.W.W.I.W.W.E.F.R.R.E.W.E.E.W.E.E.E.F.F.R.F.W.W.E.F.R.R.R.S.p.p.p.t.;.;.=.W.yX|.Q.~.~.~.~.~.~.~.~.~.~.~.Q.Q.~.W.Q.~.~.~.~.~.~.W.W.W.W.W.~.W.W.W.W.~.~.W.F.S.p.S.R.F.W.iXiXqX0X0X0X0X0X0X0X0XqXqX!.W.e.j # $ : 0 E o.X.&.&.&.<.H.J.V.V.H.H.V.V.H.V.V.H.V.V.V.V.B.h.H.H.V.V.h.h.h.B.h.B.B.B.h.B.B.*.N D.L.h.h.j.g.x.g.h.g.g.g.h.h.h.g.g.g.g.g.g.g.1.",
"*.*.*.*.) *.*.) -.P C g 0 : + + + 2 [.mXhXhXrXfXhXhXhXhXhXhXhXhXhXfXfXhXhXrXL.e.! R F j d s s p : - > s C G <.B.B.V.V.V.V.J.J.J.J.J.J.J.H.H.H.K.J.H.1.~.|.Q.Q.~.~.W.W.W.R.W.W.F.F.W.W.W.W.F.F.F.S.R.W.W.W.W.W.^.T.W.R.D.F.R.F.F.R.W.^.^.W.W.^.R.W.W.^.R.S.S.y.y.3.P 0 - +   o 8 *  .9XVXVXCXCXCXVXCXCXCXCXCXVXCXCXVXVXVXVXNXNX8XNXNXBXVXVXVXBXBXBXBXBXBXBXBX6X6X6X6X#X#XsXBXBXAXAXBX6X6X6X6X6X6X6XsX8.o $ $ @ $ : i i p a f f f f a f f f f f f z z f f f a a p t # $ : t : : y p s s g A S S K L I ) _ *.<.,.,.,.,.,.<.:.<.*./ &./ / I ) ~ L L ) ) K J *.#.#.#.#.:.%.%.%.:.:.*.I J J w 6 ; J 5.,.( J m M m m m n 8 8 q 8 q q 8 8 q q b Z G d q q 0 s s : y : : t i t $ # # $ t i p G -.S.W.~.~.~.~.~.~.~.~.~.W.W.W.W.W.W.W.I.W.W.W.W.W.W.W.W.W.W.W.R.E.R.W.W.W.R.R.R.R.S.S.S.y.t.3.;.-.S.qX1X|.|.1X~.~.~.~.~.~.~.~.~.~.~.~.Q.Q.~.~.~.~.~.~.W.W.W.~.~.~.~.~.~.~.~.0X~.S.y.y.y.S.R.E.W.iXpXqX0X0XqXqXqXqXqXqXqXqXW.r.j # # : 6 R ;.o.o.&.@.<.H.H.H.H.H.H.H.V.H.V.V.V.V.V.V.V.V.h.L.H.V.V.B.B.B.B.h.h.V.B.h.h.B.%.N D.H.h.h.g.B.g.g.g.g.g.g.g.g.g.g.g.g.g.g.g.g.g.",
"*.*.*.*.) *.*.) t.P C d 6 : + + X V iXmXhXhXhXfXhXhXhXhXhXhXhXhX3XfXhXfXhXwXZ.;.! T F j d s s p : - > s g Z *.B.V.V.V.V.V.J.J.J.J.J.J.J.H.H.H.J.H.H.1.[.1X1X1X0X1X1X0X1X1X1X1X1X1X0X0X|.|.1X~.Q.W.W.~.~.W.W.W.F.^.^.R.F.R.R.F.W.~.W.W.W.W.W.W.W.Q.W.W.R.S.S.p.y.3.P 0 = X   7 8 5 <XVXCXVXCXCXFXVXCXCXCXCXVXCXCXVXVXCXVXVXCXNXVXVXNXNXVXVXVXVXBXBXBXBXBXBXBX6X6X6X6X#Xr  .&XsXZXBX6X6X6XAX6X6X6X6XsXa.o $ $ @ $ $ : : p p a f f f f f f f f f f z x z f f a a p t # $ : : t y y p s g g C G K K L ) ) *.:.1.,.,.g.g.5.,.<.<.<.*.*.*.) ) ) / L / ) ) I I *.#.#.#.#.<.:.<.:.:.<.:./ J J w 0 ; J m.l.$.U J M m m n 8 8 8 < 8 8 < < 8 8 8 b C S d q 0 0 s 6 : p : : i i t # O # : t t s P 3.F.Q.1XQ.~.~.~.~.~.~.~.W.W.W.W.~.W.W.W.W.W.W.W.W.W.W.W.W.W.W.W.E.E.W.~.W.W.^.R.R.S.S.S.y.t.r.;.3.y.yXyX1X1X1X1X|.~.~.~.~.~.~.~.~.~.~.~.Q.1X~.~.~.|.~.~.~.~.~.~.~.~.~.~.~.W.~.~.^.R.S.S.y.p.^.W.~.iXpXyXqXqXqXqXqXqXqXqX0XOXe.j # , > 6 F r.;.X.&.@.1.H.H.H.H.H.H.V.V.H.V.V.V.V.V.V.V.V.h.H.H.V.V.B.B.B.B.h.h.B.B.h.B.B.<.N D.H.h.h.B.B.g.1.m.h.h.g.g.g.g.g.g.g.g.g.g.g.g.",
"*.*.*.*._ -.-.) t.~ C g 6 : + + X X.vXkXrXhXhXfXjXhXhXhXhXhXhXhXrXfXhXhXhX}.u.O.! T F j d s s y : - > s g Z I m.B.V.V.V.V.P.J.J.J.J.J.J.H.H.H.H.H.v.l.1XyXyXyXyXyXyXyXyXyXyXyXyXyXyXyXyXyXyX1X1X|.Q.Q.~.~.W.W.W.F.R.R.F.F.W.W.~.~.W.W.Q.Q.Q.W.~.~.~.Q.R.S.S.S.S.r.P 0 - X X 8 *  .sXVXCXCXCXFXCXVXCXVXCXCXVXVXCXFXVXCXCXCXCXCXVXVXBX8XNXVXVXVXBXBXBXBXBXBXBX6X6X6X8X#X5 5 5  .a.7XsXZXsX6X6X6X6X6XsX%X4 $ $ $ $ : : t i p a f f f f z f f f f f z x x f f f a a t # $ t t t : > p s d g S K I I / ) *.*.<.1.,.5.g.g.g.g.1.1.1.:.:.*.*.) ) ) I / ) &.I / =.*.:.:.%.<.<.<.<.:.<.<.@.I J w 0 ; I A.l.#.U I M M m 8 < < < < < < < < 8 < q q b C C 0 0 0 6 : : t : t i i t # # # $ : p g E y.F.Q.0X1XQ.~.~.|.~.|.~.W.W.W.~.~.~.W.W.W.~.W.W.W.W.W.W.W.W.W.W.E.E.~.~.W.W.W.W.^.R.R.S.p.y.t.;.-.4.1XpXyX1X1X1X|.~.~.~.|.|.|.~.~.~.~.1X1X~.1X0X|.|.|.~.~.~.~.~.~.~.!.!.!.!.W.W.!.W.R.R.S.t.S.W.W.+XiXpXiXqX0XqXqXqXqXqXqX!.e.j # , : 6 j O.o.o.&.@.5.H.H.V.H.H.H.V.V.H.V.V.V.V.V.H.V.V.h.H.H.H.V.V.V.B.B.h.h.z.z.h.h.B.<.N D.H.h.h.j.B.h.,.g.g.g.h.g.g.m.h.g.g.g.g.g.g.g.",
"*.*.*.*.*.*.-.*.t.~ C d 0 : + + * 6.bXhXhXhXhXhXhXhXhXhXhXhXhXhXfXrXhXjXjX~.<.~ ! T A j d s s y : - > s g C K 5.B.B.V.V.V.P.J.J.J.J.J.J.H.H.H.H.H.z.l.xXvXlXjXuXuXuXuXtXyXiXuXuXuXuXuXuXuXiXiXyXyX1X|.Q.~.~.W.W.E.E.F.F.F.~.~.~.~.W.~.~.Q.~.~.1X0X1X~.W.F.F.R.S.r.G < = +   8 * 9.VXCXCXCXFXCXVXVXVXFXFXFXFXVXFXSXFXFXFXVXFXSXVXVXNXNX;XBXVXVXVXVXBXBXBXBXBX6X6X8X8X9.5 8 5 * 5 r 8.%X7XsXsXBXsX7XsXa.3 $ $ : t : : t t p p f f a f z z f f f f x x x f f f a a p $ $ : t y y y p p s C G P I &.) *.*.<.1.1.1.g.g.g.g.g.5.1.5.,.<.:.:.*.) ) / *.*.*.L ) <.:.:.:.<.<.,.,.,.,.,.<.&.I J g 0 ; @.I.j.#.( I J 8 n 8 ; < ; ; < < < < < < < < q d d 0 0 6 > : : t : i i i $ O # # : : p g o.D.W.~.yXyX|.~.~.|.|.|.|.~.~.~.~.~.~.~.~.W.Q.Q.W.W.W.W.W.W.W.W.W.W.W.~.~.~.W.W.W.W.R.R.S.S.p.t.&.;.4.W.pXyX0X0X0X0X0X|.|.|.1X|.|.~.~.~.0X0X~.1X0X0X0X0X~.~.~.~.~.~.~.+X!.!.~.W.W.~.!.W.R.R.S.R.R.^.W.0XpXpXiXqXqXqXqXqXqXqXqXe.g + , > s g P P o.X.@.5.L.H.V.H.H.H.V.V.H.V.V.V.V.V.H.V.V.h.V.V.V.V.z.V.V.B.h.h.V.z.h.h.B.<.N A.H.h.h.h.m.h.f.g.m.h.g.g.g.m.g.g.g.g.g.g.g.g.",
"*.*.*.*.*.*.-.*.t.~ C d 0 ; + + 2 Q.nXhXhXhXhXhXjXhXhXhXjXjXjXhXfXhXhXjXtXD.-.~ ! T A j d s s p : - > s j D Z <.B.B.V.H.H.(.J.J.J.J.J.J.H.H.H.H.v.z.%.tXvXzXlXxXjXjXzXbXcXbXbXbXbXbXvXvXxXxXxXpXiXiXyX1X[.Q.Q.Q.W.E.F.F.W.|.|.Q.Q.Q.~.|.|.|.1X1XyXyX~.W.F.R.S.p.r.C ; = + + 0 5 <XCXCXCXCXFXCXFXFXSXSXSXFXFXFXFXSXSXSXVXSXDXFXVXVXNXNX6X-XsXZXVXZXVXBXBXBXBX8X8X6X8X9.5 6 > 8 8 8 5 5  .8.%X<XdXdXsX+.o i $ : t t : t t p p f f a f z z f f f f x z x f f f a p a $ $ : : y y p p p s C G I &.*.*.:.:.<.1.g.g.g.g.g.g.g.g.g.g.5.1.<.<.*.*._ / *.*.*.J &.<.<.<.<.<.,.,.,.,.,.,.1.*./ P C 0 2 @.P.h.%./ / U M 8 < * ; ; ; ; ; ; ; ; < < < 1 q d 0 6 > : : t : : i p t $ # # $ : : 6 g ;.W.Q.|.yXyX1XQ.Q.|.|.|.|.~.~.~.~.Q.~.~.~.~.Q.Q.~.W.Q.Q.~.~.W.W.~.~.W.~.!.~.~.W.W.W.W.R.S.S.p.t.;.;.t.F.pXiX1XyX0X0X1X~.|.1X1X1X~.~.~.~.1X0X0X1X0X0X0X0X|.~.~.~.~.~.~.+X0X+X!.~.~.W.~.~.W.~.!.W.W.R.R.W.qXpXpXpXiXqXaXaXaXaXqXr.s # : > s d G E ~ X.@.6.L.H.V.H.H.H.V.V.V.V.V.V.V.V.H.V.V.h.V.H.V.V.z.V.V.h.h.V.V.h.h.j.B.<.N m.P.h.h.h.h.h.,.g.m.h.g.g.g.g.h.g.g.g.g.g.g.g.",
"*.*.*.*.*.*.*.*.t.~ C d 0 > =   2 iXnXhXjXhXhXhXjXhXhXhXjXhXhXhXfXhXhXjXwXZ.e.! R T F j d s s p t : > s j C Z *.B.B.V.H.J.(.J.J.J.J.J.H.J.H.z.H.H.h.%.2XjX3X2X X{.2XrXjXjXjXzXzXxXzXvXbXbXbXbXbXbXvXxXpXyX1XQ.Q.~.I.F.I.|.1X1X|.|.|.1X1X|.1X1X4XiXyXQ.W.W.^.R.S.;.g ; = + - 8 r 9XCXCXVXSXCXFXSXSXSXSXFXFXSXSXSXFXSXSXSXFXDXFXVXVXNXNX8X9...7XZXBXBXZXBXBXBXBX8X6X8X8.* > > 8 6 0 0 8 5 5 5 r  .+.s.l @ t : : t t t t i p a a f a z z z f x x x x x x z z f a a a : # : : p p p p p s A G ~ *.<.<.,.,.,.1.g.g.g.j.h.h.g.g.g.g.g.1.1.,.:.:.*.#.*.:.*.J *.<.<.,.,.<.,.,.,.,.,.,.1.*.@.I C 8 2 #.P.h.%.#./ ( U 8 * * = * ; = = - ; ; ; ; ; < 0 s 1 > : : : : : i p i t $ O # $ : : 6 C 3.|.[.|.yX0X0X1X|.|.1X1X1X~.Q.~.~.~.~.~.~.~.~.~.Q.~.~.~.~.~.~.~.~.~.W.~.~.~.~.~.~.~.!.W.R.S.S.t.;.&.4.F.pXpXyXyX0X0X0X|.0X0X1X0X0X0X~.~.1X0XyXyX1X1X0XyX0X~.~.~.~.~.+X+X0X0X0X0X~.~.W.!.0XqX0X~.!.!.W.R.W.qXpXiXiXiXpXaXaXqXR.O.> # : > s d C G E o.@.j.I.H.z.H.H.H.H.V.V.V.V.V.V.V.V.H.H.z.V.H.V.V.z.V.V.B.h.h.B.z.h.B.B.,.N m.P.h.h.h.h.h.f.g.h.h.g.g.g.g.h.g.g.g.g.g.g.g.",
"*.*.*.*.*.*.-.*.t.o.D d 0 > -   n LXmXhXjXjXhXjXjXhXhXhXjXjXhXhXfXhXhXjX|.u.;.O.R G A j j s s p t : > s j C C &.B.B.V.z.J.(.J.J.J.J.J.J.H.H.V.z.V.h.%.{.rX X_._._._.[. X X X{.{. X2X2X4XyXyXrXuXjXuXjXjXxXxXyX|.~.I.A.Q.0X1X1X|.|.1X1X1X1X1X1XyXpXiX1XQ.W.W.R.S.O.g ; + + X   +.ZXVXCXVXSXCXFXSXSXSXSXSXSXSXSXSXDXSXSXDXDXSXVXVXVXNXVX<X[ 5  .<XZXZXZXVXBXBXBXBX6X9X+.* > ; 8 8 6 0 0 0 0 8 8 8 8 5 7 : t : : t t t t t p a a f z z z x x x x x x x x x z z a f f : + : : p p p p s s A G ) *.,.1.1.1.1.g.g.g.h.h.B.B.B.h.h.h.g.g.1.1.1.:.:.*.:.<.*.N *.1.,.,.,.,.,.,.,.,.,.,.5.*.@.I C 0 2 $.).h.%.%.#./ / B * X * * = = = = = = = ; ; ; ; 1 0 > : , : t t p p i t # # # $ : 7 6 F y.0X1X[.0XyXyX1X|.1X1X1X1X|.~.~.|.|.~.Q.~.~.~.~.~.~.|.~.~.~.~.~.~.~.~.+X0X+X~.~.~.~.!.W.^.R.S.y.;.o.3.G.pXxXyXyXyX0X0X1X1X0X0X0X0X0X|.|.1X0XyXyX0X~.1XyXyX0X~.~.~.~.+X+X0X0X0X0X0X!.~.~.0XqX0X0X+X+X!.W.D.~.pXiXiXpXpXaXOXr.P A : # : > s d C G E o.@.m.L.H.V.V.H.H.H.V.V.H.V.V.V.V.V.H.V.h.V.V.V.V.B.B.V.B.h.h.B.B.B.h.B.1.N m.P.h.h.h.h.h.g.g.h.m.g.g.g.g.g.g.g.g.g.g.g.g.",
"*.*.*.*.*.*.*.*.t.I C d 0 > - + < ~.uXgXxXjXrXjXjXhXhXhXjXhXhXfXhXhXhXuXE.e.O.! T F A j j s s p : : 6 f d C C ~ m.B.V.z.J.(.J.J.J.J.J.J.H.V.V.H.V.h.%.].2X{._.).(.(.(._._._.)._._._.{.{.{.{.{.{.{.{.{.2X2XrXrXyXQ.T.~.0XyX1X1X1X1X1X0X0XyXyXyXuXpXuXyX~.!.W.R.S.O.g 6 = + +   9.DXVXVXDX9X8XFXSXSXSXSXSXSXSXSXFXSXSXDXDXDXSXSXSXVXBXsX0.5 5 5 r <XZXZXZXVXBXBXBX8X7X .* > ; 8 8 6 6 6 0 0 0 0 0 p 6 : t t : : t t t t i p a a z f z z x x x x x x x x x z z f f a : + : i p p p p s s g G ) :.,.1.g.g.g.g.g.h.h.B.B.B.B.h.h.h.g.g.g.1.1.1.<.:.<.<.<.N <.1.,.,.1.,.,.,.f.,.,.,.5.=.@.I C 0 2 %.].z.%.%.%.%./ / J * X * * = + = = = = = * = ; ; > : + # : t i p p i t # O # $ : 6 0 P y.0X1X1X1XyXyX1X1X1X1X1X1X1X|.|.|.|.|.~.~.|.~.~.~.~.~.~.~.~.~.~.~.~.~.!.0X1X~.~.~.~.~.!.W.R.R.y.-.o.-.G.yXbXyXyXyXyX0X0X1X0XyXyX0XyX0X0X1X0XyXyXyX~.~.0X0XyX0X~.~.1X0X0X0X0X0X0X0X0X0X~.!.0X0XyX|.~.!.!.~.F.+XpXpXaXaXR.;.K G d + # : > 0 d g F P I *.m.H.H.V.H.H.H.H.V.H.V.V.V.V.V.V.V.V.h.V.H.V.V.B.B.B.h.h.h.B.h.h.B.B.5.N 5.P.V.h.h.h.h.g.,.h.m.g.g.g.g.h.g.g.g.g.g.g.g.",
"*.*.*.*.*.*.:.*.t.~ C d 1 > : : X 2 $.l.K.2XrXxXjXjXjXjXjXhXhXhXhXhXjXyXD.-.O.! T F A j j s s p : = p f g C C I g.B.V.V.P.K.J.J.J.J.J.J.H.z.z.H.V.g.( ].2X_._.).(.(.(.(.(.).).(.(._.[.)._.[.(.[.[.[.[.[.[.[.{.}.}.I.1XyXyX1X1X1X1XyX4XyXiXiXpXbXLXxXyX0X~.W.R.p.o.g 0 - # + o 9.SXCXFXDX9.9XFXFXFXFXSXSXSXFXSXFXSXSXDXDXFXSXSXDXVXZX9.5 * 5 5 5 r %XZXZXZXBXBXBX8X<Xr ; ; ; 8 8 8 8 0 8 0 0 6 6 6 : $ v v v : t t t t i a a a z z z z x x x x x x x x x f f f f f i + : i p p s s s s g G ) :.1.g.g.g.g.g.B.h.B.V.V.B.B.h.h.B.g.g.g.g.1.1.1.<.1.1.:.N <.1.,.1.1.,.1.g.g.1.,.,.g.*.&.I C 0 2 <.].h.%.,.:.%.#.#.#.J ; X X X + = * + + = = = = - - : @ $ : t p a a i t + O # $ : 6 0 X.G.1X4X1X0XyXyX0X1X1X1X0X0X0X~.~.|.|.|.~.~.|.~.~.~.W.F.F.D.E.~.!.~.~.~.|.1X|.0X~.~.~.~.~.W.W.R.y.3.X.-.y.yXbXiXyXyXyXyXyX0X0XyX0X0X0X0X0X1X1XyXyXyX0XQ.~.~.0XyX0X0X0XyX0XyX0XqXqXqXqXqX0X+X0XqXqX0X0X0X0XqX0XW.qXaXE.S.r.K G A s + @ : : s d g F P X.=.j.H.z.V.H.H.J.H.V.V.V.V.V.V.V.V.J.P.h.V.V.V.V.B.V.V.h.h.B.V.V.h.h.B.5.N 5.P.V.h.h.h.h.g.,.j.g.g.g.g.g.g.g.g.g.g.g.g.g.",
":.*.*.:.*.*.*.*.u.P C d 0 > : : X o m B ' ` l.].rXjXxXuXtXrXjXfXrXhXjX@Xy.;.q.! T F A j j s s p : = p f j C C K 1.B.B.V.P.K.J.J.J.J.J.J.H.H.H.z.z.g.( P.{.)._.(.(.(.(.(.(.(.(.(.(.(.(.).).(.(.(.[.[.].).).[.).).].j.|.iXyX4XyXyXiXuXpXvXbXJXLXKXbXxXyX0X~.W.R.y.P d 0 - + + * <XDXDXDXb.V 9XDXFXSXSXSXSXFXSXDXDXSXFXDXDXDXSXDXSXZX<Xr * * - ; 8 5 r <XZXZXZXBXBX8X#X5 ; 6 8 ; 6 6 8 0 0 0 0 6 6 6 : $ v v v t : t t t i a a a z z z x x x x x x x x x x f f f f a i + $ i p p s s s s g S I *.,.g.h.h.h.h.B.B.h.V.V.V.V.h.h.B.h.g.g.g.g.1.1.1.1.5.*.N <.5.,.1.1.,.1.g.g.g.g.g.g.=.&.I C 0 2 <.].z.x.,.,.<.%.%.#.#.I n ; X X X X X X + = = = = - : @ : i i a a a i $ O O # : : 6 C ;.G.1XyX1X1XyXyXyX1X1X1X0X0X1X|.|.1X1X1X~.~.|.~.~.~.W.E.D.S.S.S.R.W.~.~.0X0X1X0X~.~.~.~.~.W.W.R.p.3.o.;.t.0XbXuXyXyXyXyXyXyX0XyX0X0X0X0X0X0X1X0XqX0XyX1X~.~.~.yXiXqXqXqXqXqXqXqXqXqXqXqXqX0X0X0XqXqXqXyXqXqXqXE.y.y.t.;.~ G S j > + @ $ > s d g F G P =.m.H.H.V.H.H.H.H.J.H.V.V.V.V.V.V.V.J.V.B.H.V.V.V.h.B.h.h.B.V.V.h.h.B.5.N 1.P.V.h.h.h.h.g.,.g.g.g.g.g.g.g.g.g.g.g.g.g.g.",
":.*.*.:.*.*.*.*.u.K C d 0 > > : + X 2 m N B B ' $.j.I.}.yXtXjXtXtXxXtXE.e.;.~ ! T F A j j s s p : : p s j A C K <.B.B.H.P.K.J.J.J.J.J.J.H.H.H.z.V.g.( L.}.).).(.(.(.(.K.(.(.(.(.(.(.(.(.(.(.(.(.).[._.(.).).).(.).l.c.uXrXjXlXxXbXbXbXjXtXuXxXuX[.].~.~.E.D.S.t.K g s > + X 5 dXDXUX<X5 r 9XFXFXSXSXSXSXDXSXFXSXDXDXDXDXDXDXDXSX9X .* * - - ; ; 5 5 5 <XUXZXZXBX9X9.5 8 > 8 ; > 6 6 8 8 6 6 6 6 : $ $ v t v t : t t t i a a a z z z x Y x x x x x x x x f f f f a i + $ i p p s s s s g S I *.1.g.h.h.h.h.h.V.B.V.V.V.V.B.h.B.B.h.g.g.g.g.5.1.5.m.*.N <.1.,.,.1.1.g.g.g.g.g.g.g.<.&.I J q < 4.}.H.l.,.,.,.<.<.:.:.*.*.J 8 * = X X X X X + + = - : : p p a a a a i $ O O # : : 0 P ;.A.1XuX4X0XyXiXyX0X0X1X1X0X1X1X|.|.1X1X1X~.|.0X~.~.W.R.R.S.S.S.p.S.R.~.+X0X0X0X|.+X+X!.~.~.W.W.S.r.o.&.t.~.JXxXiXiXyXyXyXyXyXyXyXyX0X0XyX0X0XyXqXyX1X0X~.~.~.+XqXiXqX!.qXqXaXiXiXqXqXqXyX0X0X0XqXqXqXaXaXOXR.t.&.~ ;.;.E G A j - + $ $ > s d g A G P *.m.H.H.V.H.H.H.H.J.H.V.V.V.V.V.V.H.H.h.h.H.V.V.B.h.h.h.h.B.z.z.h.h.B.5.N <.E.V.h.h.h.g.g.,.g.j.g.g.g.g.g.g.g.g.g.g.g.g.",
"*.*.*.*.*.*.*.-.t.K C d s > > : + X * 8 m M M N N N B ( %.g.L.E.E.P.L.m.<.;.! ! T A A j d s s p : : p f j C C Z *.m.B.H.P.K.J.J.J.J.J.J.H.V.H.z.B.g.( L..X(.(.(.(.(.K.J.J.(.(.(.(.(.(.(.(.(.(.P.(.(.].(.(.(.(.(.(.h.%.wX2X3XhXrXjXtX{.).).].}.P.c.I.L.A.m.4.4.-.G g d > = X r sXUXdXr 8 5 7XFXSXSXSXSXSXSXFXSXSXFXDXDXDXDXDXDX9X .5 8 * = - - ; ; ; * r <XDXZXBX7X+.* ; ; ; ; > > ; 8 8 6 6 > : : # $ t t t t : t i i i a a a z z z x x R x x x x x x x f f f f a i + $ t p p s s s s g C K &.<.g.h.h.h.h.h.V.V.V.V.H.V.B.h.V.B.h.h.g.g.g.5.5.g.m.*.U u.1.1.1.1.1.g.g.g.g.g.g.g.<.*./ J q 2 5.{.v.l.x.,.,.,.,.,.:.:.:.=.U q 0 > - - - = - - - 6 p p p p a a a a i $ O O $ : > 0 P =.A.[.lXyX4XyXiXiXyX0X1X0X0X0X1X1X1X0X1X1X1X|.0X0X~.R.R.F.S.S.p.p.y.G.E.0X0X0X0X0X0X0X0X!.~.~.W.S.t.o.o.4.~.LXvXiXiXiXyXyXyXyXyXyXyXyXyXyXyX0XyXqXqX~.~.qX0X~.W.|.+XF.y.y.S.R.~.yXiXyXyXyXqX0X0XqXaXqX!.R.y.<.-.I K ~ ~ T A A s + + $ : > s d g A G P &.m.H.z.V.H.H.H.H.V.V.V.V.V.V.V.V.V.H.h.h.V.V.B.h.B.B.h.h.B.h.h.h.h.B.g.N <.E.V.h.h.h.g.g.,.g.j.g.g.g.g.g.g.g.g.g.g.g.g.",
":.*.:.*.*.*.*.:.<.K A g s > : : # +   ; n M M M M M N N N N N B B B ( / ) ~ ~ E T A A j d s s p : : p d j A C S &.g.B.H.(.K.J.J.J.J.J.J.H.H.H.z.B.g.' B..X(.(.(.(.K.(.J.J.K.(.K.P.(.(.(.(.(.(.(.(.].(.(.(.(.(.(.(.J.%.].2X2X X{.{.[.(.P.P.(.(.z.V.L.L.B.u.<.<.-.G g d > = X 8 dXsXV 5 0 5 *XDXSXSXSXFXSXSXFXSXSXDXDXDXFXDXDXsX .5 8 0 = = - - ; ; ; ; 2 r <XDXZX7X .5 6 ; ; ; > ; ; 6 > 6 6 > : # # t t t t t t t i i p a a a z z z x Y R R x x x x x x z z z f a p # $ t p p s s s f g A K ) *.5.j.h.h.z.z.V.V.V.V.V.V.B.h.B.B.h.h.h.h.g.g.5.g.m./ U u.5.f.g.g.1.g.g.g.g.g.g.g.<.*./ J q 2 1.}.H.l.g.g.1.,.,.,.,.,.,.,.:.U n 0 0 6 > > 6 6 6 6 p p p p f f a a t $ O O $ : ; g o.=.c._.lXlX4XyXuXuXyX0X0X0X0X0X0X0X0X0X0X0X0X1X1XyXyX1X~.W.S.G.p.y.y.y.S.0XqX0X0X0X0X0X0X!.~.~.~.R.y.;.o.-.W.LXbXiXyXyXyXiXyXyXyXyXyXyXyXyXyX0X0XqXiX0XF.yXqX0XW.~.~.~.~.^.^.!.0XyXiXiXiXaXqXqXaXqX+XE.Z.e.-.;.~ K K ~ E G A A p + + $ : > s s g g A K &.m.H.z.V.H.H.H.H.V.V.V.V.V.V.V.V.J.J.h.h.V.V.V.h.V.V.B.B.B.B.h.h.B.B.g.B :.E.V.h.h.h.h.m.,.l.g.g.g.g.g.g.g.g.g.g.g.g.g.",
":.*.:.*.*.*.*.<.-.J A g s > > : @ + X X ; 8 M M M M M M M M M M M M N N N K K E T A A j d s s p : : s g g A A S / 5.B.H.(.J.J.J.J.J.J.J.J.H.H.z.h.g.B g.}.(.(.(.(.J.K.K.K.K.K.P.(.(.(.(.(.(.(.(.(.(.(.(.(.(.(.(.(.P.%.Y.2X X_._._.).(.P.J.J.J.z.z.H.L.B.1.<.<.-.K g d 1 = X * ;. .5 8 0 5 9.DXSXSXSXSXSXFXSXSXSXDXDXFXDXSXZX9.5 2 8 0 ; * - - ; ; ; ; 8 * r dXUX<Xr 6 > ; ; ; > ; ; 6 > 6 6 > : # $ t t : t t t i p p a a a f f z z x R R R Y Y x x x x z z z f f p $ $ t p p s s s j g A G ~ *.1.m.B.h.z.V.V.V.V.V.V.V.B.h.V.B.B.h.h.h.h.g.g.g.m./ U u.5.f.g.g.g.g.g.g.g.g.g.g.<.*.&.J q 2 5..XH.l.g.l.l.x.,.,.,.1.g.1.,.*.I m q 0 0 0 s p 0 s s s s f f f a i t $ O O $ - ; J &.6.c.).rXzXyXiXuXiXyXyX0XyXyX0X0X1X0X1X0XyX0X1X1X1XyXiXiXiX0XQ.W.F.G.y.y.~.yXyXyX0XqXqX0X0X0XqX~.R.p.;.P ;.R.vXbXiXiXiXrXiXuXuXyXyXyXiXiXyXyXyXyXyXyXyXW.~.qXyXyXqXiXiXiXpXpXpXpXpXiXaXiXpXqXqXaXW.Z.t.-.;.) ~ ~ K G E T A A j : + # $ : > s s g g A G &.m.H.z.V.H.H.H.H.V.V.V.V.V.V.V.J.J.H.z.h.V.V.V.h.V.V.V.B.B.V.h.h.B.B.m.U #.E.V.h.h.h.h.g.f.l.g.g.g.g.g.g.g.g.g.g.g.g.g.",
":.*.:.:.*.*.*.:.*.K G j s > > : , + + . * 8 8 M 8 < 8 8 M M M M M M M M n n Z G G A A j d s s p : : s g C A A S I <.h.H.(.J.J.J.J.J.J.J.H.H.z.z.h.g.B 1.2XK.K.).P.J.J.K.J.K.K.J.P.(.(.(.(.(.(.(.P.(.(.(.(.(.(.(.(.(.l.l.2X X X_.).).(.K.P.P.H.H.H.H.L.B.1.<.e.-.G C d 0 - + X o * 8 8 6 5  .DXDXSXSXSXSXFXSXDXFXDXDXDXDXZX9.5 8 8 < < > X o - ; ; ; ; ; 8 2 r <X9.; > > ; ; - > > ; > > > > : + $ v t t t t a i i p p a a f f f x x x Y ! ! Y Y x x x x f z z f f p # # : p p s s f j j A S K ) <.g.B.V.z.V.H.H.H.H.V.V.V.h.V.V.h.h.h.h.h.h.g.g.m./ / u.g.g.g.g.g.g.g.g.g.g.g.m.<.*.&.J q 2 1.2XK.h.h.g.l.l.l.l.,.g.g.,.<.<.*./ J b q q d s s s s s s f f f a i t # O O + - 0 P @.6.c.T.rXbXrXyXuXuXuXyXyXyX0X0XyX0X0X0X0X0X0X0X1X0X1X1XyXpXuXiXqX0X+XE.m.F.qXqXqXqX0X0X0X0X0X0X!.W.R.r.P @.G.vXJXuXuXuXuXuXpXpXuXuXuXuXuXuXuXyXyXiXiXiX1XT.0XyXyXiXpXpXpXpXiXpXpXpXpXaXiXaXqX~.R.<.-.-.) ~ ~ ~ E G G E G A A d = + # $ : > s s g g A G I 5.B.z.V.H.H.H.H.H.H.V.V.V.V.V.H.V.J.V.h.V.V.B.V.V.V.V.B.B.B.h.h.h.B.m.U #.~.V.h.h.h.g.m.g.,.g.g.g.g.g.h.g.g.g.g.g.g.g.",
":.*.*.*.*.*.*.*.&.K G A d 0 > : : + + O   > < 8 8 < < < < < 8 8 8 8 8 9 M b b Z A A A j j s s p : : s g g A A A K <.j.H.P.J.J.J.J.J.J.J.H.H.z.z.h.g.B ,.2X(.K.].P.z.J.J.v.J.K.K.P.(.(.(.(.(.(.(.(.(.(.(.(.(.(.(.K.(.H.x.{. X X[.).).K.K.P.J.J.H.H.H.L.B.5.<.e.-.G C d 0 : # + . : 6 8 6 8 r sXDXSXSXSXFXFXSXFXFXDXDXDXSX<Xr 2 0 8 8 ; > - * - > > ; ; ; > ; 5 2 r 8 > > ; ; - ; > ; ; > > > - + $ t $ : t t a a i p p a a f f f z x x Y w.! Y T T T x x f z z f f p # + : p p s s f j j A S K ) :.5.B.B.z.V.H.H.H.V.V.V.V.h.V.V.h.h.h.h.h.h.g.h.B.( / m.g.g.g.g.g.g.g.g.g.g.g.B.1.*.&.J w 2 5.2XK.h.h.h.g.l.l.g.l.g.g.,.,.<.<.#.@.J C q d g g g j s f f f f a i $ # O O @ - g P @.<.l.K.4XbXxXiXuXpXuXyXyXyXyXyXyX0X0X0X0X0X0X0X0X0X1X1X0XyXyXyXyXyXqX0X~.F.0XiXqXqXqXqXqXqX0X0X0XW.R.y.I I G.vXJXlXuXpXlXlXpXlXuXuXpXpXpXpXpXuXiXiXiXiX0X1XyXiXiXiXpXiXpXpXpXpXiXqXqX~.R.u.5.u.<.*.) _ E ~ E E E G G T G A j s + + # : : > s s s g A S I 1.B.V.B.H.H.H.H.V.V.V.V.V.V.H.H.H.J.z.h.H.V.B.V.V.z.V.B.B.h.h.h.h.B.m.U / E.h.h.h.h.h.m.g.,.j.g.g.g.g.h.g.g.g.g.g.g.g.",
"*.:.:.*.*.*.*.*.&.K G F g 0 > : - + + + & - 0 ; q < < < < < < < < < < < < 8 8 b g C g g d s s p : : s g j A A S K =.g.H.(.K.J.J.J.J.J.J.H.H.V.h.h.g.N :.1X(.J.].K.z.H.J.H.J.J.(.P.(.(.(.(.(.(.(.P.P.(.(.(.(.(.(.P.(.P.x.(..X{._._._.(.K.P.J.J.J.H.H.L.L.5.<.t.-.G C d s > + + . + : 6 8 8 r <XFXSXSXSXFXDXFXSXDXDXDXDX9XV ; 8 8 8 8 < ; - = - - ; ; ; ; ; ; 8 8 ; ; ; ; ; ; ; - ; > > > > : + # t t $ v t i p p a a a a f z z x z x x x R ! Y Y T T x x z z f f f p # # t p p s s f g g A S G I *.1.m.B.V.V.H.H.H.V.V.V.V.z.V.V.B.h.h.h.h.h.h.B.m.( / m.g.g.g.g.g.g.g.g.g.j.j.h.<.*.&.J w < ,.3X(.z.h.h.h.l.h.g.g.g.g.,.,.5.,.,.<.#.U m C F C A j f f z z f p i $ O O O @ ; F P &.=.j.K.1XvXbXrXuXpXiXyXyXyXyXyXyX0X0X0X0X0X1X1X0X0X0X0X0X0X0X0X0XyX0X0X0XyX0XyXyXqXyXqXqXqXqX0XqX!.R.y.I P F.bXbXvXvXlXxXlXxXxXxXpXxXvXvXxXxXpXpXpXpXpXyX0XpXpXiXyXiXyXqXqX~.E.D.m.5.<.*.J I <.*.) ~ ~ K E E E E G G T F j j > O + + : : > s s d j A S K <.m.B.z.H.H.H.J.V.V.V.V.z.V.V.V.H.H.z.l.V.V.B.h.B.h.h.V.V.h.h.h.h.g.m.( / ~.V.h.h.h.h.g.g.,.g.g.g.g.g.g.g.g.g.g.g.g.g.",
":.:.:.*.*.*.*.*.&.K G F g s > : - + + + & = 0 ; ; 8 < < 2 2 < < < < < < < < < 8 0 w C g d s s p - : s g A A A S J *.g.V.P.K.J.P.J.J.J.J.H.H.V.h.h.5.N #.wX(.v.(.(.J.H.J.H.J.J.(.J.K.(.(.(.(.(.(.(.(.(.(.(.(.(.(.P.(.(.l.v. X{._._._.(.P.P.J.P.J.H.H.L.L.5.<.t.-.G C d s > : + . . @ 6 8 8 5 9.DXFXSXSXDXDXSXSXDXDXDXsX .2 8 ; 8 8 8 < ; ; = = - ; ; ; ; ; ; ; ; ; ; ; - ; ; ; - - - > > : , + : t t t t t i p a a a a f z z x x x x x x R w.R Y T x x x z x f f f a # # : y p s s f g j A S G K / <.g.B.h.V.H.H.H.V.V.V.V.V.V.V.B.B.h.h.h.h.h.B.m.( / m.g.g.g.g.g.g.g.g.j.h.j.h.<.*.&.U w < <.rX(.z.h.h.h.h.h.h.g.g.j.g.1.g.1.,.,.<.*.I K K G G F j f z j s p t $ O O O @ 6 G P @.=.j.K._.lXKXlXuXpXuXiXyXyXyXqXyX0X0XyXyXyX0XyXyXyXyXyXyXyX0X0X0X0XyX0X0XqXiXiXiXyXyXaXqXqXqXqX+XW.R.y.K J W.LXJXbXbXvXvXvXvXvXbXbXvXbXbXLXbXpXyXiXpXyX+XE.+X+X|.~.E.D.B.m.5.<.<.<.:.*.&.m L *.) ) ~ ~ G E E E T S G T A j f = O + + : : > s s d j A A K *.g.B.z.H.H.J.J.H.V.V.V.V.V.V.J.V.V.z.l.H.V.V.h.B.B.h.V.B.h.h.h.B.B.m.U / ~.H.h.h.h.g.g.g.,.g.g.g.g.g.g.g.g.g.g.g.g.g.",
":.:.:.*.*.*.*.*.&.P G F g s 6 : : = + + X X 6 ; * ; < < ; * * < < < < < < < < < < 1 d g d s s p : > s g A A A S J ) 5.B.P.K.J.J.J.J.J.J.H.H.V.h.h.5.M / 1X(.v.P.(.K.J.J.J.J.z.J.P.P.(.(.(.(.(.(.(.(.(.(.(.(.(.(.(.(.).z.l.{.{._.{.).(.P.P.P.P.J.J.H.L.L.m.4.t.-.G C d s > : + . . + : - 8 5  .SXDXFXFXDXDXSXFXSXDXSX9.5 8 8 8 8 8 8 0 > ; - = - - ; ; - ; ; ; ; ; ; ; ; ; ; - - - - : : : + $ t $ $ t t i i p a f z a f z z x x x x x x R w.! Y T T x z x x f f f a $ + $ t p s s f j j C S G K / *.1.h.h.V.H.H.J.V.V.V.V.h.V.V.V.B.h.h.h.B.B.B.m.( / m.g.g.g.m.g.g.g.g.h.h.h.B.5.*.&.P n < <.eX(.z.z.h.h.h.h.h.h.h.h.g.5.g.g.1.,.,.<.=.&.X.o.I G A l l j f p : $ O O O - 0 P X.@.$.l.K.).rXKXvXpXxXuXuXiXyXyXiXyXyXyXyXyXyXyXyXyXyXyXyXyXyXyX0X0XyXyX0X0X0X0XyXiXiXqXyXaXqXqXqX+Xm.S.t.m I ~.JXbXJXJXbXbXbXxXpXuXjXtXuXtXyXyX}.E.E.~.E.B.5.m.B.B.m.5.<.1.<.:.*.*.*.*.) ~ b K -.) L ~ ~ S E G G G S G G A j s + + + $ : > y s s s j j C G &.5.B.h.H.H.J.J.H.H.V.V.V.V.H.J.V.H.V.g.H.V.B.h.V.B.h.B.h.h.h.h.B.h.m.( ( E.H.h.h.h.g.g.h.,.g.g.g.g.g.g.g.g.g.g.g.g.g.",
":.:.:.:.:.*.*.*.&.I G G C s 0 > : - + + X & ; 6 * * * ; ; ; ; ; * ; ; ; < < < < < 1 1 d d s s 6 : > s j A A A A G I 1.B.J.J.J.J.J.J.J.J.V.V.V.h.h.5.M ( }.).v.J.(.(.J.J.J.J.z.J.(.(.(.(.(.(.(.(.(.(.P.(.(.(.(.(.K.(.(.P.l.). X_._._.(.P.P.J.P.J.J.H.H.L.B.5.u.-.K C d s > : - + . O $ - ; 8 r 9XDXFXDXDXSXSXVXSXSX7XV w 8 8 ; < 0 8 0 > ; - = - - - - ; ; ; ; ; ; ; - - - = - - - : - = + # t t t $ t t i p a f f f f f z x x x x x x Y R w.! Y T T x x x x f f f a $ + $ i p s f g g j C A G K I *.<.g.h.V.V.H.H.V.H.H.V.h.V.V.V.V.h.h.B.B.h.B.B.( / m.g.g.g.m.m.g.g.h.h.B.h.h.5.*.*.P n < <.rX).z.V.h.h.h.h.h.h.h.h.g.f.g.g.g.g.g.5.1.<.<.<.=.~ F T T l f p : $ O O + - g P X.@.=.6.Y.K.2XnXnXbXvXxXpXpXiXyXyXyXyXyXyXyXyXyXyXyXyXyXyXyXyXyXyXyXyXyXyX0X|.0XyXyXyX0XyXyXqXqXqX~.5.W.-.b I 0XJXlXvXbXuXyXwX}.].).].].].E.L.I.A.g.m.B.m.5.%.1.5.1.1.:.:.:.*.*.) &.&.) ) ~ D K ) ~ K ~ E S G G G G A S A j j > & + # $ : : p s s s j j A J I <.g.B.H.H.J.J.H.V.V.V.V.V.J.J.V.V.z.l.V.V.B.z.V.h.h.V.h.h.h.h.B.m.m.( ( E.H.h.h.h.h.g.g.,.g.g.g.g.g.g.g.g.g.g.g.g.g.",
":.:.:.:.:.*.*.*.*.~ K G C d s > : - + + + & - 6 - X X = ; ; * * ; ; ; ; ; ; ; ; < < < 1 d s 0 > : > s j A A A A G L <.h.H.K.J.J.J.J.J.J.V.V.H.V.h.5.M U }.).v.H.J.K.J.J.J.J.J.z.P.(.(.(.(.(.(.(.(.(.P.(.(.(.(.(.(.(.(.(.l.K.{._._._._.(.J.J.P.J.J.P.H.I.D.5.u.<.K C d s 6 > - + . O O - - 8 2 9.DXDXDXFXFXFXCXVXsX .2 q 8 8 8 ; 0 0 1 > > - = = - - - - ; ; ; ; ; - - - - - - - = - @ + + $ t t t t t i p p a f f f f f z x x x Y Y Y R R w.! R T T x x x x z f f a : + : 7 p s s g j j A S G K L / <.g.h.B.V.H.H.V.H.V.V.h.V.V.V.V.h.h.h.B.h.B.B.( #.m.B.g.g.g.g.g.g.B.h.h.h.h.1.*.-.I n < *.rX).v.V.h.h.h.h.h.h.h.h.B.g.g.g.g.g.g.g.5.5.5.5.4.;.G T T l f p : $ O O + : F U X.$.6.1.Y.K._.vXKXbXKXbXxXpXiXyXiXiXyXiXiXiXiXiXyXyXiXiXyXyXiXyXyXyXyXyX0X0X0X0XqXyXyXyXyXqXqXqXqX~.R.qXI 8 @.0XbX{.2X2X(.v.J.J.H.H.H.J.H.B.h.g.g.,.1.5.1.:./ :.<.:.:.*.*.*.*.) ) ) ) ) ~ K D ~ ) L K ~ K S G G G S C A A j j : + + # # : > p s s d j j A G I *.1.j.B.H.H.J.H.V.V.V.z.V.J.J.H.V.V.l.H.V.h.h.h.h.V.B.B.h.h.h.h.h.m.( ( ~.H.h.h.h.g.g.g.g.5.g.g.g.g.g.g.g.g.g.g.g.g.",
":.:.:.:.:.*.*.*.*.&.P G C g 0 6 : : + + + & + 6 - + + X = = * * * * = = ; ; ; ; ; ; ; ; < 0 s > : > s j A A A S G K <.g.H.K.J.J.J.J.J.H.H.H.V.B.h.5.M B }.).v.z.J.J.J.J.J.J.J.z.P.(.(.(.(.(.(.(.(.(.(.(.(.).(.(.(.(.(.(.l.z. X[._._.[.(.P.J.P.P.P.J.H.L.L.5.u.-.P A d 0 0 > - + O O & + - - 8 r <XIXDXFXSXFXVXsX9.5 8 q 8 8 8 ; > 1 1 > ; > = + - - - - ; ; - - - = - - - - = = - + + + $ t t : t t t i p a f f f z z f z x x x Y R Y Y R w.! R T T x x x x z f f f : + : : p s s g j j A G G K L / *.1.g.B.H.H.J.V.J.V.V.h.V.V.V.V.z.h.h.B.B.B.B.( #.m.B.g.g.g.g.g.h.B.h.h.h.h.1.*.-.I n < @.wX_.v.V.h.h.h.h.h.h.h.h.h.g.g.h.g.g.g.g.g.g.g.5.5.-.G R T T f p $ $ O . + 6 F P I $.6.6.c.K.).rXkXhXzXnXxXxXpXpXuXiXiXiXiXuXyXQ.|.yXuXpXiXuXiXiXiXyXyXyXyXqXyXyXiXiXpXiXyXyXyXyXqXW.W.p.n M <.yXtXv._._.v.z.z.z.h.l.h.h.h.g.g.g.,.<.:.<.<.:./ *.*.*._ _ _ ) &.) ) ) ) ) ~ K D ~ ~ L K ~ G S G G G A C A A j s + O + # : : > p s s d j j A G K / <.g.B.H.H.H.H.V.V.V.V.V.H.H.J.V.V.h.V.V.V.h.z.h.h.B.B.h.h.h.h.h.m.( ( E.V.h.h.h.g.g.g.g.,.g.g.g.g.g.g.g.g.g.g.g.g.",
":.:.:.:.:.*.*.*.*.&.P G A g s 6 > : - + + . X : - = = X   * = * * * * = * * = = = ; = ; ; 6 s > : p d A A A A S G K *.g.H.J.H.J.J.P.J.H.V.V.H.V.j.<.m N |._.J.h.J.J.K.J.J.J.J.V.J.P.(.(.(.(.(.(.(.(.(.(.(.(.(.(.K.P.(.(.v.l.[.[._._.[.(.P.J.P.P.J.P.H.H.L.m.u.<.P C g s 0 > : = O O & . @ : 8 r  .DXIXDXSXSXZX<X9 9 8 8 8 8 8 ; ; ; ; < ; ; - + - - - - ; - - - = = = = = = = = + + + $ $ t $ : : : i p a p f f f z x x x x x Y Y R R R R ! w.R Y T x x x x z f f p 7 @ @ : p s s f g j A G G K L / *.,.g.B.V.H.J.V.H.V.V.z.V.V.V.V.h.h.B.B.h.h.B.( *.B.g.h.g.g.h.h.h.B.h.h.h.h.1.*.-.I C < / wX_.v.V.h.h.h.h.B.z.h.h.B.g.g.B.g.g.g.g.g.g.m.m.u.-.G R R T f p $ $ O . + 0 F U X.$.<.1.c.Y.K._.3X_.{.{.|.+XqXaXpXpXpXiXpXpXiX[.I.A.Y.~.|.0XyXyXpXpXpXpXuXpXpXpXxXxXpXuXiXiXiXaXqXE.-.C q q y.tX).z.[.J.z.h.h.h.g.h.h.g.g.1.,.1.1.<.:.<.:.*./ ) *.*._ ) &.) ) ) ~ ~ ) / ~ Z D ;.~ L K ~ G G G G F A C A A j p & + + # : : > y s s d g j j S K L *.1.h.V.H.H.H.V.V.V.V.H.H.H.V.V.V.l.B.V.B.V.V.h.h.B.B.h.h.h.h.h.m.U ( ~.V.h.h.h.g.g.h.g.,.g.g.g.g.g.g.g.g.g.g.g.g.",
":.:.:.:.:.*.*.*.*.&.~ G G C s 0 > : : + + . . - - + + X     X * X X * * * * * * = * * * * = > : > s s j A A A S G K ) 5.B.H.J.J.J.P.J.V.V.V.V.B.j.<.m N ].).K.h.z.J.K.J.J.J.J.V.V.P.(.(.(.(.(.(.(.(.(.(.(.(.(.(.(.K.(.(.J.l.(.[._._._.].(.J.P.P.J.P.P.H.L.B.5.<.K A g s s > : - O O O . . @ - 8 9 b.IXDXDXDX9X .8 q 8 8 8 8 < < ; ; ; ; ; ; - + = - - - = = = = = = = = = = + + + + # $ $ $ $ t : t i p a a f f z x x x x x x Y R ! R R R ! w.R R T x x x x z f f s 6 s 7 : p p s g j j A G K K K I *.,.g.h.V.H.V.V.V.V.V.h.V.V.V.V.z.h.B.h.B.B.B./ :.B.h.h.g.g.h.h.h.B.B.h.h.h.<.*.-.~ C < U wX_.v.z.z.h.h.h.B.h.h.B.B.g.g.h.h.g.g.h.h.m.m.m.m.-.K R R T f p : $ O . + 0 J U @.$.%.7.c.v.v.). X(.v.h.j.m.m.L.|.0XaXpXxXxXxXvXxXuX0XQ.I.c.j.j.A.T.~.|.[.0XpXpXpXuXiXuXiXpXiXyX+XS.P q q n D.wXl.v.[.H.h.h.g.g.g.g.g.f.1.1.1.<.:.:.*.*.*.*./ / &.) ) ) ) &.&.) I ) / ) ~ b Z ) L K K ~ G G G G F F A A A j > & O + # , : > p s s d g j g A G K ) <.g.h.V.H.H.z.V.V.z.V.V.H.H.V.V.l.B.H.h.B.V.B.h.B.B.h.h.h.h.g.m.U ( E.B.h.h.h.g.h.g.g.,.g.g.g.g.g.g.g.g.g.g.g.g.",
":.:.:.:.:.*.*.*.*.*.~ G F C d s > : - @ + . . + - + X . X . X X + X X X X X X + + + + X + + X - p s s j A A A S G G ) 1.h.J.J.J.J.J.J.H.V.H.H.B.j.<.m N |.).P.h.h.J.J.J.J.J.J.z.v.J.(.(.(.(.(.(.(.(.(.P.(.(.(.(.(.P.(.(.(.z.P.[._._._.).(.P.P.P.P.P.P.P.P.L.m.4.P S g s s > : - + O O O O + : - 8 V sXIXDXDX9.2 q q 8 8 8 8 < < ; ; ; ; ; ; - = + - = = = = = = = = = = + + + + + @ $ $ $ : : t t i i a a f f z z x x x x x T Y R ! R R R w.q.R Y T x z x x j f f f : p h 6 : p f f g g A G K K L / *.:.g.B.B.V.V.V.H.H.H.B.V.V.V.V.V.h.h.B.B.B.B./ :.B.B.h.g.g.h.g.h.B.h.h.h.B.,.*.-.&.Z < U wX[.H.z.z.h.h.h.h.h.z.B.B.h.g.h.h.h.h.h.h.h.B.j.g.-.K E R T f p : $ O . + w J U X.$.<.6.c.v.v.). X(.v.l.g.g.,.,.g.A.H.T.}.yXuXxXxXxXbXbXbXxXuX1X1X~.I.Y.A.A.T.1XyXyXyXyXyXiXiXqXW.t.G 0 1 J E.].%.).(.z.h.g.g.g.1.1.1.1.1.<.:.:.:.:.*.*.-.*./ I ) ) ) ) ) ) ) ) I ) ) ~ I b K ) L K K ~ S G G F A A A A j j = O O + , : : > s s s d g j A S G K I *.1.m.B.H.H.z.V.H.V.V.H.V.V.V.V.l.B.V.B.V.B.B.B.B.h.h.h.h.h.B.B.U ( `.V.h.h.h.h.g.g.g.,.g.g.g.g.g.g.g.g.g.g.g.g.",
":.:.:.:.*.*.*.*.*.*.&.P G A g s > > : @ + . . + + X X + + X & X X X X X X X X X     X X X X - 6 s s s j A A A S G G ~ 1.h.J.J.J.J.J.J.H.V.V.V.h.g.<.N N ].).(.h.l.H.J.J.J.J.J.z.z.J.(.(.(.(.(.(.(.(.(.(.(.(.(.(.(.(.(.).(.J.J.[._._._._.(.P.P.P.P.P.P.P.P.P.L.u.I G j s s > : - @ + O O & O + = ; 2 9.IXUX<Xr w q q 8 8 8 8 < < ; ; ; ; ; ; - = + + = = = = = + + + + + + + + + $ $ $ $ : $ : t t i p a a f f f x x x x x T T R R R ! R ! w.q.! R T x x x z f f f f t : h f : p p g g g A G E I I / _ :.1.h.B.V.V.V.H.H.H.B.B.V.V.V.B.h.h.B.B.h.B.%.:.B.m.h.g.g.h.g.B.B.h.h.h.h.<.=.-.&.J < U wX{.H.H.z.z.h.h.h.z.V.V.V.B.g.B.h.B.h.B.h.h.B.j.g.-.K E R T s p : $ O O + w J P X.$.<.%.j.v.v.(._.J.z.l.g.f.,.,.,.h.l.l.h.A.H.P.].].0XyXuXxXcXbXbXbXbXxXxXxXpXyXiXiXyXyXyXyXyX0XR.r.C 1 0 I E.l.l..XJ.h.h.g.g.g.,.,.1.1.,.<.:.:.:.:.*.*.*.*./ L ) ) ) / ) ) ) ) I ) ) ~ K b I ) L L K E S G G F A A A A j s + O O + , : : > s s s d g j C A S G L / <.5.h.V.V.V.V.V.H.H.H.V.V.V.V.g.B.V.V.B.B.B.h.B.h.h.h.h.g.h.B.U ( `.V.h.h.g.h.g.g.g.,.g.g.g.g.g.g.g.g.g.g.g.g.",
":.:.:.:.*.*.:.*.*.*.&.P J A g s 6 > : @ + O . . + + X   X   & . X X X   X X X &   X     = > s s s s d j A A A S G K L :.h.J.J.J.J.J.J.J.V.V.V.h.g.<.N M E.).(.h.l.H.P.J.J.J.J.z.z.H.(.(.(.(.(.(.(.(.(.P.P.(.(.(.(.(.(.(.(.K.J.[._._._.[.].(.P.P.P.P.P.P.P.P.E.Z.I G A d s 6 > : @ + O O & & + + - ; r dXUX .9 w 8 8 8 8 < < < ; ; - - ; ; - - - + + + + + + + + + + + + + O + $ $ $ $ : $ t t t i i p f f f f f x x x x x T Y R R R q.w.! w.q.w.R T x x x x x j z f p : s s : p p f g g A G E I I / / :.,.h.B.V.V.V.H.H.H.B.h.V.V.V.V.h.z.B.h.B.B.%.:.B.h.h.g.m.h.B.B.B.h.h.B.g.%.*.;.&.G < J wX XJ.H.H.z.B.h.z.z.V.V.V.B.h.h.B.h.h.B.h.B.B.B.g.4.K E R T s p : $ O . + 0 J P X.=.=.$.j.c.v.v._.(.z.l.x.,.,.,.,.g.l.l.g.g.g.g.g.g.h.h.h.P.].}.wXtXuXxXxXcXLXcXcXcXxXxXuXyX0XW.S.;.C 1 d &.m.` K..Xz.l.h.g.f.,.,.,.1.,.<.:.:.:.:.:.*.*.*.*./ I ) ) ) ) ) ) ) ) I ) ) ~ K b ~ L L K ~ E S G G F A G A A j p & O + + : : : > s s s d j j A A S S K I *.<.g.h.V.z.z.V.z.H.H.z.V.V.V.x.B.V.B.V.h.h.h.V.h.h.h.h.h.h.B.U ( `.V.h.h.h.h.g.g.g.,.g.g.g.g.g.g.g.g.g.g.g.g.",
":.:.:.:.:.*.*.*.*.*.*.I Z A g s p > : - + + . . + + + X . . . . . & & & & . . . & . + : 6 s s s s g d g A A A S S K K *.g.z.J.J.J.J.J.H.V.V.V.h.g.<.m M E.(.(.h.,.h.J.K.J.J.J.z.z.J.J.(.(.K.(.(.(.(.(.(.P.(.(.(.(.(.(.).).(.z.(._._._._.[.(.P.P.P.P.P.P.P.P.E.Z.~ G A j s 0 > : - @ + O O & & + + - ; V X.2 8 q 8 8 8 8 < < ; ; ; ; - - - - - - + + + + + + + + + + + O O + $ $ $ : t : : t t t i p a f f f x x x T Y Y T T Y R R q.q.q.q.w.w.q.R T x z x x x x x f p # : p : 7 p f g C F G ~ ) / / *.:.1.g.B.V.V.V.H.H.H.B.B.V.V.B.B.h.h.h.B.B.B.%.:.B.B.h.g.m.B.B.B.V.h.h.B.g.:.*.-.&.K 8 B wX XJ.H.V.z.B.h.z.z.V.V.H.B.h.B.B.B.h.V.B.B.B.B.j.4.K G T F s p : # O . + 0 J I X.=.$.@.j.c.v.v._.(.z.l.l.,.:.%.,.g.x.x.l.g.g.g.g.g.g.l.,.h.h.h.h.H.P.P.].].}.0XwXtXuXxXxXpX~.R.u.~ d 1 C =.%.%.2X[.l.l.h.g.f.,.,.,.,.,.<.:.:.:.:.*.*.*.*.*./ L ) / / / ) ) ) ) I ) ) ~ Z Z ) L L L ~ K S T G A F F A j j y & O # + : : : y p s s d d j A A S S K L ) *.1.g.B.h.h.V.z.V.V.z.V.V.V.x.h.V.B.V.h.h.h.B.h.h.g.g.h.B.B.U ( E.z.h.h.g.g.g.g.g.g.1.g.g.g.g.g.g.g.g.g.g.g.",
":.:.:.:.:.:.:.*.*.*.*.~ J G C s p 6 > : + + . . + + X X . . . . . + + + . + + + @ : p p s s s s s d d g A A A S G K K *.g.V.J.J.J.J.J.H.V.V.V.V.g.<.m M E.).(.H.%.1.H.J.J.J.J.v.z.J.v.(.(.K.(.(.(.(.(.(.P.(.(.(.(.(.(.(.(.(.v.K._._.)._.{.(.P.P.P.P.P.P.(.P.E.D.&.G A g s s > : : @ + O O & & O + @ ; < < 8 8 8 8 8 8 < < < ; ; : - - - - - - = + . + + + + + + O . O + O $ $ $ $ t t t t t t i p p f f f j x x T T T T R R R R q.q.q.e.e.q.q.q.R T x x x x x x x f a # $ t : : p f g C A G ~ ) / / *.:.f.h.B.V.V.V.V.V.H.V.B.V.V.V.V.B.h.B.B.h.B.,.:.B.h.h.g.B.B.h.B.V.h.h.B.1.:.&.;.&.K 8 N wX.XJ.H.V.V.B.V.V.h.V.V.V.V.h.V.V.B.h.B.h.V.B.B.j.4.P G T F s p : $ O . + 0 J P X.=.#.@.1.c.v.v._.(.z.l.x.,.,.:.,.f.,.,.x.x.g.g.g.g.1.,.,.,.g.g.l.l.l.l.l.l.g.g.h.h.H.I.E.I.m.u.*.P d > C =.( v.eX(.l.g.g.f.1.,.,.,.,.,.<.:.:.:.:.:.*.*.*.*./ L / / / / ) ) ) ) I I ) ~ n Z ~ L L L ~ K S T G A G F j j j : & O # # : : > > p s s d j j A A S S K K I *.<.g.B.B.h.h.h.V.V.z.V.V.H.l.h.V.V.B.B.h.B.V.h.h.g.h.h.B.B.U ( E.z.h.h.g.h.g.g.g.g.,.g.g.g.g.g.g.g.g.g.g.g.",
":.:.:.:.:.:.:.:.*.=.-.&.K K C d s 6 > : - + . . O + X * - - @ @ - - : : - : : : 6 p p s s d d d d d d d A A A S G G K / 1.z.J.J.J.J.J.H.V.V.V.h.g.<.Z M I.).(.H.%.%.j.H.H.J.J.v.z.J.z.J.(.J.(.(.(.(.(.(.P.(.(.(.(.(.(.(.(.(.J.J.[._.)._.{.).(.P.P.P.P.(.(.P.E.R.&.G C g s s > : : : @ + O O & & O + - ; 0 8 8 8 < < < < ; ; ; ; : - = = = = = + + O . . O & & & O O + @ $ $ $ $ t t t t t t p p p f f j x T T T T T T R R R ! ! q.q.e.i.r.e.q.q.R T x x x x x x z f a v $ t : : p s g C A G ~ &.*.*.:.<.,.h.B.V.V.z.V.V.H.V.h.V.V.V.V.B.h.B.h.B.V.,.<.B.B.h.h.B.h.h.B.B.h.h.B.,.*.&.-.&.P q m wX.XJ.H.V.V.h.z.z.z.V.V.V.V.h.V.V.B.h.V.V.z.B.B.m.4.I G R A s y : # O O X 0 G U X.=.@.$.6.j.v.v._.J.z.l.l.,.,.:.:.1.,.,.1.,.1.1.1.,.,.,.:.<.,.,.,.,.,.,.,.,.,.,.,.,.,.,.,.1.<.-.&.K d > G I %..XeXz.l.g.g.f.,.,.,.,.,.:.:.:.:.:.:.:.*.*.*.*./ L / / / / ) ) ) ) I I ) ~ b K ~ L L L ~ K G T G A T F j j f + & + # , : : > > p s s d j j A A S S G K L ) :.1.g.B.B.h.h.V.z.z.V.H.V.x.h.V.B.B.B.h.V.V.g.g.g.g.B.B.B.U ( `.z.h.h.g.g.g.g.g.g.,.g.g.g.g.g.1.g.g.1.g.m.",
":.:.:.:.:.:.:.:.<.<.*.&.K G F g s p > : - + + . + X ; F g 0 6 : : > : > > 6 6 6 6 s s s s s d d d g g g A A A S G G K / ,.h.V.J.J.J.J.V.V.V.V.h.g.<.N M L.).(.P.1.%.,.V.H.H.v.v.z.H.z.v.(.K.(.(.(.(.(.(.(.(.(.(.(.(.(.(.)._.(.z._.[._._.{.[.(.(.P.P.P.(.(.P.E.E.-.G A g s s > : : 6 - + O O & O O O @ - > < 8 < < < < < ; ; ; ; : - = + + + + + + . & & . . + + $ $ $ $ : : : : t t t t t p p p s f j x T T T T T R R R E ! q.q.e.e.e.i.i.e.q.q.R T T x x x x x f f a t $ t : : p s g A A G I &.*.*.<.,.g.h.B.H.V.V.H.H.H.V.h.V.V.V.V.V.B.B.B.B.B.,.<.B.B.h.h.B.h.h.B.z.h.A.g.<.:.&.&.&.I q m wX.XJ.J.H.V.V.z.z.z.V.H.V.V.h.V.V.V.z.V.V.V.V.B.B.u.~ Z T j s y : # O . + 0 J P X.$.@.$.6.j.c.v.).J.z.l.x.,.,.:.,.1.,.:.,.,.,.,.,.,.,.,.<.<.,.,.,.,.,.,.:.<.<.<.,.<.:.,.<.<.*.&.~ G d 1 J B h.eX[.h.l.x.f.,.,.,.,.,.,.:.:.:.:.:.:.:.*.*.*.*./ L / / ) / ) ) ) ) I ) ) I b ~ ~ L L L ~ G G T A A T A j j f + & # # : : : > > p s s d j j A A S S G K K ) *.<.g.h.h.h.h.V.z.z.z.J.V.x.h.H.B.B.B.h.V.h.h.g.g.j.B.B.B.U ( `.V.h.h.g.g.g.g.g.g.,.g.g.g.g.g.1.1.g.1.g.g.",
":.:.:.:.:.:.:.:.*.<.*.&.K J F g s p > : - + + . X X R e.J C g > > > > > > 6 6 6 0 s s s d d d d g g g d A A A S G K K I <.h.H.J.J.J.J.H.V.V.B.h.g.<.Z 2 D.(.(.P.j.%.%.g.V.z.v.v.h.z.J.z.(.(.J.(.(.(.(.(.(.(.(.(.(.(.(.(.)._._.z.(.{._._.[.{.(.(.P.P.P.(.(.(.].E.<.K F g d s 6 > : : : + + O & O O O + - > > ; ; < < ; ; ; ; ; - - = + + + + + + O . O . . 7 p 7 : : : : : i i i i i i i i p p f f j x T T T T R E ! ! O.O.q.e.e.r.r.i.p.i.i.r.q.R T x x x x x x j f f t v t t : p s g A A G I *.:.<.<.1.g.h.B.V.H.V.V.H.V.V.h.V.V.V.V.V.V.B.B.h.B.g.,.B.h.h.h.B.B.h.h.V.v.H.g.1.<.*.*.*.I q m wX.XJ.J.H.V.V.z.V.z.V.H.V.V.B.B.V.V.z.V.V.V.V.B.B.4.&.Z T A p > t + O O X 0 J P X.@.@.=.6.j.c.v.).J.z.l.x.,.,.:.:.,.,.<.,.,.,.,.,.,.,.,.:.:.,.,.,.:.,.:.:.:.:.:.:.:.:.:.*.*.&.~ P G s 1 n U ~.eXJ.l.g.x.f.,.,.,.,.,.,.:.:.:.:.:.:.*.*.*.*.*./ L / / ) / / ) ) ) I ) ) K b ~ ~ L L L ~ G G T A A T A j j p + O # # : : : > > s s s d j j j A S S S S K L ) *.,.g.h.h.h.V.z.h.V.V.H.x.g.V.B.B.h.g.H.h.h.g.g.h.j.g.B.U ( E.h.h.h.h.g.g.g.g.g.,.g.g.g.g.g.1.1.g.1.g.g.",
":.:.:.:.:.:.:.:.:.<.*.-.P C G g d s > > : @ + . . - r.3.U P F 0 6 > 6 6 6 6 0 0 0 0 s d d d d g d d g g C S S G K K K L :.g.V.J.J.J.J.H.V.V.h.z.h.<.m 2 D.(.K.P.A.%.%.,.B.H.v.v.z.z.J.l.K.(.J.K.(.(.(.(.(.(.(.(.(.(.).).)._.[.z.J. X_.)._.{.[.(.P.P.`.(.(.(.`.E.t.K S g d s p : : : 7 - @ O O & & & O + - > ; ; ; ; ; ; ; - - - + + + + + O O + + @ $ + + 7 p s p : : : : t i p i i p p p p p f j j T T T R ! O.O.O.O.O.;.~ ;.;.e.r.i.p.p.i.i.q.R Y T x x x x j j f f i $ : t : p f g g A G I *.<.,.,.g.g.h.B.V.V.V.V.H.V.V.h.V.H.V.V.z.h.B.h.B.B.g.%.B.h.h.h.h.h.h.h.z.v.H.5.<.<.*.*.*.I q m wX.XJ.J.J.V.V.V.V.V.V.H.H.V.B.V.V.H.V.z.V.V.B.A.B.5.-.C T j p : $ + + O + 6 H U X.@.$.=.6.l.c.v.).J.z.l.f.1.,.:.:.,.,.:.,.<.,.,.,.,.,.,.:.%.,.,.:.:.:.:.:.:.:.:.:.:.:.*.*.&.) ~ K Z 0 > < =..X.Xh.g.x.1.,.,.,.%.:.,.%.:.:.:.:.:.:.*.*.:.:.*./ L ) ) ) / / / ) ) I ) ) K m ;.~ L L L ~ G G G S A T A j j p & O + # - : : > y s s s d A A A A S S S K K K ~ *.<.1.g.g.h.V.V.h.V.V.H.g.h.V.h.B.j.g.L.h.h.g.g.j.h.h.B./ ( E.B.h.h.g.g.g.g.g.g.,.1.g.g.g.g.g.5.5.,.g.m.",
":.:.:.:.<.:.:.:.:.*.*.-.I C G C d s > > : - + O . 8 p.t.X.o.P g s 0 6 p 6 6 0 0 0 s s d d d g g g d g C A S S S K K L I :.g.z.J.J.J.H.H.V.V.z.h.h.<.m 2 A.(.(.P.L.%.%.%.5.A.z.z.z.z.H.h.h.(.(.(.(.(.(.(.(.(.(.(.(.(.(.(.)._.[.J.z.[._._._.{.[.(.(.`.`.(.(.(.`.|.Z.K S j d s p : t $ : 7 @ + O & & & & + = - > ; ; ; ; ; - - = + + + + + O + + $ : : : : $ @ : : : t : p p p p p p p p p f f f f j T T T ! O.! O.e.~ ~ ~ ~ ~ ~ ~ ;._ r.t.i.i.r.q.R Y T x x Y x x j f f p $ : t : : s g A A G P *.<.,.f.h.h.h.B.H.H.V.V.H.H.V.h.V.H.V.V.V.h.B.B.h.B.h.,.V.B.h.h.h.h.h.h.V.H.H.5.<.<.=.&.*.~ q m wX.XJ.J.J.V.V.V.V.V.H.H.H.V.B.B.H.H.V.V.V.V.V.B.B.5.-.Z T j y : : + O O O 6 H I U @.$.<.6.1.c.c.).v.z.l.f.,.,.:.:.,.,.%.,.<.,.,.,.,.:.:.:.:.,.:.:.:.%.:.:.%.:.:.*.*.*./ @./ ) ~ K C 0 ; < j.2XP.l.1.,.,.,.,.,.,.%.<.:.:.:.:.:.:.:.*.*.:.:.*._ L ~ ) / / ) ) ) ) ~ ) ) Z Z ;.L L L L ~ G G G S G T j j j i & O + $ - : : > y s s s d j A C A S S G K K K L ) *.1.f.g.h.B.V.V.h.V.H.h.h.V.h.B.g.h.H.g.g.h.g.g.g.g.m.<.B L.B.h.h.h.g.g.g.g.g.,.,.g.g.g.g.g.g.5.,.5.g.",
":.:.:.:.:.:.:.:.:.:.*.-.~ n G C d s 6 > : : @ + X 0 p.4.$.;.o.P g 0 0 6 p p 0 s 0 d d d d g g g g C g g C S G S K L I / :.l.h.H.J.J.J.H.V.z.h.h.h.<.Z 2 A.(.K.P.P.g.%.%.<.j.H.z.z.z.H.v.l.(.(.J.K.(.(.(.(.(.(.(.(.(.(.(.).).[.(.l.)._._._._.{.).P.P.P.(.(.(.(.|.Z.I G j d s p 6 : : @ 7 : + O O & & & . + - - - - - - = - = + + + + + + @ $ $ : : i i : : : : : : p p p p p p p p f f f f f j j j F T ! ! ~ O.O.~ ~ ~ ~ ~ ~ L L ~ ~ ;.r.i.r.q.q.R T T x x ! x j j f f a : : t : i s g j A S E *.1.5.g.B.h.h.V.H.H.V.V.H.H.V.h.V.V.V.V.V.V.V.h.h.V.h.,.V.B.h.h.h.h.h.B.V.H.V.5.<.<.=.&.*.~ q B wX.XJ.J.J.H.V.V.V.V.H.H.H.V.B.V.H.H.H.H.H.V.B.H.B.5.-.J F j > : : + O + . 8 H X.X.@.$.=.$.1.c.c.).v.z.l.x.,.,.:.:.,.,.%.,.:.,.,.,.,.,.,.<.%.:.:.%.%.:.:.:.:.#.*.*.*.*./ / I ~ E G g 0 * M E.}.h.,.1.,.,.,.,.,.,.:.<.<.:.<.:.:.:.:.*.*.*.*.*.) L ) ) / / ) ) ) ) I ) ) Z K ) L L L I ~ G G G S T T j j f : & O + $ : : > > p s s s d j A A A S S S S K K L / *.:.1.f.h.B.V.z.h.V.H.h.h.V.h.h.l.H.B.g.g.g.g.g.g.g.m.1.B D.V.h.h.h.g.g.g.g.g.5.,.g.g.g.g.5.5.5.,.g.g.",
":.:.:.:.:.:.:.:.:.<.*.*.&.n Z A d s 0 6 : : @ + X l t.=.=.;.;.o.G g 0 0 s 0 s s s d d d d g g C g C C C C S K K K I / / :.1.h.H.J.J.J.H.V.h.V.h.h.<.Z 2 B.(.J.P.P.h.%.%.#.<.B.B.h.h.H.v.l.z.(.K.(.K.(.(.(.(.(.(.(.(.(.).)._._._.l.(.[._._._.[._.P.P.P.P.(.).].|.R.) G A j s p 6 : : @ @ 7 $ O O & & O O O + + = - = = + + + + + + + $ $ $ $ : t i i t : : p t p p p p a s s s f f f f j f f j j F T ! E E ~ ;.~ ~ ~ K I ~ ~ L L L L ) -.e.r.~ q.R T T x x ! Y j x f f a t $ t t t s g g A G E &.<.g.g.B.h.h.V.V.V.H.H.H.H.V.h.V.V.V.V.V.V.V.h.h.B.g.,.B.B.h.h.h.h.B.h.V.H.B.1.<.<.-.&.*.~ q B wX.XJ.J.J.V.V.V.V.V.H.H.H.V.B.B.H.H.V.V.H.V.V.A.A.u.t.P C g > : : + + + & ; H U X.@.$.=.@.1.h.c.(.v.z.l.x.1.,.%.:.,.,.%.,.:.,.,.,.,.<.,.:./ :.:.:.:.:.:.:./ *./ / *.*.&./ I ~ K S j > * @.}.P.l.1.,.,.,.,.,.:.,.:.:.<.:.:.:.:.:.:.*.*.*.*.*._ / ) ) / ) ) ) ) ) ~ ) ) Z I ) L L L L ~ K T G S T T j j f : & + + $ : : > > p s s d j j A A S G S S S K K L I _ :.,.,.g.h.V.z.h.z.H.h.h.V.h.h.,.H.h.g.g.g.g.g.g.m.m.m.' g.V.h.h.g.g.g.g.g.g.5.<.5.g.g.5.5.5.5.,.g.g.",
":.:.:.:.<.:.:.:.:.<.*.-.&.C C G g s 0 > > : @ + X F p.=.$.;.;.;.E J w 0 0 s s s d g g d g C C C C C C A C K K L I / / *.<.g.h.H.J.J.J.H.V.V.h.h.h.<.Z 2 m.(.K.K.P.H.,.#.#.#.,.m.h.h.z.v.l.l.(.(.K.K.(.(.(.(.(.(.(.(.(.(.)._._.[.z.J.{._.)._._.[.(.P.(.(.(.).].|.E.*.G A j s p p : : $ + @ $ + O & O O O + + X X + + + + + + + $ : : : : : t t y y y y p p p p s s s p f f f f j f j j l x f l Y E E E ~ O.~ ~ L ~ L L L L K L L L L ~ -.r.e.E q.! T T x x Y Y j j f f f i $ t t : p g g A A K ) 1.g.g.B.h.V.V.V.H.H.V.V.V.V.h.B.V.B.B.B.z.z.h.h.B.h.x.B.B.B.h.B.h.B.h.V.H.B.5.<.<.=.*.*.~ q B wX.XJ.J.J.H.V.V.V.V.H.H.H.H.V.V.L.H.H.V.V.V.V.B.H.5.<.P g s > y : + + # + ; F U @.@.=.=.B 6.h.h.(.v.z.l.x.,.,.:.:.,.,.%.,.,.,.,.<.,.<.:.<./ :.:.:.:.%.:.:./ *.*./ *./ / / I E G A s ; 2 m.|.l.x.,.,.,.,.,.,.:.<.:.:.<.:.:.:.:.:.:.:.:.:.:.:.*./ ) ) ) / ) ) ) ) ~ ~ ~ n ~ &.L L L L ~ K T T S T T j j s + & O # $ : : > > p s s d j j j A A S S S S K K K L ) *.:.,.g.h.V.z.h.h.V.h.h.B.h.g.l.L.h.h.g.g.g.g.g.m.g.m.( ,.L.B.h.g.g.g.g.g.g.g.,.1.m.g.5.1.5.5.,.g.m.",
":.:.%.:.<.:.:.:.:.:.*.&.;.Z b G g s 0 > > : @ + X F p.=.@.;.=.&.;.P J w q 0 s s d g g C C C C C C C C C Z K L I / *.*.:.,.g.h.H.J.J.J.H.V.V.h.z.B.<.Z 2 m.(.K.K.J.P.g.#.#.#.#.<.l.h.h.z.z.x.H.K.J.K.(.(.(.(.(.(.(.(.(.(.)._.).[.H.h.{.[.(._.[.[.[.(.`.(.(.).].].~.-.K A j s s p y : : $ + # # O & & O O @ 6 ; * * X X X @ : : i : : : 7 p p p p p p f f s f f f f j f j j l l F T T Y R ! R R O.~ E ~ ;.) ~ L L L K K I K K K K E L ~ ) -.r.E ! O.T T T x j ! j j f f a p # t i : p f g j A K ) <.5.g.B.z.z.H.H.H.H.V.V.V.V.B.h.V.B.B.B.h.h.z.z.B.B.x.V.B.h.h.h.h.h.B.V.H.B.1.<.<.-.*.*.~ q B wX.XK.J.J.H.V.V.V.H.H.H.H.H.V.V.L.H.H.V.H.H.B.A.A.5.-.E 0 s > y : + O # + - F P X.@.=.$.B %.h.h.(.v.z.l.x.,.,.:.:.,.,.:.,.,.,.,.<.<.<.:.<.#.:.:.:.:.:.:.:.*.#.*./ / / / I I P G g 1 * m ~.L.,.,.,.,.,.,.,.,.<.<.:.:.:.:.:.:.:.:.:.:.:.:.*.*.*./ ) ~ ) ) ) ) ) ) I ~ ~ n &.) L I I L ~ G T G S T T j j p + O + # : : : > > y s s d d j A A S S S S S K K K L / _ :.,.5.h.V.z.h.h.V.h.h.B.h.g.j.L.g.h.g.g.g.g.g.g.g.m.%.( L.B.g.g.g.g.g.g.g.g.1.,.g.g.g.5.1.5.,.5.g.",
",.%.%.:.<.:.:.:.:.:.*.&.;.J q G g s 0 6 : : : + X g 3.=.=.;.=.=.=.;.P F w q d d d g C C C J Z Z C J Z J Z L / / #.:.,.,.l.h.z.J.J.J.J.H.V.h.h.h.h.<.Z 2 m.(.K.K.J.K.A.=.#.*.#.#.<.g.j.h.z.l.l.P.K.J.(.(.(.(.(.(.(.(.).).).).).[.P.l.[.[._._._.[.[.(.`.`.(.).].}.|.<.K F j s s p p : : $ + O + O & & O O @ 0 l C n w F F 0 0 s p p p p p p p s f f f f j j j j j F T T T T R E ! ! O.O.e.e.e.~ ! ~ E ~ ~ ~ L L K K K L L L L K E E L ~ ) ;.e.! E O.R T T T f Y x f f f a a $ t i t p s g j A G ~ <.5.g.h.V.V.H.H.H.H.H.V.H.V.V.B.V.V.B.V.B.h.h.B.B.B.g.B.B.h.h.h.h.B.h.B.H.V.1.<.<.=.*.*.~ q B wX.XK.J.J.J.V.V.V.H.H.H.H.H.V.V.L.H.H.V.H.V.B.A.H.m.-.o.0 s y y : + O # + - F U @.$.=.=.=.$.c.h.(.J.z.l.x.,.1.%.:.,.,.:.,.,.:.,.,.,.<.:.:.#.:.:.#.:.:.*.*.*.#./ / / / &.&.P K C 0 ; 2 4.+Xg.,.,.,.,.,.,.,.<.<.1.:.:.<.:.<.<.*.*.<.:.*.*.-.r.;.I ~ ;.;.) ) ) ) ) I ) I m ;.) L ~ K ~ ~ E T T T R T j f p O + O # : : > > y y s s d j A A A A S S S S G K K L / / *.<.m.B.B.V.z.V.V.h.h.B.h.,.B.H.g.h.g.g.g.g.f.g.g.g.,.( B.B.g.g.g.g.g.g.g.g.5.,.g.g.g.5.1.,.,.5.g.",
",.,.%.:.<.:.:.:.:.:.*.&.;.K q G j d 0 > > : - + X w o.3.=.=.=.=.=.-.&.P J C g d g C J J G K K G J J J K J I *.*.<.1.f.g.h.z.H.J.J.J.J.J.V.z.z.z.h.<.Z 2 5.(.K.J.J.J.I.5.#.@.#.#.$.%.1.h.h.h.x.H.(.J.J.(.(.(.(.(.(.(.(.).).).)._.].x.K.[._._._.[.[.].`.`.(.).[.}.}.5.P F j s s p y : : $ # + O O & O O O @ 6 C P I &.y.p.P C g g f f f f f f f j j j j j A F T T T ! ! O.O.O.O.O.O.O.;.O.e.E S E K L L E K K K K K K K L L E E E E L ~ ~ ;.;.E E O.R T T T f j x f f f f a $ t p p p s g j A G I :.5.g.B.z.z.H.J.H.H.V.V.H.V.V.B.V.V.h.B.V.B.h.h.B.B.l.B.B.h.h.h.h.h.h.V.H.H.5.<.<.-.*.*.~ q B wX.XK.J.J.J.V.V.V.H.H.H.H.H.V.V.L.H.H.V.V.V.B.B.L.m.=.;.s > > y : + O O + - V P X.$.$.=.4.$.j.c.(.v.v.l.x.1.,.%.:.,.,.:.,.,.:.:.,.,.<.%.<.#.#.u.Z.#.:.*.*.*._ *./ *.U +XHXK G d ; ; n !.PXE.:.1.:.,.,.:.:.<.,.1.*.#.1.#.aXHX*.4.PXE./ Z.LXPXOXr.HXPXOXI &.) ) ) I ~ K Z ;.) L ~ ~ E ~ PXp.A T R T j f : & + + # : : > > y s s s d j j A A S S S S K K K K K L / *.@.aXLXB.B.B.h.B.h.h.B.h.,.H.B.g.g.g.g.g.g.g.g.g.g.g.( g.B.g.g.g.g.5.g.g.5.1.,.5.5.5.5.5.1.,.5.g.",
",.<.:.:.:.<.:.:.:.:.*.&.&.P q A A d 0 0 > : - + X 0 o.=.=.=.-.-.6.4.=.@.I J C g C C J K I I P K J J K K J / <.,.,.g.h.h.z.z.J.J.K.J.J.J.V.V.h.h.m.<.Z 2 5.(.J.J.J.K.Y.A.%.@.@.*.#.#.<.1.h.h.l.h.P.(.(.(.(.K.K.(.(.(.).).(.)._.).{.l.z.{._._._.[._.[.(.`.`.].[.{.@Xm.K G j s s p y : : $ # # O O & & + + @ 6 g P =.6.F.~.m.X.G A F l j l l j j F l F F T R E O.O.O.;.O.O.O.~ ~ ~ ~ ~ ~ ~ ~ G D E E K K K K K K K K K K K L L E E L L L ~ ~ ~ ~ E E T T T T j f x f f f a a : t i i y s j g A G L *.1.m.B.V.V.H.J.J.J.V.V.V.V.V.V.V.V.B.B.B.B.B.B.B.B.l.B.B.h.h.h.h.h.h.V.H.H.g.<.<.-.&.*.o.q B wX2X(.P.J.P.V.V.V.V.V.H.H.H.H.V.L.H.H.V.V.V.B.B.V.m.*.;.g > > > : + O O + - g P X.@.$.$.6.$.j.h.).v.v.l.x.,.,.,.:.,.,.:.1.,.%.,.,.:.%.<.<.:./ HXHX/ :.#.*./ / / #.*.U qXHXE A > ; 2 j.!.PXOX:.1.1.:.:.:.:.%.:.:.:./ %./ aXLX#.1.qXZ./ HXPXy.-.HXPXi.r.~ ) ) ) ) ~ ) J J ;.~ L I E ~ ~ OXe.Y T ! Y f f t & # # # t : : t p p y s d A A j j S S T F S S T T G L ) _ / aXPXB.B.B.B.B.h.h.B.g.%.H.B.j.g.g.g.h.x.l.g.m.m.m.#.:.B.g.f.h.f.5.5.5.m.1.1.5.5.5.5.1.5.,.5.g.",
",.<.:.:.<.:.:.:.:.:.*.*.&.~ q C A d 0 0 > : : + X 0 o.=.6.=.3.<.4.5.6.=.=.I J J F J K I I @.I I I I I I I @.5.g.l.g.h.h.v.J.J.K.K.K.J.J.V.V.h.h.h.*.Z 2 5.(.(.J.J.J.J.H.5.#.@.@.@.@.#.%.1.j.l.%.J.K.(.(.(.P.K.(.(.(._.).(.)._.).[.J.l.{._._._._._.[.].`.(.].[.{.@Xm.K G j f s p 6 : : $ $ # O O & & + + @ > w o.6.A.T.|.~.6.o.R T G F F G T T R E ! O.O.O.O.~ ~ ~ ~ ~ ~ E E ~ E ~ ~ ~ ~ ~ S q K K K K K K K L K K L K L L L L K L L L ~ ~ ~ ~ E E ! T T T x f x z f f a a i $ i p p s d g C S K &.1.m.B.V.H.H.J.J.J.J.V.V.V.V.V.V.V.B.B.B.B.V.B.V.B.l.V.B.h.h.h.z.h.B.V.V.H.g.<.<.-.&.*.o.q B .X2XK.P.J.P.H.V.H.V.H.J.H.H.H.V.L.H.H.V.H.H.B.B.H.m.*.O.F - > > : O O O + + g I X.@.$.6.G.%.j.h.).v.v.l.x.x.,.:.%.%.,.:.,.,.,.:.:.<.1.:.:.%.:.LXHX*.:./ / :.:._ / ;.U qXHXA j 6 < <.[.F.PXE.:.-.*.<.<.-.*.:.%.2./ *.u.) aXHX:.2.;.:.:.HXHX) -.HXHX~ ) ;.-.) &.~ ~ ;.J K ) ~ o.K K ~ ~ T R T T S j x x + & # # t # : p p t p j d d A A T A S S T R T S A E E K L _ ) aXPXu.D.B.m.m.m.h.h.g.x.L.g.1.m.m.4.g.h.g.5.m.Z.y.<./ m.m.m.<.g.g.,.,.1.u.1.<.g.g.g.,.x.,.g.g.",
",.<.<.:.:.<.:.:.:.<.:.*.&.~ q d F d 0 6 > : @ + X 0 X.$.4.4.4.6.5.6.5.6.4.=.@.I U U I &.@.=.*.@.X./ I / / #.m.h.g.h.H.v.J.J.(.K.J.K.J.J.V.V.h.h.m.<.n 2 5.(.J.J.H.H.H.H.A.$.@.@.&.&.#.#.%.1.l.%.h.K.(.(.K.P.P.(.(.(.(.).(.(.(.)._.(.x.(.{._._._._.[.[.(.(.].[.}.@Xu.K T A f s p 6 > : $ $ # O O & O O + @ - C o.G.I.[.rXwXE.y.;.O.~ E E E ~ ~ ~ ~ ~ ~ ~ ~ ~ ~ E ~ E E ~ ~ ~ ~ E L L ~ ~ ~ K q K K K K K K K K K K K L L L L L L K L ~ ~ ~ O.~ E E ! T T T x x x x f f a a p $ p p p s j g C S K ) <.g.B.H.H.H.J.J.J.J.V.V.V.V.V.V.B.h.B.V.V.V.V.B.B.g.B.V.h.h.h.h.h.B.V.V.H.g.<.<.-.&.*.o.q B .X3X(.P.J.J.H.H.H.V.H.H.H.H.H.V.L.H.H.V.H.H.H.V.B.B.&.o.T ; > : : + O O + + w X.X.@.$.6.F.$.6.h.).v.v.l.x.,.,.%.:.1.1.:.,.,.:.u.HXPXPXHXZ._ aXPXPXHX*.u.HXPXPXLXOX) U qXHXOXHXHXaX+XJ.g.PXW.#.4.aXPXPXHXZ.:.1.:.OXLXPXHXHXHX*.1.PXOXHXPXPXPXHXPXPXPXr.OXHX~ ) K OXHXn ;.HXPXPXHXi.L e.HXp.A T a.HXHXHXs.O & i HXw.HXHXHXw.: HXp.s d i.HXq.A A HXOXd ! HXHXHXHXr.~ _ aXPXaXPXPXHXB.m.h.B.,.l.A.Z.pXPXPXLXR.f.5.OXPXPXPXaX) <.aXHXaXPXPXaXS.HXPXPXR.5.g.5.1.1.1.1.g.",
",.<.<.:.<.:.:.:.:.:.:.*.&.&.b q F g s 6 > : @ + X f P X.3.4.6.6.5.j.g.1.j.1.<.#.@.I @.=.$.<.<.=.&.@./ @.@.#.j.h.h.z.H.v.K.J.K.K.J.J.J.J.H.V.h.h.m.*.n 2 5.(.J.J.v.H.J.H.A.5.#.@.#.@.@.&.@.#.,.1.<.L.P.K.P.P.J.(.(.(.(.(.(.(.(.(.(.[.l.v..X_._.[._._._.).].].[.}.@X4.Z G A s s p 6 > : $ $ # O O O O O + : - g P 6.I.~.rXxXpXW.4.-.~ ~ ~ ~ ~ ~ ~ L L ~ L ~ I K L L E L ~ L K L L ~ L K L L K q G K K K K K K K K K K L L L L L L L L L ) ) ~ ~ E E T T T T x x x x f f a f p $ i a y s d g g A K I <.m.B.H.H.J.J.J.J.J.V.V.V.V.V.H.V.h.B.V.V.V.V.B.V.h.B.V.h.B.h.h.B.B.V.V.H.j.<.<.-.*.*.&.q J @X3X(.P.P.P.J.H.H.H.J.J.H.H.H.V.L.P.H.V.H.H.V.V.B.D.*.E R 0 - > i + O O + X w X.X.@.$.6.T.$.1.l.).v.v.l.g.f.,.,.:.1.1.:.,.,.#.HXLXS.S.LXPX-.-.LXHX<.-.PXHXp.p.HXPXi.U OXPXHXR q.PXPX,.m.PXR.&.LXPXR.Z.HXPXu.&.R.PXOXZ.aXPXHX*.i.PXOXe.HXHXi.i.HXHXt.~ aXHX~ &.K aXHXq HXHXr.i.HXPX~ e.PXp.d i.PXa.! r.HXa.& i HXHXw.x OXPXf a.HXs s OXPXp.d ! PXi.j HXHXi.e.HXPXr.L qXIXLX~.+XPXHXg.h.B.,.h.m.LXPXW.R.LXPXu.OXPXaXR.!.PXaXI HXPXHXR.aXPXPXOXS.LXPX5.1.5.1.1.1.5.5.",
",.<.,.<.<.:.:.<.:.:.:.*.&.&.C 1 F g s s > : @ + X f P X.=.4.4.1.1.j.h.j.h.j.1.%.$.$.=.<.1.1.1.1.=.#.#.#.*.$.B.H.h.v.J.J.K.J.(.(.K.K.K.J.H.V.h.h.h.*.b 2 j.(.J.J.H.H.H.H.H.B.%.@.#.#.@.&.&.#.#.%.( 7.c.v.K.K.J.K.K.(.(.(.(.(.(.).).[.z.l.2X{._._._._._.).].[.}.}.|.=.G F A s s p p > : : $ + O O O O O + - - q P @.5.A.P.P.~.B.*.) I L P E E K K L L L ~ I K K K L K L ~ ~ K K K I L L K K E b G L K K K K K K K K K K L L L K L L ~ ~ ) &.~ O.E T T R T T x x x x f f a a p : i p p s d g g S E I :.g.B.H.H.J.J.J.P.J.H.V.H.V.V.V.V.h.B.B.V.B.B.B.B.h.B.V.B.h.h.h.B.B.z.V.H.m.<.<.-.&.*.&.b J wX2XK.P.J.P.J.J.H.P.J.J.H.H.H.V.L.P.H.H.V.V.V.B.H.D.*.K R g = > i + + O + + w X.X.@.$.6.T.$.1.l.).v.J.h.f.f.,.,.:.1.1.%.,.,.:.LXHX<._ -.OX<./ HXaX( <.OX;.L L r.PXR.N qXPXE * * qXPX5.u.PXR.Z.PXi.L ) _ PXqX&.PXHXJ :._ HXLX:.i.PXE.( HXHX/ / HXHXI L aXHX~ _ K HXHXd HXHXE G ~ OX~ ! PXa.j HXHX: f $ w.HXi $ HXs.& : f HXw.R HXT x HXHXHXs i.HXG r.PXq.s j A HXOXJ aXPXZ.h.g.qXPXB.l.B.<.g.~.PXR.<.1.m.+XZ.PXHX1.m.,.OXPX&.aXPXm.,.t.PXHX:.:.OXPXj.%.1.1.,.,.1.l.",
",.<.<.<.:.:.:.:.<.:.:.*.&.&.C < C g s 0 > : @ O + 0 P X.=.6.6.6.1.j.h.h.h.h.j.l.1.6.<.1.1.l.g.5.<.<.<.#.=.%.B.H.z.v.J.J.K.J.K.K.(.(.P.J.H.V.B.h.m.<.b 2 m.).J.H.v.H.H.H.H.B.g.#.#.#.@.@.@.@. .7.9.*X*Xb.v.v.K.K.K.(.(.(.(.(.(.(.).).P.%.{. X_._.{._._.).].].}.].D.&.G A j s s s p 6 : : $ + + O O O + + @ - 0 P X.=.1.A.H.H.j.%./ I L K K P P K I L L K K K P P L L I ~ ~ L L L I L L L K ~ C Z L L K K K K K K K K K L L L L L K ~ ) ) &.;.O.E T T R T T x x x x f f f a a : t a p s f d j A E I *.5.B.H.H.J.J.J.P.J.V.V.V.V.V.V.V.h.z.B.V.B.B.B.V.h.B.V.B.h.h.h.B.B.h.z.H.B.<.*.-.*.*.&.b U wX2XJ.J.J.J.J.J.J.H.J.J.H.H.L.V.H.H.H.H.V.H.H.B.B.D.*.K R F - : i # + + + + 0 P I @.$.6.T.7.,.h.).v.J.h.f.f.,.,.:.,.1.%.,.,.*.E.PXPXLXOX<._ / LXaX/ _ ) R.aXHXLXPXR.J aXHXG < < E.PXS.e.PXp.OXPXHXHXHXHXPXHX-.PXOXL 1./ aXLX*.1.PXW./ HXHX*.&.HXHX) L aXHX~ _ E aXHXd R.PXPXHXOX~ E q.PXa.Y PXp.p f p z HXx $ HXw.: p f HXw.y HXr.w.HXi.HXl OXHXu p.PXHXHXHXHXPXHXJ aXLXm.V.h.R.PX~.l.B.<.g.qXPXu.5.g.g.,.u.PXqXf.m.f.S.PXt.qXPXg.g.y.PXqX<.,.OXPXB.,.f.,.,.,.1.g.",
",.<.<.<.:.:.:.:.<.:.:.:.&.&.J < g g s 0 6 : @ O + f P X.$.4.G.1.1.j.h.h.h.z.h.h.l.1.g.l.l.h.j.g.1.<.<.*.<.#.j.H.H.J.J.K.K.K.(.(.(.(.P.J.H.V.h.h.g.*.b 2 j.].(.J.v.H.H.H.H.A.h.$.@.@.@.@. . .9.<X-X-X*Xb.c.Y.K.K.K.P.(.(.(.(.(.(.(.).[.x.J.3X X X_._.[.[.].].L.B.u.) G A j j s p p 6 : : $ + + O O O + + # - 6 F I @.=.j.c.h.g.,.@.I L K K K K K I K K K K E L L L L ~ I L L L L L I L K L ~ Z C L K K K K K K K K L L L L L L L I ~ ) *.-.-.O.E T T T T T x x x j f f f a a : t a p s s g A A G I *.1.B.V.H.J.J.J.P.P.V.V.V.V.V.V.V.h.h.h.B.B.B.B.V.h.h.V.B.h.B.h.B.B.h.z.V.B.1.<.-.-.*.&.b J eX.X(.P.P.J.J.J.J.H.J.P.H.H.H.V.H.P.H.V.H.H.H.V.B.B.*.K T T 6 - p $ + # + + 0 P X.@.$.7.T.7.7.l._.K.J.h.f.x.,.,.:.%.,.:.%.%.:./ t.OXHXPXPXu.&.HXHX( e.HXPXHXqXR.PXR.N aXHXG < < W.PXS.e.PXp.OXPXaXaXaXaXOXR.<.PXOXU 1./ +XLX*.i.PXE./ HXHX/ *.HXHX/ I aXHX_ ;.L HXHXD ~ r.OXHXPXPXe.! PXa.Y PXp.y f p f HXR $ HXw.: > f HXw.+ HXa.a.HXT HXw.HXp.u OXPXOXOXOXOXOXp.L aXLX5.V.h.E.PX~.l.B.4.g.qXPXy.g.g.g.m.Z.PXqX1.B.f.R.PXy.OXPXg.l.u.PXqX%.%.OXPXZ.5.1.7.7.7.7.6.",
",.<.<.<.:.<.<.:.<.:.:.:.*.&.J < 0 g d s 6 : + + X g P X.$.=.m.1.1.j.h.h.z.H.z.h.h.j.g.j.h.h.h.g.,.<.<.<.<.$.j.H.J.J.J.K.K.K.(.(.(.K.K.J.V.B.h.h.g.*.b 2 5.).K.H.z.v.v.v.z.h.h.5.@.@.$.X.7.<X6X-X*X#X0. .7.A.H.K.K.K.(.(.(.(.).).).).[.v.x.rX2X_.{.[.[.].P.H.g.g.u.~ T j j g s s p 6 > : : + + O O O + # $ = 6 F P X.$.1.c.h.h.l.#./ L K K K L L L K K K L L L L L I ~ L L K L L L L L K L ~ Z b L K K K K K K L K L L I I L L L ~ ) &.*.-.-.O.E T T R T T T x x x f f f a a : : a p p s d g A G ~ *.1.B.V.H.H.J.J.J.P.H.V.V.H.V.V.B.h.h.h.B.B.B.B.V.h.h.V.B.h.B.B.B.B.h.z.V.B.5.<.-.-.*.&.q J eX.XK.P.P.P.P.J.J.J.J.J.H.H.H.V.V.H.H.V.V.H.V.V.V.D.=.G G F f - : # + # # + 8 P X.@.$.$.A.7.%.l.).v.J.h.f.x.,.,.:.,.1.:.:.2.%.+Xu./ _ t.PXOXI HXaXB OXPXe.K N i.PXR.m qXPXG * * qXPX<.i.PXR.S.PXt.U / L R.Z.&.LXHXJ =.) HXHX-.i.PXE./ HXHX*.*.HXHX/ L qXHX~ ~ K HXHXC OXr.Z S q.PXOX! PXa.Y HXHX, f + w.HXa : HXw., p f HXw.+ r.HXHXa.s HXHXHXq.D i.PX! 1 d q p.u.L aXPXu.g.1.aXPXB.h.5.<.B.~.PXR.,.,.m.PXE.LXHX<.u.%.OXPX-.R.PX6.7.6.PXqX7.7.~.PX6.0.9.*X*X*X*X#X",
"$.$.$.#.%.<.<.:.:.:.:.<.*.&.J 1 1 j s s y : + + X g P P @.=.5.6.1.j.h.h.h.z.z.z.h.h.h.h.h.h.h.g.,.<.<.*.<.%.h.J.J.J.K.(.(.K.(.P.(.(.P.J.V.V.h.h.h.*.b 2 1.(.K.H.h.z.z.v.z.z.h.B.<.@. .0.*X-X=X=X#X.. . .@.j.H.J.K.K.(.).(.(.).(.(.)._.).%.{.3X[.{.).P.H.h.B.j.g.u.~ G d j j s s s p > : : $ + O O O + $ @ - ; F P X.@.%.l.Y.K.H.g./ U J K K L L L L L L L L L L I I I ~ L L I I I L L L L ~ K b K K K K L K K K L L I I I L I ~ ) ) *.*.<.-.~ E T T T T T Y x x x f f p p p t t a p p f d D A G I *.1.m.V.H.H.H.H.H.J.H.V.V.V.V.V.h.h.h.h.h.h.h.B.B.B.h.V.B.h.h.B.h.z.h.z.V.A.g.<.-.*.*.&.8 U rX XK.P.P.P.P.J.H.J.H.J.H.H.H.H.V.J.H.H.V.H.V.V.V.D.-.G G A j : : $ O + $ + 6 P X.X.$.$.6.$.%.l.).J.J.h.l.1.,.,.:.,.,.,.%.1.:.LXPXR.p.qXPXZ.) HXLX-.E.PXOXi.R.HXPXR.Z OXPXHXT e.PXpX#.u.PXE.&.LXPXR.p.HXPXE./ R.PXOXZ.aXPXHX-.e.PXE./ HXHX*.*.HXHX/ / R.PXOXr.qXPXHXC HXPXp.r.OXPXi.~ PXp.j p.PXa.w.w.HXa.& i HXw.+ > f HXr.: T HXPXq.u p.PXHXA S F HXHXi.e.OXPXR.S aXPXHXR.qXPXaXg.L.aXS.m.j.LXPXW.R.PXPX5.OXPXHXR.!.PXpXX.dXIX*X*X<XIXsX*X*XsXIX<X#X*X=X=X=X:X=X",
"<Xb.b.7.7.$.$.$.%.%.:.:.*./ J q 1 g q 0 > : + + = l P P X.=.6.<.1.j.h.h.h.h.z.z.h.h.h.h.h.h.h.j.,.<.<.<.<.%.j.J.J.K.K.(.(.(.(.(.(.K.J.H.V.V.h.h.j.=.q 2 <.(.J.H.B.h.h.h.z.h.h.j.6.$. .<X6X=X:X#X0. . . .B 1.H.J.K.K.K.K.K.(.(.(.(.).(._.x.v.rX[.K.v.v.h.h.h.g.g.u.&.G j j j s s s p > : : $ + O O O + $ $ - ; C H U @.$.1.A.P.).P.,.( J K K L L L L K L L L L L L L ~ ~ L L L L I I L L K ~ K < K K K L L K K L L L I ~ ~ I ) ) ) &.*.<.5.4.&.E T T T T T T x x x f f a p p t $ a a p f d D A G ~ *.1.m.V.V.H.H.J.J.J.J.V.h.V.H.V.h.h.B.h.h.h.h.V.B.B.h.V.V.B.B.h.h.z.z.z.V.A.g.<.-.=.*.&.8 U rX XK.P.J.P.J.J.J.J.H.J.V.H.L.V.V.H.H.H.V.V.V.V.V.D.-.G G A j 6 - # O + + + 8 H X.@.$.$.$.$.%.1.T.(.J.l.l.1.,.,.:.:.,.,.:.1.:.u.HXPXPXLXE.:._ E.PXLX-.+XPXPXHXR.HXOXN +XHXOXHXHXHXB.:.u.PXE.*.u.HXPXPXLXR.:.:.*.W.LXPXHXHXHX:.e.PXQ./ HXaX*.*.HXHX/ *.) OXPXPXaXOXHXC i.HXPXPXHXR.K e.PXp.T T a.HXHXHXs.# O t HXw.+ > f HXr.> s HXHXT d q.PXp.C E G ! HXHXHXHXp.K L +XHXaXPXPXaXm.l.E.PX!.j.g.m.HXPXPXHXD.5.1.!.LXPXPXsX<X<XDXIX7X-X7XIXsX:X*X9XIX7X=X*X#X:X:X:X:X",
"7X7X7X7X<X*X9.7.$.$.$.<.=.@.K q ; 0 d 0 6 : + + = l P U U =.6.<.1.j.h.h.h.z.H.v.z.h.h.z.h.h.h.h.1.,.<.<.<.%.j.K.K.J.K.(.(.(.(.(.P.P.P.H.H.z.h.h.j.-.q * :.(.J.v.l.l.c.c.c.c.c.7.7. .*X8X=X$X$X..+. . .V V 6.c.c.c.v.b.v.v.Y.K.P.K.P.(.].H.%.}.P.z.z.h.h.h.h.g.g.5.&.G A d j s s s 6 > : : $ + O O O + $ : - ; g H U U #.%.j.K.).(.A.<.I J K L L L L L L L L L L L ~ ~ ~ L L I I I I I L L ~ P 8 J I L L L L L L L I I I / / / &.&.*.<.5.m.S.-.E R T T T T T x x x f f p p p $ $ a p p f d D A G ~ *.1.m.V.V.H.J.H.J.H.H.V.f.V.H.V.B.V.h.z.h.h.B.V.V.V.h.V.B.h.B.B.z.z.z.z.V.H.j.<.-.=.*.&.8 ( rX[.J.P.J.P.P.J.J.J.J.H.V.L.H.V.V.H.H.H.H.H.H.V.B.D.<.G G A g s @ + + : + + 6 G X.@.$.$.%.%.%.1.P.(.J.h.l.f.,.1.<.:.,.,.:.,.,.:.:.1.1.<.*.:.:.*.-.<.*._ *.:.*./ *.-._ *.;.S 1 M Z.B.%.<.<.<.<.:.*.<.e.-._ %.%.:.@.) i.-.-.<.%.2.<.1.<.<.<.:.:.<.-._ _ _ ) -.-.~ ;.G Z -.~ ;.;.~ K ~ ~ ! ! T T T s x p & O # # y p > p s f s s d j T Y A A T G G G K S S ! ~ K N L ) -.<.<.m.m.g.h.h.m.Z.<.B.h.5.5.j.m.1.5.1.7.7.b.<X7X7X8X;X-X6X-X-X=X-X-X:X:X=X7X*X:X:X$X$X:X=X:X",
"#X*X*X<X<X7X7XdX<X9.7.$.@.@.P d ; s d 0 6 - + + - F G J U =.<.<.1.j.h.c.h.z.z.z.z.h.h.z.z.z.h.h.g.,.<.<.<.%.l.P.J.v.(.(.(.(.(.(.P.P.P.J.J.V.B.m.j.-.d * =.K.v.c.b.b.*X*X<X<X<X<X*X#X7X=X#X$X.... . .+.r V 7.b.*X<X9X9X9X9X5X1XW.Y.I.I.I.L.( h.P.z.z.h.h.h.h.g.g.g.*.G A d g d s s 6 > : : $ + O $ O + $ $ + - w J U U @.$.1.H.).).P.h.#.U J K L I L L L L I L I L ~ ~ ~ L L I I I I I L I ~ &.b Z I L L L L L L I I / ) ) / &.*.*.=.<.5.m.E.-.K R T T T T T x x x f f p p p $ $ a p p s d D A G ~ -.1.m.V.H.J.H.H.H.H.H.V.,.V.H.B.V.V.B.h.V.V.V.V.B.V.h.B.B.h.h.B.V.h.h.z.V.H.B.<.-.*.*.&.8 @.gX[.K.P.J.P.P.J.J.J.J.J.H.H.H.H.B.H.L.V.H.H.V.V.B.D.t.K G j g s : + + : + + > G X.@.@.$.<.6.%.1.K.K.J.h.l.,.,.1.,.,.,.:.%.,.,.:.,.:.:.<.<.:.%.:.*.*.*.:.*./ _ :./ _ _ / ) K 2 9 D.H.,.,.:.%.%.:.%.:.:.:.:.%.%.:.:./ :.1.:.:.%.%.:.%.:.:.:.:.:.*.*.*._ _ *.) ) ) ) b N <.) ~ ~ ~ ) ~ ~ ! ! E T R s a t + O + # , : y p s s s d d d j Y A S A G G K K K E E K K L L ) *.:.5.g.h.h.l.h.m.m.:.h.h.g.g.m.g.1.7.7.*X5X9X6X8X6X6X;X;X;X;X;X;X;X-X:X:X:X:X:X$X$X$X$X$X:X:X",
"*X*X<X<X<X<X<X<X*X<X<X9.7. .m C > u d s > - + + 6 F J J I =.=.<.1.g.h.h.h.z.v.v.v.h.h.z.z.z.h.h.l.,.<.<.<.$.1.P.H.h.P.(.(.(.(.(.(.(.J.J.V.V.B.B.j.<.1 2 7.b.*X5X9X8X8X-X-X-X=X-X7X7X=X$X$X....+. .[ [ r  .#X<X9X9X8X8X8X9X9XdX<X9.6.6.m.5.( ` Y.h.h.z.h.h.h.g.g.g.=.G A d d s s s 6 > : : + O O O O + $ $ @ - w J U P @.$.1.v.P.).(.H.g.#.U L L I L L L L L L L L ~ ~ I I I / ) I I I I I ~ -.J Z ~ I L L L I I I / / &.*.*.*.<.<.<.5.j.B.E.-.E E T T T T T x x x f f p p p v t a a p s d d A G ) -.1.m.V.V.H.J.J.H.H.L.B.,.L.V.B.B.h.V.h.h.V.B.V.B.V.h.h.V.B.B.B.B.h.z.z.V.H.B.<.-.=.*.&.8 <.jX[.(.(.P.P.P.P.P.J.P.J.V.H.H.H.V.H.H.V.V.L.L.V.B.D.u.K G A g s : + + : # + ; J X.X.$.$.<.4.6.1.K.K.J.h.x.,.,.1.,.:.,.%.%.%.%.%.%.:.<.<.:.:.%.%.<.:.*.*.*.#.#.#.%._ / / &.G 2 M D.A.,.,.<.<.,.:.:.:.:.:.:.%.%.:.:./ <.,.:.:.:.,.%.%.%.:.:.:.:.:.*.*.*.*.*.*.) &.) b K -.) ) ~ ~ ) ~ ~ ~ E E T R s a p X O + # : : > > s s d d d j j A S S S G K K K E E K K K L L ) -.<.1.g.h.h.l.h.g.m.,.h.h.l.g.m.g.7.b.<X9X9X9X8X8X>X>X8X8X6X6X6X-X:X:X:X:X:X:X:X:X$X#X#X#X$X$X",
"-X7X<X<X7X7X7X7X=X=X<X<X<X9.+.r ; ; d s > @ + + 0 F F m X.=.<.<.1.l.h.h.l.z.H.v.v.z.z.z.z.z.z.h.l.,.%.<.<.$.1.J.v.z.K.(.(.(.(.(.(.J.(.J.H.H.l.l.l.$.2 2 9.9X8X8X8X;X-X-X=X:X$X$X$X$X$X$X.... . . . ...0.#X6X-X-X8X8X>X>X6X7X9X<X<X9.$.<.#.U N c.H.h.z.h.h.h.g.1.g.<.G F g d s s s 6 > : : # + O + O + : $ $ - 0 J J U X.$.1.A.J.(.).P.V.5./ L L L ~ I L I I L L I ) ) / / I ) ) / I / / / ) -.I m ~ I I I I / / / @.*.*.:.<.,.,.1.5.g.B.L.E.-.E E T T T T T x x x f f p p a v v a a p s d d A G ) -.1.m.V.V.J.J.J.H.v.H.g.g.E.H.V.V.h.h.V.h.h.V.V.V.V.h.h.V.B.B.h.B.h.z.z.B.A.B.<.-.*.*.&.8 5.lX_.(.(.J.P.P.P.J.J.P.J.H.L.L.H.V.H.L.H.V.L.L.V.B.B.u.K G A d s y # $ : # + > F I X.@.$.<.6.6.%.K.K.J.h.g.f.x.1.%.:.,.,.:.%.%.%.%.<.<.<.:.:.%.%.:.:.*.*.*.#.#.#.#.*.*./ &.G 2 M L.B.,.<.<.:.%.:.:.:.:.<.:.:.:.:.:./ <.:.%.%.<.<.%.,.%.:.%.:.:.:.:.*.*.*.*.*.*.) &.b K -.) ) ~ ) ) ~ ~ ~ ! E T R d f t & + # # : : > y s s s d d d j A S S S S K K G E E E K K L L ) -.<.1.g.h.h.h.g.g.h.,.g.h.l.l.,.c.*X9X8X9X8X8XsX8X8X8X7X*X*X*X:X:X,X=X=X=X-X=X:X=X:X:X*X=X#X$X",
"*X*X<X<X7X7X7X7X7X7X7X7X<X<X<X9.r * f s 6 @ + + 0 F F m X.=.<.%.%.l.j.h.h.z.z.v.v.z.z.H.z.v.z.h.l.,.%.<.4.#.1.P.H.h.K.(.(.(.(.(.(.K.P.J.v.c.b.*X<X9.5 9.sX8X8X-X-X-X-X-X;X=X*X*X*X=X-X:X*X*X*X=X-X7X7X6X6X-X-X8X8X8X8X8X8X8X8X9XsXsX9.@.@.U M 5.P.h.z.h.h.h.g.l.g.4.K F g s f s s p > : : : # O $ + + : $ $ - 0 F J P X.@.<.h.K.K.).(.J.h.,./ ( ~ I ~ ~ ~ ) I I ) ) ) ) ) / ) ) / / / / / &.-.&.m ~ I I / / ) &.*.*.:.<.<.1.1.g.g.g.B.H.E.E.*.E R T T T T T x x x f f a p p $ t a a p f d d A G ) *.:.m.V.V.J.J.J.H.H.H.,.B.].H.V.V.h.V.h.h.B.V.B.B.B.B.h.V.B.B.h.B.V.z.h.B.A.B.<.-.*.*.&.8 m.lX[.(.(.P.P.P.J.P.J.J.J.H.P.P.H.V.V.L.H.C.L.L.V.B.B.u.P G A g s y $ : : # + - F X.X.@.$.<.<.<.1.K.K.J.h.x.x.,.1.,.,.,.,.:.,.,.%.%.:.:.%.:.:.:.:.:.:.:.:.:.*.*.*.*.*.*._ &.S 2 M L.V.,.,.<.:.:.:.:.<.:.:.:.:.<.:.:./ :.,.%.%.<.<.%.%.,.2.:.<.<.:.:.-.*.*.*._ *.&.&.C K <.) ) ) ) ) ~ ~ ~ E E T T f f : & + + , : : > > s s s d d j j A S S S G G K E E E E K L L L ) *.<.1.g.h.h.g.g.j.h.,.1.g.l.x.c.5XsX9X9X9X<X*X9.0.0. . . .$X:X-X7X-X-X-X:X=X:X:X:X=X:X*X#X#X#X",
"7X7X7X7X7X9X9X9X9X9X9X6X7X7X7X7XdX+.8 s : @ + + 0 F F H @.=.<.%.%.1.j.h.h.z.z.v.v.z.z.H.z.H.z.h.g.,.%.<.<.#.1.P.H.z.K.(.(.(.(.(.(.(.P.Y.c.5X9X9X9X<X0.7X9X>X>X-X-X-X-X-X:X:X-X6X-X-X-X-X-X8X8X>X>X8X8X8X>X8X8X8X8X8X8X8X6X6X6X6X6X9XsX6.I U M *.P.h.h.h.h.h.h.g.1.5.P F g s s s s p > : : $ + O $ + + $ # # = 0 n J U X.@.<.j.K.K.(.(.K.H.g.,./ / I ~ ) / ) / ) ) ) ) ) ) ) ) &.&.&.&.) *.*.-.-.m ~ ) ) ) *.*.*.*.<.<.1.1.g.g.g.g.B.V.H.E.R.) E R T T T T T x x x f f a a p $ : a a p f d D A G ) *.:.m.V.J.J.J.J.H.H.A.( L.`.J.V.V.V.V.V.B.B.V.B.B.B.B.g.V.B.B.B.V.V.z.z.B.B.B.<.-.=.*.&.8 D.lX_.(.(.P.P.P.J.J.P.P.J.H.L.L.H.V.V.P.L.C.H.L.V.B.B.y.P G A g s y : : : # + - C P X.@.#.=.=.<.,.K.J.J.h.x.f.,.f.,.,.,.%.:.,.%.2.%.%.%.%.:.:.:.:.:.:.:.:.:.:.:.:.*.*.*._ ) Z 2 M E.V.,.,.,.:.%.%.:.<.:.2.2.<.<.:.:./ :.1.%.2.<.<.f.<.1.2.1.<.<.:.:.:.:.:.*.*.*.&.) b L <.) ) ) ) ) ) ~ ~ ! ! T R d f , & + + , : : > > s s d d d j Y Y S S S T G K E E E L L L L L _ *.:.,.g.g.h.g.g.h.g.,.<.m.1.l.4XiX<X9. . . . . . . . .0.<X8X8X;X-X-X-X-X:X=X:X=X:X=X=X:X:X*X#X"
};
