/* XPM */
static const char *stars_sky[] = {
/* columns rows colors chars-per-pixel */
"512 512 256 2 ",
"   c #010105",
".  c #01010C",
"X  c #08080E",
"o  c #020114",
"O  c #090515",
"+  c #050815",
"@  c #0A0A14",
"#  c #02021C",
"$  c #09051C",
"%  c #06081D",
"&  c #0A0A1C",
"*  c #100C1C",
"=  c #12131C",
"-  c #020223",
";  c #0A0424",
":  c #060924",
">  c #0A0A24",
",  c #03032B",
"<  c #0A042C",
"1  c #06092A",
"2  c #0B0A2C",
"3  c #120C24",
"4  c #12052C",
"5  c #170829",
"6  c #120B2C",
"7  c #0E1129",
"8  c #131225",
"9  c #13132C",
"0  c #1A192B",
"q  c #040333",
"w  c #0B0433",
"e  c #050933",
"r  c #0C0B33",
"t  c #05033A",
"y  c #0C043B",
"u  c #06093A",
"i  c #0C0B3B",
"p  c #120534",
"a  c #190635",
"s  c #130B34",
"d  c #1A0B34",
"f  c #12053C",
"g  c #1A063C",
"h  c #130B3C",
"j  c #1B0B3C",
"k  c #0E1132",
"l  c #0C113B",
"z  c #131334",
"x  c #181636",
"c  c #1B1B34",
"v  c #14133B",
"b  c #1A133C",
"n  c #1B1B3C",
"m  c #22162D",
"M  c #230B37",
"N  c #220C3D",
"B  c #23163B",
"V  c #1E2138",
"C  c #292933",
"Z  c #272638",
"A  c #23233C",
"S  c #0D0442",
"D  c #080644",
"F  c #0D0A43",
"G  c #0D044A",
"H  c #130543",
"J  c #1A0644",
"K  c #140A43",
"L  c #1B0B44",
"P  c #14054B",
"I  c #1B054B",
"U  c #150A4B",
"Y  c #1C0B4B",
"T  c #0A1345",
"R  c #141343",
"E  c #1B1343",
"W  c #161945",
"Q  c #1C1B43",
"!  c #14134B",
"~  c #1C134B",
"^  c #1C1B4B",
"/  c #0D0C53",
"(  c #150553",
")  c #1C0553",
"_  c #160A52",
"`  c #1C0B53",
"'  c #160759",
"]  c #1C055B",
"[  c #1D0B5B",
"{  c #1D1253",
"}  c #1B1655",
"|  c #260945",
" . c #220C44",
".. c #22064C",
"X. c #230B4C",
"o. c #2A0C4C",
"O. c #231244",
"+. c #271A46",
"@. c #23134C",
"#. c #2A134C",
"$. c #231B4B",
"%. c #32164C",
"&. c #220654",
"*. c #230B53",
"=. c #2A0D54",
"-. c #23065C",
";. c #2A0659",
":. c #240B5B",
">. c #2A0D5C",
",. c #310E5A",
"<. c #241253",
"1. c #2B1354",
"2. c #271B55",
"3. c #24125B",
"4. c #2C125C",
"5. c #2B1B5B",
"6. c #32135C",
"7. c #341858",
"8. c #1D2145",
"9. c #102653",
"0. c #232344",
"q. c #2B2B44",
"w. c #24234B",
"e. c #29254A",
"r. c #2B2B4C",
"t. c #302E4E",
"y. c #34344B",
"u. c #292556",
"i. c #2C2B53",
"p. c #352859",
"a. c #333354",
"s. c #3A3857",
"d. c #34345B",
"f. c #3B3B5C",
"g. c #1D0962",
"h. c #1D1364",
"j. c #240B63",
"k. c #250867",
"l. c #2B0D63",
"z. c #2B0D6B",
"x. c #330E64",
"c. c #320E6B",
"v. c #2C1263",
"b. c #291765",
"n. c #2D126B",
"m. c #331363",
"M. c #361A66",
"N. c #33136B",
"B. c #3A146C",
"V. c #3B1B6C",
"C. c #2D0D72",
"Z. c #320D73",
"A. c #370D79",
"S. c #2D1273",
"D. c #341374",
"F. c #3B1473",
"G. c #3C1A74",
"H. c #351678",
"J. c #3B147B",
"K. c #3C1A7B",
"L. c #152E67",
"P. c #382767",
"I. c #312B69",
"U. c #3A3865",
"Y. c #3B2675",
"T. c #42365A",
"R. c #431A6A",
"E. c #431878",
"W. c #441B7C",
"Q. c #4D2567",
"!. c #43276A",
"~. c #443868",
"^. c #452678",
"/. c #473777",
"(. c #543576",
"). c #38435C",
"_. c #3A456B",
"`. c #4C4C55",
"'. c #44455B",
"]. c #474768",
"[. c #504E6D",
"{. c #55556B",
"}. c #4B4875",
"|. c #554979",
" X c #575778",
".X c #615B78",
"XX c #65657B",
"oX c #6E6D78",
"OX c #390F86",
"+X c #3C1683",
"@X c #3B2688",
"#X c #421584",
"$X c #441A83",
"%X c #471887",
"&X c #451A8B",
"*X c #4A1C8C",
"=X c #4C1C93",
"-X c #481A94",
";X c #511D94",
":X c #492587",
">X c #522F8E",
",X c #542597",
"<X c #592AA4",
"1X c #6233A1",
"2X c #33608D",
"3X c #584786",
"4X c #55498F",
"5X c #5A5885",
"6X c #655A88",
"7X c #685095",
"8X c #586490",
"9X c #676787",
"0X c #706E8D",
"qX c #75768B",
"wX c #6B6894",
"eX c #756898",
"rX c #787798",
"tX c #7251A9",
"yX c #7A72A6",
"uX c #8668A5",
"iX c #8974AF",
"pX c #9871C9",
"aX c #C77BD1",
"sX c #7087A6",
"dX c #63A5C9",
"fX c #85859A",
"gX c #8B8B98",
"hX c #8888A7",
"jX c #9596AA",
"kX c #928AB3",
"lX c #9898B7",
"zX c #A496BA",
"xX c #9CA1B6",
"cX c #A5A5BA",
"vX c #AEACB8",
"bX c #9A93C4",
"nX c #AA94CB",
"mX c #A8A8C7",
"MX c #B4AACF",
"NX c #B6B6CA",
"BX c #B9B8D5",
"VX c #B5A9E1",
"CX c #C4B8D8",
"ZX c #CCB7EB",
"AX c #DDA0F2",
"SX c #B1CEE4",
"DX c #C7C7D9",
"FX c #CFCED8",
"GX c #D1CDEB",
"HX c #D7D7E9",
"JX c #E7D8F5",
"KX c #D7E9F5",
"LX c #EFEBF6",
"PX c #E9E8F8",
"IX c #F7F7FB",
"UX c #FEFFFF",
/* pixels */
"w , , e , , e w i q q i i F y S t y K H U Y U Y U P G y w e - - - 1 Q i t y H U Y Y U J P y w - , - v }.v a.Q , e q t S H U { P G } _ ' U y q , - 2 - , , e t y t y t y i , , , , -  Xn # 1 , - w (.f 9XUXJXj H Y f h s % o o o . . o o o o .   . % o o # o % & o o o o o o o o o o . . o # # > ; - # # o o o # % # o # o 0XqX8 > o o + % c 8 o ; ; - - - , s h j p b j s < , , 1 - - 1 , , y y J P U Y I I ] ' G S t q , e , q t t y S S D t u u q u t t y t t q q t q q q u q , , , , q e , e i , , - - , - - , , - - - - - - - - - # # # # # # 2 2 # % % # # # - : # - # # , - - 1 , - - # - k 1 ; ; - - - - - - - - - - o e.PXDXQ - - - - - - z 2 - , - v r Q v - - , - - , # o - , , , , - - - , - # - - - - - - : - : . s.UX0Xo # # : # # % # % > % # # : # # {.0Xo # - # : # # % # % o # # : 9 % % # # # % # # : # 2 a.: # # # - - - - # 1 2 # - - # 2 0.# - ).c o 1 x - - - - - - - - 1 1 - - - - , , , , - - , - , , , , , , , e e e , , , , q e e , , e r , , , - , , - U.Q - , - , - , - - - - - - - - 1 - 1 - U.HX X# ; - - # : : # - - ; , 1 - - # ",
", , , r , , q w q q q q t y K t y t K Y Y 3.} [ b.` P F u , , - - - , w t y H U Y L H <./.K y , , - 1 r , - e e , w t S H U P U [ P ` _ S y q , - r 1 , , , t y t t t i i , w , , , # - , - , eX5XE J O.9X Xf H J J d d > # o o o . o o o . Z qXA . # % # o o o o o o o o o o o o o . o o o # 2 ; ; # # o o # o # & o # o qX X# > o o o o s.y.o # # - - - s w h h %.(.j p w < , - - - , < w y K P U X.I Y :.) ` P G G y u w q q t t S S S K y u t q t t t t F t q q t q q q q , , , , , e , , , e , , - - - - - - , , - - - - - - - # : # # # # # : > % # # % % : # # # - - # - - - - - - - : 1 x 1 - - # - - - - - - - - # : - 0.n - , - - , r , w.z - - - v s , , - - - , e # d.wX, - v e - , 1 - 2 - - - - - - - : : - : o n hXa.o % # # # # # > > 2 % : : : # o qXhXo % # z 1 - - # # # c 9 # # % # # o o # > > # # - # # - : : # # - - - # - - - - - # A ].o 0XjX% o 1 z - # 2 x - # - - - - - - - - - , , , r - , , , , , , , , e , , e e , q q e , , R e , , , , - r e - , - , , , , , , k - - - 1 - # - - - , - r - ].x - : : # : - # : # # z s - : ; # ",
", , , e , , e q , e q q q t t t q t S P 3.b.b.[ 3.[ { { i , , - - , < w q f U P H H L <.2.K K w 2 - - , , , - - , , q y y H q eXJXY.t U ! y q , , W l - , w t t t t y q q w w , - , r , , # $.UXCXq Y h ; p L L L f p 4 ; # # # + o . o . . cXUXcXo o # # # o o o o o o o o o # $ o o o o o # ; - - # $ # > # o o > & # % . o # # # o o o . & # # # : - - < h h d 2.O.d d < < , - , , , p f f L Y U Y *.*.*.H y P.[ G G F t t t t G _ H S U U u t t u u t t ^ u q q t t u q q , i R , , , e e , r i , , , - - , - - , - - , - - - - : - # # # # # # # # > % > : # # # # # 1 : # # # - - - - - - ; - # k 8.- # - - - - - # - 2 - # - 2 - 2 e 1 a.k # - , - , - - - - - , - r v o 5XMXr - , - - , - , , - - - - # # - : : # # - #   o - # : # # : # % # # # x : o # : # o # : # 1 : - # # # o c 9 # # o # # # # # % : # # # # : 2 # - - # - 1 - - - - - - # - - # # 9XjX- # - # # : : 1 - - - - - , , - - - - - , , r , r w , , e , , , e 8.i , , , , , , I.^ r e , , , , , Q r - , , e , , e , , , r 2 - 2 1 - , - - - - - ; s.c : : % # % # : 8 : o 6 x # : ; # ",
"q e r i e , , q , , , , , q e q q t S _ } b.2.hXGXwX{ { K r , e - - - , w f U H K Y Y H t f w w < 1 - - , - - - - , , q ~ }.y 5XmX5.F Y S q q q q q , , , h i t y y u t q , , , , - , r v w h 3X/.X.X.L $.@.f J f p < - # # # # o o . o o . qXLXfXo o # o # o o o o o o & o o o # o o o o # # ; , ; ; ; ; > # # o o % # # % # # # > o o o % o o # # # # 1 < s w b d f L d < < < , , w w w w f K Y Y ) *.:.) P f Y P P ` U U S S S S ` P H 3.{ y t t q t u t u t t t t t q q q , u i q q q q , e , , , , , - - , , , - - - - - # o # 1 - # - # # # # : # : > r.8 # # # # # # - # # # - : - - # ; 4 ; - 1 k - - - - - # - - - - - 1 z n 1 - 1 , r e , , - , e , - , , , , , , , , e , , e - - , , - r - - - - - : x - - # : # # # % # # # # # # # # % > # # : : : # # # # # : : # - 2 : # # o o # # # o # # o # % % c [.# # # - - : # - - - - - - - - - - - - - - - # # # - - - - k 1 # - - - - - - - - - , , , , - i.i.i r W ^ e , e # _.UXyX- , , , q , U.u., , , , , , , r , , , , , , , , , o # b z - , - - - - - # - - - z 2 : : # % : % # : # % # - : # # # ",
"q r e e , , , , , , , r , - < b w t S G } ~ |.UXUXJX3.F K r e , r }.r , w y U H f U L H H f w w , 1 : - : - : : , , , w K P.L f t U K y q q , q t q t , e q q ! U.i F y q q , - , , , , h K f y H 1.@.Y f H f y f p ; # # : % o o o o o o o % c # o % o o o o o o o o > 0 > o o o o o o o o o # - 1 2 > ; > # > # o o # # # # # # # o # o & O . $ o 9 s.z s , w p p p d d p p w < , y h f f h H L X.*.) :.&.Y 5.H P ` { 3.[ ` P S H Y ` P U K S t t t t u t t t t t q t F i q u R q q i l q , # , , , , , - - - - - - - - - - x s.- - - # # # # # : 9 # # # c 9 # # : # # # - # # # : : # - - - - # - - # - - - - - - 2 - # - - - - : - - - , , 2 , , , , e , , , , , , , , - , , - , , r e w r , v , - , , - z r.# # - : # : # # # # # # # # # # : x : : 2 # # # z : # - - - - : : # % % > o o # % % # # # # > : x a.# # - - # 1 - - - - # - - - - - - - - - - - # # - 2 - : - - - - - - - - - - , , , , , , , e u F q e u.i.- , e - U.DX9X- , q , q q , , e , , , , , , , , - , , , , , 1 r eX].1 , - - - - s 2 # # - : : # # 2 # : 2 # # - # : : # # # # : # ",
"e q , , , , , , , , , , - r s 2 - , u U { U U.JXUXCX}.y i K q , r ].v , w y y y y f H H H H K w , - - - 2 : - - - - , w w q q U U Y H y w , , , q u q e q q q ! } y F y t u , - - v h q t t U Y Y U Y H I J H h w < - # # # o o o o o o o # 7 % % 9 > o o o o o o # # # & % % # o & & o O % # $ # ; ; ; # # # # # # o o # # # o : 7 # o o . . o o % A ~.2 s d s p p p p d p w w w w H K K f f J L X.*.:.l.:.&.4.Y *.X.<.U P P Y U Y 3.v./.P S t F u t t t u D D t t t t u u q u R q q e e , p.5X, , - , , , , , , , 2 - - - # r.rX- # - # # # # # 2 : # : # # # # # % : : : # # # # # # - - - # - - - - - - - - - - - 2 0.: # - - - - , - - , , # , , , , , , , , , , - , , v , , , , - Q i , , , , , - - , - - # z z - 2 - # : # # # : : # # 2 : # - # - 1 - 2 b b - - - : : - # : # o # & # % # # % # o # # # : - o # : # - # - - - - - - - - - # - - - - - - 1 x - - 1 - - - - - - - - - - - - , , q q e , e t t t q e - - q , q q , q , t q q q q q u q , , , , , , , , , , , , , , < # }.UXJXb - , - - - - - # - # % # # : : # : # # # # # # : # # # # # : ",
"e w q , r w , , , , - , Q $.w.- - , , K G } I./.5XU.}.K i u q e , - r , , , q y y y f H H f y q , - # # 2 - - - z , - $.d.5XiXH S H y K h , , q q u u q q t y t t y t t q u q , - r i q y K U U Y P J P P H f p s 1 ; # # o # # o . o o o # o % # > > # q.0 . # o # # o # # % # # o o + & O o $ # # # $ o o # # o # o o o o # o # % % o o . . . o & # - < s d d d w < d b h w w h h U L L ~ H H X.4.I *.>.:.&.:.&.3.3.U eXZXeXH P :.3.v.P.U S S F t t t u F t D D F / t t t q t q , q q , - 5XMXe , v , , , v , - z ].z # - - - 1 - - z 2 - # - # : # # # # # # o n r.# # # # # : > # # - - - - - - - - , ; - , - - - - k - - # 1 2 - , - , # i.]., , - , e , , , , , w , , e , , , , , , , q , , , , , , - - - # s.s.# - , - - : # # 9 2 # # : # # # # # # : 0.n - - - - , - - # # # # # o # : # # > > o # # # # - z 2 # - , - - # - - z 1 - - , - - - - - 1 1 - r - - - - - - - - , - - - - , 1 1 e q t u i i t D t e , , , q , e t , , q q q q q , q q q , , , , , e , , , , , , - , < w $.jX0X< , , - - - # # : : # - # # # # # # # # : : # # # x 8 # # # # ",
", , , , R v , , , , , r w.i , 2 , - - e F G _ D } 2.t q i t q q , , v h < w q q w y f L L f t q , , # : n : # - - , - ~.wX9XbXP y P { K q , , , e t q , q q q t t t t y y q I.u.q , q t K H U U Y Y I I P L p < s 2 - # # # # o o % # o # # o o o o o o V 9 o o # # # # # - # - # o o o + + o % # # # # & o # > o % Z o o o o o # > 7 o o o . o o # o o s s d j p < < d d E f h L L 5.X.Y <.J f X.Y 4XY.>.l.>.:.>.v.) Y GXUXGXf I b.v.[ P U H S t t t t D F F F D ! F D D t t t q , , q , i v r , Q }., , , , , - , r , - - - - # - - , n 2 # # - # - - : # # # o 8 n # # # - # n z # - - # o 1 1 - , , , < < < - - - - - - - - - 2 - - - r o  XmXe - , , , , , , , , R W , , , , , , , , , , , , , , , , , - 2 - - 1 - , # - # # : : % # # # # # # - : # - # : 1 - # # - - - # # # # # # # o # # % # # o o # # # : n n # - - # - - - - , - - - 2 2 1 2 - - r 2 - 2 2 - 1 - - - - , - - - - - - 1 - e F ! ! i t ! U t e 1 q q e t t t q q q q t t q q q q q , , , , , r , , , , , , w , , r , - - 2 v - - - - # # 9 x - # # # # # # # # # # # : % # 2 > # # # # ",
", , , , e , - , e , , , e , , , 2 - - , q t t D } U t y t i , , , , r R s w q , w K L L U H y q , , - # : - - - - , wX X- , , S U y { ~ t q , , w q ! u.! t q q t y y y y q 2.$.q t q K ~ H H y *.5.I ) U J w < < 2 - # # # o % o 7 % o o # % o o o o # o o # # # # # > n 1 ; - # # # o . o + 0 & o # # 8 $ & 3 # o 8 O o o o o o $ & o o o . # 8 o s.].s d d d p p p p p p p h h L y H Y Y Y *.1.) >X^.:.N.N.n.l.b.4.f eXDXeXf 4.b.:.) P P U S S S t D F } } ! u.u.F ! D D t q q e , , q i R , e r e , , , , , , , - - - , - - - - # - 2 - - - - - - - - # # # - # # - # # : # - - # - # e.s.# 1 1 1 e e 1 e e , , - - - - - - - - - , , 1 2 - i.n - r , , , , , , , e , , , e e , , , , , , , , , , , , - - 2 - - - - , # - - # : # # : ; # % # # 2 # : # # # - - # - # # - # # # # # # # o # o % # # # # # # - - # - - - - - - - - , : - : # - , , , - - - - - 2 2 - v 2 - , , - - , , , , - - , q F ^ i. X}.u.! ! R e q q u e q t t q q t u t t q q q q , , q q , , , , , e , , R , , , , r 2 s n - - # z 9 # # : : : # # - - # # # # - # - - # - # : # # # ",
"r r e , , - , , , , , , , n , , e e , , - , e w r q y y e r r , o - e w r w w h w w f L H H y t , , , # 2 - - , - r a.Q , r q y K y t t K t w q q q K u.I.y q q t y t t t S t q y F t t y S U H P *.) 4.<.J w w w , , , - # # o o # o o q.7 o o o o o # & % # > # # # 1 +.1 2 , - - $ o o . o o o o # # # 0 c 3 o o o o . o o o o o o o o # o % 9 #  XeXp j p p p p p p j j w h p @.iX~.f Y X.m.:.4.) >.v.N.D.D.l.4.1.X.H ` P :.3.` ) ) P P P S y t S D ! U u.mXHXDX}.F F D t q q e e e q q , R 5Xw.- , , , , , , , , - - # 1 n - - - - - # - - # - - - - # - - # # - - # - # - # # - - - 0.a.- - , , , l 9.T T h - 2 , - , - # , , e e , # o s.DXlXi.Q - , e q , u U.r , q q q q , , , , q , , , , , , , 2 r , - - , - - 1 , - - # # # ; : # # # : : : : # # : # # - : # # # # # # # # # o o > # % % > % # # # - 2 - - z - - ; # - - - - # # - - , - - - - - - - - - - 1 - - - - - - 2 e , , , , e F ! d.BXIXIXMXu.} u.i u q q q t u t t q q t t t q q q q , e e , , , , , , , , , e , , , , , , 2 1 : , # c r.- # - : - - # # # - : : # # ; # # : # # # # # - ",
"e , v e - , , - , , , - , 0.- , , q r , , - - e r i y t u , - , s.n # r w , w R w , y H H H y t q , # - r - - - , , - - , , e q q t t t S y y t t t u.I.q i q q t q t t y y F F S S t t q ~ Y y P <.*.:.*.H w p w , , , b 1 # # o # o o q.0 o o o o o o 9 0 o % : % # - - , , # , 1 ; # o o o o 3 > # % # # o o o o . . . o o o . . o o o # # # ; , 4 s 4 p O.@.p d b < e.O.- f p @.HX6Xw ..I *.M.Y.m.v.v.l.N.D.v.:.&.3.<.P ) ` ` :.` ` ` P S S S y S U { } hXUXUXUXDXw.u F D t t q , q t q , U.PXrXi U., , , - , 2 , - - - 1 2 - - - - - , - 1 : # - - - - # - - - - - , - - - 2 1 1 1 - # # # , - d.8X2XSXsXD y , - # - , - - , , , e - r   lXUXUX].# , , q q q e ! q e , q , , e q , e T i , , , , , , , , , - , - - - - - , # # # # # # # # # % : ].c # # # : % % : # # # # # # # # # # # > % # # # # # : : # - # 9 a.2 - - - - , # - 9X).# - - - - - - - - - , - - - - - - , r , - , - - , , e ! K lXUXUXUXUXkXD ! i u q t t q q q q t q q q t t q q q , q e , , , , , , - , , , , , , , r , - 2 2 # - # : : # : - - - - # # - - # # : o # - - - : # - - # ",
"e , , , , , , , , , , , - # - , q q q , - e R ! D S S t q , # 1 CX9X# , , w w e q w f y f K f y r w , - , - - , , e - e , , , , q t t S U S y S U H 2.u.q t t t t q t y S t u.5.S S t i L y f P I Y :.I I f t p w , q w h z : # o o o o o % o o o o # o # % # # : : - 1 1 , b i.s < < # o o o # 8 8 > 3 o o o o o o . . . o o . o . . o o o # - # d +.< d p f L L h p d d p +.E < O.1.@.@.<.1.*.V.Y.>.l.:.^.V.m.n.l.j.-.>.[ [ *.) -.( ( P P S S S D U ` { [ mXUXIXUXLXU.q F D D t , , e q q , l wXU.v a., , , , - - - - - - - - - - - - - # # 1 , - - - - - # - - # - - , , - # s.0.- - - # k n < # _.dXSXKXSXT , e Q d.- r v , , , , # ].DXfX].FXNXz 1 , , q q q q q , , , , q , , q , q e e , , , , , , , - r v , , - - - , - # # # # ; # # # # o # c > # # # # # % : # # # # # # # # # # # # o o # o # : : 1 : # , - ; - - - , # - - # jX Xo - - - - , - - - , - - - - - , 2 , , , - - - - , q t F ^ DXUXIXIXUXBX! F ! F t t t q q q t t t t q q q q q q , , , , q , e , , , , , , , , , 1 r - - - - # : # # # # : - - - 1 - - - - - - - x s # : : 2 # # - - ",
"e , , e - , w v , , , , , - , , e , , - - v i.$.y U U K i r , - Q v , , q w w q q y f f y y K h h h , # w , , w w q , , w , , , q S U U U S S S S S q q i q u q u i q t S S P U H P S y S H U Y Y I I P H y t y y q h K w Q b - o & # o # o o o # > ; # # o # # , 2 < < < # [.LX~.o ; - # # # # # o & > > $ & o . . o . o o . o o o o o # # ; < < j O.p d p w j d s p j d p eX(., 2.1. .7.1.*.*.I &.>.>.l.B.B.m.N.v.l.v.v.:.*.` >.) P S H y t t t y S S } _ yXUXUXUXmX^ F t t t t q , , , q , - e e , # , , , - , - - - - - - , - - - - - n k - - # - - 1 2 1 - 1 2 1 1 - - - - 2 , - - , - 2 0.: , e , 2XSX2XT R # n f., e , - , , r o hXUXIXv 9 1 - r , , q q q q q q q , , q q , , , , , , , e , , , , , , e v - - - - , - ; , - # - 9 > > # # # : # # # # # : # # # # # # # # # # : # # % # # # # % # : # # , , - , - - - - < s , , '.0.o , , , - , r e - - , , , - , - 1 2 ; - r 1 - , , - q D F l jXUXUXUXUXsXF ! t q u t t t q u t q q q q q q q q q , l w., e w r , , , r , , , , , , - 2 r # - - # : - - - - - # - - - # - - - o 1 DXfX. # # - z 2 # # ",
", , - , , , , e - , , , , , , , - , Q 2 - , , , w K H y i i , , - , , u u t w w y K f y w h y y f f L u.w w f y h y q r h , , q t t U U D G S t t y t u q q q q i i q F t D P S P U U S S U U P Y Y Y U P @.K w y f y y y s w - # > > o o # # # % ; # # # # : - , e w w w < t.rXn : ; - - ; : # % 8 % $ 0X'.. $ . @ + o o o o o o o o o # - < < s d d d p p p < ; < p f L d O.j f J J f ..X.4.X.X.*.M.B.;.l.N.^.l.-.V.M.&.` *.:.:.) U D y q q w q t D U } b./.wXBXkXI.T T I.! q , q e , e v , , , , , , , , - - - - - - - , - - - - - - # ).0.# - - - - - 2 , - 1 2 - - - - - 1 # # z GXrXo # o - , q T T T u u 8XrXx . # e , , , , b r w.kX9X, # - , , , q q q t q q q q u i q q q , , , , , , , , , , , , , , - , - , - , ; < , , , - : > % # o # # % # : x > : # # # # # # # # # # % # # # # # # # # % # # # 1 2 - , - ; : ; s 6Xp.+.s.B # , - , , , , e , , - - , , , , , # ; 1 , , , < ; - q F ! v t.NXIXIXmXi.! F t t q t q q q q q q , , , t q q q q - _.yX, e , , , , r h , e - , r 2 - , 1 1 - - - - - z 2 - - : o # # x 2 - # # > XX'.o # - # 9 2 # # ",
"- , e , , , , , , , , , , , , , , , , - - , , e q y H y y y y $.E q h w w t w t h K y q w w , w y q ~.bXh t K L K K y q w r r w t t y F S y y y y t t q t t q , e w q t U ! S P ` ` ` P P U U P I ) ` P P 4XU., f y t q y w , , # o # # : # o # o o # % # # 6 2 , , , w w d < < < 2 ; - - : ; # 3 T.> # A x # # o . + o o o o o o % o o # - ; p d d j j g j p 4 ; 4 j f f d p d L L L @.L J X.*.X...M.m.l.N.F.D.j.-.l.4.:.` ) P P P P t t q t t t y S ` I.} { K ! T ! ! u 2.i , , , , , e w , , , , , , , , , - - - - , - - - - - - - - - t.n # - 1 - - - - - 1 1 - - - - - - 1 1 # x BX9Xo - - , W u T L.U.T D DXUX}.> Q - r , , , , i , - - e , , , , q q q q q q q q q i F q q , , , e e , , e w , , , , , , , , , , - 6 ; , < p < ; ; 1 2 # # # # # # : x 2 # : : # # # : % # # : # # # # # # # # # # # : : - 1 , , , 1 ; 1 w u.2.s # - - - - , , - - , , , , , , , , , , , - , 1 e e , , 1 , q u l ^ u.5X5Xu.^ F u t t q t t q t t u u q ! i q q q t t q u u e q , , , , , , , e , 2 , - - - - - - - - - - - - - - : 2 # # z 1 # - - o . o - # ; # # - : - ",
", e e , , , , , , , , , , , , , , , , , e , , q t H P H H K K ~ y y $.i q w w w w y t t , , w w w t h $.t t y H S K y y F U K q q y q t y t y y t q t t t u i q , , q q U./.t ) ` ` ` [ ` ` _ U P ) Y Y H ~ ~ y f t y y t q w - # n r.# : # o % 0 # # # 6 ; < < < w w f j d j d < , ; - - - < - ; > # ; # - ; # o . + o o o o o . o o o # ; s d p d j j a P.#.4 d +.O.f p , , p O.@.L p.L H H Y X.=.4.:.B.G.G.N.l.-.) :.3.<.` U Y H y t q t q t t S P P ` ` { U ! F ! } t t u e , , , , , , , , , , , , , , , - , - # - - , - , - , - , , # - - 1 - - - - - - 1 1 - - - 1 - - 1 1 - - o # - 1 - l U.T q _.wXu D 5XhXQ i.i.- , , , , w i , , e e e q e q , q q q q q e t , , q q q , , , , , , , , , , , , , , - - - , , ; # # - w o.(.Q.4 - 2 # # % # # # # # # # # # ; # # : # o # : # # # # # # # # # # - # 1 2 k 1 - k 2 2 , - , - , r - - - , e , e e , , , , , , , , , - , , , u ! q w , , 1 , e F F ! D D ! U i u q q u u t t t t q u R GXrX# q q t q t , e i , , , , , r , , , r 2 - - - - - - , - - - - - - # o 0.MXq.. # - - - - z : 2 2 - , - # - 1 < ",
", , , , , , , , , , , , , , , , e e , , r , , q t U I I U Y P P H f y y w , , w q q q , Q b - , w h w - t f y t S Y U H S S y y y y y h w t q q q u i S y t u w , , q q K U H ` :.` [ b.b.[ ` P P I P Y Y t H U K y S K t , , , # e. X- # % o 9 s.# o $ s s s h h f f f j L J j d < < < < < < 4 ; # # 3 4 < 2 $ $ o + o o o o o . . o o # # 4 d p j L J J  . .p B B d h @.iX6Xe.$.J j f H U P J I *.m.M.G.E.F.G.H.l.&.) 3.<.H H H S t t t t q K S P _ _ ` ` b._ G G F t t q u e - , e , , w e , , , , - , , , 2 - r ].n - - - - - 2 - - - r , - - - - - - - - - - - - - - - 2 - - - - # - 1 - , R F ! T _.wXi } D - , e , q , , , e , e , q q q q q e , q q q q q q q e q q q q q q q , , , , , , , , , , , , - - - , # ; o % - , R.AXAX%.- - # # # o # # # # # # % % : o o o # # # # o # # # # # # # - - - z - 2 - n ].k e , i s , < , w e # - - , , , , i , , , , , , - , , , e q w p w y r l - , , q t D / D D t t e q u F q q t t t t , i 5Xd., q t t q q q , , , , , , , r , , , , - , - # - - 1 2 - - - - - - - # z ].z : # - - - - x : - 1 , - - - < < < ",
"e , , e , e Q , , , , , , , , , , , , , , , , q y U Y J I *.) P P Y f q w , , , , q , , w.Q - - , i R i q q y t S Y H S S U K f y t f ~ w , q q t t y S S F y q i e e q S S ` :.>.) ) v.[ ) n.P I ` I P I U <.Y K H S y t i r - - , - n 2 o : 7 : # % : < h h L J J J J f L J @.e.s < < < < < 4 < ; ; ; 2 < 2 > # # o o # & % o o . o o o o ; ; 4 j  .J o.@.L p p j j w U.LXGXuXu.L J L @.Y I X.*.=.M.B.B.J.B.F.B.m.:.I P U S Y y q i t t y y { _ _ _ ` [ ) ` ' ' / G D t q q , , , , , , e e , , , , - - , , - 1 d.lX].  . 2 2 - , - - , r 2 - - - - - - , 2 - - , - - - , e - , - - , - - - e R F u.w. XjXn u.} q q , , e e e , q q , e i q q q q e q , q , q q q q u u q q q , q , , - # - , , , , , , , - - - - r e.# # : k , R.aXuX| , - # # # # # # 9 > # # # # o o % # # # # o # # # # # # # # - - - v 1 1 c NXUXhXe u W z - - , e , - - - , - - , z , , , , , , , , , , q a 3XuX=.q e , - - , , e q q u t q q q q q q t t t q t q i F , , t t q q q q , i - - , , , , , , , , , v 2 , 2 - - - - - - - - # - - - # . # : - - - - , - - 2 - - - - , 1 < - ",
"e e - e , r v , , , , , e - , , , , - - , e e q t L X.*.*.&.) ` 3.H y h i r , , , , , , , - - , w , r e q q q t K K y y S S K t t t w ! w q q q q u ! G S F K i i q t q S U 3.:.-.n.v.j.] ] b.` ` ` I H H Y { U U U y y t i e 1 - # # x 2 # - : , , < < w f f L X.X.1.X.J J J f O.d < w < < < 4 2 - - ; ; s < # o # o o o o o o + o . o o # $ ; < p  . .o.p. .4 a p d  .j ~.p.B j X.L J X.4.*.*.>.m.x.N.W.^.E.G.m.:.&.) J y bX6X, y t u q q t K P ` [ ] ) ) ( ' [ P G D t q q u q q q w , , - , , , , - - - - , 2 Q , - d.hX9Xr , - - , e , , - , - - - - , , , , - - - - , , - - - - - - - 2 e u ! U.0XFXIXlX~.$.R i q q e , , e , , , q q t t q q q q u q q q q q q q q , q , q q , , R U., , , , - , , - - - - # r.9X# - - 1 p p a Q.N - - # # # # # % 8 % # % # # o % > > # # # o # # # # # # # - - - - - 1 # ].UXUXPX^ e r - - - , q - - - - - , , - - , # o - , r +., , , q M aXAXQ.q e , , , e e - , , - , , e q q q , q t t t q t ^ u , q t t t q q q q , d.^ , , , , , , , , , - # kXrX. - - - - - - - - - # - - 1 1 # - - - - - # - 2 , - , - - # < < ",
"v e , , , , - , r w , , , , , , , i r r r , w h K H H iXiXS ` ` P S y t q , , , , , , - - - - , , , , , - , v w q h h K 2.~ t t K U t q w w q q u y } U P S K U t t y S S _ [ ) ) n.n.j.-.v.:.:.:.[ ` P ` *.P U <.{ y y t , , 2 c 2 # # 2 r - - < w w w L L H ..7.4.=.=...J J J p j j p p w < < < 2 ; ; ; < , # $ o & $ o o o o . + $ o o $ 6 # ; p j  ... .L a d p p J d , - ; f J  .X.*.4.:.*.>.6.m.B.W.W.B.B.x.>.V.:.P P 3XP.w y y y q q y H P ` :.[ ) ` :.[ [ ( S F K u q t u i q , , , , , , - - - v r , , - - # r JXUXMX- # , , - , , , , , , w.r - - - Q r - - - - - - , 2 - - - - 1 k , W u.].HXUXUXUXkXU.u.u u q q , , , , u F q q q t t q q u ! u i q q q q q q q q q q , e - 5XJXu.- v , 2 , - - - - - - : 2 - , , - - 2 # 4 < < - # : % # # # o # # o # # % o o # # o # # % > # # # # # # - - - - , 2 n mXIXrXe i e - - - , , , - - - , r 2 - - #  XlXr.# 2 r , , , t g Q.7X| q e e e , , , - # - - , , q t t q q q q t t i R i q q q q t t t q q , , U.i., , , , , , , , - , , ].].# , - - - - - - - - # - - : 7 - - - - - , - - - , , - - - k 1 d ",
"r e , , , , , , , , , , , 2 ].W - v w.r r , , u.u.t y |.3XP ) P S y y q q , , , , , - , - - - - , e - r hX5X, e , w q ^ BX}., y y K y q t q q q q t y S S U H S K U S S S P P ` :.) l.l.v.G.G.v.>.>.3.[ [ ) I y S H t u y q , - : : - - - r e q t K U P 2.U J X.=.=.=.4.X.X. .J J j d d d < , < < s < - - , - # # o $ # o o o o o o % . % & $ 3 4 4 j g  .o.@.j p p f f j p # <  .P. .X.=.*.&.=.>XV.m.R.F.F.B.N.>.M.3X4.H <.t y Y y S t t y S H U ` ` [ [ ` 3.3.3.P S S F t q t u i t , , , , - , , , - a.i., - , - , v MXIXrXo - , , , , , , , - - 2 1 - - , , , - , - - - - , , - - - - , Q e W hXUXUXUXIXUXHXhXU.u t q q q q q q u F t q q q q q q q q q q , q q q q q q q q t e q , Q ].r , , , , - 2 , - - - - # # r , , , # % # # # , , # # # # : 2 # # # o # # # # > # # o o # : % # # # # # - - - - - - n x z r.W r r e - - - , , , , 1 - r - - - # : BXUX9Xo - , , , , q q t < f y , , e , , , , , , , e i t q q , q q q q q i ! q q q q q q t t t , , , , w , , , , , , , , , 2 , o # , , - - - - - - - - - . # - - - - - - - 0.n # , , , - - 1 n 2 r ",
"- , , - - , , , , , , e e , Q r , , , , , , , e i , ~ Y t U P P P H t q e , , , , , r , - - # - , , # i.PXmX- , e , w r U.R w w , q t y t t t q t i t y t y K S U { S S P P ` *.>.:.v.v.v.j.Y.N.) :.>.:.I I S >XP.K t F i q , , 2 - # - , w i t y U *.*.Y I I I *.*.I X.1.1.J f f p f j j w , < 1 2 < ; ; - # o o o o # # # $ o o $ o # o # o $ > 6 4 a j L  .d p p j j p O.kXT.w p.X.X.6.=.I =.(.M.>.V.B.N.N.m.x.>.4.&.I U U P P H H S y S y S H P ( P ( ) ( [ ` P S t t t i i t q q , , , , , - - , e - - , , - , , - v U.- x Q - - , e , 2 - # - - - - - , , , , , - - - - , - - , - - < Q e e 8XMXBXUXUXLX X8.! u t q q , q e t , q t t q e q q t q q u i q , , q q q q q q q q q e - - e , , , - - b z - - - - # - v , , , # o o : # - # # : # # # 9 & o # # % # o > 9 # o > s.9 o # : # # # # # # - - - - - 2 , - v v , , , , , , , , , , - 1 - - - - # }.lXe.- , - , , , e i q t y w , , - , q q q q ! F q q q q i q q q q , t q q q t , i i q t u q q q q , , , , , , , , , , - - , , 2 2 - - - - - - - - - k 9Xn # # - - - , - 2 1 # # , , - - - - - - ",
"e , - , , - , , , , , , , - - - e , , , e w - , q q w i H U U U H S y q q , , , q , Q , - - - - , , e Q d.Q - , 2 , , , # - e , h h , t y t t t t h y , y y y S H U S H P P U ) &.>.:.l.l.-.-.-.:.v.>.:.` ` K Y.5.Y t q q , - - z , - , , e q y P Y &.*.Y X.1.*.X.*.=.7.7.o.J L h f j f p b s ; 2 < 2 2 ; o o o o o # o # # # o o & o o o . 9 0 # ; < p a f j p d d f g p $.MX(.p J  .1.7.1.1.*.f ..1.4.>.x.m.>.;.m.>.>.4.I ) I P P _ U S S y y y S U } [ _ ` ` ` _ U S t t t t q , , , , , e v , , - r v , - - e Q , , - # - U.U.- , , - n ].- n 2 # - - , , , , , - - - , , , , , 2 - - < - 1 l W ^ U.mXHX9Xu.u.R u q q q q , , q t t t q , e q u q u u q u q q q q q q q q q , q , , , e v , - , e - - 2 - - - - - - - ; ; # # # # # # : # : 9 # % # # # # o o o o # o # o o % Z > # % % # # # # # # # - - - - , 2 e w 2 , , e , , , - - , , , - , , , , , - o - , , , , , - v 8., e , w < , - , , , q q i i q q q e r , , , e q q q , q q q e q , q q q q q e e e , e , , , , , , , r , - r z , - - - - - - - # v kX0.# # - - - - - - # A f.r - , , - - - - ",
"- - e v 2 , , , , , , w v 1 , - q e , , , , , w , q q q y f K Y y y t w q q , , , e r , - - - , , e e , # - , , - - , , , , 1 , s b , h R q q t e < w ~.Q , t t t S S H S H H P &.&.v.l.l.-.-.:.:.-.v.b.v.[ ` S y S y q t Q 1 - , , , e , R i H U *.:.*.4.<.*...*.=.X.iX3Xw X.L f 2.U.p < s < < s 2 ; - # # o o . o o # # > $ $ 8 $ # o o   q.'.# : < < p p f p d j g f L  .p g  .g  .@. .@.2.X.J J X.X.:.>.;.V.M.,.>.>.4.:.&.:.) ^.Y.G P H S y S S S ` } U _ ) ) [ ` P t t t q , , , , , , , e , , , - Q z - - , e - , 1 , 2 r 2 , , - - , z  XGXhX- 1 , - , , - - - - - - - , , , r , , , , , l i ^ ^ }.hX^ I.! F u q q , e , q q q t t q , u.VXw., q q e q q , , q q q q q q q , e , , , , , , , 2 - - r r - - - - - 4 5 $ # # - , ; # # # : % o # # # # o # # o & # o o o # # . o # # % # o # # # # # : : - - , e , h < - , r , , - - , v R , , , , , , , r , , , , , , , < 4 1 , , , w , , , , , , , , , e e , - , , , , , R ! , q q t , q , , , q , , , U.w.q , v i , , , - , r , 2 2 - - , , - - - - - - - - - - - - - - - - - - # 2 BXUXXXo , w , - - - ",
", - w.v , , , , , , , , r , , , , - , - , , - < < r e q h y h ~ t t y i r e q , , w , , , - - , , , , , , , , , - - z , - - - - - , q ! ! q , , , - 2 6Xw.- q U.u.S U H H U U I ) I v.>.l.j.j.l.l.:.H :.4.[ *.H S U Y t w i , , , e w q q y H U *.*.&.m.M.*.X.X...=.X.7.2.L L J f f j w < < , 2 2 1 - 9 > o o $ o o o o ; > > $ $ # $ # o o o o > > - < s w d s 4 d p f j  .j g  .g N  .f f f f f H @.X.Y &.-.V.V.>.:.:.4.>.>.:.:.N.n.[ [ U U H S S S G P P _ P P U H y t t q , , , , , , , - - - - - , - - , - - - 2 - - - , - - - - - - - . 0XUXIXv - - , , , - - - - , , - , , - , , , , , , e u T i ].yXF ! T u q q u r e q q q t t t t q W wXR , q q q q i }.i , q q q q q q i e , , , - , , , - - - - - # - - - - # o $ - - - - $ ; % # # # - : # # % % 9 9 # & o o # # o o % > o # > 2 n # - # # # # - - , - 2 e , - - , - - , - - - , w , , , , , , , e , , , , , , , < < ; , , - , , - , , , , - , - , r , , , , e r , v ^ , q q , q , , , q e , q q ! u q q e q , , , e , , - - , , - - - - - - - - - - - - - - - - - - - - - # 1 BXUX Xo , , - - - - ",
"- - r e , , , e , # , r , q q e , - - - r , - , , , , , e i i t q q t h t w y y w q e , - , e e , , , , , , e - - - 2 - # - - - , y ~ y q , - - - , - . - - E PXGXS _ U f K Y ) ) ) &.*.v.N.l.v.v.P.7X:.) ) :.) ) Y U y q , q w q t w i K S H Y I I &.*.&.I Y Y L Y Y H H f K w w p s < < 2 z 2 - - # 8 3 & o # # # # # ; ; ; ; $ # $ # o o o o 0 & > ; 2 2 4 4 4 s p p d j N  . .g a g f j p p f Y @.J H *.m.>.m.v.4.:.) >.) l.m.l.l.:.` Y S U S S G P P P U U U S t u , , , , , , , , , , , , - - - - , - , - - , , , , , , , , , , , , - - Q hX5Xr , e e , , - - , - , , , , , , e , , , , , q q R t I.8X, i u q q q l l e q q , , t q t t t - q q u q t q i U.i e q t q q u q E q , , , , - , r - - - - - n 2 # - - x x - - - - : : - : # o - Q s # # % : - - # # o o # % # o # % o % o > [.0.# - - # - - : 2 - 1 2 - , - - v w., r , , , , , , , , , , e , , r , , , , , , , , , , v e , r , , , , e , , , , , , , , e r e , , , e e , e q q q q q t t q q q t q q q , , e v , - v i., - , - - - - - - - - , - - - - - - - - - - - 2 : n U., 2 2 , 2 2 2 - ",
"- - - - , , , - v bX]., , , u 8.e q q u R q q , , , , , , e u q y t q w t y K ~ K t q w ~.u., i , w.GX5X# ^ R , - - # # 2 e.1 # , h ~ U y , , , , , v 8.- , r 0XwXS P U H S U ` ) *.*.&.:.l.l.>.I >XnX<.S I &.&.3.Y S t q q y w t K y y y S U Y J :.Y.*.I J H J L L L f y f f f O.p w 4 ; - - 1 1 - ; o # 3 $ # ; 2 3 - ; 2 ; # ; $ $ $ # o o o # o # ; : 2 6 ; ; < p < p j a g g +. .L J p p p w f f p f 3.m.,.4.4.4.*.) :.4.>.Y.:X:.:.P Y U U S P P P U U H H { K t q , , , , - , , , , , , , - - - - , - - , - , - , , , , - - , , , - - , - o - e , e i , - , , , , , - , , , , , , w e w e , w i u ! u.q e q q q , q e e e R wX]., q t t t t q q 2.T q q q , q q q , q q q , q , , , , r Q - - - - - - k c > # - # ].9X: - 1 x z n - # % # - , - # o o # # # o o o o o o o # # o # # # o c q.# - - - - - - - - # - , - , , r Q , v , , , , , , , , - , , , , Q r e , , , , , , - , Q < , v e Q , , , , , , , , , , , , , q , , , , , q , q e q q q u u q q q t t q q q , , , , , v v - - , - , - - - - - - , - - , , - - # 2 1 - - 2 e # o r w., - 2 2 , - ",
"- - , , , 2 , - v MX}.- , , , u D F t D U D t e - - , , , q t t y y y y y K K H y t q q U.u., t q ~ kX]., t t w w , - - 1 z - - , w y y f w , , , e v 8.- - r , , H H H H S P 3.) I Y &.&.&.:.:.) :.<.I Y I ) ` ` U K t q q w t t t t y t S P P I :.v.:.) J H J L L J J H g f f h w < < ; - # - , , < ; ; < ; < 2 6 3 # ; 6 ; ; ; ; ; $ # o o o o # # # # > 9 ; - ; < < d d p  .j j j g X.O.< < f K f w f *.&.:.*.*.&.I ) I :.v.:.v.v.` P H Y U U P U _ U H P t t ! t , w , - i.w.- , - , e Q v - - - - - , , , - # , , , , , v r , - , , , , , , - , yX}.r , , - - , , , - , - - , , , , , , , , , q e q , q q , , , q q e q o wXUXGX- q t u q t - u.PXyX- t u u.F q q q q q q q , q r , , , r - - z 1 - # z 2 - # # - z z - - - 2 - n : # # : n Q 1 # o o o # # o o o o o o o # o o % # # # # # : - - - - - - - , 1 , , - , , - e v , , , , , , , w h , , , - , w , , , , , - , , - , , , , - v w., , , , , , , , , , , , , , , , , e e u e q q q q q q q , q q t q q q e , , w , , - - , - - , , - - - - - - - - e , , - - : 1 v 1 - - , , , r r , 2 r - - , ",
"- - - - , e - - - # - , , , e F ! t I.p.K U D u - , , - , , y f y y K K y H U K K y t t i R ! t K K , q y y y $.r - , ; 2 1 - - - , h L y w w w w w , , 1 - < < < w w y S P H { Y P P I I &.:.:.&.&.I I ` ` ) &.*.U t q t q q t q F y y t S P ` &.*.:.>.:.Y J J L L <.5.w f L p w w < , - # - , < p s p p d < 4 s < - # ; ; < s 4 < ; # o o . o & o & $ # # # # # ; ; < s d p d p p g L L O.j j K ~ f p j J I *.&.I I J Y ) 4.&.&.:.>.` P P H H P U U U S K y ~ ^ q q , w , - i.w.- - , r r r 2 - , - v z , , - z R - , , , , ].w.- e , , - , e e - e 9XU.- , , , , - , , , , v r q , , , , , , , , , , q q , q q , , , e q q , u.cX8X5Xd., u t q q ! kX Xq q q , q q , , q q , q , e v r - - - - - 1 - - - - # : 0.1 - # - 1 # - # - - - : : 1 2 d.r.: # o o # o o o o o o # # o # o o # o # # # # # # - - - - - - - 2 - 1 e , , , r , - , e , , , , h , , h r , , , , , , , , , , - , , , - e e , , e e , , , - - , , , , , , , e , , e e e , , q q , , , , u q q q e q , , , , , , , , , , - , , - - - - - - - - 2 , , e 1 z # x 2 - , - , , 2 2 - , r , , - ",
"- - - - , 2 , , , , , , , - W ! u  XKXDXU.I.3XK e , , , , w K y K K U P H H H K U K t q q t K y i i H H K K S u , , , - - - - e 2 w w L K w w h y w q , , - - w < , , q H P U U Y Y P J Y :.v.4.&.:.Y H J ` :.*.Y H t t K y y f y K { 2.S U I ) :.v.m.>.:.<.Y H J Y Y 4.3Xp.f h f w w , , ; ; < w h L j g h j d < 4 2 ; - ; 4 s < ; ; $ # # o o o o y.8 o # # o # - ; d s d b p < < p L H , ~.~.f J j d j J X...*.*.Y J P ) *.*.&.:.*.` P <.2.U <.U U U S t - ~.}.- e , , - , # # , - - e e - - - , - v v - , # bXDX, , e , , e , , , - - , - , , , , o # , , , , , - v U.- , DXrX# e , , - , , , , , , , , q , e , , , t t t t , , , U.^ , t t q q , - , t q q q , , q u u q q q , , , , , - , , , - - - - - # n ].2 # # 1 - : - # - # - - 1 r e ].~.s 2 : : - # # o o # # # # o o # # # o > 2 # % # : # - - - - - - - , e , 2 , - , , , , , , , , , , , , v v - , , , , , , , e , v v , , , e r - , r r - , - d.~., , e r , , e , , u , , , e , , q q , q q R u q q q q , , , , , , , , , , , - , - - - - - - - - - - - 2 , - - - - - - - , - , , , - - , n r ",
"- - r , - , - - - , , - , , i i }.IXUXUXDXU.U.U w , , w w h 2.y f H H H H U H S H K t t q i q y U K H y H I.~ E , - - - - 2 - eX9Xw h w L t w y y y t t , - , t w - e.u.H U Y Y U L L H P ) 4.b.) I I I <.3.4.:.I H f y y H H H H H U { P Y ) :.v.v.>.l.:.3.*.J I *.I 5.nX(.w L f w < < ; ; , i.p.h f J J f d p 4 4 2 ; - 4 b s < ; 6 3 $ o . o o o 3 o o $ % o # ; 4 d s b p.h p 4 a L X.E b j f J L , - Y 2.=.6.<.P J P I <.b.3.:.` ) ` Y S 2.VX/.t U t q q e w , , , , , , - - - - - - - - - , - - , , , , - [.9X- e r , , , , , , , , , , , , , , , e , , , , , , r r , w  Xd.- , , , , , , , , , r l , , , , , , q t t t t t t u - , ^ i t q t q q q t q q q q , q u q q q , , , , - # - r r - , - - - - - - : # 1 1 , , - - - - - - ; z Q s wX X2 2 r 2 , - : # # # o o o o o % o o 8 ].9   . - 9 # # - - - - - - , e e , - , , , , , - , , , , , , , - , , , , , , , , , , , v R , , , , # o - z v - , , w.w.- Q }.e , e l , kXGXU.- e , , , , , h r q u e , , , , , , , , , , - r Q v v v - - - - - - - - , - - - , , - - n r - - - , - , e - , - - , , ",
"- - z 1 - - - - - - - - , , i u hXUXIXUXIXU.t U y q , w h w h f y y P H H Y H y y y y q q w q y U K y /./.S F v , - - - 2 z < i.u.w w w w t y y f K y t w w q y , b JXJX{ U L Y H f L f f P 3.M.I Y J 5.pXY.4.*.I H f y t U Y I U Y P P I Y *.*.v.v.>.j.>.4.:.4.X.*.4.b.I Y X.L f w w s ; ; < Q E f j H f f f d s < 4 < 6 4 d s d s 2 ; $ 0 0 o o o o # $ # % & # ; 6 d < d j d 4 p a L @.j p d K L j |.|.X.4.1.4.Y P Y U Y <.4.4.:.` ` [ Y P { >X{ S K t q , , e , , , , , - , , - - - - - - 2 t.2 - - - , , , - # - , , , , , , , , , , - , , , , , , , , e e r e , , , , e - - , - Q i., , , w , - Q u., , e e q q T F t t I.I.t u t q R t t t , u.U.q t q q q q , e q , , q q , , - w.d.- r 2 - - - - - - - - - 1 - - - # - - - 2 , - 2 v 0.0.mXlXq.].Q 2 - # # % # # # o #     o o # # > : {.y.o - # - - - - - - - , , - , - , - - , , , , , , , , , , , , , , , , , , , , , , - , , , , - 0.}.r - , , , e , - , e Q e , , - e KXUX9Xo , , , , , , w.h , , , , , , , , , , , , , , , , , r r - - - 2 - - - - o # - - - - - - r , - - - , - - - - - - - - - ",
"# - r.2 - - - - - - - , - , F u ].IXUXUXDX2.{ U y q , , s $.K h t t y <.U U U H f y y i w w y y t y y P.P.i q e , - - - , , , w w w < w w f H f L L y y y y y y , n cXkXE ~ K K f t t /.u.y U Y Y I X.*.Y.m.>.I I I H U Y Y *.&.&.*.` I P ) *.I 4.v.v.l.>.:.&.:.:.4.m.:.*.P Y Y h w w s , , r < < p J f j p p p s 4 6 ; 6 4 4 4 d d < ; # {.{.. o o o # $ $ 3 8 ; ; 4 O.%.d b j < 4 4 O. .p d d L w ~.UXUX/.f 1.4.X.J Y *.*.Y I Y ) ` :.` P Y H t y K S q , , e r , , , , , $.Q - - - - - - - - x , - , e , , , - , , , , , , , , , , , - , , , , , , , , r R , e e q , , , q , , , , r R , , i v , , , , , R e q q t t t D t I.u.t t t q q q t t e } u.q q q e t q , q q , , q , , e , i.U.- - - , - - - - - - - 1 2 - # - - - - - - - 2 r n q.jXUXIXxXmX].# : # # # % o # o o 0XlX0 o % : o : JXhX  : n 1 - - - - - - - - , - - , - - - , , , , - , , , , , i r v e , , , , , , , , , , - - # U.mXn 2 , , - , r , , , - , , , e - _.9Xr , , q , , , , i r , , , , , , , , q , , , , r e - - , - , , - , - - - # [.}.# , - - - - - , r - - - , , , - Q r - - - ",
"1 2 ].k - - - 1 - - - z k , q F T 9XDXmXU.<.` U t q e # p.|.w y t y H <.U H U P H y t q q t h K H H y q t t q e , - - - , q q h $.d , p w y f U U t y K K y y F K , 0.mXwXh L f y t w $.E f H P Y Y Y I S >.>.*.>.:.I Y *.&.v.>.:.:.&.) Y Y I *.&.&.>.:.j.:.:.M.4.:.3.*.) Y P f y w , < , 1 r p w h h h d p < d s < ; < s p p a p 4 ; < 2 y.9 o o o $ $ ; 6 3 3 6 4 p #.(.+.j p p p B  .@.E d j h p d.JXJXP.J *.*.*.X.J Y <.Y I I I I ` Y Y P P P 3.` H q , , , , , , r w , }.u.# 2 1 x 2 - - - 1 - - , e , e , - - - , , , , , , , , , , , , , , , , , e w , , , , , , , e r , , , e r , , q w e , , , , , R i , t t t t t F t } } t t F u i F q t q , q t u q q e , q q , q q q R r e , # i.w.r , - - - - - - - - - # - - : - - # - 1 1 v [.cXUXUXUXUXcX X> # o o % % # o %   BXUXs.. > > % & q.A % # 2 - - - - - - - - - - , e , - , - , , , , , e , , , , , d.kXr , e , , , , , , , - , , , , z , , , , , 2 , , , , , e e , , , # o - e e e e , , , , , , , , , , , , , , , , , , , , , , , , - , , - , , - # lXhX- , - , , - - , 2 - , , - - - - d.v - - - ",
"; : # - - - - 2 - - - - - , e u 2.! } ! U { _ y t q , , Q u.w t y y y H P P J H H y 2.y q y S U { U S t t q t q , , , , w y t y h p < w y H H H U y y h f y H K h , ].LXkX, U t y h w w w h y P P Y 4.4.*.&.:.>.v.*.:.&.) >.N.m.>.:.:.:.*.I I I P *.&.:.v.>.M.V.:.*.) Y P ` U y w < , - 1 r s w h f w s s p < p s w < d h f d O.j p ; s B c # o # > $ # ; > # t.p.4 N N N  .g p , %.uXj f O.j j p j p p.u.J 5.<.I Y *.*.2.2.*.Y I I P ) ` ` ) ` P ` U y , v e , , , , w r w e r < - - z 1 - - - - - - - - - , - - , , , , , , , , , , , , , , , , , , e , , , , , q q , q q , q , , e e , q q q , , e , , , , , q q u u t t F t ! } u t 2.R i F t t q u q q u q q , , , q , q q , v i , , , U.].w.- - - - - - - - - . o - - 1 - - - - - 1 z r.].NXUXUXmXs.0.9 # o # o # # o o + q.'.o # % % : o c PX X. # # - - - - e 2 - - - # , , - , - , 2 , , , e , , , , , v u., , , , , , , , , , , , , , - - , - - - n v , , , , , e , , , e , , , , , , e , e e - , i , , , , , , , , , , , , , , , - - , - , , - , , , , e r e , , , , - 2 , - , v r - - - - - - - - - ",
"- # 1 - - - - - - # - - - , , e T ^ U { { Y H y f w r r , , q , t f H U P P P Y P { <.y t S S U [ U H Y H y H y q , w y y y H H h p p h h K H y y K w < t S K y q t i p.h y U y h h , w < y y H Y *.4.M.&.*.:.x.>.m.M.J ^.tXc.x.x.>.:.>.I J J ) I ) ) v.>.>.m.4.J 6.7XY P Y Y f w , , , 1 < s h h , # - 4 p w s h f h f f  . .o.g p 4 4 d # 3 0 # # 3 6 ; 5 4 d O.N N |  .g g N d B +.d p s s < h h d 4 < L X.1.*.Y I X.1.1.X.I I I P ) ` 3.*.*.` U H y q e - , , , h R w w w w , - - - - - - - - - - - , , , - 2 v , , , , , , , , , , , , , e w , # - , , , , , q , , q q , , w r w e , u q q q , , , q , , , t u q q q q q q q i u t t R t q q t t q t q q q i q , , , , , q , , , e e , # 2 , - , - - , - - - 2 sXs.o - - - 2 - - 1 , 2 W ^ a.NXNXr.Q $.z : o o # # o # o # . . 8 # # % - # c xXs.o 2 - - - - , , , - - - Q r - , , - - - - , , , e w , , , , - , , , , , , , , - , r , - , , - , , , , , , , , , , , - , i , e l , , , e , , , , , r , h , , , , , , , , , , , , , , - 2 , , , , , , , , w r v , e , , - , - 2 , , - , , - , e , - - - - - ",
"- # 1 : - - - x z # - - - - , e , i F D y Y K f h i h i t q q i q y y U H P ` ` P { U P H S H P P _ ` <.*.I Y U f f y f H H U H K f p f J ~ U 2.S t w ; w y y q q y y , w U U U y w , , r h K y J *.X.*.4.>.>.x.m.m.v.) M.>XD.c.N.m.m.m.:.*.:.I M.4.*.*.>.6.&.(.ZX7X5.1.Y Y Y K h < , 1 < < E f , d.mX[.# ; s j j h H f L 1. . . .a 4 < - % $ > # # ; 6 6 d j d  . .| #.| N N ~.7.d 4 j j p d p s f d 4 d f J =...I I X.*.*.*.I &.:.&.` ` :.&.[ [ ` U t , - n e , - u.p.q w - , , , - - - - - - - 1 o # 2 , - - < e , , , , , , e , , , , , , e , , kX5Xo , , , , , , , q q , , r w , , q t q , q e , , q q q , q q q q e e q , q q q q t q t t t t q q q t t q u , , , , , , , e , , 2 e 2 r , r - - - - - - - - 1 hXs.o : # - 1 - - - - 1 h ^ z 9XXXz Q E 1 : # # > # # o o o o o & % # # # # o . o 1 : - - - - - - - - - - Q z , , , - - - - , , , , e , , , , , , , , , , , , , - , , , , , , , , - z 2 - , , , , - , , , , , , , , , , e e , , , , e , , , , , , , , , , , , , , , , - , , , 1 - , h r r , , r w w , , , , - , e 2 , , - , , e 2 - 1 2 - - ",
"# : - # 1 1 # - : x 6X0.# - - e , q y ! $.h K K y f f y y t t t q K ~ P P Y ` P P *.*.&.I I ` ` P U *.3.3.) *.*.J P H P P U H y w f  .f J H { <.S y y t q q q q w K U H H P P.*.y y , - 1 e R h H *.>.:.l.M.B.m.m.m.>.=.) ) l.j.N.B.B.m.v.:.:.&.4.4.4.M.>Xm.:.(.ZX7XJ >.:.&.Y H K s , , < < w d.E 0XUXlXo # ; 2 h j L X...o.#. .j d 4 ; - % # o # 4 4 p N N N N | !.7.o.| |  .#.N #.O. .j d j +.p j 2.N O.d g J  .J ..*.=.*.*.>.>.:.v.>.&.&.) [ U U , u v - v 2 v r , , , , , - - - - - - - - - - 1 ].r.# - - , 2 , - , , , , , , , - , , , , , , , rX}.# , e q , e , , q t t u , , , e , , q q , i e q q q e , q t q q ! q q q q t t t t , u U D t , , t t t t - - , , , , , w , , , v W , e , r , - - - - - - - - # - - - - - # - - - - s r r s  X].2 z 1 : % # # > 8 # o o o o o o o o # # # # o # # - - , o n Q - - - - - , , - r v - , , , , , , , , - , , , - , v r , r , , , - , , , , , e , - , , , , , , - , , , , , - , , , , , , e v e - , , , , , , , - , r , , , , , , , , , - - - - - # , t F r 2 n w u.U , - , , , , , , , , - - - - - - 2 2 1 - ",
"> # # # : : # : # 1 T.n # - e e e q , u.}.2.E y y f U L y f y y y @.2.U I I S ` 3.` &.:.4.M.*.b.U H *.3.Y.m.:.*.I J J I *.U y u w h f g f y H S H H H H t , w , w f U Y Y Y M.<.U y w , - , r y H X.:.v.x.x.m.M.m.6.>.*.&.*.:.>.x.N.m.>.>.>.>.v.>.4.I >XiXm.B.B.:.m.6.4.=.Y J f E b < < < , , }.e.b 0Xq.o o # ; p g g o.1.o. .j p p < ; # o # # ; 6 d  . . .j g | |.7.| | N a #. .p.+. .p p d b 4 d +.b O.N  .o.g 1.>X6.*.1.:.:.4.>.>.B.:.:.3.Y Y U w.U.0.# # - e 2 - - , - - z x - - - - - - - - - lXXXo , , , , , , , , , , e , , , , , , , , , , - - l q q q e i , e q q u ^ e e e , , , , q q e q l q , e u q t q q q t q q q t t t t r l ! t t , , q t D t - , q q q , , e , , , v v - , , , , - - - - - - - - - - - - - - - - - , # # - 2 - d.a., - : % # % # # % o o # # o o o o o o # > # o # # # - - % r.w.- , - , , - - - - , , , , , , , - , , U.E - , , - - , - , , , , v r - , , , , v , , , , , , e , , ].v - , , , , , , , , , - , , , e , w , , - # , v , , , e , , - e v e , - , - - q D u Q cXFXiX|.F u , , , , , , - - - - - - , - - , z n 1 ",
"% # # # # # - : # # o # - - r e , , , e r p.h t y y J Y K H f U U K P Y *.) P 3.3.` :.&.4.4.P I U P ) P M.M.&.X.J I J P Y U F u r w h h y H H H Y H H y y i w q q S Y ` Y *.Y Y K y s h , - - w K Y =.m.v.m.m.l.>.>.&.*.&.&.4.>.>.M.M.m.v.m.v.>.m.:.>.m.M.m.m.,.B.m.6.4.X.J L E h w p h j h w , w <   o # o # ; < a f L 7.o.g j p < < < ; 9 # % 3 6 d j  . . .N | | o.=.| 7.~. .j a a p +.b 4 d < p p p h j  .#.L X.!.1.*.4.4.4.^.M.:.>.:.:.&.` K $.PXCX# # - v , - - - # i.f.% 2 - - - - - r z - - 1 - - - , , , , , , - U.~.- , , , , , , , , q , e e l , e u , , 5Xw., q q e q e , , , , e , , , q , q q e q u t t u R t q i q q t t t e , q q q , q t t t u q q t t q t t , , , , , , - , , , - , - - - - - - - - - - - - 1 - - # - - - , - - z z - o - : # # # # o o # & & o o o o # o # % # # % : - - 1 x # - , - - , - 2 v , - - , , e , , - , , , w.r , , - i.e.- - , , , , e , , , , , 2 }.v - e , , , , , , Q e - , , , , , , - , , Q Q , , , , , , - , e , Q R , , v e , , r r , - , , - , y D - 9XUXUXPXw.D D q e e , , , - - - - - - , - - - - 1 - ",
"# # : # # # : : # # - - - - # 2 i i w , 2 , , < $.~ f H L L L H H U Y 4.4.4.:.I ) ) v.M.:.) ) H U H 3.M.I &.*.*.*.I Y I P U U q q q U.K t S P { { P f y y t , u.{ y ` ` <.M.*.J H t w r - - , w f Y 4.M.6.>.M.v.l.m.&...:.H *.4.>.>.4.4.v.M.B.m.>.&.&.>.;.>.>.>.>.m.m.4.Y L j h h h h h h h h w < r - # # # # # ; w f  .L L f a d d < - z r.> % 6 6 B O.N #.| p.!.g o.o.o.!.3XO.a N N 4 B d d B 4 p p h f g o.1.1...J *.6.X.*.4.4.:.>.>.:.*.I U y h mXrX. . : z , - , - # n 0.# - - - - - - , 2 - - # - 1 - - , - , , , - W Q , , , , , e , , , 1 , , q , , , - e q u.^ R e , e e e e , , , r q w , r , , mXmX, q t q q R q q R u q q t t q q i u q q t u F q q t y t t t t q , , , e , , , , , , , - - - - - - - - - - - # 1 s.x # - # - 1 - - - - : : z : 9 % # # % # # o # # o # o o o o # o # # % % % # x s.# - - , , , - 1 v , - - , , - , - - 2 , e - - , , # a.a.# , , , , , - , , - , , e v , , , , , , , # - - - , , - - , , , , , - v Q , , , , , , , - r 2 , , , , , , e , , - - , , - - , y D q U.PXUXmXu t U.8Xe , , , , , - - , - , , - - - - - - ",
"# # : : : # # - # - # # : # a.0.: i.z - - - - , h w w X.Y L J J Y I &.M.m.4.>.>.:.) v.m.>.&.I J S S 3.Y.v.4.>.v.P.>XJ Y Y J H y w E ~ t K U Y { U y y b h y t I.2.P ` ` *.M.*.L f t q , , , , w w L X.5.1.=.4.>.M.M.m.6.4.7X4.*.:.X.:.:.:.>.v.B.m.>.&.>.l.:.=.6.6.M.v.:.Y Y ~ E R E R h h f f h w < - : # # # # - < p L L  .f f p 4 p < - - # ; > 4 B O.N #.| 7.7.N | | | N  .N  .#.N d d N d p p h g j J @.#.#.X...X.4.1.*.*.I I 4.4.>.v.*.Y.P.y f # 0.fXf.# - - - - - < - # 2 - - - - - 1 , - - - # 0.x : , - - , r w , , - , , , , , t q , 1 , , q t t , - - , q , e e , # # e , e e , , , r i , , , , hXhX, , t q u q q q q q q q t t t t q u q q t q e e , u u.! , t q q q , , , , - - , , , , - - - - - - - - - - - - 1 v - - - # # - , - - 2 o {.LXs.. # % # # o # % % o o o # > > # # o # # o # # # : x - 1 - , - - - - , , , , , , - , - , - , , , , , , , - - , , , , , , , , , e e , - , , , , , e - e v , , , , , , , , , , , , e - e , , , q q , , - , , - e r - , , , , , , , e e , - , q t F u _.9X8.u e 2XsXe - , , , , - , , - - - , - - - - - ",
"# # : # # # # # # : c : # # e.n # 1 - - # - - # z ~.Y L L H f Y 3.) ) >.>.>.:.:.-.l.j.) :.&.I H S J I ) M.m.4.>.M.!.1.Y J P J g f X.H H U Y { { F t q w w h K y S [ ) ` P H J U y t q w e v , w t K H L ....*.v.B.:.^.(.4.eX5.I Y Y <.*.*.>.>.>.B.m.m.l.>.>.6.6.4.:.:.3.` Y E U ~ 2.U y f f w h h < ; - # o # # - < p h w p.$.< p d < ; 2 ; # # $ 4 e.%.j  .N  . .#.g  .N g #.#.!.7.N N N g a j j N L L L #.1...J  .1.1.*.6.4.I *.4.>.:.m.&.(./.q w - lXUXJXx # - - - - - 1 - - - - - - # - 2 - - - - : - , e , , - , , , , , , , , r , t q q u u t t t q q , , q , , , , r 5X].- e , , q , , , , , , , , - - , , t u i q q q t q q t q t D D t t t t t q , , , t F i q q q q q q , , , r e , , - e e - - - - - - - - - : - 1 z - - 2 - - - # # : % o y.jXq.o # # % # # # > % o # # # > > % > # # # # # # # # - 1 - 1 - - - - v z v i., r - - - , , - , , , , , , , , , , , - , , , , - # v r - , , 2 , , , , - 0.HX5Xo , , , , , , , e , r r , - , , , , , , , , - - - i.i.- , , , , , , , , , , - % , u F T u , u F u e - 1 , , , , - - - - n z - - , - - - - ",
"# % % # # # # - - : 2 - 9 9 o # - - # # : 2 - # r ~.<.f J J H *.4.:.&.l.>.>.] :.j.j.-.>.4.:.) *.<.H &.>.4.4.>.>.>.*.4.I J J J J J J L U I ) ` P K F t q q t y ~ P U [ ) P I P f q K ~ q , w w w w y f L J H I v.4.>.M.=.X.H Y Y P H P I *.4.>.:.v.m.>.x.m.4.:.X.:.:.>.M.2.U.}.6XwXI.U f y w w w s s s 1 # % # # - 1 s s p E j < E d < < 2 6 > # ; d e.O.a g N N %.#.g N #.N N #. .| o.| o.1.| #. .#.#. . . .X.@.L L ..X.X.X...X.*.X.*.l.m.:.I H f , # 9XIXmXz - # - - - - - - - - , - - - - - - - - # # - - - , - # Q w., , , , , e r q t } ! D D D D t t u ^ u t R R , o wXUXIXw.- e i e , , , , , , , , , e q ! q q t t t u t t t q q t t D t t t i i e q t F ! t , q , # - w.d., , , r e , , , , , - - - - - - - - - , - - - # - - : - - : # # # : o o # - # # # # # # # o # > # o o o # o o % : # # : # - # - - - - - - - e , 2 2 , e , - , - , , i , - , , , , - , r e - , , , r 5X].- , , , , r e - , , , z fXU.# , , - - - - - - , , , , - Q e , , q , , - - - - r r , , , , , , , , , , , , - , ! F q u i w q q q , , , e , Q e , 2 - Q n 1 - - - - - - ",
"# # # # # # # 1 2 : # # 2 2 # - - # # o o z : # , w H L J J L *.:.:.:.v.V.v.:.&.v.N.:.>.m.v.) 3.4.) :.>.>.>.>.v.>.4.*.I I I Y X.P P P Y ) I I P y S t i K q K ~ U P P P P Y Y H y K U t t y f y K U Y L f H *.&.&.4.M.*.J J 5.1.f H P U *.:.&.&.-.M.M.l.N.m.#.J I X.2.2.9XHXLXUXCX5.K K i , , O.$.w 2 ; : % # # # 1 s h e.p - s h p d < 4 ; ; ; ; B N j N g  .|  .a a N O.N N  .N  .o.,.7.!.7.%.|  . . . .g J  .L o.@...Y ..X.X.Y X.&.:.v.4.Y f w w - - r.z # - # # - , - - - - - - - # # - - - - # 1 - - - , - , - Q Q - , , , , , r i t } ! u.I.D ! F t t u , , w.W e o 5XUXHXw.- , e , , , , , , 1 r , e , u U.u q q q t u u q q t t q q t t t q I._., t D D } i h lXlXr.- z R q , e , , , , , , - , - - , - - - - - - - 1 2 , # 2 x # z z # : # # - # # # # # # # # > > o % A & o # o # # o 8 0.% # # # : # . o - - - - - - - - z 2 - , , , , , e 1 i.$.- , , - - r Q e , , , - d.UXPXr # , , , v v , , - , , - - , , - - , - , - - , - - , , r r , , , , r e - - , , - , , , r r , , , , , , , , q q q , , , < q q u t , , , , r , r v - 2 - - , , - - , - ",
"# # # # # # # # # 1 - - # # # - - # # t.x # - - , t U y w j #.*.>.>.&.&.4.>.:.v.v.v.:.:.v.v.:.:.3.3.>.v.m.v.:.l.m.m.>.) I I P U U P U 3.>.:.&.*.P U F F t - t H H P H S H U U U U f y f U f Y ~ P <.J y H X.*.I I *.Y I *.X.5.<.f P H Y <.*.) &.:.>.6.m.N.v.#.j f U @.[.LXUXUXUXDXI.U h w w < s h s - 2 2 # # - , 1 r r b s < < s s w 4 4 2 4 ; ; 4 d B %.g  .N N d d j j j N o.#.%.=.7.7.R.7.o.|  .N N j g g J L L o. .J ..X.....Y I Y *.@.L w , , 2 - o - : # # # - 1 - # - - - , 1 - # - - - - - - # - - - , 1 - - - , , - # w.}., t ! u  XHXJX}.F D t q - 8.i., - e , , U.u.- e , , e , - h W - v 8., , , q , q t t t t q t u q q e , - 1 e F t F ! F F / U / q U.UXUXrX# , , q q , - - , , , , , - - - - - - - 1 - - - - - - - 2 - # 1 - - # # - - # # # # # # : # # % % # o # o # # # # # # > > % # # # # a.a.- - - - - - - 2 w.1 : - - - r 1 , # }.~.- , , , , , , , , , e - Q hXwX, , , , , , , , , , , , , , , , - - , - , - - , , - , 2 # o - , , e , e , , , , , , , , , , , , , , , , , q i t q , - , < < < t q , , - , , , , - r - v - n ].Q 2 2 # ",
"# # - - # # - - - # , - - # # # - - # 9Xr.o , , , q w E |.E f f 1.*.4.4.J U :.Y.v.&.*.>.:.:.>.*.:.>.:.>.v.l.j.j.N.N.v.&.&.*.P P P P P ` -.l.l.:.U t D F K kXI.w L H H y y H K U K f y H Y U P Y Y Y I H P Y Y P J Y I J X.*.) P L H U Y Y *.*.*.&.I *.>.>.I f d h ~ L 9XUXUXIXUXHXI.R b w s < < s s w , , 2 1 , , < < < < < < < s s w s ; s +.B 6 4 d a a  . .N N N j d d j N o.| %.!.7.7.7.%.o.| N g j j g g L L J L L J J J Y <.X.J H f w < - - - : - : - - # # - # # - - - - - - - # # - # - - - r.t.- , , , - , , - - , d.v r w.q i F ^ HXUXUXDXl F F q o A a.e i e , , # - e , , , , e < e r , , , , , e e q q q u t q t t q u t u , # - e i u t F T F ! ! / ! K yXhXz - r e q q , 2 n , , , , , , - - - 1 - - - - - - , - # - # # r.0.# - 1 - - # # # # # # # : # % # # # # # # # # % . . o ; % # : # o 2 HXGX- # - - - - - - - - - - - , , - , , - , , , , , - - , , , , v r e # - , , , , - , e , , - , , - , , e , - - - - , 2 - 1 , , , t.XXx - , e , , , , - , , , , , , , , , , , , , , , r q q , q q < < < w , , , , , , , , r - i.LXMX1 Q r , - - ",
"# # # - - - , o o - - - - : # # - # # : : : 2 , w e w < b rXBX|.f P.4.@.<.X.:.:.:.>.*.:.>.&.*.*.*.:.>.l.l.l.N.N.N.N.m.*.&.) &.*.I I ) :.-.l.N.[ 9._.9.F ! yXu.q y y H y y H K S y f H P P U I *.<.*.I *.Y Y Y Y I J I J I *.) P U Y Y Y ` P I 4.>.&.4.:.` H < 4 h Y ~ ~.JXUXUXUXMXu.$.b < , , < h b < b s - 2 < - - - < 2 < , , < s w < < # 0.s.4 d d e.%.N N g j N B d d N  .| o.| | o.o.| #.N  . .N j d d j  . .L g J L L J Y 1.*.J w < , - - : : # % 2 # - # # - # # # - - - - - - - : - - - - # DXFX- - , , - , , , - e yXi.# - q u T R BXUXUXcXv 2.t q - # - , R i , , e q , , , - , , , - 0.w.[.BXi.# , , , q W u q t q u t q u , u.U., , q D / F ^ sXBXhXw.} y , , - e e q q q o rXIX}.# , - , , , - - 2 z 2 1 - - - - - - - - - z z # - 2 1 # - - # # - # # # # 9 % # % % # o # o # ].].# # # # : # : : 9X9X# - - - - - - - , e - 2 , - , , , , , , , , - , , , d.r , , , r e , e e , , , , , , , , , , , , - r Q - , , - - , , - , - e Q HXUXjXo - , , - - - , , , , , , , , , , , , , , , , , q q q u t , , , , , - 2 e - , , , e - a.IXDX- - - - - - ",
"- - - - - - # e.w.# - , , ; - - - - - # # 1 r , i r e r o BXUXeXw /.Y !.FXeXy &.&.&.&.m.Y.) &.:.:.:.v.N.l.l.G.N.l.N.m.:.:.*.&.;.&.&.>.m.N.G.b./ sXKXdXt F q u i t y f y y S S y y y H U J P ) *.4.v.4.<.Y U Y ` I J Y U J Y ` M.<.U Y <.*.P.P.4.4.:.&.*.Y K s < w Y 5.2.9XHXLXNXU.R Q r 1 , < 1 < w - [.[.s , < < - , , , < s s ; p s < s d ; 4 6 B a ~.|.a | O.N d d d d N O.| %.| M d a N N N g 4 g d $.p.L L j  .L L L 1.5.@.X.X.h < , - # # # # # o # # # # # # - ; # # - - # 1 n - - - - - - # [. X- - - - , - - 1 - , , - , , q F ! ! U.lXlXw.i i t t t t , - i i , r i q e , - , , , , , r -  XHXd.- , q q q F q t u ! t u t t , ].8Xt q t D / / kXUXUXUXhXF } t q e , , q q , # 9XFX].# e , , - - - - - 2 z 1 - - - - - # - - # # - - , - - - - , - # # # # # # # # % % # # o # . 0 UXUXx # # : 9 % % # o o # - - - - - - # v n v n - - , , - , , , , , , , , , a.r , , , , , , , , , , - , , , - , r , , , , , , - 2 r , - - - , , - , z DXUXfXo , - - , v 2 - , - , - h h , e , , , , , , , , e q t t t , , - , , - , , r v , , , , , 0.x , 2 , , - - ",
"# - - - - o r.PXLXs.o - , - # - - - - - 1 , < w h y $.~., u.wXp.y L f /.GX7Xy Y ) *.*.4.v.*.&.&.>.l.l.N.N.G.F.c.c.N.N.:.l.m.x.;.x.>.x.B.F.H.S./ sXKXsXG G U U t t y y w t h w q t t y P I P P ) 3.Y P.5.q y P *.<.*.U H P Y P M.5.@.4.4.v.7X4X4.4.4.>.&.P H w w y U 2.p.%.p.~.w.b E r , 1 - - , - - - x b z 1 < < , 1 2 < < d d < w p < d d d d d 4 d j #. .O.%.d 4 d d 4 4 N #.#. .a B |.d d d B |.#.a +. .j  .j L  .1. . .@.X.X.X.$.s - - # o o # # # # # # # - # - : # # # - - - 2 : # # - - - , o o - , - - , W , , , , , , e , q t i K y t t i i u t t t t e , , , , e q , , q , e , , , , v x , u , , q , , , , q q t F t i u q t , q t e q D ' } GXUXIXUXGX! D i t e , e , , e , - , - , , , , - - - - # - - - - - - - - - # - v r - , - - # - # : : # # # # # # # # > 8 o o % # # > qXqX> - - % % o o - - 1 > # - 1 - - - - z 1 , 1 - - , - , , - , i W , , - , Q w - , , , , - , , - , r , - - - , , , , , , , , - , , , e v , - , , , - 8.].2 # # , , 2 v v , - r , - e r , , e q q , q q q , q q t q , q , , , , , , , v R , - r v e , , 2 , , , - , ",
": - - - - o s.UXUX[.o - 2 n x 1 - , - - 2 , w h K H ~ ~ f y q 2.f y H ~ Y U Y Y ` Y I I *.4.:.>.:.l.n.z.c.F.G.F.F.c.c.B.F.N.N.G.N.F.c.W.tXn.j.S.S.4XL.' [ P S { U t t w , , , q t y H U Y P P Y ` P H y K U H Y <.I U H H ` *.X.2.5.5.P.3X7X/.P.!.!.>.=.*.P L y f K K 2.<.K y R E b v - 1 1 - - - - - # # - , 1 , , 1 < < p w < s j f 2.+.j B M 4 4 d j  .N B N a 4 4 4 .X XB O.O. .d N %.M B # t.JX|.p  .g j L L L X.#. .g f f L J E 2 # # o # o o # - # 1 9 - - - : # # # : : ; # # # : 2 - # # - - - - - - - - e - - , , , i r , , q u u t F F T t t t q , , - r e , , , , , , , , , , , , - v W - - , , q , , , q q ! i q q t q q q t t q r R G / / kXUXUXUXbXD F i t u 8., , , , q q q w , , - z 2 - - - - - - - - # : x - - - , < - , , # # - : : : # : # # - # # # # # % o # #   % # . . # - - # o o : - , - # # 2 n - - - - - - - - , - - - - , w , , i , , , , , , , - , , - - - - , v v w < - , , , , W v , , , , , , , v v , , , , , , - - - z w.2 , 1 - , , , d.Q - , , , - 8.u., q q q , u e , , q , , , , , , , , , , , , , , , , e e - - 2 r , - ",
"x # # # # - # [. X% - , # ].}.# , , , 2 2 , < y U H Y y K L L f H H U P 5.P.I Y I I I *.*.*.&.>.l.>.l.l.N.G.J.F.F.F.c.G.G.F.K.^.G.c.B.N.W.l.N.:XS.h.h.b.[ _ D 3XU.t i , - , , t t y K Y Y P P ` Y H S t ~ ~ P Y Y Y H H P Y *.) *.P.~.kXPXPXnX/./.!.=.4.5.Y L f w L 2.Y ~ L E w Q h < 2 s - - - 1 1 - , 1 , , , < r < , < w w w p p p eXp.4 B d 4 4 4 N O.N O.a a 4 4 4 vXkXN N N g j N a B B M N p.%.N  .N a g L o.@.o. .J f f f f < , - # % $ ; 2 # - 1 : : # # : 1 - # - : # x 2 - # x 0.# : - - - - - - - - , - , , , , , , , , e q u u t t t t t t q , , , W r , , , , , , , , , w , , , , , , , , , , , , , , e i ^ e , q q q q q t u q e i t G / U.xXFXlXI.! F F q l 8Xw.- , , , q I.b , , r Q , # - - - - - - - - - z - # - - b d.s , # - - # - - - # - # % # # # # o o o o # y.> # : # # - 1 - - : 2 , , - # # : z - : - - - - , 2 - - - - , - , , , - , , - , - , , - - - - , 2 , , v , - - , - - , , , - , , - v i., , , e , , , , , , , n # yXUXa.# , - - - , 2 , , - , , e e , e , q e , u q q , , , q e , , e , , , , , , - r Q , , , e v 2 , - , ",
": # - z 1 - - . . - - - - , < , , , - , , w , y K f y y U K <.H f U P P <.<.) I I I *.>.m.V.:.>.l.v.l.l.B.F.W.J.c.F.$XE.F.F.G.D.F.l.l.x.l.n.N.Y.S.z.b.[ [ [ P U U y e w r e q t y S U Y P P S P P H S S S S P I *.Y U H H U 5.*.v.P.iXUXUXUXUXkXY.P.1.X.L J f f , 2.3X2.f f y q w h r r , , - - 1 2 1 , < < s b < $.E < < < p p p < p p p p d d s 6 4 d B d N N N a N d  .O. .| M N N d N B O.B B a g N  .M j L g L  . .L J L L f w , ; - # % > > 9 # # - # - # : : 2 2 : : - : : 2 # # o o # s.].o - - - - - - - , - , , , , , , , w q t t t t t t t t q , , , 5Xd.- , , , , , , , , e , , , , , , , , , , , , , q , e q , q q q q ! i q q q , , i h.{ } W W e ! 4X^ , u , R w., e , , e r , , , r z - - - - - - - , - - ; - - - - # d.kXO.# : : # # # # # : # # # # # # # # # % # : {.9 o : : : : - 2 e e , w , - - - - - - 1 - - - - - - , d.n - - - - - , - , - - - - , , , - - - r Q , , W e 2 2 - , - - - , e r - , r v ].lXv - , , , , , , e , # ].fXv - , - 1 r , , , , , , , , , , , , , , , q q q q q q , , , e r - , , , , , e i.U.# , - v w.r , , e ",
"# # - x z - - : : - - - , , - s , , , , - - r y y H y y ~ <.U L H H J Y J Y *.&.*.*.*.&.m.Y.>.>.v.N.x.B.B.F.W.E.W.E.:X:XF.F.H.H.D.n.l.>.l.l.j.j.z.z.H.Y.-.` P S y q w w r e , q t y H U H S H { <.U S H U U P I 3.U H S H Y 5.*.V.P.MXUXIXUXUXGXY.Y.P. .J H J f f J  .L f f w q h Q w w , r r 2 , 1 1 < < w E E s p p w p d g p p p p 4 p a p d j d 4 5 d d N O.N a N N a N N M | N N N a N N N N O.O.N N  .#.O.L g L  .L L L L f p < < - # # % # # - , - # : # : # : : - # # - 0.: # o {.].  z c # - - - - - - , , , - , - , , , , , , , q q t q u t q q , , , r h , , , , , , , , , - , , , , , , , , , , , , , , , u q q q q q q l i q q q , , t } D D T u F U } i q q , - , i e , , , - e e e - z r r - - - - - - - - 2 < , # ; ; 4 b < < # - - - # # # # n 9 o : # # # # # # : : o # : : # - n ].z , i h e , - - - - - # - - - - - - - 2 v 2 , , - , 2 , , - - - - - - - , , - - , , - , r - v v - , - , - - v Q - - e - ].mXv - , , , , , , Q r , # o - - - , 2 e , , , , , , e e , , , e i ^ i , e q q q q , , , e , , , , , , e v e , e e - - - , , - , ",
"- # - - - 1 - # # - , 2 e w , w h w , - $.]., w y f P U Y U Y 5.J L I I *.*.>.4.&.&.*.&.&.:.>.>.N.N.N.B.G.G.c.F.%X%X%X$XJ.W.K.H.H.N.j.:.:.) -.-.j.Z.H.Y.] [ ` P y t t , }.}.- t t y S H S t y ~ 2.K y ~ U P P ) ) b.<.H H U Y 4.M.b.kXUXIXIXUXbXn.Y.^...J Y L H J H w H J f K i w w w w w , < r < 1 , , < b b < j w w w a j j j f a j N j j j j j j 4 4 5 4 N N N %.N O.N N M a #.M N d p a N O.O.N j a 4 p.#.| #.L g g L j L L j p < < < # # o # # - - - # # : ; # # # # # # - t.2 # # {.[.& # o - - - - - - - , - , w - # # , , , , , , q q q q u q q , , , , - - , , , , , , , , , r h - , , , , , , , , , q , q , , q , , q q t q t q t q q e t t D D D D t t t t t e , , l r - , , , , v r , , z k 2 - - - - - - ; - - - - - - < - - < , o o : - : # # # t.0.# : # # # # # # # # # % 9 : , 2 n 8.n ].Q r v 2 2 1 - - - - - - - - - - 1 2 - , , - , v i.r , - - - - - - - - - - - - , , , , , - , , - - - , - , 2 - - , , r i , , , , , , , , , , , - - 2 v , , , , , , e , w , e v , , e 8.i wXwXq , , q q q q , , , , , , - w e , , , , , , , , - , , - , ",
"# # : - # x z # - - - v , , p h i i , - w.}., r E f Y Y Y P H P Y J I H I 4.4.:.m.m.:.&.>.m.m.l.l.N.B.N.F.F.Z.F.J.$X$XW.J.J.D.D.H.N.l.:.` ) ) ] j.k.j.j.] ) ` S y t t , w.u., i S y H S t y K t q q t ~ ` P ) ) ) &.P S U <.U ` b.P.~.MXUXUXDX|.^.Y.M.1.=.*.I P Y L H H X.J f y w h h w w w < < p s , , , w p h j L p p p g @.O.L a a g #.@. .o. .j 4 4 4 ; a d %.T.N O.N a %.zX(.4 M M a N O.%.#.O.N a 4 +. .#. .g N  .g f f j p < < < 1 - # # % : - - 1 2 # # # # # # # : : : # # # : o 2 0.# # - - - - - - - - - , e ].jXU.- , e e , q q , u q , q e , , - - , , , , , , , Q $., - E Q - , , , , , , , , , , , , T e q , q q u q q q e t q t q q q t t D D t t q q - , e , , , , , , , , e e - , - # - - - - - - - - # - - - - - - , - , # r.t.# : # # # # # ; # : # : # # # # # # # # # 1 2 r z r.NXIXFX'.2 r e 1 # - - - - - - - - , - # , , , R , , e , , , , , , - - - - - - e v , , , q e 2 - - v r - , , , - - - , , , , , , , , v e - - , , , , - - , , - , , , , , q , , , , , , e e r PXZX2 q R i , q q e , , e , q w , , , , , , - , , , - - , , , ",
"- 2 - - - 1 - # o - 1 , - , w w i w < , - # , w t H Y *.Y H P Y Y U J I Y *.>.:.(.^.:.;.^.:XB.N.l.N.B.N.x.x.c.Z.F.>X:XA.A.H.J.A.D.z.-.[ [ [ [ [ ] -.j.l.j.:._ S y t t t , , t y H H y t q S y t K U.F S U 3.:.v.v.) H y Y U L P P./.5.P.CXUXmX%./.N.N.6.4.>.*.J <.<.J Y Y Y L f y t q w p h < < < , < < < w p j L j g f f L L L L g a j  .X.X.X. .g j 6 ; $ 4 4 B B 4 N O.d B iX~.a M M N %.N N O.+.a 4 d 4 p g O.O.j O.p d p p < p d < , - # $ ; # # # : 2 > # # # : # # # : : - : - # - - : # - - - - - - - - - - , - BXUXmX- , e w , , e e q W }.8.e , , w.d., - , , , , , i v - , , , , , , , , , e , , , , q , R q , , q t q q q q q q t t t q q q t D t t , , t _.^ , , , , - , , , , , - , , - - - - - - - - - - - - - - - - - - - - - t.f.% # # % : % # o # # # # # # # # # # # # # : 1 z e lXUXUXUXDXA Q 2 - # : - - - - - - - - - - , r e i i r , , , U.R - - - - 1 1 , - , r , r r , , , , - r , , , , , , , - - , , , , r , - v , - - , , - - , , - , , , , , , , , , , , , e , , , i }.u.- u R u q q q i q q e , u w , , , , , , , , , , , - , , , ",
"- : , - - # o '.0Xo : - - < , , h r , , , e w y u.~ y P.M./.4.X.X.Y I *.*.Y X.:.*.*.>.M.V.B.x.B.l.N.B.-.>XtXc.^.W.$X$XF.F.D.J.D.z.l.j.[ [ [ [ [ [ j.b.j.-.` [ U t t q F K S S H t t t t t y K y F u.y t S ) :.N.b.) P Y K t H U L 2.{ P kXIXbX@.M.j.v.M.M.>.&.P Y <.I *.*.I Y H f t w w w w eXiXr b < , , , w j j f  .L J L f @.O.d d  . . .X.X. .O.%.d 6 4 4 5 5 4 5 d 5 4 B B M O.M O.~.N 4 a B B d 6 6 4 p a j j 4 < < p s < p h s < , - # # # # # : > > 7 o # # # % # # # # - - # : - # # - , - - 2 2 - - - , , , - 5XBX X, - , , , e e q # bXUXmX, e - i.U.- , , , , , , - - , e , , - i.U.- , , , , e , , e , q q q , q q , q q q q t t t q , q q t t t q , , e U.w., , , , , , , , - - , - , , - - - - - - - - - - - - - - - - - # # - # : : # # # % # # # : : # # # o # # # # o # # # : z h DXUXIXUXKXr.w.e - # - - - - - - - - - - - 2 b , b w.R e , e i r - , , - 1 2 - - - , , w e , , , , , , , , , , , - < , - , , , , 2 , - , , - - , - , , v r - 2 Q r - w , , , , w i q e e q e e # - u q , t q t u q q q e q , q i q , , , , , , , , , , , , , ",
"- - - - - - . qXUX Xo - - , - - r w , , , b w h /.2.f Y P.3X<.J Y U I X.J 1.P.I I &.m.>.x.B.N.N.c.x.v.:.>XtXc.G.c.J.F.:X:Xc.F.N.z.l.j.j.b.[ [ [ ] [ b.b.( ( ` U t t , /./.S H <.I.t K K t t y y S q t S P ( &.-.:.) P P P S t H f H 3.3.2./.5.1.4.>.:.>.x.:.:.*.Y *.*.:.X.I X.H f w w w f q eXhX|.rX# < < , w p p f L @.L g f j h j g g g J X.| |  .N 4 d 4 $ 3 $ o $ $ 3 ; d +.M B M +.~.p. Xd 6 d 5 6 5 6 d j d 4 4 s < , < s s s w w < - # # # # # > & o # # # : # # # # # # # # : : : z 2 , - - - , - - - , , , , , - - - , , , w r e e e - kXUXmX- , e e - - , , , , , , , , , , , , , v Q - r r , , , e q , , , , q q , , e , , q q t t t q q q q q q t q q , q q , e w , , r r , , , - - - - - - - # - - - - - - - - - - - - - - - # # # # # # # # # # # # # # # # # 9 > o # # # # # # : Q v 9XLXUXUXgX2 v v 1 # - - - - 1 1 - - - - , r v r w.U.e u.i , , - , , - , , - - - , e , e v E , r , , , q q y w q , , , - , , , , - - , - - - - , , , - , , - , , e w - , , , e i i e e q q u , q q e q q - t t q t q q q q q t t q , , , , , , , , , , , , , ",
"- - - - - z . [.UXUX'.o - # - - - , , e h w w t w P Y H Y f L X.J L ..I J ..L I X.J &.m.m.x.F.G.N.N.l.v.l.) x.l.c.N.G.F.N.c.N.l.l.l.j.z.n.j.] ( ( ` [ j.-.b.P t t t y } { H P U P.S S D D S S S H y S H U ` ) :.l.:.[ U H S y H H H 3.b.P H Y Y ..v.m.m.x.:.>.*.Y Y *.:.X.1.2.J p w w w h f f , p.p., < < r s w < f J L L J f w j h d j O. . . . .N d d 5 $ o O + . . o O $ 5 4 M N N M ; B .X5 o ; ; 6 6 s B s s 4 < b s - < p s s E s s 2 # # o o o o o o % % # > % # # : # # # # # # - z 2 , - , - - - - e - , e , , , , , , , , , i e r q , i U.l e e , r , , , , , , , , , , , , , , , , - , e q , e w , , , , e , , q , , q i W q q t t q q q t q q , q t t q , ! ! , e e , , , , , < r r - - - - - - - - - - - - - - , - - - - # # # # # # # # % # # # # # # # # # # q.c o o o # # o : 1 1 v v lXNXqXc n r 2 1 # # # - - - - - 1 2 , , r x , 9XmXr x r , , 2 2 - - , 2 - - - - - , , v E , r h w q i y K i w w - , - - - , , - - , - , , - , , , , - - , - , w r u.e , , , , , , e q q q q q q e , u.8Xu q u t q q ^ ~ i t t q q , q q , , e , , , , , , ",
"- - - - - - . '.IXUX'.o : # # - # , , r $.w w y y f Y Y X.L f Y X.X.Y Y J J J ..J tX3X&.V.G.G.G.c.l.>.v.v.l.-.l.N.F.F.c.l.N.j.:.l.l.j.z.z.j.] ) ) ) ) -.:.3.U y D F ~ H S P P ` S U S t G ! S G G S S U U ` ) :.:.>.3.` U U H U { ) P <.[ ` @.M.>.=.B.m.m.m.=.X.Y J X.X...X.X.f f h h w w f f p u.w < b 2 r w w p f L L L  .h w p p p d j g g M N a a M 4 ; O . . .   = & . $ d d d a d M 5 $ 3 $ $ # # # ; 4 4 6 ; - 6 ; ; 4 < s j E h s 4 $ # o # # o o * & o # # # # # # # # # - # - , # - 1 - - - , , , , , e , , , , , , , , , , , q q q q , # , v r - e , , , , , , , , , , , , , , , , , - - 5X].- e , , e e , , , , q q , e u i i , q , i u t t q , , t t t ! 0XU.q q R r - e r , - e 2 - # a.r.# - - 1 r - # # - - - , - # : # # A 0 # : # # : # # # # # # # # # o & % o o o o % % # - - 2 x i.i.n r E e - - - - - - - # - 1 v 2 - - - ].0XLXUXlX[.n - , r - - , , , - - , - , , - - - e , q w h f K ~ q # , e , , - - - - - - , - - - - , , , - , , - , e , e i.r - , , , , , q q q t q q q q , W U.u t u q q , 5XI.t t u F q q q e q , e , , , , , , ",
"- - - - - # - # ].'.# : : # # - - n 2 , h E K f H <.*.1.<.X.6.I <.<.I X.X.J X...J 7X(.&.m.^.tXG.l.j.V.>X:.N.j.j.N.c.:X:Xn.N.n.j.:.j.j.j.l.l.-.j.j.-.-.-.[ ( P H S U /.{ H U P [ P P U P G U G _ P P P P P ( ` ) v.) >XtXY Y Y <.` ` I P Y Y X.1.*.=.=.>.B.>.*...P f Y ..X.X.J f h h w w w h < w < p < s 2 < < w p L 7.1. .L L X.f p p p a a N N a d 4 5 5 3 o . .     X . . $ ; 4 4 4 4 4 5 $ $ $ $ o o o # - ; ; ; 2 x ; ; < 2 z s v z b s 2 ; # # o o o y.s.o # o # # # # # # # - : # 1 - - , - - , e r r , , , , - , , , , , , , , e e , , r e , e e r U.e , , - , - - , , - - , , , , , e , , - |.~.- , q , e e , , q , q u u , , i R q e e i u t t q , , t t t ].IXbXu e ^ E - , w , , - , , - z z - - - 2 z - - - - - - - 3 ; ; ; # c x # # # # # # # # # # % > % # > o o o o # # > 9 # x 1 - 2 , r r r , < - - - # - - - - # - 7 - - , 1 0.r.mXHX].w.v - - - , , - - - - - - - , , 9Xw.- e q e , t t ~ f u. Xs 2 < - , , , , , - - e , , - , , , - r e - , r e e , e e , , r e , , e q t q u t q t q , t t t t u t u t t y t u q q q q q q , e , , , , , ",
"- - - - - - - - o o # # # - - # - [.].# - p.U.U P *.1.I ..6.M.I =.1.*.*.*...1.*.X.H &.>.>.v.^.G.x.l.M.M.n.G.N.j.l.c.G.G.D.n.D.l.j.j.j.j.l.l.l.z.D.z.j.j.j.( ( ( P H I.2.H P P P ` _ P P P G ( _ P P ` ) ( ' ' [ b.` b./.) ` :.v.&.I H I *.Y X.Y *.&.>.>.*.=...J L L J X.@.Y H h w p w w w p < < < w w < < - , < p j 1.6.f J X.X...J g g g N N N B d 5 d 4 $ o . . . . . . O O B p.4 4 4 3 3 $ $ $ $ o o o . o : : : ; ; ; > 2 1 2 k > 0 x k s , # # o o o > > o o o o # # # # # : : : # # - - - - - , , , v , , , , 2 , - - , , , , , , - , , , , , , , w U.z - Q 5X- , , - , e , , , , , , , , , , - - q , q q q , e q , q , q e q , , q e q q - q ^ q q q q t t t i 8XI., q , e e , , , - - , , - - - , - - - - - - - - - # # : # # # # # # % # o # # o # # # # # : # # > # o o # # # % : # > # # 2 2 - - , 1 1 - - - - - # - # - - - - - , 1 r e i.5X, r e e , - , - - - - - - # - , ,  Xw.e , ! ^ , w f H f CXUXhX# < , , , , , , , - Q v - r r e , , , , , , , , e , q u , q q q q q q q t q u u q t t t t t u u t t t t t u t q q q e q q q q , , q w , , ",
"- - - - - - - - - - - # - - - - # hXlX# , L @.X.Y .. .X.X.J I *.>.>.>.>.) &.=.=.>.4.4.:.:.m.x.G.N.l.l.l.N.v.N.v.-.l.l.l.G.N.z.N.K.:XY.j.j.v.l.z.l.j.z.j.j.-.[ ( P _ S P ` U P P ` _ ` ( P ( ( ` [ ) ` ) ] [ [ :.3.[ P P ) M.V.>.4.:.I *.4.:.:.4.:.>.m.>.>.*.I H J 2.@.Y J t y h < w < w , < w < < , s w < , , < j L f f eX(...1...g  .@. . .a T.eXd d 4 $ # 3 O + * O o o * 3 B +.4 4 5 3 3 3 > $ # o o o o o % c ; ; ; ; s 4 - 2 z fXFXqXz s 1 - o o . o o o # # o o # # # # # : : # - - - - - - - - - , - - , - , r - - - , , r e , , , , , , , , , , , # , - r a.- , r , , r r - , , , , , , q q q q q t q t q q e q # |.U.- q , , q e e R q i ! i q q q t t t t q q u q u q , , , w.Q # - , - - - - - - - - - - - - , - - - # # - # # : # # # % o # # # # # : : # # % # > # % # # # # # # # > % : : > : - # - , - - 1 2 z - - - - - # - , , r r Q u.e e - U.e.# - - - , - - - - - - , # , h e r i , w K H H CXUXkX- , , , , r , - , - r v - v z , - , , , , , , , , , , , , , , q t q q u u q t t t q t t t t F t t t t F t t t q q q q q , q q q , , , , , ",
"- - - - - # # - - - - # - - - , , b Q w w y L Y <.2.@.@...I X.=.4.>.v.m.>.m.m.4.4.m.m.v.B.B.N.B.N.l.m.tXK.j.>.&.&.) :.N.G.N.D.D.D.^.^.tX7Xj.l.j.l.j.j.j.] j.[ ) P ( 3.P P P ) ) ) ` [ [ ' ` [ [ :.[ [ j.g.b.b.:.[ :.) ` ` :.v.>.v.v.>.:.>.m.>.m.V.m.-.:.4.=.*.P y L <.X.L w , w s b < < w w w w w < < < 1 , , < j  .f f eX3XX.o.X. .O.O.g j N %.+.a d 4 4 $ $ & O 8 0 $ o O 5 5 5 4 ; 5 3 $ $ ; ; # # $ o # o > n 2 < s s s < 2 - 9XUXUXUX{.# 1 : # o o > % # # # o o o # % # # - - # - - - - - # - - - - - , - - - - , 2 - - - hX X. , , - , , , , , , , , , , , - , , - , , , , , , , , , , q q q , , q i q q , q # - e ! R , , , q i e , e - I._., t q q q t t t q q q F e q , , - Q v , e - , , - - 2 - , , - - 1 - - - - # z 1 # # # # # # 8 & o o # o # # o # % # o # # # 8 # # : % # # # # % x : # # # # # - # 1 2 1 2 : : # - - - - - , e v , r v , - r , - - - , , - - - 1 - , - r , , , - , w w K L f u.3X~ y t , , , , , 2 , r , , , , , - - , , , , , , , e , e q , , q q q q t q t q t q t t t t t t t t t t F ! t t t q q q q q i e , , , e e , , ",
"- - - - # k z - - - - - , , , < s , , f H U L Y <.5.4.*.P.5.*.=.4.4.m.B.6.V.M.v.m.m.m.B.^.B.N.N.c.c.N.G.N.N.:.I Y ) :.n.N.N.W.K.D.D.N.7X7Xj.l.j.N.l.l.:Xn.-.] ] [ [ P ( P ) [ -.-.-.j.[ [ ] [ [ ) ] j.v.l.j.[ ) ) v.:.P ) ) :.>.v.v.:.l.N.N.-.tXtX&.:.:.4.4.*.H H P U Y J w < 2 < z 2 , w r h w < < s +., , < p j j f L p g @.o.o.O.j j d a N d p d d d 6 $ $ 3 $ 6 0 3 3 6 5 $ 5 4 3 3 $ $ $ $ ; - ; ; ; ; $ $ ; 4 s d h s s z - fXUXUXUX0Xo 2 % # o o # # # o o # o # # # # # # # # - # - 1 - 1 2 - - - - - - - : - z x - - - s.r.1 , , , , , , e , , , W Q - # U.MXi.- , , , , , , - e e q , q q e , q q q q q , }.u., , , , , , q i q i q R i q , q q t q q t q q q , e e e , , , , - r Q - - , - r w.- - , - - 1 , - - - # 2 1 # # # - # # % # # > # # o o 8 n % o A 7 o # # # # o o # # # % # > % # # # - # # - # - 1 - # o o - # - - - # , z - - 2 - r , - - , , , , - - - - , - , , , , - - z e , w y H U S ` U K q r v , r 2 - e , - e , e , , , , , , , , , e , q q q q q , q q q q t t q t t q t t t t t q D D t F t t q q t t , q ^ u , , e r i r e ",
"# # 2 k - z 0.- - , , , , , < < w f K f H ~ @.Y <.5.5.Y 5.M.4.:.=.6.M.m.6.m.4.v.M.M.B.m.>.m.N.c.G.G.Z.l.6.4.3.[ ) :.*.:.N.c.D.$X:XD.N.] ] D.N.z.N.n.l.D.n.j.j.j.j.v.-.-.n.) ] -.l.N.G.b.j.j.[ j.j.j.j.j.n.n.] ) [ P ` ` ) :.:.v.j.j.] N.G.c.l.W.R.:.>.4.*.Y Y y H U H L h w 2 2 - > 1 , < w w s s , 6 x # , , < h d h @.O.j g  .+.d p d j j d d d 4 4 d 4 ; $ $ $ 4 4 4 z d 4 ; $ 3 $ $ 3 3 $ $ < 4 s s s d $ $ # < s d h j d b r r.BXIXmXc : : # o o o o # o o # # # # # % # # # : 2 : - - - # n n - , - - - - - - - , , - - - # - 2 , , , , - e v , , , v e , 2 i.wXR , , , , , , , , r i , , q e q q q q q q , - hX}.- q q q q , , q e R u i q q q q q q q q q q q , , e i , , e , , , , , - - , - , 2 - - - - - - - - - - - - - : # # # # > o o % > o # # o 0 q.% o 9 9 o > # # % o # # o # > # # # # % # # 2 9 : # # - # 0.mX0X# z k - - x z # , - # - 2 , - - - - - - - - - , - , - - - - - # - q , < s f U { ` Y i , r h , , - - - - 1 , , 2 , - , , , , , , , , , , q t q , q u u q t t q u T i u u t u i t t F T t t t t t t t t t t , u e , E u.e , r ",
"- # - - # - - - - , , , w r < < w f U K f Y Y <.2.@.p.(.3X/.*.4.4.m.M.m.M.m.>.,.V.V.M.M.>.l.>XE.^.F.A.F.6.1.3.h.[ ` Y 4.B.c.D.K.J.D.z.k.k.z.n.z.l.j.j.j.D.z.S.n.j.z.j.j.j.j.] -.l.n.H.n.n.n.j.j.j.] j.j.z.n.j.) ) P ) [ [ :.>.:.[ ( ] N.G.N.c.-.&.4.4.X.J f y t ~ ~ h y h r , - # ; ; - 1 s , 1 1 ; # o % 1 < b b w w h d p p L j p d d j j 4 < d 4 d d 6 d 3 5 $ . 4 d d d 4 $ $ ; $ # $ $ # $ 4 d d d p s # # # < p f h f p s z 1 n '.n 9 2 : # # o o o o o o # # % # # # # # # # : - - - - - - - - 1 - - - - - , e , - e , - , , - , , , - e U.i., , , - - e h q - e q , , , , , , , e e , q e , , e u q q q q q e , , u i q q , , q R i u , q q q q q q t t q , , , , , , , r Q , - , , - , , - - - - - - - - , - - - - - - - - 9 1 # # # # % o # o # o # # # > # # o o o & # > 9 o o o # # o o # o # # # # x c # # # 1 o  XUXHX: - : - - e.s.: # - , , - - - - , - - - - - - - , - , 1 2 - - # - , , , < w y G S { w.R W , e - - - - - 0.n , - , , , , , , , , , , , q t q q q q q u q t q t q F i u t q i t t t u t t t t F t t t t t q # - , , e i i e , ",
"- z 1 z - - - - - , , , r r w w w h K L K K U Y Y h zXUXnX2...4.4.l.x.c.c.l.M.m.V.M.>.m.-.>.B.B.G.N.$XG.6.6.b.h._ ` ) :.N.G.F.W.H.Z.Z.z.k.j.l.z.l.j.j.D.H.z.H.:XS.z.S.H.n.z.l.j.l.z.l.l.n.j.[ ' [ ] j.n.z.n.n.' P ( P ) 3.3.:.:.j.b.>X:X) j.N.>.>.4.Y H H y t t i i h w r < 2 # o 3 c # - - 6 2 # $ o $ # 2 v +.s , < d d p j p f d p j b s d 4 6 5 6 6 d 0 m 5 t.6XB d d d 4 # o $ $ # o o # ; d d d j p < $ # ; d d f J p p s 2 x x r r s s 1 # # o o o o o # % % # % # # # # # # # - - - - - - - , - - - - 1 - - , , , , , , , , , r v - - r v n 2 - , 2 , # # i r r , , , e , , , , , , q q q q , e , - t q q q , e q q R q q q q q e q e q q q , t q q t q t , , , , , , , , - , , , , , , , , - - - - - - - - - - - - - - - # n z # - # # % # o # o o o > > o o o o o o # o # > o # > : # o # # # # # # # # : # : - - - z rX].# - - # - # 9 : # - - - - - - - , - - - - , - - - , , 2 2 - # : 2 , w , , , q t S q b bX}.o v - - , , - , 1 , , , , , - r e , , e , q i q q q q q t t t t q t t t q t q u t t F t u u.t t t t t D t t t t |._.e e , q r q , ",
"- 2 2 Q 2 2 , , , , , r w r w , E h w w f f h f f w NXUXnXp @.1.:.-.l.x.N.l.m.4.:.>.>.:.m.-.>.v.^.:X^.B.6.*.b.b.[ ` :.z.z.B.F.D.Z.D.H.F.Z.k.l.z.n.n.N.H.H.D.H.H.Z.D.K.:XK.z.k.k.z.j.j.n.( ( ] G g.j.[ j.j.j.Y.[ G P _ ` [ [ -.v.j.4X4XY.7X^.&.*.*.Y H H y f t w r v < s , r x # % o # # # # 2 ; o # o & > , 1 - - - - ; s s d p p p p p 4 < 4 ; 3 > ; ; 3 3 3 3 DXUX9X# m 5 0 0 O o # $ $ # # ; 4 d d j j p ; ; < b 2.f f f h s < ; 2 r r e < - # # # o o o o o 8 q.> > # # : > 2 # # - - - - - - - , - - - 2 e , , , , , , , , e q , r r - - , , - , , - e #  XwXi r , q , , , , , , , e q , , q , q , U.U., q q e q u R U.i , q , , , q , q , e , e q q q q t q u e , , , r , r d.e , , , , r - , - - - - - - - - , 1 - - - - # # # # : # # # o # # # o o o o # # o o % o % o '.c . o o > > o # # o # % # # # : 2 : : : # - - . # 1 # # - # x 2 - : - - 1 , - - - - - - - , , - - - - - - # - - : Q < , - - , , , , , v ].w.: e 2 r , - - - - , , , , , , , , , , , , R ! , q q q q t t t q q t q t t t 2.R q t u t u ! t t t t t S S D t t GXmX, , q q , , e ",
", - , , , r , , w w w w s r w < v < - , < < s h K h +. Xp.2.@.X.*.4.6.I H =.>.>.>.6.>.&.M.m.4.>.G.^.H.3XnXiXP.b.[ *.b.z.l.:.l.j.l.D.H.K.D.k.z.z.D.D.D.C.H.H.H.C.A.J.+XK.K.Z.D.z.k.j.j.) iX4XG _ ' ' [ ] j.j.b.( G P _ ` ` [ -.:.[ b.P ` yXY.P Y Y U P U U y h r , U.XXb < r - - - o o # & # # # % o # 9 > # # , ; # - ; 4 < < j L p p p p B ; # > > # o o & o % cXLX].$ 5 $ 8 3 $ o o & $ # $ ; d j j j j B < - < s p p f h s w 1 , , w w , - - # # # # o o o o # 8 % # # # # # : # # - - - - - - - - - , - z v , , , , , , , , , , , - - , - - , , - , , - o BXIXv , q , e w , , , , , r e , q t , q , u.u., e q e e q e u.i , q , , , , q q q , e e e , q , , u R i , , , , , Q U.e , , , - # , - - , - - - - - - - - - - - : # : # # % # % # # # o o o o o o o o o o o o o o c & o # # o o o # # # % % # # # # # # # # - 1 - - 2 1 - # # # [.f.# - - - 1 - - - - - - - - - - - - - - - - - - - - , , , 2 1 1 - - , - - o , , - Q ].1 , , - - , , , , , , , , , , , q q u q q q u q q i q q t t t t q i ^ q u t q t t t t q u D D S S S S y u.^ o - q q v r , ",
", w w w w w w w w w < w h r , < - # # - ; , s h h K f , J <.L L J @.#.6XeX7.>.4.>.4.*.I >.m.4.v.v.n.D.VXUXUXiXg.z.` U *.v.) -.n.l.z.D.K.H.c.H.K.K.D.z.C.D.H.$XJ.C.A.J.J.K.D.H.S.z.j.-.) yX4XD _ P G _ Y.b.[ ` _ P _ U P P ] l.] [ [ v.` P Y P P U U P P K K h - # NXUX9X# 2 - - : % o o # # # > $ # : 1 # # - ; : # # - , < < +.j g d p j +.$ # $ $ o . + o & > 0 m $ $ * $ . . 8 o $ $ o ; 5 4 s b O.p p N 4 # ; < < < p d p w r , , , - - - - # # # # o o o # # o % # # # # # # # # - - - - - - , , - , e e , - - , , , w , , , , , , z Q , - - - , , , , 1 i.U.w , e , , , , , , , , e , , , , q , e , , t , q , e u , , , q q , , , , q e ! ^ u e , , q , , e l e , , , , - , - r Q e - r v , - - 2 - - - - - - - - - : : # # # - : o # : % o o o o o o o o o o o o o o o o . . o & # o o # o & > # # # # # # # # # - - - - - - - : : % 7 A 1 : - - - - - - - - 1 - - - - - - - - , - - - - - - # - - - , , - - # - - , - , 2 , 1 - - - - - , , , , , w e , , q q q , , t t i u q q q u t t t q t q } U.t t t q t t q t t t D U U P U S F q q I.^ , e R u , ",
"E K t t h f f w < w w p s < , - # # # % # # , < r w h K $.L 5.L f L J GXUX!.I 4.*.*.X.J I *.&.4.>.>.v.MXUXUXkXj.n.*.Y ) :.>XY.:.j.l.G.K.H.D.K.K.K.D.Z.Z.H.H.J.1X,XA.A.+X$XJ.Z.z.n.j.) ` D G ` P S D _ 4Xn.( [ ` G G _ D _ v.G.l.j.v.:.` P Y P P U ) ) I P K q 2 # 9XvXT.# z r - - # # % # o o % : : - , 1 ; ; # # % > 3 - s s p.p.j j p p ; ; > o . . + @ + o o $ o $ & O o & & O o & $ $ 8 ; d 4 - < p 4 4 4 ; < , , 4 p s s s e , , - # # # # # # # # # o # # # # # % # # # # # o : - - - - - , , , w r q , , - , , - , e , , , , , - r r - , , , - - - e r # - , e , , , , , , , , , , , q q q W q e q q q q , e u , q , q q , , q , , q q i ^ - q i , , q , q e , , e , , , 2 , z e , - w. Xr - , , - - - - - - - o # # - # # # # % # # o o o o o o o o o 9 % o o o o o o o o # o & o # # o o # # o # # # # # # # # # - # - # - - # - o  XDX2 - - # # - - - - - 1 - - - - - - , - - - - - - - - # # # r.e - - # # - , - - - 1 - - - - - - , - , - e - w r , , , , , q q u t q t t q q q t q u ! t F t t t t q ! F q q q t t t S P U P U S q ^ UXkXo q , , q ",
"2.E t y y f f w w < p E w < , - - > o # o : - , s w w h E h J f J L f |.zX!.&.6.6.*.I X.X.I :.:.&.4.<.~.cXkXp.^.^.:.:.j.:.bX4XP j.N.K.N.z.Z.D.A.F.J.J.H.H.H.A.,X,X#XJ.J.Z.D.H.n.j.] ) P G U U S t D t P ( ( P G G D { /.[ n.l.N.H.] ) [ ` H P P P U U P H t w 2 # r.lXc # Q Q , , - # # # # # 2 ; - - , - # # # # # c 0.2 b s E u.O.O.p 4 ; > 3 . . + + X . & % O 0 O @ @ . m m o & $ . `.NX0 $ d .X~.p 4 s b < b b < 1 w p s r , - - # # # o o # - - - - # o # # # % % % # % > A % % 2 , - - , , , , w , , , - 2 z , - , , , , , , - , - - , , , , - , - - z v , , e , , e v e - , , , , , q , u u.q , q q e q q e , , , , , , , , , , , q , , - U.|.e q , , , , , , , , , - , , - - - , , 2 z , - - - - - - - - # 9 0X0.o # # # % # # # o > c % o o o + o o & # # o o + % o o o o o o o o & # o # # % 2 # # 2 # . # # # : # - - # - - # o c f.- - 1 r.2 # - - - - - - - - - - - - z z - , z , - - # % : z , - # {.HX].# - - 2 - - z r - , , , h v , - U.u., e e e i e q i q q 2.^ q t i T t i } ! t t t t t t t F i u u t t t t t D G G G S t i  XU., q q , , ",
"K t L h f h w w p p w f f r < - - % # # # ; < w w w p f f f f f J J L ..I 6.>.m.Y.=.:.=.X.*.4.4.:.4.4.2.6.4.N.N.n.l.-.:.>.b.v.>.>.>.-.tXpX-.Z.F.Z.J.J.K.D.z.D.D.H.H.c.N.1X7Xz.z.D.j.] ' P F u q t , U.I.G G S S S t ~ Y.[ j.k.k.l.l.j.[ ` P S t t w y t q q v , # a.lX8.- , e , 1 ; - # , 2 < 1 1 1 - - z n # # # ; < 4 4 s d d f j b p 4 ; $ $ & 8 O . . + 0 = . = . . X @ = $ $ ; 3 o Z {.3 . XXUXIXs.; j L h j 4 B z , r h s , # - # % # # - # - 1 2 < < b 2 # # # # # # % % 9 2 - , , < , , , , , , , - - - 1 1 , - , , , , - , , , - - , n e - - - - - z z , , , , , , , , , q , , u , , , q e , q e q , , q e - , , , , , , e , u.^ , q q , 5X5X# , , w , , , , e , , , - - - - - , , - # , , - , - - - - # # 9 qXq.o % # o # o o # # % $ # o o o o o o o o o o o o o . o o o o o o o o o o o 7 8 2 # # & y.XX# o # - # : : : - # o y.gXy.# - - z 2 - - - - - - - 1 : - - - - x z - - 1 - # - # - 1 - - - # 9XUX[.o < - e , - , r - , , , u u , , p.w., , , q q q t t t q ! T - # e ! u D / D t t t t t t - U.bX! , u t t t t D S G G G F t , , R u - , , ",
"f y U h w y , p p , , @.O.- # # - : . # # - < s w w p p j E h f L J J Y *.4.=.;.6.>.4.:.1.5.4.:.:.*.:.v.m.V.v.v.v.:.:.:.) ) [ [ >.l.-.:X1Xz.J.F.F.Z.Z.D.H.C.C.z.c.H.N.j.iXiX] z.H.H.-.:.G t q q t q U.I.t S S S S t U U ` n.S.z.G.n.j.[ G S S t , , e q q r e - 1 - o - v v , , , 2 b - 2 w.< < 1 - r.|.hXBX# # , < j p d p g j  .O.d d 4 4 3 o m T.. o . + . . .   .   . @ O & 3 5 5 4 ; # $ o .XUXLXa.< j J j j ; ; 2 < , f w , ; 9 : # - 1 - - , r s < < a.A o ; ; : # # # # # z < , e , , r , - e e , , - - , , , , , , , 1 8.e , , - - - , - - - - 2 r - , e , , , , , , , , , , q q q , , q , , e q q , e , , , , , , Q l , e , a.w.- w w q , - e , , h h , - e r , , - - - - - , , - - - , , , , - - - # # # # o # # # > # o o o o # o o $ # # o # o o o o o 8 o . . o % o o & o % # # % o o % % # # #   hXUX].& # - # : : : # #   hXUXNXo - - # - - - - - - - - 2 - o - - - - - - - - # # # # # - - - , - 2 w.- - - - - - , - , - - , , q e , , - , e , e , q t t t t u q , R u., u t t t t t t t F t q , I.8XF q t t t t t t y S U U t t D t q h u.i , ",
"w h t y t p.p.w , ~.6Xs < r.[.9 o # rXT.o ; < < < w p h E E h f K J J J 1.=.=.6.m.4.*.X.*.2.<.X.X.*.>.v.v.v.4.4.*.) :.>.-.v.:.-.v.N.n.-.-.F.K.J.K.J.H.S.z.S.z.D.D.z.n.l.-.[ n.D.z.j.[ G I.} t t t t t t y U D t F S G [ :X:XH.S.Y.v.g.P :X{ t q q q t t w w , e , 1 , , v r - , 1 , - < s e.< 1 s 1 +.f.T.].; < < w w h d j  . .L j p d d d 5 ; $ & . . . . . . .     . . + O $ 3 5 d 4 d d 4 4 p |.].d h f L E w < # # r w w < - ; 2 - - 1 - - , , < e s , - - , 1 , , , , - , 1 - , w w , r - u.p.$.^ - , - , , , , , , , , r v e - , , , - , - - - - , - , e , , , , , , , e e , q q , q q e , , , , , , e e , , , , , , Q R , , , - - q e , e q q , , , , , , , , - , - - r - - - - - , 2 - - , , - - - - - : # # : # # # % : # # o o o # # o 3 > o o o o o o o * % . . o o o & 9 o o o o # o > # o # # # # x ].{.c o # # # # # : : o q.fX'.- - - - - - - - - - - - # r.].# - - , - - - - - - - - - - - - - , , # , - - - - , - - - # - , , - , , , , e , , e , q i u u F t q R BXPX}.- u t t t F F ! ! q t F - - y t t t t t t t y D U S t D t t q ^ 5X, - ",
"p r w y t P.p.f w p.}.- < GXUX9X  o [.q.o - , , < s h h s p s w h K f J Y ..=.4.1.X.J Y J J 5.6.J :.>.:.4.4.4.X.H Y *.v.n.n.j.n.j.j.z.n.D.K.K.H.+XA.F.j.] z.k.z.z.j.j.] P ` b.V.-.[ ( P _ F t t D U G t t U U D S 3.Y.j.4X4XH.H.j.j.j.' 3.K q q q q t t q , r h w , q w w , < < w Q ~.v , w w r r < - - # # s d < w p j @.#.o...J L MXkXp p 4 ; # o . . . . . . . . 0 & . & O $ $ ; 5 d j a j j N - 4 j j f L j p 4 t.$.1 w w w < - 6 2 1 r w , < , w h r , 1 , < , < , < w , s h w f y , w i , w.u.u u , , - - d.kXv - , , , e , , , , , - , r e - , w.r , - , , , , , , , , , , e , , q , e w.e , , , , , e , , , , , , , , , , , , , , , e , , , , r r , , , , e v , - - 1 z - - 2 , , 2 - , - - r.z # z 2 # # : : # % # # # # # # o o o o # > > > o o o o o o o o o . . . o o o o o o o # o # 8 % o # # # # o   # % # # # # : o c 0.: o o # - - - - , - - - - - - - # r.s.# 2 2 - - - - # - - - - - - - - - - , , - - - - - - - - - - - , , , , v , , e , e , - q - # i u.u , i.UXUXhXo u t t t ! ! t t t D u F F t D y t t t t y K ! ! t u u t q q e U.d.- ",
"}.e.- , w w q h h < - < ; lXHXs.  : o - - , , , < s h w < w s w w w K f f @.1...I ..J H H H /./.f Y :.*.:.X.L J y I <.3.>.v.b.j.] -.n.H.$XF.H.:XJ.Z.k.yXuX] z.z.n.n.n.] P [ P ) :.[ [ G t t D t t G _ D D G U U G Y.tX[ 3XwX3.S.b.[ [ } S q q , , q t t t e b h q w q q h y w b , U.mXE - , , < , ; - - ; s s w p L f J  .@.1.o.J O.GXnXa O.B 4 ; # o . . . . +   `.LXxX+ O $ o $ 3 d d O.#.g o.o. . . .f H J p p O.IXMX- w y r 2 - 4 2 < w w t w y h r r < - z $.< w t i h w < w w w h R i w w q , q q , , , - i.hXR - , , - v Q - - , , , , e , , r Q v , , , - , - , , , , r , , , , , q q , , e e , , e W r , r , , , r , , , , , e , , , e , , , i r , , , , , e , r , - - - - r , - - - - - - 0.z # - : # # # % % # # # # # # # o o o o 3 Z o # o o o o . o o o . . o . o o o o o . o # o o o o # # # % % % % # # # # # # # # : % : # - - - - 2 n # - - - - - - - , - - r z - e , - - - - - - - - - , 2 - - 1 , - - - 2 , - , - - - - - 2 h 2 2 - , e e , ! u., W }.^ q u u e wXlX^ , q t t t D D t D F t q }.U.t t t u q q t u i i q q q q q u , R LXHXr ",
"d.9 # - < h e , < s 1 1 # # 9 o # - 1 2 < , , 1 2 2 s < - < r < < E s w L L X.J L  .L f f L f J J X.*.4.*.Y J J L P Y :.[ ` [ ] ] ] z.z.K.>X>XH.K.tXD.tXuXj.z.n.z.z.j.[ ` G S P ( [ ` G t t t t t y } G G G U U ' S.+XY.BXHX3Xn.b.( P S y q , , , , t t i h , w f y t t y f h p p h K w h h w w s 4 - - , 2 s w w u.|.@.L X.X.=.1. .%.+.N %.d 4 6 > % . . . . + . {.UXHXZ o $ o 3 6 5 s N  .o.o.%.7.|  .J g f j p j lXrXf $.L w < - < , < f f f f y K y w < , s E w q q t y K u.h f w K 2., e e w i e w e e l , - o - ^ v - , - - , 9X].- , , , , , v - - - , , e r , , , , , w.b r , , , , , , , , , , , , e , , , , , e , , , , , , - , , q , i , e , , , , , , , - # , , - - - - - - - - - - - - # - - # # # # # % % # # # # # # o o o o o $ 3 o o o o o o o o o o . . o . o o o o o 0 0 o # & o # % # # - # # : # # # # # # > # - # - , - - - - 1 n # # - - - - - - - - , , , 2 r , - - - - - - - - , , # - , , - , , - , w.R , , - - - - , < - n n - e e , u.U.- DXUXwX- u u u - # q u t t t t D D t t t t D } ! D t t u t q q q , , q e , , , , q e rX9X, ",
"# 7 : - - , - - - 1 : # % o . # : - 1 2 < , < < s 4 < ; n 2 1 1 < b ~.E < f j g J L X.J f f Y @.Y H |.LXeXy Y U Y H S P Y P P :.>.) ] l.K.1X>XD.H.>XG.) ( N.D.H.S.k.( G G S S S P ` _ U K t q q q q , , I.b.D S ' C.>XbXUXUXZX4XP.P S t q , , , , w i i t q q q h t }.bXU y f h h t w f f h w h h s ; 1 - , < s p E p.@. .L J  .#.%.N j  .O.d p 4 > $ + . . . . & & T.q.5 5 3 3 > $ ; d O. .o.o.%.%.|  .J g J L d h w w L ~ L w E }.E < h h L <.<.J f f w < w < , q q ! U.i u u.h y f y w w w , w r w q u o v p.- , - r , , , - - e BX9X# , , , , , , - 5X X, , , , e Q , , , w r v , , , e , , v W , , , , - , , - , h h , , , , , , , e , , , , e , , , , , , , - v bXU.# , 2 - - - - z - # - - # - - # # # # # # $ % # # # # # # o o o o o o o o o # o o o o o o o + . . . o o . o o & 8 o # % o o o % # # # - : # : # # # % c : - - - - - - - - - # # - - - - - - - - , , - - , - - , - - - - - - - - v rXr.- , , - n U., v i w , , , , , , - - e.w.- , q t t , , MXIX5X, t t i t t i t t t t t D D D D t t D t t D D D t q u R q q , , , , i i , q , # # d.",
": 9 # # # - , - - # # o o # o % 2 - , 2 < , < , < 2 ; 2 f.z : : - 2 T.+.- d f p J @.L g L J L X.X.y 6XLXeXq Y <.I H S S S K P Y *.&.:.l.l.l.z.H.z.k.n.:.l.l.j.N.N.n.g.G G S D P G G ` U y t , , , , R ^ K ! S S _ S.H.P.MXGX/.I.b.G S t q , , W d.w.K y y y q t f t I.4XH y f #.p.f f f f w y h E E < , - - - < h d w d j f f  .N N O.O.j a +.+.4 ; $ $ + . . o 8 $ ; ; d d d 3 0 0 d d N O.#.o.| |  . .J g j g  .@.g L L f J h h u., p.eXL J *.1.I L L J K w h w w u R I.i , w y f K h w h w , - , w w , }.6Xv - - , , - , - , , - n r , , r E , , , - BXmX- , , , , r e e - , , , , , e , , , r r , , , , , , , , , e e , , , , , , , , , , e , , , , , , , , , - v mX].# , , r , - - r , - 1 - n c # : o x > # % > # o # # # # # o o o o o o o & & o o o o o o o o o . . . . $ Z & o o o # o o o o # # # # - # # # : # # > # ; : : # - - - - - - - , 2 1 - - - - - - , , , e 2 - , 1 - - , , - - - - - v hXi.- , , - z i.v e q q e , e r , , , - - , , , , q , q e v i.t t t t t t t t t t t D D t D D D D D D D t D t D u , u T e u e , , , r r e q , , , w.",
"# o o # - 2 x : # # o o o # o % > # - ; 2 1 , - ; ; ; ; # - - : - : # 1 s < p w f L L X.X.X.X.Y Y 5.#.L L L U ` P P P S t h y y P ) :.l.l.z.D.N.z.c.j.:.:.j.j.l.n.j.[ _ P y S P P G } ~ K q , , - 1 mXKX8., U ` ` b.S.b.3X3XU } U S t t t q , v u.q q F K K K t t K f t I H y J X.f f f y f h f j w < < ; # ; < s < d p w f p d N d j a p O.|.b - # # & o o o o 3 5 5 B O.M d m 5 d d M j j  . . .N g  .L L L g  .@.o.<.Y L H f f w w @.!.Y X.I J ....X.1.Y L ~ h t i u q , q u h f L K h , r , s $.q i i bXmX# , e , , , - , - - - - - , , , r , , , - Q v , , , , , - , , , , - , , , , , , , , , , , q w , , , , , , , , , , , , , , , q - - e , , , , , , - , , , o - , , , e , - - - , - - # 2 7 o # # c 2 % # o o o # # o # # # o o o o o o 0 8 . o o o . o o & o . . . o % Z & o o o o o & > o o # # # # # % - # # # % # : z # - - - - - - - # , z - - z 2 - - - , , w < - z , 1 , , - # - - - - - - o , z , , - - - ^ v t q e i w e , , , , - , , , q q q q i q , t D D t D t D D D t t D D D D t D D D D D D D t D t t q , , i e e e , , , e , , , , , ",
"# # # # # # % # # o o o o o % % # # # # ; ; - < - # ; - # - z 2 # 2 s < < w w w f L @.X.X.X.1.X.I 1. .p f L P P H H S y q q q y H Y 3.v.N.l.c.H.z.c.n.-.j.j.-.-.l.-.[ ( P P P P _ P U S y q , , - , hXBX^ q U P 3.j.S.n.>X>XG G G G S D t t t , , F U y y y y K 2.K f L <.Y H f f H X.J f K f w w h s - - , < < b w p w +.2.p p p j d 4 p B B < ; # # # # # # $ 4 4 d O.N d +.d |.FXqX6 d j g N  .j g L L J  .L  .J X.X.J X.L H J L L f q Y 7.=.....I ^.M.*.X.X.H f U K w q q q ~ <.P ~ K E w , h h t U @.U L w , , r , , - , 2 1 - - - , , - - , , , e - , i , , - , , , - , , r r , , - , , , q , q , q e , , , , , , , , , , , , , , , - W Q - , , , , , , , , e , , , , , , , , , , , 2 - - - [.{.# o > # # # # # o # # # # > % o o o o o o . o o o o . o o o o o o . o o o o . o # o o # o > > o # # 9 n # - # # # # % # - - : # - - - - - - - # - - # 1 z - - - - - , r - 9XHXiX1 - , , 0.n # - - - - - 1 , , - , 2 i w u ! i q e , w e , , , , , , q e , q , q u q t t t t t t D D D t D D D ! D D D D D D D U t t t t u u , e , , e e e , , , q , , , r ",
"# - - - # # o o o o o o o % % o o # # o # > # # z b ; < - 1 ; ; - z s < < d , U.~.J X.X.*.7.6.X...I ..X.L f f f y y y H K D t t H U [ :.j.N.W.K.H.J.z.j.] ] -.v.M.j.[ ` _ _ P U U S S S t q e , e , q e , t _ [ ' h.n.j.b.b./ / G G G G D t t y q ~ ~ t ! } , p.VXp., L L I Y I H y L Y L f , f w s w , < - t.$.< w w w j j w s d d w w < s ; < 6 ; # # ; ; ; 3 6 p j N N N O.4 iXUXCX4 b d d d p g L o.X. . .1.=.I =.4.*.X.X.X.J X.X.U J X.=.=...!.uXV.=.6.*.I I P H y w w < t @.2.P H L ~ q w w t H H P U y u.r , - - , , - z ].- , , , - , , , , , , v v , , , , , , e e , - w.w., - U.Q - , , , q q q q q q , , , , , , , , , , , , , e i v , , e e , , , - , R e - w , , , w , , - , - - - 2 DXDX: o # o % # # # # # # # o q.c . o o o O o o o o o o o O % * o . . . + o o o o & 8 # o # # # # # # # c q.# # # # # : x # # # # # - - - , , - - - - - - r z : - - - , < < < DXUXJXs # < - 9X[.. - - o # , , - - 1 - v kXi., h q u w - , , , , , q , , , , e q q q t t u t q t t F D D D D U U D F D t D D D D D I.R q u t R ! q e q e e , e q q , e , , , , ",
"# - < , # # # o # o o # o > > # o o & o o > $ # 3 s < s 4 < 2 , 1 w r w w s p O.@.f J X.=.6.1.*.=.*.I Y H t y w w h U K U S y y K P P ) j.D.W.$XH.Z.H.N.j.n.l.v.v.>.P P _ _ G ` Y H S S t q q , q q q t t D G [ g.g.g.( Y.4XG G P G G / G G D U K S S y >X3Xt ~ U.h w f f I I Y 2.(.@.L L @.7.f y w w s < s e.$.s w f f w < s b s s p < p s 4 ; ; > ; ; ; ; ; 4 s j #.#.#. .O.d .XCXT.d j d d d h d g  .1.1. .o.X.6.m.6.=.X.J ..Y Y Y P I X.*.1.J (.pXM.&.>.&.&.I Y U f h h h y H I I H H q t f y U U Y I Y J 2.2 2  X$.# - - 1 v - - - , - - - , , , , , , , , , , , , , , , 2 , e - - U.W - , , , w q , i t t q , , , , , , , , , , , e , , , , , R e - , - , , - w w , , , e v i r r 2 - - : : a.s.> % # # # # % o o # # # # 1 7 o o o . o o o o o o o o O O % o o . o o o o o # o o o o # # # # # # # # # # # # # o : 2 - # # - - : # - - - - - - - - - - - n : - - , w < +.9XNX9X; < < ; 6 : # # : ).n # - - - 2 - - f.w.- , , e e , , , , , , q , i v , , , t q t t t q ! ! t F D D D t D t t t D D D t D t t D q t t t i F q q , e e , , q q , , e , , , ",
"9 # , - - # > % # o o # o o # # o o + . . o $ # o # 1 s d < , 1 - 1 r p a j O.p p p.7.=.*...*.*.*.4.m.I Y @.y H K L H H U P H S H H P -.l.D.F.K.J.J.D.j.v.n.>.v.:.) :.` Y ) Y.:.` Y t U K t t u q t t t t t P _ ' ( ( ] b.M.( G P ( ( b.b.G S P ` P H U ` ` Y y t w q t @.2.5.X.<.3X3.J f P.iXK w J f J p j w p L p h p p < s v s d j O.j p < < 4 ; 4 ; ; ; ; 4 a N #.#.%.o.#. .~.p.< B B j p d d d j %. .L  . ...1.1.1.<.Y H Y X.Y *.Y *.X.=.=.=.&.I =.6.6.:.=...I X.H J Y @.X.Y X.I P y y f y Y Y P Y Y H L h # r yXd.o - , , - , - - - - - - - - , - , , , , , , , , , , , r , - , , # - , , , < - n i.w h t q , , , w r , , r r , - , , , , , , , , , , , , r , r e , , , v i t q w.W , - - - o o > # o o # o o o o o o - d.0.# # . . o o o o o o o o . o o . o $ o o o o o o o o o o o o o # # # # # # # : # # : : % # # - # # - # - - # : x - # - - - - - 1 - - , , , 2 w.r , - 2 4 - - - - - # # ].n % 2 - - - - - # 2 , , , , , e R e , ^ ^ , w R i q , q t t t t q q i i q t t t t t u q t D G G D D t t F q q i u q q , q t q u u q q q q , , , , , , ",
"> # x z - # x : # o # # # o o o o o o o . o o o # # - p  .J t r r 1 s O.a g L p L nXeXy X...&.>.>.M.M.I :.*.H U Y U H P Y H U U H H v.^.j.N.J.G.W.K.F.l.:.:.) Y.>XP Y.Y.P ) >X3.( P Y.{ t K q t t t F t t D ` 3._ ( ( [ ' ' b.[ ' [ ' [ 3./.[ P _ Y P Y Y Y H H H t q t J L <.<.*.S ) I P Y p.X.L L @.....g  .L w f p p $.j < w d p N O.O.j p p d 4 4 4 $ ; 4 4 a N N  .o.#.#. .g p b B j d j N O.d p O.p d g L ..X...X.2.Y @.<.U *.*.*.4.:.*.:.*.&.>.>.>.>.6.*.J X.*.Y J H X.*.X.*...Y H H L U U Y Y U U y w w - - r , - , - s 0.- 2 1 - - - - - 2 , - - , , , , , , , , , , , , , , , , , - , , - r BXIX[.- w , , , , e , , , , , , , - , , , , , , , , - r r n e - , , e i e i.hXrXw.l r , - - - # # # # # o o o o o o 7 : 0.r.: o . . # o o o o o o O o % o o # o o # % o o o o # o o % # # # > % % % # # # : # # : # # # # # # # # - - - : > - - - , , , , , - , , , 1 - i.u.q i < : % - - - # # # # # - 2 - - - - - - - - - - , , r r i t E h , , q - - t e q q t q q q , q q q F u , } u.q t G G G G G S S F t t u u t q q t t q t q q u e , q , , q , , ",
"# - 2 2 : : # # o # # o o o o o o o o o o o # # ; 1 , L ..;.R.o.| N p , < w f j #.(.7.*.*.*.*.=.4.m.4.>.=.I J Y X.H 5.5.H J H H H Y v.m.N.G.F.F.K.F.J.N.-.l.:.v.b.S ` 3.*.Y P ) ) P 7X5.t y t t t ! U t D G _ ' [ ' j.n.n.j.j.j.] [ j.[ [ 4Xb.( P P ` ` ` ` P U S t y t y L f I *.*.<.U H J J ....J *.*.*.......p.@.f f L j p p O.j j j  . .j O.j a d d ; 4 j d a N |  .| #.#.g g a O.e.O.d j d j d p p f j h J L X.L f K f L Y U X.X.4.6.4.>.*.*.*.*.>.>.>.!.^.I X.*.1.I I I 4.4.I X.*.Y L U Y U U U P y f w < , - , , - , - z 1 # n 1 - - - - r n , - , e e , - , , , , , , , e , , , , , , , e - v GXUX X- w w , , r , - , , , , , e r , , , , , , , , , , , , - # - e u e n BXUXUXjXr e 2 , - # # # # # # o o o o + + & # o ].t.  . + # o . o o o o o 3 ; # # ; o o o # o o o # o > > o o # % % % # # # # # # # - # o # # # # : : - - - - # # # - q K t u i u , , 1 r 2 - ].].w h < : 8 ; # - - - - # # - - - - - - - - - - - - , , w e i q h w $.w.- u.U., q e q e e i q q q t q i u t u i }.! S P G D _ U y t t u t t t e q t q q e q , e e , , e w , , , ",
"> # # # 2 x % # o o o o & % o o # o o o o # $ ; 2 4 p X.;.W.AXpXo.N #.~.s < f f L J X.4.6.>.=.m.V.>.>.6.m.=.*.I I <.P.5.*.P I P H ) :.N.N.c.l.z.F.J.E.F.N.N.N.l.v.yX/.P ` I P ) P ) P G G S S t t F F S P ' [ [ g.g.k.S.S.k.j.j.g.j.j.j.j.G ' ` ` G P S Y.Y.D H H y y y Y P H U J *.*.X.I J Y J *.=.*.*.4.:.*.*.6.*.X.X.J f L J f  .#. . .g  .@. .j p s.CX}.; N N  .| X.7.1.@. .g j d d j d p p p p f f g g j g g J g p w f w f Y Y *.>.>.4.m.>.>.=.&.=.>.6.V.M.X.*.=.4.Y I Y *.*.Y X.Y *.X.J J P H H U f h p , , , - - 1 - - - - , - - - - - - - - z r , , , , , , - , , - - , , r , , , , , , q w , w.U.s h h , , - e , - , , , , , , w , , , , , , , , , - - 2 # o - q i , ].UXUXUXKX8., 2 - - # # o o # # o o o o o . o o # 0 > . . . # o . o # # + + $ a (.!.; # o o o o o o # # > > # # # # # o o # # # # # # % # # # # # # 9 x # # - - # % - i i h r e R i u e r W ! 1 0XrXw $.E s s < - , - - , - : - - - - - - - - - - - , , , e w q t ~ w p.5X# 5XwXo R ^ , , l ! q q e u q t u F t F I.F t S G G b._ t t q q t q , , , q q q q q e , , , e , r R w , ",
"% # - # % > % # o o o o & > # o o o o o # # ; ; 2 < h o.o.>XAXAXo.p e. Xx ; f J J J =.6.m.>.:.m.^.m.m.m.6.4.*.I ..m.4.:.b.I Y Y I ) :.b.l.N.^.l.c.N.N.N.D.G.N.:.b.iX/.P *.I P P ) ) S P U G G U S t y P ( [ ' ' ] g.g.z.S.z.k.k.k.g.z.j.g.g.' ( 3.U S U b.5.y K S K ~ Y U <.U J I I I =.X.*.*.=.:.:.v.>.m.4.>.>.*.*.4.1.=.X.1.X.J J o.X.#.o. .J  .@.#.T.MX(.4  .o.X.| o.1.o. .@.d j d < < p p p p p g L g g j L L g f @.@.w f f J X.&.>.4.>.:.>.6.:.&.>.m.m.m.4.4.X.X.*.Y P I H J X.1.*.*.Y Y U H H H P f w < , , , , , - - 1 , , , , , , - - - - , , 2 , e e e , - , , - r Q , - v r , , , , q t t F , - r - , , - , - - , , e , , , , , , , , , , , e , , n r - - # - q i q 0.FXUXUXcX2 2 1 - - # # # o o $ o o o . . . o # # . o + & # # o o # # # + o o %.AXpX4 o o % & o o o o o # % # # # o # # # # # # # # # o # # # # # # : % : - : 2 # # , ^ R r q.'.n T R i i K u.v hXyX$.I.5.@.h s w 1 , - - - - - - - - - - , 1 - - , , - , r i q i y q q i w , r r i e , e , , , , , t q t q ^ F u t t y U G U D t D t q q t t ^ ! , , q q q e q , # , , q v wXQ - ",
"# % : # # # # o o & % . o # % % o o o o # # ; , ; 4 d d | ,.(.R.N g < - < 4 L Y J 1.4.>.:.>.,.>.m.x.m.m.>.m.:.&.*.*.4.v.:.&.) 4.4.&.>.:.l.N.G.z.G.B.c.N.N.G.N.>.>.I *.3.H P.Y.M.M.P ` ( _ P U P P S S P ) ] ] ' j.z.k.H.H.k.k.k.k.k.z.k.j.j.[ ( G S P 5.P y H Y 5.U ~ Y U <.Y J *.4.*.&.4.>.:.4.*.>.m.l.l.v.4.&.4.=.&.4.M.4.=.=.6.=.X.o.o.o.J J J o.7.X.f o.o.X.o...X.7... .j j d p w < p d j p p f L  .J  .@. .g g J L X.y f J J 1.=.>.m.m.>.:.>.>.>.>.>.4.M.M.*.J H I J Y P H H L <.*.*.*.Y L H H P y w w < < , , , - , r - , , , , - - - - - - - , e e e , - - , , , , v Q v e , , , , , , q F y q h r , U.w., - - 2 n , 2 , , , , , , , , , , , , , , , v r - , - , q u i r s.jXhX0.2 k - - # # o o . Z {.& o & o . . o o o o % % & o # # o # # o . + $ N 7X|.; # o o % # # # o # : : # # # # o > 7 o # # # # # # # # # # # # # # # # # z : : v R , `.HXIXNXr.F ! W u.U.f.NXBX}./.Y.b.L f w < 2 , - - , # - - - - 1 - - - - - , , , e u i q t t y u i w , r , , , , , , , , q q e q q t u u t t t F D t U U t t q q t t BXwX# e q q e e , r U.n e q e i e , ",
"# % % # # > # o # # # o o o # # # # % o # $ # - ; < < p a N N g j p < 4 s d J L Y X.=.6.=.x.B.m.V.m.>.m.>.m.m.m.>.4.>.>.:.4.v.&.*.v.>.>.l.l.l.c.F.G.F.F.F.B.x.:.&.&.:.H H /./.^.Y.P ( _ ` } U P P U 3.` ) ] ] k.S.z.z.S.D.z.C.k.C.C.k.k.n.b.:.[ P G U S H Y U ~ 2.U t S Y S H Y :.:.:.:.>.:.>.&.&.:.&.4.m.m.>XM.I =.*.4.M.6.=.6.6.=.X.X...X.o.X.X.X...=.1.1.X.X.o.X.=.1.J L J p p < p p h j d j f g g  . .X.<. . .J X.L f K L H Y 1.=.;.>.6.6.>.>.m.M.>.:.:.>.*.:.*.I Y U L L H f P Y X.*.<.2.Y Y H K y w w s < < , , - 2 z - 2 v , - - - - - - - , , - e , , e , , , , v , - v i - , , , , , , i q q i , , 6Xi.# 1 - z i.- 2 , , , , , , , , , , , , , - , - , , , , , , 2 z v e , , r z 2 - # # # # o . 0 y.o o 8 & o o o o o o o o # # $ $ > % # o o . 4 p - < $ o o . o % % o # % # # : - % # # % > # % > # o # > % o # # # # # # : : # > : - e e r DXUXUXUXrXu ! i R ~.DXUXUXGX|.2.~ L h < w r < , - z z - - - - - - - - - - , , , , q i t y h y y ! i t q , e e , r r , , e , , q t t t t u t t t D t I.I.q t i u q u U.w., q q q e e - w.GX].- q e , , e ",
"# # # # o # # # # o o # > % o o # # # # # $ - ; 2 , < < %.p.j j h d g g g L <.X.I J *.6.,.>.x.m.V.m.6.6.m.m.B.V.m.,.>.m.x.>.:.:.M.m.:.>.x.l.N.B.F.:XW.E.F.N.>.>.*.I I nX7XJ I ) ) 3.P _ P G G ` ` ` ) ] j.j.j.D.H.S.k.k.H.H.C.D.z.z.S.z.z.[ v.` P U P U Y U S t y K S H H U U U &.-.l.>.v.v.:.&.I I &.4.6.:.Y.m.&.&.>.6.=.,.,.6.6.=.=.o.=.,.X...=.o.=.=.,.7.=.=.=.o.X.....L j p w < w p j j p f  .@.X.1.1.!.!.H X...Y Y Y f Y U Y *.&.&.>.M.M.>.>.m.m.,.m.6.>.>.*.Y X.<.Y L L Y H H J Y J H @.J ~ f L L y r s , , , , - # # - r v , < - - - - - - - r w., , , r e , , , , , , - - , , , , - , , q e , , , 1 - # 1 r - - # 2 2 , , , , v e , , - - - , , , - , - - , , - - # - 2 r h v r 1 : # # # # o o o . . # o o # o o o o o o # ; ; 2 8 $ 2 > % o o $ - - - # $ 3 o o # # o # # # # # # - - # # # # # % % # # % > % # # # # # # # % % # # # # , e v DXUXUXUXhXi u.|.rXNXUXIXUXUXCXiX5Xp.e.s < w w , - 2 z - 1 - - - - - - - - , , , , e q y y K U H U i q q q q q , R v - , , , , q ! F i u u u t t t t F F t t q q q q - - e , , q , e , e i.k , q , , e e ",
". . # # # # % # % % # # % % # % o o o % . # ; ; 2 e w < p.%.4 d O.| =.o.*.*.M.=.I ..=.m.x.;.>.m.m.6.>.>.m.M.m.V.m.x.m.m.m.x.V.^.m.:.>.B.m.m.B.B.F.E.F.E.F.m.>.*.*.I *.bX7XI *.*.:.` P P P P P _ P ) [ -.z.z.D.H.D.D.k.k.K.$Xz.Z.C.k.k.S.N.-.) ) ) ) P U U y Y Y H U H H H H Y <.:.v.B.l.v.v.v.:.&.*...=.4.V.*.*.:.4.>.=.>.=.6.7.=.X.=.=.6.6.=.=.,.=.,.=.6.6.6.6.,.1.=...@.L f p w j h p h L 7.L J X. .J #.7.p.Y J Y X.L H y f U 4.m.=.:.>.M.M.m.6.>.>.>.*.>.4.=.=.*.<.Y H L L L H H f H f w w w w y f L h w , , , - - - - - - - - e r - - , - - - - r Q - , , , r , , - - - - , , , , - , , , , e e , - - # - - - - , - # 0.v - - , 2 r , - , - , , , , , - , - - - # # # # # - , , , - - - # o # o o o o o o o & # o # # # # o # # - s 9 # 0 : 7 7 $ $ $ . . + + o $ o o # # # % # # # # # - : # # # # : # # # # # : # # % # # # # # # % # # # # 1 h r  XPXIXDXi.T d.9XkXHXUXIXIXUXJXkXeXp.+.v , < < , < , # - - - - - - , 2 , - , , , - , w i h K U y f y q q q q , , , , , , , , , q i R ^ q t u q t t t t t t , q q q q q , , , q q , q e , - , , , , , v r ",
"'.y.. # # % % # : : # # # - - - # 9 > % q.6 ; ; < s h L a a g N X.=.6.=.:.*.=.=.=.=.>.>.;.>.6.m.>.4.=.=.=.>.m.m.m.B.x.x.B.x.^.V.>.>.:.m.B.B.B.F.E.F.F.E.F.m.m.*.*.=.4.I 4.v.>.>.:.I P S P P t ( P ) n.K.Z.D.K.K.H.Z.D.z.k.J.J.Z.Z.C.>X:Xz.tX:X( :.) ` 3.` t /.4XS U Y J I H P <.:.>.m.>.>.l.m.>.*.I (.CX!.m.V.4.*.6.m.*.=.=.6.6.*.X.=.1.7.,.7.=.o.o.=.,.M.6.7.=.=.=.*.1.1.L J j p j j L f w 3Xp.w J L L  .f f L J Y X.L f f y H 1.M.&.:.m.m.>.6.m.>.>.>.*.=.4.4.4.*.Y H f h L h w f f w w w < w w y h K y q w < - - - # - - - # , , , , - - - - - - - - , - , , - - - 2 0., - - - , , , , - , , , , , - # - 2 , # 1 2 - , - - - - - - , - - , , - , - - , - - 2 - # # : > : # # c 2 # # # - # o o # o o o o o # # o # # # # o o # # 2 z 9 qXvXhXq.7 > ; o Z Z o o # o # o # # # % # # # # # : c 2 % : - 2 % % # # # # # # # # # # # # % : # # # # 1 r i v d.[.8.R ! R l W [.HXUXUXHX|.$.~ E $.$., w w w < , , - - - - : - - , , , - - - - , q w h y K K K y , w q , , , - , , , , , , q q q q t t i q q u t t t q q q q u q , , e e q , q , , , , e , , e , , , ",
"[.'.. % ; # : : - # # - 2 2 < < ; z 6 2 ].b - < s h %.L j L  ...6.,.,.>.=.1.1.6.6.>.,.6.=.=...=.1.=.1.X...>.,.,.m.B.B.B.B.B.x.>.V.V.>.m.V.V.B.B.F.E.E.E.F.B.B.:.:.4.m.Y.m.m.B.>.:.` P S y U I.H ) j.D.K.J.>X:XH.H.Z.C.OX$X#X#XA.A.H.1X>Xz.1XK.j.l.l.-.b.:.U 3.3.) *.P I Y b.*.H *.*.&.&.) &.&.>.m.) Y.iXM.:.4.v.:.*.:.=...*.>.4.=.X.X.X.7.7.X.=.=.,.,.M.V.6.o.o.=.=.....o.J f  . .j L f f J f J J f f g J J @.L f J ..H J K f L J *.>.,.6.>.*.*.>.>.>.=.=.*.:.1.X.H H f f w L K w w w w w < < s s h h U R R r e - - - - - 2 : # - - , - - # - - - - - , - - - , , - , 2 Q , - , , , , , , , , e q , - - - - - - - 2 2 - 2 - - , - # 2 - 1 , - - - - , , - , , , - - # # : : # # > % o o o # # # o % & o   '.].o # # o o # # o o # : z 2 XXUXUXUXhX1 z # . NXFXo # # # % o # # # # o # # # : o ].r.# : - : : : # # # # # # # # # # # # # # # # # # # , r b e , l v l l W u.U.].DXDX[.U.u.$.E K h K p w h w , , - - - - - - , , , , , - - - , , , w i t h t w.|.w , , , , , , , , , , q , , q q q q q i R t t t q q q q q t q , e u e , q e q , , , , , , , , e e ",
"o o % # # # - - - - - - < w < s < - < s ; < 4 d h j N d h h X.1.6.4.*.Y J =.6.6.6.6.m.6.6.=.*...=.1.1.J I =.>.,.B.E.E.E.E.B.x.m.m.m.6.m.>.>.B.B.F.E.E.J.F.G.B.m.>.>.V.B.B.B.c.l.>.v.) H H U b.P >.l.z.H.+X:X&XA.J.J.A.+X=X=X=X*X#X+XA.+XJ.k.k.H.D.n.l.j.j.:.( P v.v.` ) S 3.:.I I H I I :.4.:.:.4.4.:.H :.4.&.4.4.>.*.&.&.>.:.4.*.....X...6.iX(.=.7.,.6.R.M.!.,.=...!.7XJ J J @.p.L X.f f f L g g f f f  .J j f f L f J L L J J ..X.6.m.>.*.&.*.*.4.M.4.*.*.*.*.I Y Y L f t w h p w w w < r s < s h K K U ^ h e - - # # # : # 1 n 2 , , # # - - - - - - - - - , , , , - , - - , # d.Q - r q q q e , - 1 : - - , , - , - - , - . 9XhX- - - z U.2 # 2 2 - 2 , 1 - , , v - - - 1 # # # # # # o o o o # & o . 0 Z o o o . o # # o o o : s 1 hXUXUXUXNX1 l : . `.{.O # q.y.# # # # % > % # # : : # 2 1 - # # : : : # # : : # # # # # # # # % # # $ # # # : - - 2 2 2 1 1 1 r i 5X0XrXrXn i.$.r < w r h w w s w < , - - - - # - , w e , - - - - - , , w w w w , v i., , , - - , - , , , , , , q e q q q - wX5X# t u q t , q , , q , , q , q q q e , , , , e q , , w r ",
"- # o # > : # - 1 < < < < w p < w s 4 d d p p d g a g j h p L 1.=.X.5.eX!.#.=.,.m.m.M.^.M.=.6.*.*.1.X.I I =.m.m.B.^.:XW.E.F.B.m.>.>.m.V.V.>.R.E.E.E.E.$X:X:XB.B.>...M.B.B.c.B.N.l.b.*.P H P P I ) :.n.D.J.J.A.J.A.A.OX#X=X=X*X,X&X+XOX&X$XH.K.H.H.z.z.z.l.-.:.:.:.v.j.>.>X4.I ) H H X.I :.4.&.>.3.M.4.*.4.&.I :.&.*.>.:.:.:.:.4.:...X.o.J 1.MX7X&.6.=.>.^.P.!.=.1.L 3XuX, f  .J L h J X.Y X.@.X.J J f j f J L J J J L @.L L J f <.*.*.4.>.*.....*.1.4.:.*.*.I *.X.X.L L f f w s p w w s E h < 1 r h R $. X[.E $.v 1 : # # # # 1 n 1 - - - z - - - 1 - - , r # - , , , - , w - , - r r 1 , q q i r , - - 2 , - e l - - - - - , o [.9X- - # 2 r.- - - , 1 - 2 # [.NX X, - - - 1 o # # # # o o o o o o o o o o o # o o o o # % o o % # 2 2 '.HXUXLX{.2 l : o = * $ # 2 7 % : - # # % > # # # # # - - - # # o # > # # : : : # # # # # # > # # : > # # # - # 1 : : # o - , , u U.a.rXrXs E s < r 2 w , < w , < , - - # # - - - , w < , - - - - - , < w , < < w < - , , , , , , - , , , , , q e q q , q q w.! , t t t q , q q , , q q , q q q e , e , , , e e , , , , ",
"- : # # 8 : # , w f h p p w w p d p p p j  .%.1.J  .f  .%.j N @. .J (.ZX7XX.*.>.6.m.V.>XB.:...X.X.X.*.>.>.,.;.(.tXE.:XW.E.E.B.6.:.>.m.^.^.,.x.E.W.F.W.%XW.E.E.R.=.V.6.m.B.N.N.N.v.:.:.` P *.<.*.4.N.n.z.z.K.:XJ.C.A.+X=X,X*X*X=XOX#X+X$XK.K.G.D.z.z.D.c.z.j.>.>.v.j.-.N.7Xm.I ) I J Y Y ) &.:.[ *.3.*.X.X.X.I &.&.) ) *.<.` ) :.>.m.M.=.=.X.J =.6.6.>.=.6.7.4.X.X.p.p.kXeXf K L w p f L L X.Y Y L f J a d p.1... .J Y 2.@.J H H L Y Y 4.*.Y Y ..X.*.X.*.X...I ..*.X.Y J f p p h p p L L 2.h 2 > 2 ! ^ cXUXIXiXO.E < - - # # # # # - # : : 9 : , - b < - - n n - - , , , e , r e - - n z , q q r e - - - - - , , z - - - - - - , # o - - - 1 # - - - - - # - o cXUXBX# ; - - : f.A . # o % 9 # o o o # # o o o # o o o # o o # # 7 9 > 2 2 t.sX].1 z 1 : # A B : : # # ; : o q.r.o # % # : 2 - - 1 - # o 0 &   # # o # : % : # 2 : # # # # # # # # # : 1 : % # > q.: - , , h w 5X|.i R w w w < < < , - , - , - ; n 2 1 : , , , < , - - - - - 2 1 - , , - s r , , , , e , , , - , , , , q u , q q q t q q t t q u q q q q q q e e , q , - , , , , , , , , , , , , ",
": # : # % # ~.p.w H J g f j p j L g g #.eX#.7.p.o.o.L a N N a  . .X.X./.7.X.=.=.>.m.M.>.&.uX>XJ ..X.6.M.m.x.m.^.>XE.E.E.E.E.B.,.m.m.B.m.x.x.x.E.E.E.$X%XE.B.R.,.iXLXuX:.B.N.N.v.v.:.-.) ) ) 4.>.G.Y.z.z.z.K.$XJ.&X#X%X,X,X*X=X#XZ.Z.$X+XK.D.S.z.z.n.z.z.D.j.>.*.` j.] -.) *.:.4.*.I I ) I I <.U P ` <.` U X.&.) >.&.) P U L L Y =.4.>.=.X. .X.=.>.>.>.*.*.=.&.X...f /.UXGXH L L E p p j J f L Y L f L L j @.J J L L J X.L L f f L L X.Y Y H y f L X.P Y Y I X.*.X.Y L g f p p w w h O.J y w 1 : 1 t 5XUXUXUXPXu.i < - : > o # # # # : : # # - - , ; , ; o x DX Xo - , , , - w , < < , , , w w , , , - - - - - - - - , - - - - - , , - - - : 2 - # - - - - - # s.jX].: : # # # r.c o % o # & # o o o o # # o o o o # o # # # > # o 0 9 > 9 - - 7 7 7 # # - - # # - : % # 9 8 x 9 # % # # : : : s 1 # o 8 FXFX{.# % % : # # % % : % # # # # # # : # o o # 2 : o c {.2 - - b $., U.p.u.u.< s w r , r , - - - ; - - 2 - - ; , - , , - - - - - - 2 2 - - - - , - , e e , , , , , - , , , , q q q q q q q t q q q q u q q q , , , , q e , i 5XQ # , , , , q , , , , , ",
"% # # % # - n E K L J  .X.#. . .o.| | #.p.1.o.%.7.g j j a 4 a j J X.I J J J ..4.6.>.&.>.>.M.6.=...X.=.6.m.V.B.x.x.B.E.E.W.E.B.>.E.tXB.x.B.B.B.E.E.W.:X$XE.R.R.m.nXUXiX;.N.c.N.l.-.:.:.&.&.:.>.) ( N.C.z.l.z.Z.H.$XA.&X&X=X=X#X:XiXuX$X+X+X+XC.D.n.v.j.G.:Xj.:.:.>.-.j.:.) :.*.v.l.v.4.Y U H y y H U P P I *.v.:.*.:.I P y f L X.1.1.*.X.J ....=.=.=.*.X.X...&...=...1.6X|.X.Y J J w p w p w h J L f $.P.w f f f g f f f f j j f @.p.y f f f $.j f L H H J I ..@.X. .f p p p s w w h h h y y ; # 1 q }.UXUXUXGXu.e 2 - > > o # # > : # # : 2 0.1 - # , 1 - 1 f.q.- - - - , , , , , w , , , , w e < , - - - - - - - - 1 - - # - - - - # - 1 # # - - - - 2 2 2 # o # o 1 # # % # o # # > > o # o o % # # o . o # # o o o # & > 7 % # # % : : 1 : : 2 ; - : # ; ; n A % # o '.f.o # % # % - : # 2 n - # # o jXUXIXc . > c # # % o o # # # # # o # > % c x o - % : 9 % - 2 2 s h < $.E E b , , 1 1 ; - i.z - - - - - - # . - - - , , - - - 1 - - - 2 , - - 2 r , , , , , , - , , , , , , , q q u u q q q t q q , q q q q q e , - q q q , v wXw.# , , , , - u.}., , e ",
"  9 9 # : - < h L Y X.....o.1.o.o.1.=.| | !.7...%.6Xe.d 4 p g g  .....J J Y I =.=.6.*.&...I *.6.=.*.=.=.=.V.R.m.x.x.x.m.B.B.m.m.B.>XB.B.B.R.E.E.E.E.W.E.W.E.R.^.^.>XE.R.B.F.F.B.B.N.m.N.l.v.) 7XtX-.n.l.j.D.z.$XJ.J.$X,X=X#XOXtXUXIX:X+XOXOXOXS.l.>.) M.H.k.:.&.&.:.v.>.>.M.^.:Xj.n.:.P y t w w t y H _ ` ` &.H I *.Y P y y f j o.....X.L J J X.*.4.4.=.X.&.;...6.P...I I =.I Y f f w < p < w w s j f f f f f d p p p p w d d p p h , < w w E E f h K f J X.L g f d d p < < w s s p < p w h 6 % 2 l r qXIXUXBXn r 2 - # o o c c % 2 % # - 7 7 # ; - - - , - o # - - - - r b , , w q w w w , , r 2 - , - 1 - - - - 1 1 - - - - 1 # 1 - - 1 # # - - - # n x : : % # # : : # # > % # % # # # # # # > > & % 0 # o o o o # o # # o & & o # # # : : ; - 2 2 ; - - - t.r.o # # ; # # # % % 2 # # z - # 2 - # o % hXsX# o # # # # o o # # o # # # o o o . jXHX[.. : # % # - 2 , < < s , , < < z v - ; - 2 a.s - : , - # # 2 ].z - < - - - - - - - - - , - - n x - 2 , - , - - - - , , , , , , , , q q t q e , q q q t q e e e , i I.u , e , , - e e , , , , , E U., , w ",
"o > 2 # : , < j L @.X.1.1.o.=.o.o.,.,.=.=.7.7.| o.eXe.p a 4 p j L  .J Y X.X.Y I I =.X.*.=...=.6.>.*.*.=.6.V.^.;.>.,.,.x.m.m.B.E.B.x.R.B.B.B.B.B.E.E.J.F.F.E.E.G.E.B.^.W.W.:X>XW.J.D.D.J.B.m.&.iXnX&.:.G.^.D.N.D.D.J.J.,X,XOX=X:XbXiX@X+XC.A.S.n.l.v.j.z.k.j.l.>.v.l.H.N.G.V.:X>Xj.v.` U y q w w q t H Y :.[ 4.7X*.I Y U y q w h f J ..L L L  .X...=.4.=.=.6.x.,.6.6.M.:.4.>.*.*.J f s f.+.< - ; < s h w h L h h p < p s < < w p < , w < # a.[., < p h f J  .L p p p d d < < 1 1 < ; , < h s ; > # 2 r & NXUXDXk 2 1 # o o o > 9 # # # # # : - # x 0.- # - - - - - - - - 2 v < , , , r r w r < < , - - 1 2 : # - - - - # , - 1 1 - - - # - # : - # 2 r - - # : # # # : % # # : o # o # # # # o o # # # % c % o # o o #   ].s.. o # o o # % # # 2 6 2 ; ; < , , # # - % # # # % % o # : # # 1 - , , , - # # .   o # o o o o # # o o o o # # # o o   qXUXXX. # # # # - - - , , < < 1 - r.].6 , # ; 1 # - : 1 # : z # 6 ].x - - - - - - # # - - - - - # r.e.o 1 , , - - , - - , , , , , , q e , , , q q , q q , q , q e , , l U.i , , e , , e , , , , , , e - , , , ",
"- o o % # - < s O.f , o.=.=.=.....=...6.7.| o.p.#.a O.j p p j j j 2.@...1.*.X.<.M.1.J *.4.7.=.*.=.4.4.=.=.6.>.>.>.>.m.,.&.m.m.E.E.B.B.B.B.N.B.B.E.E.E.B.^.E.G.F.E.W.W.W.E.E.W.$X$X%X>XJ.K.F.G.l.:.>.) >XnXH.z.z.K.&XJ.+XA.OX=X*X+XJ.+X:X>XD.j.b.b.j.k.k.>X>X) -.z.z.H.H.D.N.m.&.v.n.` H U U y i t y H Y H I 5.>XY U P f f t t f f J X.X.6.4.X.*.*.=.>.>.6.^.V.M.m.m.!.m.m.4.*.4.<.f h p.s # ; # - b E s w s h s < , < < < 1 s < < < s 1 # 6 0.2 - < p h f g L j d w < < < 4 - # ; # ; < 4 2 % o # 1 2 & `.jX].1 z : # # o # # o # o o # - # # # : 2 - ; - - 1 n - - - - - - < , , , , , , p s < - - # # # # # : # - - - - - - - - # # # , : # - - 1 - # - - - : # # : # o . o # o o o # o o o # # o o o o % # o # o o 0 s.8 o o o o o > > # # < < < s 4 4 < < < - - # # > 9 % # # # # # # # - - , - - : # # # # # o # # # o # # o o o # # # # % o % A : # : % % # # - , - , , 1 1 - s z # 2 - : ; , 1 1 2 1 ; : # : o - - - - , - - - ; # 2 k - 1 2 hXhX> 1 - - - - , - - - - , - , , , , q q u q q R F q , q e , , , , , , q , , , , , - , , , , , # 9XmX, , , ",
"- # # % # # ; s O.|.3X .o.o...| ..o.!.M.o.X.#.#. .d O.d p p d f L @.o...X.<.<.<.2.5.X.X.6./.*.J 4.P.6.=.4.6.>.:.R.V.6.M.^.M.m.E.E.B.B.m.>.x.B.B.E.E.W.R.E.F.c.c.F.J.E.W.W.E.E.W.F.J.%X#X$XH.D.l.j.z.l.K.:XN.z.D.:X:XJ.+XOX+X=X,X<X=XOX1XVX>Xj.b.k.g.k.g.7X4X:.j.j.H.K.K.Z.n.*.I P ) P P H S S S q y Y E Y <.*.H U U H f h t t H J J X.X.7.6.X.=.*...6.m.B.M.V.m.x.m.>.V.^.v.>.X...J y w , # ; ; # s d 1 1 < s r < , - 1 2 , < < < w 2 - : # % > ; 4 s w p d g p w p d < < - 6 y.> # $ $ ; ; # o # - - > % o - 1 - : # # # # # # % # # o # : - # # # - 1 - ; 4 v , - , - - , 2 2 < , - - , , < < 1 - # # # # : 9 # - # # # : - # - # # # # - # . - 1 # : 1 # # # # % # o 2 y.> o o o o o o o o o o # o o # o # o o % o 9 c . o o o o o o % o # ; < < < 4 s < < < , - - # : 2 % # # : # - # : - 2 - - 2 r.- # # # o o # # o o o o o o # o # # o # # o . # # : > 8 A : ; - - , - : - : - # - - - : - - ; - 2 - # > 2 - # - - - - 1 , - c 0.# - - 1 e.hXUXUXrXv - - - - - , - - - , v r - , e , e i , q w.! , , q u e , , , , , , q , , , , - - , , , , - a. X, - r ",
"- o . o : # < ; d PXUX(.p o.o.1.o.X.7XP.g o. .g p p p p d f a j j g J Y X.1.5.*.J X.X.*.=.=.*.=.X.X.=.X.=.=.,.6.V.V.,.m.tX!.V.B.B.R.>.B.pX^.;.V.E.W.W.F.F.W.E.c.F.E.E.W.W.$XE.!.tX7XE.G.E.F.N.l.j.j.H.z.l.N.G.G.D.D.H.+X+X#X=X,X,X-X&X:X@X+XH.+XD.g.] -.) ] v.n.v.-.n.H.n.N.j.) P *.` ` P S D S S t K f nXkXw I *.I H t q t H U Y J ..*.*.>.=.....=.!.6.,.m.m.>.;.,.m.m.m.>.>.*.J f i r 1 - # : # 1 1 - - - 1 < < , - 2 < ; , 1 1 s < - 1 > o o : ; s < w d d O.p d p s 6 # 8 q.& o o o # % # # o # - # # - , , # # o o 9 x # - : o # # # - : # # # : - < , - - , , - - - - x s , - - - , , - 1 6 ; # # # # # : # # # # - # # # # # # # # o n ].: o n n # # # # # # % o c XX8 . o o o o o o o o o o # o # o # # # # o % & # > & o # # A > > c - - d E p h s p w 1 1 , # # - # # : % # o # - - n 1 - - 2 - # # # # # # # o o # # o o o % o o # o o o # # : : > c '.9 2 : - ; : # : % # # 1 # # # # - - : : : # 9 2 - # # - - , 2 - # : : # - - 2 2 a.BXNXa.2 , - - - - r 1 - - , z , , e , , , , q q , q , e , , r e , , , , , , , , , , , , , , , , , - # , - R ",
"o 8 `.A 2 ; ; - ; hXmXp.f #.#.7.%.1.o.o.o.| g p j d p p g J g g j L X.1.4.1.*.*.....X.....X.o.J f g  .J H =.6.M.B.V.m.>.M.^.m.B.B.m.>.4.4X^.B.R.E.E.E.W.E.F.E.E.F.E.E.W.E.:XE.iXUXJX(.=.M.x.m.l.-.-.j.n.n.n.N.G.D.z.D.H.A.+X*X=X=X-X&XOXC.+X@X+XC.j.:.:.k.k.C.l.V.iXuXM.l.n.n.j.) I ) ` U P U D y y L J 3X(.H I X.*.U y t f U U Y Y J I *.>.=.....=.7.*.=.=.1.=.=.6.m.>.>.>.*.X.@.J y r , - # # - z v - # : - , , - - ; ; ; - , , < , - - % % # : ; < p < p d O.O.p p.B - ; # . o o o o & & o o o & > # # - - z 9 # % % % : - ; # # : : : # # # # : - 1 - 1 b 1 - , - - - , - - # - # - ; < , , - # # # # # # # o # # # % # # # # # # # # o c [.> o > 2 # # # # % o % % # # o o o o o o o o o # o % > # o # % # # % # # # o % & o o # 8 % # % ; , Q ~.O.w h O.s < v 1 - - - - - - # # 0XT.# - , - , # # # - : # # # o # # o # # o # # o # o o # o # # % : 9 & s.lXq.2 2 - : : # # # # > # # : : o # - # 1 c : # # # # - - # - # # : # # - - : z - . d.d.o 1 , - - - - 1 : - , , - , - - l e , , e q q , q , , e , , , , , , , , , , , , , , , , , , , , , , , , ",
". s.IX{.# 2 < 2 ; b %.d #.o.#.o.o.o.o.o.o. . .j j p a f o.L L g g j X.1.1.*.X.1.=.>.4.*.=.=.J 7.zXeX5.1.P.*.>.M.V.V.V.>.m.^.B.B.B.6.6.>...^.^.B.W.W.E.E.E.W.E.B.x.c.E.W.W.:XE.nXUXLX!.=.m.=.>.m.>.:.:.l.n.n.l.N.n.k.z.H.J.+X#X&X-X-X#XOX+X+XK.D.C.n.z.k.C.C.S.] tXUXUX/.) j.k.z.j.>.:.` [ H U Y U H I <.J I 4.*.*.:.I H y h f f Y J J I <.I I X...@.1.1.*.X.=.*.=.6.m.:.>.M.4.X.X.h h r - # # - 1 r r - - : - - , : # # # # # ; b 4 4 1 - : > # # ; 2 < < < 4 j d p d.+.# ; 6 ; # $ # o % $ o . o o % # > : # > 8 % % # # - 1 - +.n o # - : # # : 1 - - - b  Xs - 2 - - 2 - - : # - - # - < 1 , - # # # # # # % # # # : # 9 2 # # # # # # # # o # # o o # # # % # o # # # o o o o o o o o o o # o # % # # % > # # # # % % o o # o # # o # % 2 : s < b $.P.2.h h < s , - - - - , - : # lX X# - # , , - , - - 2 - % # # # # o o # # # # o o # # o # # % 1 # n  XDXUXNX X9 # : c > # # # % # 2 A # n n % # 2 c % # : 9 # - : : # - # # z 1 - : - 1 r z r.n - 2 , - , - - - - - , , , - yX].n v - , e e , , e , , , , , , , , , , , , , , , , , , , , , , - , , , , ",
"o > '.c - , ; ; < s.|.p  .L  .1.o.7.o.%.7.o.#.O.j a j L 7.o. . .j g J ..*.:.X.*.*.=.m.m.=.*.w eXUXJX7.(.VX7...M.m.V.m.x.m.V.B.,.M.>.=.4.6.m.m.B.W.W.:XW.:XE.F.E.^.F.E.F.F.$XW./.iX4X:.N.N.N.B.B.>.4.:.:.N.H.n.z.l.j.z.D.H.J.&X*X*X&X=X&XOXOXD.S.z.S.D.K.:X+Xz.n.>XCXnXm.:.z.k.l.H.K.n.3.Y H t U ~ Y &.>.) :.:.:.&.) I Y L K y w H f f Y b.m.5.Y f @.#.L X.X.J I X.6.4.m.m.m.^.X.p h s 2 # # # ; , < w w 2 - - - # # % o # 0 3 # x 6 , < 2 # # # # 1 - b p.< 4 d 4 4 # # < ; ; ; ; 3 $ o o o o O @ + . . o o o o # % # # # , < , $.$.% - : # : # : r.# - < 1 s < # - # # > : # : - - - 2 r < < 1 < , # # # # % > : # # % # x x # # # # # # # # # # # > o # # # o > 7 # o # o o o o o o # # o # # o o # % % o # 9 9 # # # # # # o % 9 % o % > n 1 2 z b E wXP.h E s s , - , - , - # : - o # - # : 1 1 - - 2 z s 2 : # # # # % & o > # # # o > > # # % # # x [.a.hXLXqXq.8 # : : : 9 o # o > 9 : # t.r.# : # # # # 9 '.- # - : # # # % : n z # # - 1 a.2 2 2 1 - 2 , - - - - - , , , - wXU.# e , e i e , e , , e , e , , , , , , , , , , , , , , , , , , v , , , , ",
"# o   # - , - - - < 4 d p g J o.X.o.%.o.%.7.1.#. . .#.#.X.X... .o. . .....*.....*.&.>.>.*...L p.kX6X .M.!.4.6.,.x.m.m.m.,.;.m.V.m.m.*.=.=.6.,.m.W.W.:X:XW.:XF.^.tXF.B.E.W.E.W.l.) j.H.J.J.K.H.D.v.v.-.-.z.l.z.D.N.z.S.H.J.+X&X%XW.$X#X-X-X+XH.D.N.D.D.D.K.D.H.N.:.V.4.>.n.n.N.v.N.D.D.) /.GXmXY U 4.v.-.:.) :.>.I *.<.<.K f w w f f J X.` 5.M.H w f h @.@.H J J X.1.*.M.V.>.Y f w w ; - # o ; < , < w w < ; - # - # > 8 # 3 > # # ; 2 d d 6 # # > < 1 s b s 6 4 $ ; ; ; ; < ; - < < ; # o o o o + . . . o o . o # o # 8 : - 1 < - , , - : # % 9 qXHX].2 # - ; < # # # : : # # # - - 2 z r < 1 - - ; ; # # # # : > # # o o # o # # # # # # # o > > # % # o o c 8 % & o # o o # o o o o o o o o o # # # % # # # x 2 # # # # % # # : > # # # # - 1 2 z v e.MX6Xh E s s w w < - - r n , , - - - - 1 2 - - - - 2 - - - # # # o > c o # # o # # : % # o # # # z 0.o c 9X> # > : # # % > o # o % # # - # # - # # # # # ; n : # # # : : # - # : : - n z 9XGX Xz - - - - - , - - - - - - - - o # , , , , , , , , , e , e , , , , , , , , , , , , , - , , , , , r 2 , , - ",
"# # - 6 , , - - , 1 < s < a  .o.#.#.N X.=.1.p.7.7.7.P.7.=.1.1.o.o.@.L J X.X.L J J ..X.*.=.I X.X.J ..7.=.X.*.>.=.!.,.m.6.>.=.>.m.M.M.m.&.>.B.B.B.B.E.R.W.W.W.W.E.W.W.B.:XE.J.E.F.J.E.J.J.$XJ.z.D.G.n.-.z.n.j.D.K.K.D.Z.J.*X=X#X*X#X+X+X#X#XA.H.H.z.n.j.j.l.n.n.j.:.-.v.n.n.n.>XK.D.1XK.&.3XUXLXb.&.m.v.&.&.:.:.Y Y H /./.q y f f H L H U Y Y <.H h h w E f f p f 1.6.J yXnX=.f w d 1 # # # - - ; 1 1 < 2 , , - o 2 2 9 A $ o o $ o # 3 q.6 ; # # 4 4 d s 4 d 4 $ $ # # # # ; < ; < ; ; o O & . . . . . . o o o o # o # B 9 : - # : : : : # # # x sXJX[.2 - 1 6 - - # # - : - # - - - 2 1 2 - 2 ].2 . x # o # : : # > : x 2 # # # # # # # # # # % > % # # o # > > # % o o o o # o # # o # o # o # > % o # # # # # # # # # # % # # # # : - - - , w < i.6XNXUXPXrX}., # w s s w - $.5Xr - < < w < , ; - , , - - - - # # # # # # - # : # # # # : # # # # - - - 1 1 x a.9 3 $ # # # % & o # # # # - - # # # # - , , , - # # # # # , , - - - - - : s.r.lXUXsX0.1 # - - - 1 # 1 2 - - : r - , e , , , , , , q , q w , , v w , , , - , , # o , , , - , , , , , , , , , - ",
"; - - ; - - - : - ; ; < < p  .1.1.#.| 1.6.M.7.7.7.!.!.7.!.,.1.=...o.!.1.J ..X.X.J J ....J 1.7.4.=.=.=.=.P.6...*.=.=.m.m.:.=.&.&.m.V.m.x.,.x.B.B.,.,.V.E.E.W.$XW.E.F.F.E.F.N.l.B.F.E.F.Z.E.J.G.N.j.N.H.j.l.n.N.D.F.A.J.#XJ.;X,X=X#XA.#X&X*X+XZ.H.z.z.n.j.j.n.l.-.] [ j.n.n.l.K.K.+X:XG.V.M.eX7X:.N.v.l.V.&.:.&.U P f h w q K f J L H P U Y <.X.f f w w w p p w f #.1.=.(.3XX.L L h < # # ; # , < 1 ; - ; 1 # z ].z 2 : % % ; $ # # # $ $ $ ; ; ; 6 4 d d 4 ; ; # $ # # ; ; ; ; > > ; ; $ @ + @ . + . . . o o o o o # > # ; # # # o # x x o # - # 1 a.# 1 2 : : # # - # # : - - - - - - 1 , 2 z r.9 {.s.o o o # # # > : c 9 # % # # # # # # # % # # # o # # # # # > c % o # o % # o o o # # > 9 o o o o o o # # o # # # # # # # # # # - 2 2 , , w r p.}.hXIXDX5XP.~.}.h p w w < - , , < w w w < < < < , , - - : 1 - # # # > x - - , - - 2 2 : 1 : # - # # - - 1 2 7 2 # # # o # % > # o # # o # - # % # - 2 , 2 1 - - # # % - - - 1 , - - - ; - # n 9X: : : - : - x - - 2 z # # x U., , , , , , , , , , , , e , , r , , , , , - - d.5Xi , - , , , , , e r - - - - ",
"1 ; - # # : # % # # ; < 4 p  .X.=.1.6.B.^.!.6XMXnX|.(.(.!.7.o...J J 7.1.X.X.X. .1.J ..X.J P.^.*.1.4.1.1.6.4.4.4.I >.>.m.>.:.M.m.=.4.M.m.x.>.>.G.E.x.x.E.W.:X%X:X%XW.W.E.F.x.x.x.F.J.J.E.F.G.W.N.:.l.H.Y.N.n.z.N.F.$X$XJ.OX,X,X*X*X#X#X*X*X*X$XC.z.n.n.] j.-.] ] ] ] ] j.l.z.z.D.Z.A.H.m.m.I :.N.n.j.j.B.>.&.*.U y f f $.E w f L L L H U Y *.L y , , w w p p p f J ..=...=.1.J L p w , , < s < < 2 < - - : o x 9X7 o o 9 0 % > # # # # # # # 6 4 4 4 4 4 4 ; - ; ; ; ; 6 2 > ; 3 3 ; # & + . . . . . . + 8 O . % $ B 3 # % # # > % # % # % # # : : 2 , b x # # : # # # # # # # : - x 2 2 - 2 - . > PXhX  # # # # # # # o o % # # # # # # % > # # # > c # # # # # # % % o o # o o o o # o # # & o o o # o # % # % o # # # # # # : # # , 1 2 , < < r K Y 2.bX}.q { HXUX[., y w < w r r w < < , p b , s < - , - - - - # : % 9 f., - , 2 - B A # 2 # # # # : : # # # - # c 8 o # o o # o o # # # : 1 # o # 1 - 1 < - - - - # # - # # - - 1 - ; 2 : : : 0.1 - - - - 1 z - - - - - - - z , , - , , , , i e e , e v e - , , , , , , # , DXUX}.# , , - - 2 2 , - , 2 - - ",
"< ; - # # % # o o # - ; 6 6 p J 1.7.6.B.!.7XJXUXUXGX7X3X!.7.1.X.| J J J ......o.!.1.J X.X...X.=.6.=.*.1.=.*.=.*.>.v.m.m.M.v.^.^.:.>.B.M.x.x.x.c.E.E.F.F.E.W.W.%X:X1X%XE.B.N.x.G.G.N.F.F.F.N.m.G.:.( v.N.N.l.z.N.J.$XJ.#X&X=X*X%X&X&X&XpX1X$X,XZ.z.k.j.j.-.] ) ) ( ) :.j.j.n.n.z.H.J.D.N.l.v.G.H.j.l.l.-.:.:.*.J H y y mXeX- J j f Y K L Y Y Y w 5XU.- w w f f p f I ..=.M.6.X.f p p p h w $.h < s ; - # # : 9 : % o # $ # # $ # # # #   o > # 3 ; ; ; ; ; ; ; ; < ; ; 6 > ; > > $ $ o + . . . . . 8 + . & + o o O 3 > ; - # o % # o # > > # # % : # # : - # - # # # # # # # # % % 1 2 # : # # # o c 9 o o o # # # # % % # # # # # o # # % > # # o 8 q.# # # # o o # o o o o o o o # # o o o o o # # # o # # # 9 # % # # # # # : - - , ; - - z b r U 3.5.wX/.Y Y kXCXe.q K y w r r w w w w , h U.h , < , - r 1 - # - ; 2 - 2 , < w v < - : # # # # # : : # o # % o o > > # # # o # % # o % : # : t.qX[.- - , - - - # # # # # 1 n - 1 , , 1 # # : # 1 - - - : - - - - - , 2 - - , - , , , , , , , ^ , - , - , , , , , , , , , - # mXUXrXo - - - 2 1 - - - e r - - ",
"r < 1 - # # # o # # ; ; ; $ 4 d  .o.7.!.M.iXUXUXUXUXuX!.!.M.,.7.o.o.o.X...X.J ..#.J J ..X...J ..=.4.*.Y *.1.X.*.:.>.M.m.N.B.M.M.m.m.m.B.m.B.B.B.E.W.E.B.B.W.W.#X:X,X:XW.B.x.m.B.B.N.F.c.c.N.l.l.>XtXY.N.N.F.F.Z.Z.A.J.#X&X*X;X#X#X&X*X,X,X&XA.J.H.z.n.j.j.j.j.] ' 3.v.>.n.n.l.j.C.C.D.n.l.N.z.D.D.z.c.x.*.:.I P I H L P.2.w J L p.@.K f J <.@.y 6X}.- s p p f J X.=.6.M.=.*.1.L g g L J X.<.f h s - - ; # c ].: : > > o o $ o o # : o ].q.$ ; $ $ $ $ # o > 6 6 4 < ; ; > 3 # o o o .   . . . . @ & . . + o o o O o # $ ; % % # o # # 2 > o % % # # : # # # # # - - - # # # # # % # > # % # # # # . . o o o # # # o > # & > o o # # # o o # # % % % # # # # > > # # > > # o # > o o # o o # o o o # # o # % > x # # # # # # # # # - - - - - < E h U { <.2.2.` U f f f f y y y y w q , < w , w s w p w , - 2 2 - - - - - - , , , , h < - : % # # # # # # o o o o > > o # o o o o # # o o > 2 #   fXUXHX: # , , 1 - # # # # # x [.1 - # : # 2 1 - : - - - - - - - # - - , r - , - - - , , r , , , , Q v - r r - , , , , , , , , o ].NXa.: 2 - - , - - - - - 2 , - ",
"w s 2 , - # $ # $ ; - ; ; $ 4 j  .#.7.R.M.uXUXUXUXIXeX!.M.M.7.=.o.o.o.o.X...J J X.#.#.#.o.1...J #.7.J J J Y X./.5.*.4.v.v.N.M.M.m.m.>.m.B.B.F.E.E.W.E.E.F.F.F.$X:X*XW.:X>Xm.m.B.>XW.D.D.N.N.B.P tXIX4Xc.F.F.W.#XJ.A.OX#X=X%X,X*X#X%X&XOX#X*X$X+XK.D.D.n.z.j.j.j.] ' [ :.-.-.-.j.j.C.D.n.z.n.z.z.G.l.;.x.>.:.:.) I <.2.L H H f L wXP.y U U L H K q w K w w f f #.!.4.6.!.m.=.=.=.o.@.X...1.4.2.f p < < 2 ; 6 6 ; ; z $ # $ # > B o o o fX[.o $ # 3 8 o # $ 8 > d 4 ; - $ $ $ . . .   0 `..     . . . . + . . . o . o $ $ % # 7 > # # # # # # # : # # # # : # # # # # # # # # # # o o # # # # # # o o o o o o o # # o o # % o % # o o o % % # # : : % # # # # % > # o A q.o # c 9 # o # > o o o o # o o o & % o o o # # # # # # # # # - - - - < h K ~ P.~ h h U Y U L J U H Y K y h E y t w y f f y y h w , , , , , r , , 1 r w w y h < , # o # # - - # # # # o o & & o # & > o o o o & > % % # . '.FXfX# : - , 2 2 , # # # - : - # : z : # 2 z # 2 : - # # - # - - 1 - - - 2 - , r , , , e e , , , d.8.- h r , , , , , , , , - e , # # r z - - - - - - - - , , - ",
"h j s < - # $ > > # - < 1 < p L #.7.7.B.(.!.zXLXPXkX(.Q.R.=.=.o.X.| #.|  .o.L J J 7.p.@. .@. .L L J f g f f J @.5.X.*.m.>.v.>.:.,.m.m.B.V.F.B.B.E.W.E.E.E.F.F.W.E.%XW.B.E.^.^.B.^.F.N.F.c.N.^.N.G.>XG.J.#X#X*X:X&X#X%X=X=X=X=X=X&X*X%X=X*X%X&X#X+XH.K.:XK.n.b.j.[ ` ' ` ) ) ] j.n.z.l.N.N.z.z.j.j.^.^.:.>.:.v.>.&.:.*.*.*.J f H Y U <.*.P P Y.I.y i h w f f J L *.4.4.6.M.7.=.X...1.1.....1.5.o.f p s s s p p s < - ; $ o # & 3 o o % ; ; > $ # > 3 o # $ 0 B 6 6 ; ; $ o . . . @ X = `.. . . . . . . @ . . o . . o o # # o # # # # # # # # o # : # - - # # > 2 # # ; c > > # o % % o # > # # o o o o o o o # # % # # o o # # # o # o # # % > % # # # o # # # o # # # > # # # o o o o o o o o o o o o o o # # o o # # - : # # # # # - - - - < p f f E h h f K U I X.J Y P U U H K L H y f J H f y h h w , , w w e r r r w < y h y w < , # 9 > # - - - # # # o o o o # o V t.o # o o % % # # # # o 2 # % - - - < 1 , - : : 2 : # # : x - - # # # # % # # # # # # - 9 - - - - - 2 z , , , , , , - , , , , q , , , e , - , - - - e e - , , - - - - - - - - - - 2 k ",
"b E w s 2 # # ; ; - - < < s j @. .p | M.!.^.(.|.|.!.!.R.6.,.,.o.o.o.|  .X.| L J g  .o. .L g f j L g p p f f w p h f 1.1.*.>.&.>.x.m.B.B.G.F.F.F.E.W.E.E.F.E.E.F.E.W.E.N.l.x.m.>.l.N.D.c.l.-.^.pXF.-.F.W.*X;X*X,X,X,X*X&X%X&X-X=X#X#X#X&X&X&X&X#X+XH.H.K.H.n.j.] [ [ ( [ ) ] j.^.H.l.N.N.z.z.j.j.-.^./.*.m.v.v.v.l.4.:.*.:.I I <.P I *.) I P Y.5.t y y y L (.<.J *.=.6.6.*.....X.4.X.X.o.X.=.M.1.L g f j j L L j d < 2 # o o $ # o o ; z ; 6 > o > 8 # $ o 3 A 4 $ $ 8 $ o . . X @ X     . . . . . . . @ @ & @ . . . o o # Z > o # # o % # # # % # # - # - # % : # # # : : % o o o # # > 8 & 8 & o o o # o o 9 > o # o o % o o # o . o # o . # # # # : $ # # # # % # o o # # o o o o > 0 o o o o o o o o o # o o % c : # : # # # # # , , - - , s L t q h h p f Y L p p Y Y P U Y U U H H U U U P H Y <.h t , w r w i i w f y y K y y , , # s.r.# - , 1 6 z # # # # o o # % & # o o o o o # # # # # o # - - , , , , 1 - : : : : # : # # - : # # # - # # # # # # # : - # - - , , - , 2 - r v - , , , , q q ^ W , , , , - # # - - , , , , , - - , 1 - , - - - - 2 r ",
"s < w s d d < < ; , - , 2 s j  .O.p.N o.6.P.P.(.>X7.!.7.,.o.o.o.#.#.N  . . .J L g g p j O.f p h h p p w p h w p s h L J ..*.>.l.>.>.x.B.G.B.B.F.F.F.E.^.F.F.F.B.E.F.G.N.l.&.&.-.l.c.c.z.z.l.N.G.c.J.W.$X=X;X;X,X=X,X=X#X#X#X*X=X%X%X*X=X*X=X&X&XJ.J.H.Z.z.z.] ] [ ) P [ v.j.j.Y.N.c.N.N.l.l.l.j.l.:.:.m.&.j.n.N.l.l.v.v.m.>.) 3.*.*.*.&.&.I [ /.<.q y K L 4.*.=.=.*.>...*.=.1.4.X.o.X.X.X.X.4.1.X.L g L @.X.f h d 4 < ; o # # o o $ ; 6 d 6 ; # o $ > # ; ; $ $ $ $ $ $ o . . X =       . . . . @ . . . . . . . . . o # o c & . # % # # o % 2 # # # # # % # : # # # # # : # # % # # % o o # > # o # # o o o & # o # # % o # # o 8 {.8 o c s.% # # # > a.> o f.A # % # o o # # o o . q. Xo o + o o o o o # o c A # % # # # # # # - - - - - - - ; h y w f f H L H 5.zXeXY *.) ) Y Y Y H P *.:.*.I I U U H q E ~ t t t t h h H H H f w , 1 - - - , < < - +.[.s 1 ; ; % % : # o . # # # o o # # # # # # - - , < , , - - - - : # : # - : # : # # - - # # : # # : 1 - - - - # # - , - - - - r e , , , q q u q u u e w , , r e.1 2 , , , , , e 9Xe.- Q , - - - - - - - ",
"- < 4 d s s s 4 < ; - - 2 6 d < [.IX6X# o.o.%.~.(.1.#.%.%.o.| |  . .N #. . . .g g w < p p w w w < s h f p s s w w w w J I *.m.x.N.N.l.N.B.x.N.B.B.B.F.E.F.E.E.B.F.B.x.l.>.-.:.N.F.F.F.D.D.D.N.c.F.$X$X#X<X1X1X<XpX,X=X%X#X#X&X*X&X%X*X,X,X=X=X#XA.J.H.D.D.z.j.j.-.[ [ ] ] j.l.l.l.c.n.l.j.j.-.>.:.3.:.I ) ) :.v.>.m.G.M.v.4.I I *.*.*.:.&.` Y.Y.U u.5.f J H 4.>.m.6.&.*.*.*.=...=.7.,.| 7.6.=.P.o.g  .L #.@.j d d 4 < ; # # # # # ; 4 ; < 6 ; 0 m # # # $ $ ; ; ; 3 3 % o o . . . .   . . . . & + . . . . . . . @ + . # # . 7 Z # # % % % # % # # # : % # # # # # # # # % # # 7 % o o o o A Z o # % > # o o o o # # & 9 o > 9 o > y.& o 9 a.> # : # # 8 % o c 2 # : # # % # o # o o > 8 o o o o % # o o # o 8 9 o # # # # # # # - - - , , , z d , t t H U H U P.7XUXJX&.>.:.&.I *.*.) ) :.4.&.) :.I y P y 2.@.t U f y H U U H K f s < , , 2 < , p d < p L w < b +.1 # # o 7 y.& . o o o # # # # # # - - 2 v e , v x - # # - - - # . 2 z - - - , - # : - # , ; 2 , - i.i. Xv o 1 2 , , - - , , , q i T i u e R i e - }.PX].; , - , e - , f.n - 1 1 - - - - - - # ",
"$ ; 4 d d d < s < 1 - - 2 3 6 - t.gXy.B @.| #.o.o.7.eX!.| 1.o. . .j  .O.j  . .j f < 4 j s w < , , s h K h w < < < , w 5.4.4.m.B.E.^.N.x.x.;.l.x.m.B.N.F.E.J.G.B.c.N.l.:.:.l.-.l.>X>XF.K.K.F.D.D.$X%X*X*X<X<X,X,XtX,X*X%X#X+X$X*X%X#X&X;X<X,X=X#X:X:XZ.Z.N.l.l.l.] [ j.-.j.] z.K.l.c.l.j.j.-.[ ` ) ) P I ) :.) &.:.m.B.G.m.>.*.I *.4.>.&.:.>.:.P H 2.<.@...*.M.m.M.6.=.>.=.1.P.(.P.1.=.o.6.6.*.1.o.X... . .#.j p p < ; ; # o > x ; < 6 4 4 6 ; s.m # ; # 2 4 ; ; $ o y.y.. o o .   . X + . . + + . o o .   .   X @ & % o #    XHX0 o % # # # % > #   . : % # % # # - : : # # # % # o # # o Z A o # o % # o # o o o # # # # o & # o . o # o o % > % # : # # q.> . # # # % > % o # o # o . % + o o o o o o o o o o # o # # # # # - # # , e , r r s H U f y H H P P.V.7X3X>.M.v.>.:.&.>.4.:.:.m.>.-.&.*.) I U H y f Y U U H P H H f w d 2 - , , , w h L f f f f f E E 1 - # o 9 '.& c 9 o o # o # # - 1 z , z v h e U.].# : # - , ; 2 r.x > - - - , - - - - - - - , , v Q b U.z 0.0.: 1 v , , , e u i ! v i w.^ l b l , w.0Xw.- , , - , - - # # - - - # - - - - - - ",
"# ; 6 < < d 4 4 4 6 . . > ; ; 4 ; o 4 %.X.X.o.%.o.!.iX!.1.#.|  .| j j N  .j g O.j d d j h < , , , , w f h s , , , w w (.P.M.B.F.W.^.G.N.x.m.>.>.>.:.l.J.z.c.F.m.x.>.>.l.l.v.v.l.G.W.K.K.D.F.D.A.W.#X%X,X;X=X=X;X&X*X*X*X$XZ.Z.+X=XOXOX-X;X,X=X*X,X$XZ.Z.c.z.n.j.-.-.-.v.j.G.Y.H.N.D.D.z.l.l.:.` ` ) ) ( ) :.>.*.&.x.x.B.B.*.*.I Y :.>.&.:.>.4.` U H f o.1.*.>.V.M.M.4.>.6.*.^.7XX.=.=.=.=.6.>.I (.7Xo. . . .j s 4 ; # $ ; ; ; 4 < s s 4 d 6 ; > ; 3 > ; 6 4 < o # $ 3 3 $ $ o $ 0 $ o o . + @ o o + . . . @ @ @ @ @ O o o o 0 `.& o # # # o > % o a.A o - # # # # : : > # # # # % # # # # o o # o # # o > # o # o o # o # # o # > # o # # o % # # % # # # s.t.# % o # # % # o o o # # o & & o o o o o o # # o o % > # # # # # # z x - < w v w y P Y E K f U Y ) j.&.&.>.m.m.>.:.>.v.4.>.v.B.m.N.l.:.:.*.U H H P ~ Y Y U P H P f y w 1 , < , i h j f J H Y Y H f h s 1 # o o o # V 8 o # # # # # - 2 v , v , e , v k - - - - - . ].IXt.. # , , s r - , - , , , , r h w q , # rXs.o n ].< , , w R ! ! w.hXDXDX Xv b r , , d.i - , - - - - - - : : # # 1 - - - - - ",
"o # # ; 3 $ $ ; ; $ .XqXo $ < s d b j p  .o.| %.7.%.| o.#.O.p j a a %.%.a j f O.L j h s < < 2 1 1 , w w y w , e t y L I *.M.B.E.G.F.$XN.l.m.M.l.-.&.&.&.iXtXl.M.l.-.:.l.v.v.H.N.-.k.K.K.:XJ.A.$XJ.+X$X*X;X,X%XE.=X=X#X&X+XN.Z.H.E.tXnX,X*X=X*X&XA.Z.Z.z.z.D.z.z.k.j.j.G.n.Y.:Xc.F.Z.D.N.l.N.v.` ` ` 3.&.` :.v.v.:.l.x.N.F.>.&.*.*.&.:.:.v.m.:.:.*.Y *.I I >.>.6.m.B.m.:.m.B.=.=.M.m.B.m.=.6.6.6.(.(.%.o.o. .O.p 4 ; - % $ > ; ; 4 p p 4 d 5 4 ; ; 6 6 6 ; ; # x 8 # 3 ; ; 3 $ 0 HXiX  o O . + + . . . . . & & . . . . o o o . . o o o o # o o   {.IXHXA . # # # o # % # - : % o o # # # # o o o o # o # % # o # # o o # o # o # > > o # # # # # # # # # # . > > o # # # o # o # # # # o o o o . o % % o # o o o # 8 # # # - - # x c - , < , q y S U Y Y L f p t 4.^.>.:.v.v.:.:.l.:.>.m.N.N.c.F.G.l.:.&.I :.I :.P.<.I Y P H H Y w h h < w y y f f f J H @.X.f w s Q ; # # # # o o o o % > # # # % # , R r qXDXqXz i i e # - - # v [.v - - , < b b < , < w w w t K K h w , , z 1 - 2 k , , , e q i R hXUXUXUXLX].i i w r W e , - - - - 1 - - # - , 1 1 # - - - - ",
"o o o $ > o o o $ . uXxX. ; > 4 d d j  . .o.o.| 1.7.o.o.#.j 4 p a 4 ~.~.p p p j f h s 4 ; < s 2 1 1 w y h t w K y P Y *.*.>.m.;.uXpXZ.l.m.tXM.l.j.I Y ..iXtX>.V.N.l.l.>.:.l.l.j.l.D.D.H.>X:XJ.$X:XJ.+X=X;X,XuXuX,X#X$XOX+XN.n.K.x.VXUXtXJ.:X&X$XA.H.C.z.D.K.H.D.C.C.z.l.l.l.-.D.D.C.z.l.:.l.:.) P ` ) P ) :.:.>.l.m.N.N.x.N.&.m.m.&.:.*.*.V.7X!.=.4.*.:.M.M.6.6.M.l.B.7X^.>.,.B.B.B.F.R.7.7.=.m.!.,.6.6.o.| 1.#.p 4 ; % # $ 6 6 4 p p p d d 4 < 4 4 4 B 6 # o s.q.# ; 3 m 5 5 5 fX.Xm 8 . o o 0 0 . . . . o . o + O & . o o % $ o # o o # o #   qXUXUXr.. > # # # # # - r z # # o > % % # o o o o o o o # o o o o o % o o o y.c # % % # # # # # # # # # 8 > o o o # # # # # # # # # # & > o & 0 o $ o % > o o o o o # # # - - # # # - - - , q t y U ` P P w (.|.Y ` >.v.l.j.:.l.l.l.j.N.B.F.N.c.F.N.-.M.Y.:.:.>.) I (.Y.P I P.ZXwXw f f f L H L L J f J L J j b < ; : # # # o o # # o o # # # # # # l q [.UXUXUX XK ! q - - 1 e - o - , < , < w w w w s h p y y U L y w , , - - - - - - , r ^ u F u.JXUXIXIXUXhXi E e - , e , - - - , o hXkX- 2 - - - - - - x 2 ",
"o o # $ $ o o o o {.qX$ 0 6 ; 4 s j j  .g g  . .#.%.o.| N p s d d j N j j d d < , < s < , - < < < s $.f f K L Y Y Y I *.>.&.&.>.3X7X6.x.B.^.m.l.>.4.P.&.:.m.M.>.l.N.l.:.:.>.:.-.j.N.H.D.H.K.K.K.H.D.J.,X-XiXUXIXtX+X:X+Xz.:X:XH.J.1XuX>X*X&X+X#X+XH.z.z.D.H.H.J.D.H.D.j.-.z.7X>Xz.K.K.z.l.&.:.` ( :.>.&.*.` ` >.m.B.m.F.G.l.>.*.*.>.>.&.&.m.pX^.I *.>.>.M.>.;.6.>.M.!.(.R.>.m.R.W.W.R.R.R.6.,.=.%.,.=.m.7.o.1.1.p s < # # > s s d d p j d 4 4 s 4 4 4 4 4 3 3 ; $ ; > 0 B 5 d 6 o $ B 0 & $ o 3 0 + . . @ + o . . o % . o o o o o o o 8 7 o # o 9 0X{.o # A c o - , - z r 2 1 - # : : : # o o o o o # o o o o o o % o o % o 9 8 # # # # # # # # # # # # : % # # # # 9 > # # # # o # o # 9 # & 0 o o o % > o # % # o # % # # # : : # # - - , w y U ` ` P P t ZXLXU S M.M.:.>.:.>.v.l.-.F.W.N.x.G.G.N.-.4X4XI >.*.) ) M.M.3.4.^.ZXeXJ 2.<.H H *.4.X.f J J @.J w iX|.# , - # # # # # % % # # : : : # z W , 9XUXUXUXrXF { r z , , , e , - 2 z - w , e w , < w w h K K y q t h e , - - - 2 , , , e q i u.FXUXIXUXUXrXy h , : v e - , , - - # [. X- - - - - - # - - - ",
"o o o o o o o o o jXFX$ 0 d 4 6 d j j j #.O.g  .| | 7.%.4 j j d a j N d d 4 ; # d 4 ; < 1 < < < f h K H Y X.<.1.4.I &.:.*.M.:XN.o. .7.B.F.l.c.l.G.V.m.x.B.B.B.7X^.>.l.l.l.v.v.>.b.l.N.N.l.l.D.H.D.z.D.=X%XpXUXUXtX-X@XH.S.>X>XS.J.J.C.$X&X+XA.+XJ.D.D.C.S.C.D.J.H.H.S.D.l.j.nXtXC.:X$Xj.l.:.&.yXCX4.m.Y.I I ) >.m.M.x.c.N.G.v.4.*.4.m.>.*.I J :.:.*.=.4.6.*.>.*.*.m.6.J ..6.M.R.^.^.^.R.R.R.B.6.o.%.7.m.4.| o. . .p < ; # ; < < a j a O.N 4 d d p p p s ; 3 3 3 ; ; B 0 o 3 3 ; 3 0 $ $ $ ; 3 # o O . .   . . . o + . . + O o o # o o 9 0 . # 7 o   . # # : 2 2 k , n r - x a.r , - - - # o o o o o o # o o o # o o 7 7 o % o o # # # # # # # # # # # # o o : % o # : % # # # % % o o # # > o o # o # o o # # # o o % 8 : # # 2 8 # - - - e r h Y U P P P f /.3Xt H ` :.) :.:.l.-.G.tXF.B.N.c.B.F.G.B.B.v.:.&.&.&.4.4.4.>.v.4.*.*.4.J J X...4.*.I *.*.*.*.J t eX~.r v 2 # - - # - : % # - # - - # - i u Q mXIXNXw.K ~ i w.e w w e , , , 2 , < , , w , < w w f K K y t w h r e - , 2 2 - , , q i W R 9XIXUXUXDXu.K i 2 - # , - - - - - 1 # # , - - # - - a.z # # ",
"$ = O O O o o o o 8 B o 3 d d p p a a g p.%.N  . .g N %.%.4 d b j p.p.d 4 < # # > ; - ; < < < w f h ~ Y I *.4.=.:.4.>.>.I 7XpXc.6.6.V.F.Z.c.l.k.D.N.B.F.J.F.F.VXtX&.v.m.v.:.&.&.) :.>.G.4X:Xl.z.F.z.D.$X:X:XiXiX-X@X>X4X@X@XS.H.+X*X,X#X:XtXZ.Z.C.z.D.D.D.C.C.S.S.S.j.S.Y.j.n.H.:XD.k.j.l.:.) 4XbXv.) :.:.I I *.>.m.m.x.B.G.M.4.*.>.4.4.&.*.*.4.*.*.I *.1.*.1...X.>.X.J =.V.M.R.R.R.E.^.>X:XE.x.7.3XV.>.4.o.o. . .j 4 ; < ; ; < d j j  . . .d 4 d d d s ; 3 3 $ 3 3 ; r.[.6 ; o O * o o ; 3 6 9 # o + .   . . .   . . . . % o + % o o o # # o # % o o # # o : z r i.n y.oX[.c z r , - # # o o o o o o o o o # # o o > > # # # # # # # # # # # # # # # # # # # % # # s.A # # % > # # o % o % $ % # % o o # 7 % # # o # : # # # # # o # - , , w f h U ` ) P Y q , Y P H P ) ) ) j.-.G.7Xc.l.N.F.J.N.c.B.N.B.v.:.&.*.>.:.M.M.>.m.*.6.=.(.^.=.4.&.:.4.m.:.:.*.Y P L K < < , - 1 , # : : - # # # 1 ; : , , i r z s.Q h ! y q w w t y h t w , - , - - , q , < w w w h f f y y , < e , - - - - , , , R R l R  XhXrXw.K K q , # # - - - - - - 1 1 1 , - - - - - 8.z 1 # ",
"& O O o . . . . O . o $ 3 d d d j N a a  .N O.O.g N a O.p.4 4 b p eX|.< d 6 & # o # : - < < < < w K 2.<.J 4.>.>.>.:.4.*.4.4.N.N.m.G.F.W.B.>.^.>Xc.B.E.$X$X$XF.F.G.m.v.v.v.:.` P H &.P 3XVX:Xj.l.K.H.H.^.:X+XA.J.-X>XSXKXyXS.+XK.#X%X=X#X*X1XA.Z.k.z.D.z.z.z.S.C.S.z.j.l.-.] j.D.K.H.N.j.M.v.) ) ) >.&.:.I f I ....=.:.N.x.l.M.4.*.*.v.4.>.4.*...1.X.Y Y X.:.&.Y 1.6.p.eX|.=.V.M.R.W.:X>X:X>X:XW.!.3XR.,.,.o.o. .L j p ; 6 < < 4 d d  . . .+.N j g d j 4 ; 9 > 0 3 $ $ q.].$ # $ o . . o > > # > $ o . . . . . . = 8 jXfXO . o % $ . o o o # # o o # o # # # : : z n ].HXUXIXqX9 z 1 # # o o o o o . o o o o # # o # # o # o % : % # # # # # # # # # # # # # # # o % mX Xo # # ; : : # # > ; # # # : ; ; # > # # # o o o # # # # # c x - , , , f H P *.:.) ` ) U { U Y 3.) ) ` ) v.:.-.N.c.c.c.F.N.c.N.N.N.B.-.H >.:.4.M.v.&.>.M.=.I >X>X&.>.*.m.>.:.m.m.*.Y Y K L w w - , < , - - - # : x : # 2 n x e , r e , w R ~ t q y K t y K h h r , - - , r i w , < w L L t t t y w < , , , - Q z , , , 8.e u ! i v k v R i e - # - - - - - - - - 1 1 ; - - - - : # - 2 # ",
"o . . . . . . . . & 8 $ 3 d N O.p.O.d 4 d a B O.N N N d 4 ; 4 4 s O.B p 4 a.A o # ; # < < ; < < p h h f L Y I >.:.*.*.I J Y &.N.V.N.K.W.E.>.tXpXA.E.W.1X,X$XF.B.G.M.:.>.>.>.:.) P &.>.v.N.j.N.D.K.H.H.H.+X&X%X%XOX4XKXUXbXOXJ.W.=X%X#X*X$XJ.z.$XnXtXj.z.k.z.C.z.S.S.n.v.^.tXH.N.D.K.D.j.:.) ) :.:.:.*.I 4.7X4...=...6.B.m.l.m.m.*.>.-.4.M.4.:.*.X.X.*.*.1.:.) J J f eXUXJX1.=.6.B.:X:X7XiXuX>X>X^.m.m.m.,.=.7.|.+.p 4 4 4 ; 4 s 4 4  . .#. .j N a d d s ; ; $ 3 $ $ ; $ o # # o . . . . o o o o o + . . . .   s.HXgXIXIX=   . o o   . o # o o o o 9 # o # > > ; 1 7 NXUXIXUXLXs.> 2 % . o # o o % c > o o # # # # o # # # % # : # # : : # # # # # o # : # # # # # # x : # % # 2 x : : # ; > 2 # - # t.[.; # # # o # # # # # # # # c x - , r f w H H ) ` :.:.[ 3.[ ` U 3.P P b.4XN.v.l.c.F.c.B.J.N.F.c.l.v.v.>XtXM.&.:.>.:.:.>.4.4.*.I I 4.6.:.>.m.m.M.Y.I H Y L f s < , , 1 , - - # # # : : : # - - - 1 , e w t w q q q h ~ f y y f h w , , 2 , , w , , < w w h f y y K y w < , , - v 2 - - , , e q u l w.n W e u , - # - - - - - , - - # # - 1 , # - # # # # 1 ",
"o . X = X . . . . O & o 3 B B B %.N N N a j %.N d N N d 4 ; ; ; 6 < 4 6 < z > % # : - ; ; ; 4 < s s w w 2.H I *.I I I P U ~ v.M.(.yX>X^.^.:XW.J.#XW.%X,X,X,X:XE.B.m.-.:.:.:.:.I ) ` :.l.N.K.H.K.H.D.H.+X&X#XuXtXOX@XyXbX4X,X,XJ.#X&X&X#X*X$XtX1XnXtXj.N.z.z.z.C.D.z.n.] pXUX4X] l.D.G.) ) ) :.:.:.:.&.I M.7Xm.*.=.=.,.x.B.x.m.>.>.:.>.>.>.*.*.4.1.*.4.4.1.4.*.Y f f |.GXnX7.J =.M.N.7XHXUXLXkX^.^.^.!.,.M.=.%.!.j d B 6 ; ; < ; +.T.a  . . .g g j j d p 4 ; $ o o $ $ $ $ $ o o . . . . . . . . . . . . . .   Z NX{.'.`.. . . . . `.C   & & o o o % o o & 3 $ : - c FXUXIXUXUX'.> > o % # % # # # A 8 o o # # # # o o # # # # # # # - - - # : ; 9 q.# : : # # # # # o ; z $ - ; # # 2 - - ; - 2 < - b +.- ; ; # # % % # # : # # # # # - , r y K H S ) ) b.j.:.:.[ ` P U Y P v.4XN.N.G.N.N.G.F.c.c.N.D.l.m.&.4XnXv.&.&.&.) :.:.:.*.X.I 4.H Y.CX(.:.m.*.I J X.@.E h w < , , - - , # # % # # # # # - 2 - - , , q w w , , w y f P U H H U h w , < , , r e , w w w y K H f K h w r < - , - - - - - , , , e , k 1 e , , - - # - - - - , - - 2 0X].- - - - # : 2 - # # ",
". . X = @ .   . . . . o > B B d d 4 d d 4 N B %.%.a M 4 s z ; ; 4 d 4 4 ; # o # # # # # # ; 1 , p s w , , f P J I J P U U <.M./.DXUXZX(.^.^.N.E.E.F.E.%X%X1X>XZ.F.l.l.l.l.l.:.:.) ` j.l.G.W.K.J.J.+X$X#XJ.J.>X:XOXOXS.S.H.,X,X#X#X&X&X$X&X$X1X,XA.K.F.Z.N.D.z.k.k.H.N.l.>XiX:Xn.z.j.j.j.) &.l.) ) :.&.&.:.m.^.M.6.>.>.B.E.B.B.m.m.B.m.*.m.M.*.*.tX>XJ 1.=.*.@.j f Y J  . .1.1.o.M.M.mXUXIXUXLX7X^.R.R.R.m.=.| f N a d 4 ; ; ; # +.s.p d d N N a j g p p 4 6 ; o # o o o o o o o . . .     . . . . . . . . . 0 * . .   . + + + . . C 8 . o & o o . o % # # # o ; x 2 qXUXUXUXcXn z 2 : > : % : % o o o o o o # o # # # # # # # # # - # : 2 : # # 2 n # # # # # # # ; $ # > ; ; ; 0. Xb s n < ; < < < , # < 2 2 : # # # # : : : # # - - , w q t P { { ` ( -.v.j.[ ] [ :.*.*.*.:.] l.N.K.F.D.:XW.c.N.c.N.j.v.N.>.>.>.>.:.I I &.4.:.Y *.*.M.Y 5.eXP.*.1.X.Y H f L K h s < , , , , - : > # % % : # # , 2 - # , , , e e , , w h Y Y Y U H y h w , , r w w e , , < w w K U H K f w , - , , , - , - # - , , , - - - - , , - - 2 - - - - , - o e.LXmX# 1 - - - : : # - # ",
". . .           . . o . $ d d d d 6 4 ; 4 d 4 T.p.B N d 4 - 6 < s b 4 ; ; $ o # # o o # # - - , w w < E d.h y f U I Y *.*.m.v.wXUXUXUXeXm.K.G.B.E.W.E.%X*XW.W.W.c.N.c.l.l.:.l.3.:.-.j.l.D.H.J.H.J.&X:XW.E.c.N.n.S.OX+X+X*XOX&X,X:X&X*X,X*X=X*X&X#XJ.J.D.Z.D.D.H.:X:XH.F.H.z.H.tX:X] j.P ) b.:.] -.v.l.) :.G.^.m.6.6.>.^.uXx.m.R.B.M.v.&.V.m...>.6.4.=.=.:.*.*.J J J g a g 1.1.1.M.M.BXUXIXUXIXeX^.B.,.7.,.,.o. .g j d s d 4 4 6 4 4 p d s N B a j g d p 4 ; > $ o o o o o + . . o o . . . @ @ + . . . . . . 0 = . o + @ + + + @ +   . . + o . o o & . Z q.. o # 2 x 0 XXmXfX0.x z 2 1 # : % : % % o o o > % o # # # # # # # # # # - - - 1 1 s.2 # # # # # # # # # # % # o ; 6 # ].MX< ~.nXE < 2 < < s s r s 2 , # # # # - - - - # - , , , i ~ y 2.tX` P :.v.v.v.j.:.) 4.Y.:.-.n.n.n.D.G.F.F.F.N.N.c.-.-.v.v.>.:.:.>.&.&.&.:.4.*.Y Y X.<.<.Y t Y ..X.Y L H y t t f h w , , e , # ; 9 : # 1 : ; , # # - , , - , , , r w , t 2.<.H P U y t t w , r w e , , , < w w f K f f y w w , < - 2 - - - 1 1 - , - - - - - - - # - }.x - - - - , - 2 ].e.- - , - # # # - # - ",
"X                 . . . $ 4 4 d d d 4 4 4 d 4 4 d N B 4 b B - ; 4 ; < ; # o o o o o # # - , , r w w # }.ZX$.q f H P ) :.4.Y.Y./.DXIXMX~.G.K.G.B.F.W.J.Z.$X:XW.Z.F.W.N.G.N.:.l.>.>.:.j.l.c.D.J.J.H.&X$XE.E.F.N.z.N.H.^.$X&X-XOXJ.$X*X%X=X=X;X<X=X&X#X#X#XZ.C.D.$X1XH.D.K.K.H.H.:XG.N.N.4X4Xb.:.j.l.H.N.>.m.l.m.6.&.^.V.m.R.N.B.B.,.:.^.M.>.>.=.=.=.&.4.4.*.4.:.J L J zXCX+.j 1.1.M.M.wXLXUXUXMX(.^.!.6.=.7.7.o. . .j p d d 6 s d d d < 4 < 4 d a a j j d 4 < 3 > o o + . . .   . + o o . . o o + + . . . . . . . @ + + . . . . + + .   + % @ . . & .   0 0 o o o > 7 z 2 1 1 z z 2 - # - - : # # # o o o 8 > o > # # # : : # # : # # - # # 2 s.A 9 # % # # # # # # % # # # # - ; < s p +.d.E s s s < p s s s < , , ; # # # - - - - - - , w ~.I.t ~ 2.P P I 3.:.>.v.>.) :.m.:.n.G.z.l.z.F.F.F.c.N.G.l.G.G.v.M.:.&.>.:.:.:.>.>.*.*.*.X.I I Y Y L J J J L H K K y t y f f f w , , - # - f.z # , , < - - , 2 r , - , , w q , w t H U Y S y H y w < , t q , , , , , t y y f y y t , r e - 1 z - # 2 x - - - - - , 1 - : - - n e - - - - , - 1 # - - - - - z z 2 # - 2 ",
". . .   X         . O . o # ; d d 3 $ d +.d ; 4 4 4 d 4 x z # ; ; ; 4 ; o . . . + . o 3 - - , h w y h E u.f w K U U ) :.v.N.K.M.P.kXuXM.N.m.B.V.F.F.>X>XW.$X:XW.J.H.F.>XF.j.-.) :.l.v.l.z.c.c.F.J.J.J.J.F.$X+XH.H.K.&X-X&X*X:XtX*X#X#X=X=X<X<X,X<X,X,X%XJ.J.J.A.J.+XJ.H.H.H.OXC.D.B.1XVXiX:.N.l.n.G.n.l.m.N.l.:.6.R.^.x.&.R.R.x.m.m.^.B.,.m.6.>.6.>.m.m.>.>.I 1.!.J nXGX|.J 1.1.6.M.P.6XkXiXtX1XB.^.^.=.%.%.7.1.X.L j d d d d d d < ; # # ; 4 4 a j d j d 4 ; # # % + .   . . . o o # o o o o o o . .   . . . + . . . . . + 8 . . + @ . . . + . . . o . . O o o # % > k 2 z 2 : # % : # - - # # o o o o o o % > ; % # # : # # # - # - , - : o 2 2 # # # # # # # # > > o # # # 4 s d +.g w p s < < s s s w w < , , - - # # - - - - - - , w K F S y , f f P 4.) &.v.>.>.) >.N.n.N.l.c.D.F.D.F.l.N.G.n.^.^.l.V.V.>.>.*.>.>.>.m.m.4.>.*.X.I J L L |.<.y f H U h y f H K L K y , , , - : n : - - , , , - , , r 1 - , e q q q w q /.5.P H K y y y h t t q e w , , w f h H H f y t w e , - ].cX2 # - - - - - , , , 2 - z : - # - - - - - , - - , , - ; - - z z - - - 1 ",
". . = .             . . . o $ ; $ $ ; 5 ].t.# ; 4 a 4 4 4 ; # $ # # ; $ # o . . o + o o # - - w w h w p , , y H U I Y &.:.-.l.v.:.GXIXV.&.>.m.m.x.c.ZXJX>XE.:X:XW.F.G.:XN.l.l.v.) l.n.l.N.D.c.D.D.Z.D.F.H.K.$X+X#X-X-X-X+XJ.>XpX,XA.#X#X=X<X<X<X1X<X=X<X=X+XA.+X+X+X+XH.+XJ.A.A.D.n.l.V.N.n.G.n.n.N.l.l.>.>.m.>.>.;.V.m.N.E.B.m.x.m.m.B.m.>.,.B.m.M.M.,.:.X...o.#.X.L @.1.1.1.L 1.M.V.!.!.!.(.>Xm.!.3X6.o.1.o...#. .p p 4 4 4 s 4 < ; ; ; 6 ; 4 d p p d p ; ; # # o . . . . . + . o o o o % # o % + .   . . . + + . . . . + 8 . . . + . . . + . . o + . o o o o o # % : : - % # o # # # o # # # o o o # # o # # > 9 # # # # - - , , , , - - - - - - - # : # # # # # # % # - - < 4 u.e.f L f s < < h w 2 1 1 1 1 - , - - - - 1 , - , , , , q t y y y H y I 4.:.:.) P :.-.&.:.l.l.z.c.Z.F.c.l.l.D.F.K.G.^.m.^.uXY.I I >.4.:.m.M.6.>.*.*.X.Y L J 7.Y H L L H f H Y U U X.Y K E r , < 2 - - , , , , - - , , , - , e q t t t f P Y Y Y U H y f U U K y w , - r E h K L H K U w w , , - - n s., # - - - - - - - 1 r - - # - 2 1 - , - - , - - - - - 1 - - # # # - # # ",
". . .             @     . . o o o $ ; 3 5 6 4 4 6 d 4 4 ; $ $ o & 8 o . hXqX  + o . # # % - - , e , w w h ~ y S U Y ) ) :.&.*.*.*.eXiXv.:.:.v.>.B.j.iXnXB.B.E.c.E.W.W.G.N.m.B.>X:.l.N.n.N.G.z.z.Z.z.n.N.D.J.$X*X*X=X=X*X%X&X#XZ.%X%XOX%X1X<X<X,X-X;X;X-X-X&X#X&X*X#X#X+X+XJ.H.J.D.z.j.j.j.z.l.z.N.l.>.:.>.&.Y.m.&.>.>.B.E.E.x.B.E.E.B.B.x.x.B.m.B.B.B.m.>.*.I J L L f j $.#.@.J X.6.6.(.(.7.!.7.6.:.m.M.o. .P.(.g N p < - ; ; < 6 6 B s 4 6 ; 6 4 4 < ; ; : > $ o o o . o . + . O 0 % o # # o o 8 O + & . . . . o . . . . .   . . . . . . . o + o . o o o o o o o o o % > o o # # # o o # # # # # # % # # # # # # # : : # - - , < s p q , , - , - - - - : # : : - , - - , - 1 2 s < p h p w f p < p ; - : : - - - - - Q 0.- - 2 , w w y u.f q i H S H P ) ) ) ) b.>Xj.>XY.I :.:.v.D.D.H.D.l.m.N.W.:XE.^.M.:.B.M.*.*.>.>.4.4.>.*.&.I J I ..H f y K K H L X...X.4.4.Y ) *.U $.s - s s w w w e , , , , , , , , e v q q t y U Y Y Y Y U I 4.2.H U U S t w , # # h E K t t h , 1 , - - , - # - - - - - - - , - , 2 - - - - - - - - 1 - - - - - - - - # # # # # # # # ",
". . . X X       . @     . . . + o # $ 3 5 ; 4 5 d 6 4 ; # o o . 0 C o o '.y.. + o % # # > : - , , , < , r $.t t t U <.4.>.:.&.4.m.) ) m.l.l.N.l.N.B.-.&.^.E.E.1X:X$XW.F.N.l.l.N.j.n.N.c.D.D.F.H.z.z.j.z.D.D.$X:X,X=X*X*X*X&X#X#X*X*X=X&X*X=X,X=X=X;X-X-X;X;X&X=X=X*X#XOXA.+XH.C.z.z.j.z.n.z.l.j.j.>.:.*.>.>.4.>.:.m.N.F.W.F.B.F.W.:XE.B.B.m.m.x.B.B.V.M.=.*...Y L f j L $.O. .X.X.6.P.7.7.#.#.o.....7.#.#. .@.7.j d p 4 4 4 < ; 4 6 d 4 < ; 6 s 4 2 - # # % # # # o o o o o + @ * & % o o o o o . . 8 `.@   X . . . . . . . . . . . . . . 0 + . + o o o o o o o # # o # > c > o o o # o . o o # # > > # # # # # % # % % # # - , , , h f w , e , v e - - # o : 2 - - 1 1 - , 1 2 1 < < s O.6X$.< w < < - # # - - - - - r z - , , e i i K $.t t K S U _ P ) ) ) S >XnXv.7X>XP &.-.j.n.D.D.D.N.B.G.F.l.&.M.m.:.:.m.l.>.:.v.4.*.:.>.&.I ..J L f f f w f K Y *.*.*.m.4.X.I Y K t L s , w w y y w w , - , , - - , , q i t t K Y ` *.Y Y Y I Y X.U ` P S K h - [. Xh K K y q , , , , , - , - - - - - - - - - - - - - - - - - - - - - - # - - - - 1 - # # # # - - # - - ",
". .     X   .         . . . . @ % o $ ; 6 6 ; ; 6 6 4 4 # o o + @ O o #     o o o o # # o : - - - , , , e , , 2.eX2.U 4.:.>.>.v.m.v.v.N.n.N.G.:XD.K.E.m.^.W.F.uX,XW.W.W.N.l.l.j.N.N.N.F.D.c.J.H.z.z.N.c.A.J.J.#X*X#X#X*X&XJ.+X*X*X*X=X=X*X#X=X,X=X-X-X,X=X=X-X1X=X=X&XJ.+X+XH.D.z.D.D.D.N.N.n.l.:.-.-.:.4.:.&.:.l.m.N.^.:XF.F.B.F.E.E.E.R.m.R.R.m.V.!.6.=...Y L J f f L h f L #.7.7.3X(.#.@.g g L  .O.N a a g f N p p d B d ; - 6 6 4 p p < 4 s ; ; # # o m Z o ; $ o o o o . 0 Z o o o o o o o o + @ & . . @ . . . . . . . . . . . . . . @ . + . . o o o o o o o % o # & A & o % o o % A > # # # '.q.o # o # # # # > # # # # - - , r h h h r , s r 1 , - # # # , ; , - - - - - 2 s < < O.p.h < < < < - - - , r r w , - - - - , , r t u q q t i y 2.2.P [ ` *.3.3.b.:.3.3.) ) ] l.l.N.N.N.c.D.B.m.^.:X>.m.x.m.N.N.j.:.) I :.4.*.*.*.=.<.J f H f < w f H U *.4.*.*.X.L J H y 2.O., w w y f h w , , , i i.Q - e q t t t H <.Y Y Y <.Y P.<.y <.P U P ~ , U.UXUX|.- y y y , 2 , , , - , - - - - - - - 1 2 - - - - - - , - - - - - - - - - - 2 r - - # - , , , - , , ",
"            . .   . . .     . = 8 O o # $ # $ > 6 4 4 3 $ $ o . . . . o # o o o o % & o - # 1 1 - , , , , - - U.mXp.t J :.v.v.M.N.N.N.N.z.z.W.:XF.:XF.B.F.B.E.A.%X%XW.%XJ.Z.z.z.K.F.c.F.$XH.Z.Z.K.D.D.D.Z.D.J.$X*X#X#X*X*X#XJ.J.#X&X:X<X1X*X,X,X&X=X-X&X&X&X&X&X=X1X:XH.:XH.D.H.H.H.H.H.F.N.N.N.j.-.:.&.&.4.&.>.M.x.l.E.W.E.W.E.E.E.E.W.R.m.6.,.m.>.6.6.=.X.Y J J J h p f j L 7.p.7.eX|.@.#.O.j j O.d N a j  .g j N d s 6 s 4 - ; ; h p p w < < ; $ o . o 8 8 # ; $ # o o o % o o o o o O o o . o o . . + . . . . o . . . . . . . . + + . . . . + o o o o o o o o % 7 # o o o > # o . 7 qXZ . o % 9 % # # # % # # % % # # # # - - - < w h h w f w p < , - # # # - - : - : : x : # - < s < , < < 1 r w - , , w h h r < , - - - < w r w q r r , w y y H ` I P ) ) 3.` ) Y H P :.-.v.l.l.v.N.D.D.x.>.ZXIXR.>.B.H.G.N.-.-.:.<.X.*.*.*.X.*.*...J X.L w p f f H Y J J =.X.J J H Y f f f K K K K h t < w , w ~.u.- q w t y y P Y Y J I <.H ^.3XM.H Y Y H f , P.IXUX}.w K f q w r , , - - - - - - . # # z z , - - , 2 - - - - - - # 1 z , - - - - - - - 2 : , , , , , ; ",
". @ .     . .   = @ . . .     . O o o o # # $ ; ; 3 $ o $ * @ . . o + @ o o o o o o o XXHX Xo - - , - - - - , , - w t I ` 4.N.m.l.N.D.N.D.Z.D.A.W.J.W.G.:XF.A.W.%X%X%X%X$XJ.Z.Z.c.c.F.W.J.J.:X$XK.F.Z.Z.c.Z.$X:X$X#X#XA.#X$XJ.J.$X*X*X=X%X*X=XOX=X,X&X=X-X&X=X#X,X$XD.:XD.g.k.n.D.K.J.$X$XD.z.l.n.-.-.>X7X) &.v.B.x.c.E.W.E.E.W.W.W.W.E.m.,.=.=.>.6.X.X.o.1.*.f p f L p 2.p.f 1.P.(.DXcXt.p.O.j O.j d N X.X. .+. .N B 4 4 6 ; # x B < h h p < ; $ o & 0 . . o # # % $ # o o o o o o + o o o o o . . @ & . o o . o O + . . . . . . . . . . . @ . + + o o o o o o # # % # # o 8 9 o o o + 8 # o # o > > o # % # : # # # o r.t.o # - , , , < w f f f p s 1 # # # - - # : - # x {.> c ; # 1 < 2 ; - 2 < < U.E t w w w w r r - - - e r e w , , e e i t y { Y ` b.) I [ [ P S U P ) ) -.:.>.v.N.F.G.B.>.uXnXV.l.N.G.D.N.l.:.m.5.X.X.*.X.I X.Y J 5.P.Y H K K f p p !.6X!.*.>.>.4.Y Y L H f f H H f y w h r , - - w , q i y Y Y Y <.I I P *.f P.^.t X.H f K Y p U./.f @.f ~ U.h , , e , - - - - 2 hX].r z 2 - - - 2 2 - - - - - 1 - - 1 - - - - - - - - 0.- - - - - - ; ",
". . .   . . .   @ @ . . .     . . + . o # # > ; ; $ o $ . . o @ . . % o . o o # o # . rXUXfX. - 1 , - - - - - - - w y U [ :.>.-.-.-.z.N.K.Z.H.W.J.W.$XW.W.F.A.J.A.%XpX,X#X#X#X$XF.c.F.W.J.$X:XG.F.F.Z.Z.Z.F.$X$XJ.A.:X1X$X+XJ.H.J.$X:X=X=X=X&X&X=X;X,X&X&X-X+X#X+XJ.H.D.+XuXG.] z.D.J.W.K.c.c.l.-.j.l.>X4X&.:.v.B.N.F.F.W.:XW.E.W.W.W.B.,.V.6.&.=.3XP.f o.X.X.J f f j j j O. .1.>XMXUXUXiX~.j O.O.a N J =.=.#.O. .N a d p 4 ; # +.6Xs < d < < ; # o q.q.. o o # # % & # o o o o . o o o o $ o . o o . + O % o . O & @ . . . . . . . . . . .   0 '.@ . o o o o o o > q.7 # # > > o o o o . o % % o # # > > o % 9 # # % # 8 7 # - - , 2 - , w f w h f w < - - # # # # # # # : 8 # 8 ; # - - ; : # - < w 2.U K f y y y h s - - , , q , , bXwX# r r t y U { P /.Y.P P P P P Y U *.:.:.l.v.N.N.N.N.B.V.>.-.m.N.N.N.z.n.l.&.4.<.Y Y I I U *.X.Y Y *.Y P H y y p +.JXUX7X..>.v.v.:.<.Y H <.<.y y f y f y t i , Q R w q y K U H U <.U P Y J Y H f Y @.K L L L K , w L H H <./.K w w 2 , - - - - 1 lX].- - - - - - - - - - - - - - - # - - - - - , - - - : - - - # # # # ",
"        . . . .     + . .   . . . . . . . . $ ; ; o o o . + + + @ . O & o & o o o # # 7 s.8 # , - - - - - - - 1 , w f U 3.:.&.&.-.-.c.c.Z.Z.$XJ.:X>X$X$XW.W.E.E.%X%X,X*X%X%X*X%X:XJ.Z.A.&X*XW.G.B.N.Z.Z.H.K.K.D.D.Z.1XVX>XH.H.D.D.J.J.&X1X,X&X-X;X,X=X&X&X-X*X+XJ.A.K.g.1XLX4X] D.c.Z.J.$XH.H.D.N.l.v.-.:.N.>.N.N.E.B.Z.W.W.W.E.E.E.E.B.m.,.M.6.*.1...o. .J L  .J f j O.j j #.7.!.6XFXvXp.#.#.#. .| #.X.=.>.1.O.j  .g p p p 4 < s b < ; < < < ; # & 8 & o o o # # # o # $ # # o @ o o o o o o o . o . o o o o o o 0 0 . o o . . . . . . . + . & Z + o $ o # o o # : s.9 o # o o o o o o o o o o o o o & : > 9 # # # # # # # - - - - - , - < w f y w < , - - # # # # : : # o o > 3 # # - # - # # , < f K L H ~ L f U h , b h , q q , , hX9X- - w y U H U P ) b.H P S ` } P ` Y P v.n.n.N.N.l.:.v.B.M.N.v.v.N.G.N.l.*...*.Y P U P P X.*.I X.J J P P P H f p O.MXMXP.&.>.l.>.>.:.*.J 2.P.U y H y y y K K q ~ h , w y h K U P L J H J H J L H @.7.f f K y f J L H U Y U t y y e - - , - - , - - - # - - - - z z - - - - - - - - - - - - - - : - - 1 - - - # : # 2 : ",
"  @ .   . .   . `.Z . . . . @ . . o . + Z 8 o # # # o o o o . . % O % 8 % 8 o o o # > o . # : : - - - , - - - - < w H Y :.&.-.>.>.l.F.J.E.$X%XW.,X,X$X#XE.#X#X#X*X;X%X*X,X*X*X#XJ.J.F.J.+X$XE.m.^.E.D.D.H.W.H.Z.Z.Z.J.:XK.K.H.Z.Z.+X=X#X&X-X;X=X,X;X#X-X-X-X&X+XOXZ.A.H.D.>XD.D.K.$X$XJ.+XK.D.G.K.l.l.l.v.N.x.c.F.E.F.Z.W.W.E.W.F.E.B.x.,...(.^.I X.1.@.g g  .L f f d j L L o.7.!.!.eX~.o.7.#.#.1.o.%.7.,.6.o.#.g J  .g g j N B s 4 ; ; - ; ; ; # o o # > : # # # # # # # o o $ 0 & o o % o o o . o o o o o o o . Z Z   o . . . . . . . o + + o   . 8 Z # o # # # # # o # # # o o o o o o # % 7 > > # # # > > # : > # # - # 1 - # - - - - - w f w < < 1 - # # # # # # % # # o B T.c 2 # - - 1 - , w w f Y @.P U U K w , ^ E , u q t q # # 2 , w h ~ H S P P Y <.` P [ [ [ U <.2.*.M.H.z.n.l.&.n.n.N.v.>.l.n.Y.Y.>.4...J f H P P H J H P U J U H P S f f f J U Y 4.4.4.>.>.*.&.*.I *.<.P J H U f y L y y t E h w w y 2.<.y f f f f J J J f y w w w y t f K y H H H K y q q , , - 2 v - , r r , - , 1 - - Q w.- - - - - - - - - - - # - - : - 1 - # - : # # # 7 > ",
". . . . . .   0 LXNX. . . + . & .     o Z 8 o o # # o o o o o o o $ # o # o # # o o # o # # # # # # - , - - < , - t Y :.*.:.>.m.l.N.E.E.$X%X*X:X%X#X*X*X#X#X%X%X*X,X;X,X1X;X*X#XJ.F.F.#X#X$XF.,.7X>Xz.>X:XD.F.Z.c.K.H.z.z.C.D.z.z.$X1X#X&X-X;X;X-X-X-X=X=X-XOXOXA.A.J.H.Z.g.S.D.H.$X:XK.H.D.D.K.z.l.N.N.D.c.c.G.W.E.W.E.E.E.B.W.W.B.x.m.>.=.=.4.=.=.*.X.J J  .L g j d g  . .o.M.!.R.7X(.=.6.=...,.7.7.%.7.o.| X.J ..o.#.#. .%.%.p 4 < # ; ; ; - # o . o > 1 , # ; > ; $ # # ; ; > # # o % % o o o o o o o % # o % gXfX@ & o + . . . . @ @ o . o O 8 3 8 o o # # # # # # o # o o o # # o # # # > : % # # # # o # : - # # - - - - - - - - - 1 < < w r 2 , - # # 9 : # # # # # # $ > : - - , # - , , w y w L <.Y H H U t t , q t t t t w w 2 o , y t y H P S S H ` ` ` _ ' ` G MXJXb.>X>Xj.n.v.4.v.l.:.-.-.b.v.>.>.>.4.*.*.Y I I P P f y L H f H H f f y f U <.S P 4.4.6.4.*.&.4.:.I 2.<.J U Y H f f H H L E E h w , w h h f h f y f J L J f f p w < , q y y t y f w w i i , , - , # , - - , 1 , - , , - - - - - - - - - # - - - - - - - : 8.r # r.rXn - 1 - - - # ",
". . . . . . . @ XX'.. + . . . + 8 {.Z . o o # # o o o o o o o . o o o % # # # o # o o o o # # o # # , , , r w h 5.Y *.:.>.>.l.N.l.N.W.J.E.%X;X;X*X*X%X*X=X%X*X*X:X,X:X*X,X,X=X$X:XE.E.+X&XZ.tXZXPXZX>X1X:XH.D.K.:XK.K.D.z.k.z.C.Z.Z.+X=X;X,X,X,X;X;X-X&X=X=X#XOXA.OX+XJ.A.D.H.C.K.J.D.D.D.D.D.H.z.l.:X^.c.D.F.W.:X:X$XW.Z.E.F.F.W.F.;.m.M.=.....=.1.J J L J  . .j  .j g  . .X.7.R.R.!.R.6.=.=.(.6.7.7.o.o.| | | o.7.1.1.1.7.1.L p p ; - < < < ; # o o o # - - # # - ; 2 1 - ; ; 2 - - 2 % # # o o o * > # o # 9 fXUXUXqX% & % @ @     + @ O o & o 3 # o o # # # # # # o # # o o o # o % : # % ; : # # # # # # # # # : - - 0.1 - - - - - - - , < w r , - - # o 8 % o # # o o # # # # - 1 - Q W , w t f f J H @.Y H y y t t y K S K K K , a. Xh t U H H P 5.3.H P Y [ ` ( ( P kXZXb.:.b.n.:.v.3.j.l.v.>.:.4.4.:.) :.>.=.*.:.&.I P P H 2.Y y H y f j L f P Y H P.Y.*.4.1.*.:.*.4.*.*.P U ) Y U J H X.Y H L h f h w , , , w w h y y f K K K h w < b s , , e , w w , , , v v e , # n a.- - - - - - - , - - - - - - - - - 1 , - - - - - - - o i.1 o ].DXr., p , p < - ",
". = . . + + . .   Z 8 . o o o   fXUXDX& . % o o % o o o o o o o o o # # # o o # > o o o o o o o # # ; , < d - wXPX7XI 4.>.&.>.N.N.F.E.E.#X*X*X;X,X;X#X*X,X,X,X:X:X:X*X*X*X%XtXpX$X:XE.$X&XA.uXJXGXnX>X:XH.H.z.D.:Xz.D.z.z.z.z.z.H.>X=X#X,X<X<X,X<X<X;X-XOX&X-X&X+X+XOX&X+XA.S.k.Z.D.D.Z.c.D.H.Z.z.D.K.N.c.W.E.F.>X1XJ.W.J.W.E.F.B.N.^.M.m.4.X.I ..*.J J ..L g g  . .j g J | o.6.m.6.^.!.J (.uX(.6.6.6.=.|  .o.o.1.,.=.6.1.o. .g a p < 4 s < < 2 ; o o o o # ; ; - # - 2 s r < < s r < 2 : # o o & % # # o # % % s.FXDXZ o $ o & X 0 C . o o o o o o # & # o # # # # # o o o o o # > # # : - # % : : 7 # # # # # % # - # - n 2 - - - - # # 1 z # - < , , # # o o % : # # o o # # # : 1 - - U.U.q t K f f f f H H H H U y y y K U t q K w DXUXrX- y P U P /./.S S U U U ` 3.[ ` P ` [ P P [ :.v.v.v.>.&.*.:.&.v.>.&.:.:.&.>.4.*.Y H H 2.f f ~ J J L L f f 5./.JXGXJ I 4.4.*.I X.Y Y Y Y <.*.J Y X.L *.X.J y h w r < , , r w w w y h f f f < , , 2 z , , , - < , - - - - - r , # n U.- - - - - - - - - - - - , , - - - n n - - - - - - o r.NX{.- , , e p o.o.p w < ",
". C = . + . . o + Z & + o # # . XXLXcX@ . o # o # o o o % o o o o # # # # # o o o o o # > o o # o ; $.h j j w 3XCX(...>.*.&.>.l.N.c.Z.J.#X*X1X,X;X;X;X*X;X,X,X%X*X#XJ.$X:X=X1XtX$X>X>X&X&X$X^.^.>X/.l.D.N.z.C.k.k.N.z.z.D.D.k.z.H.,X&X=X;X<X<X<X<X,X;X#XOX+X&X=X=X+X+X&X+XJ.A.A.Z.D.D.Z.H.J.$XD.Z.Z.H.D.H.J.W.F.>X1X$XE.W.J.J.F.N.N.^.V.M.M.=.*...X.*.o.o.L g J  . . . . .o.=.6.6.,.R.R.o.!.|.o.M.6.=.=.7.o.=.7.6.,.=.=.o.X...L L j p s s w < 1 # o o o o # # - - - 1 2 s w w w h s w - - # # # & # o o o # # o   s.y.  # o o o   y.oX& 8 # > m o o & # o % # # # # o # o # % # # > : # : - - # - % > # # ; : # # # - - - # - - - - - - # o s.rXQ , - - # # # o % > # # # # # # # # - , , r y y ~ U L p.|.2.y U q 2.$.H Y y t { nXiXt f lXJX|., S U [ ` P S <.2.S S S P P [ [ ` [ P S Y H ( b.v.v.:.*.*.X.*.*.&.:.>.:.>.>.4.*.U H y y y K L L Y H f f f P.3XiXiX5.H <.4.I I Y I I J Y <.*.J Y <.I J X.Y H t w < , , , w r h w j E w h < w w - - 1 - - - - - , - - 2 - # - - , - # , - - , - - - , , - , - , , - - - 2 1 - - - - - - z cXUXGXi., , ,  .aXnX=.w w ",
". O . . . . o o o o o o o & # o # q.> . # o # - 2 2 # # & o + 8 > # - , - # o o o # # o o o # # - - ~.3X@.2.J I ) &.>.>.>.>.l.l.N.N.c.F.E.#X;X*X;X,X;X*X,X=X#X&XOXF.G.G.:X>X1XtX>X,X<X-X#X:X^.c.G.G.N.) I n.z.C.z.z.l.n.D.S.S.D.K.J.#X-X;X,X,X1X<X;X=XOXA.:X:X&X-XOXOXJ.K.H.+XOXC.J.$XJ.J.+XH.H.H.c.D.H.+X#X%XF.1XpX,X%XW.F.W.G.N.N.G.m.M.B.,.x.,.&.>.=.o.X...J  .X.o.!. .| o.X.#.7.=.,.7.%.o.7.7.7.=.6.1.=.6.6.6.=.X...o.o.L L L L p w w p < n : # # # # # # - , , v r $.b < w s d h v - # # % o o o o # o o # o c c o 9 8 . o o o & o o o o & o o c '.% # o # # o # # - : : # # # # # # , 1 - # # # $ $ $ # # # # - - , - - - # - - - - o r. Xr - - , - # # # o o # - - # # # # - # : < q y ~ @.K p.3Xp.L t K y K Y I U ` y ` JXZXt K K 2.y S H U ` ` ( S 3.5.y t t t H P ( [ y U.GXU.y [ 3.:.*.:.*.) I >.v.-.&.&.:.:.:.&.) I J f P Y Y U J J J f J X.@.J t H <.Y I U H U U U U H H *.U J X.X.*...I ..H L h w w < < w h h w w < - $.r r r , , - , - - - - - -   z Q 1 2 - - - r v - , , , - - 1 1 - , , , - 2 - - - - - - - - - , > a.MX Xr , e ,  .aXnX=.< < ",
". . . . O @ o o o o $ o o o o o # . o % o # % 1 k v r 2 7 7 & q.> # : # 2 # o # o # # o % # o # - , h 2.U Y I I *.*.&.>.m.v.l.N.l.m.E.B.F.F.E.*X;X*X;X*X:X^.E.x.K.G.m.tXtXtXJXUXZX7X,X-XA.>X:X+XC.k.` >XtXn.C.C.z.z.z.H.D.H.K.G.K.A.#X;X-X-X;X=X;X,X=X&XOX:X:X;X<X,X+X+XH.+XH.=XuX,X$X=X*X&XJ.A.c.Z.H.J.+X=X,XW.7XnX7X>X%XW.:X:XN.c.x.N.x.x.m.B.V.m.6.,.=.X.X.J #.#. . .g a  . . . .%.=.=.6.o.=.%.7.!.1.....=.=.o.X. .L  .@.X.L f g p p s p p Q s , , ; ; ; ; - , r s < s s < < d < 2.d.- - - % o o o o o o o 7 7 > > o > & o o % o . o o o o o o . fXUXf.  # # o o # : - # # # - % # # - - # - # # # $ $ # # # # - # - 2 1 - # - - - - - # z z 2 1 - - - # # # o # # # # % # o % : # # - < @.7.y y ~ H t y t , u.~.P ) Y 4.` H 2.! t U y q y y S U U P P S S S t u u t U ` [ ` t U.cX~.DXMXP I I I Y Y Y >.>.&.&.I &.I I Y Y I I I P *.X.I *.H f J X.Y Y Y P S H U U H H y y U Y H P y y J J Y X.*.=.*.L J f w w < < w w p w - s s 2 < < , , , , , w - - , 1 -  X].# r 2 - - - 2 2 , r - - , 1 - - - - , , - - - - - - - - - , - , , - i.r , , , e f o.=.a w , ",
". @ & + o O o o o o o o o o o o # # o # # : 7 k 1 2 z r x 2 1 # % # & B # o % c > o o % > % # - , < h f L L Y <.) I &.&.>.v.v.l.m.m.N.B.J.W.,XuX%X,X*X%XR.iXFXeX,.m.l.tX7XMXUXIXUXiXK.&X+XF.N.D.S.k.D uXVXj.D.S.C.z.z.D.D.D.F.D.D.A.#X,X<X-X-X=X=X=X=XOXOX+X:X,X-X,XpX&X+X-XJ.tXAX1X+X,X,X#X:XD.c.Z.K.K.$X:X<X1XtXZXkX>X,X:XW.W.K.N.x.m.>.,.,.B.V.B.B.!.,.X. . .7.#. .g  .O.g g j 7.7.%.=.=.=.=.%.=.7...J J o.o.J  .j g j j Y 2.L f p s j s w < < s s r h h w w , w w , - , < < < w w 1 , - : # # o o # o o o % : o o o o o o o & > . o o o o o o . '.gXA . # # # > > ; # # # o # # - : 1 1 2 : : # % # ; 2 - # # # - - - - - - - - - - - - 1 - 2 ; - : - : : # o o o : # & % # # # o # - r j j eXnXp.f ~ H S q ~ 2.S ) 4.*.P U S y U y t t t q t y y y S y t y t u t y P P ` P P t # ^ DXnXP P P H P Y <.<.*.) &.I U P P U P P P U Y Y <.<.Y 3X5.y L L P I H H H t t y y y y H K U H ~.P.q L @.*.6./.o.L w w s s w < < w d , < e.E - < w , , < w < , - s - , # mXrX. - - s : # 2 1 - - - - - , , v z 1 , - - - - - - - - - - - , , , r e., # e - - w p < w , - ",
". . o o . . o & o o o o o o # & o o # # # 2 z 7 '.gXjX[.z v n 2 :   '.DXV . > 8 % % o # % % # - , < j L w w H Y J Y 3.&.&.*.:.:.>.N.B.B.F.J.$X:XW.tXW.F.R.JXUXMX..>.v.l.m.iXUXUXUXiX:X=XK.V.^.M.-.n.` M.Y.n.D.H.z.N.l.z.J.A.z.z.z.C.J.-X=X=X&X#X&X-X=XOX&X$XW.;X-X=X<XOX-X-X-X=X,X,X,X=X&X=X&XJ.A.F.K.$X:X>XtXtXbXUXIXpX1X:X^.E.+XF.B.x.m.,.^.E.B.V.M.V.=.J L g g g L  .N  .a 7.#.7.#.7.#.| 7.M.,.X.o.o.J J L L g < < p j f f K f h h p s < < w w f K ~ L U f f h w h w w w w w r , , , - : : > # o & % . o # o % # o o & & o o o & o o o o o # # # o . # : : # # > > # # # o o # % : 2 - 6 kXs.o # # # +.n : , - - - # # # # : : : - : - # - - # # # : # # # o # # - e o . : : - , 1 # e h , p.UXUXlXq ~ t H K t t ) ` *.` ` Y Y U H t q K ! q q q , q q q u , I.u.y S S G P G S t R i S Y Y ) P H H U ` *.Y I Y Y U H U U H H I Y Y Y Y *.X.Y.2.H 5.<.f f P H y y y y y y y y y K f ~.p.q @.@.@.1.1.X.f p w w < < 1 1 < b s < r < h w s w < < < , , , b 1 - - : 1 - - 1 x : # - - , , , e , , q r e , , - 1 2 - - - - - - - 2 - - 2 , -  X[.# - - - 2 - - - : ",
"o . . . o o o o o o o o $ > o % o o o x r v z '.KXUXUXLX5X0.h , # o 0 ].> o o # # # # % o # # # - , < < p.}.w y f P Y *.<.*.*.>.:.&.:.v.j.l.K.G.c.G.G.B.v.eXMX3X>.v.N.N.K.>XnXGXbX>X=X,XG.!.JXMX` b.:.) &.n.S.S.N.N.z.z.H.A.D.N.z.D.H.+X#X#X,X<X&X=X-X-X-X,XW.-X-X-XOX-X-XOX;X;X&X,X;X-X;X=X&XJ.J.J.$X&X>XtXuXpXGXUXIXbXtX1X^.W.J.D.B.B.R.R.tX>XB.E.B.>...J L L a O. .g N g N %.|  .#. .g o.=.!.7.=.o.o.g L O.L p U.~.j j h K h y h h p f w w w w y f <.Y J U L f K y q $.K , h h , - # , - : > & # # o & # o o # # o o # o o o o # o o o o o o # # # # # 1 - # - # # # # # o # # # < s < ; y.9 o # - - - - 2 +.- - # # - - # # - # x : : : # - # : # # # : > # # # 2 - r.9Xc # - r z - r h < b CXPX6Xw y t y t t S H P ` ` H <.{ U y y t q t t q , , , r r q , U.u.t D F U U G H D q t y H :.` Y U H H U P H J U U y H U U H H P U U Y I Y H I Y Y X.U J H f f y t w w h y t t t y h f f h h h f f L j p p w < , - , - # - 2 , , h $.f h h w < < < < , , , - : # # : - - # # - , e u i R i i i q , - - 2 , , , - 1 2 2 , - , z , - - - # hXhX. - - # : : # : # ",
"o . . o o o o o o o o o $ % # o o o o s s r n NXUXIXIXUXFXe.r , - # o o - - : # # # % % # # # # - , , - w.d.w K f f U U *.2.:.>.&.Y.M.I -.j.n.n.j.m.V.*.v.>.P >.N.n.v.N.:X>X:X>X:X,X,X+X>.P.CXzX3.[ G ` ` j.k.j.l.j.j.z.C.H.D.l.n.z.S.J.J.C.1X1XA.&XOXOXOXOX#X-X-X&X-X-X=X=X-X,X;X-X-X-X;X=X*X#X#XJ.#X+X=X1XuXJXUXUXIXVXtX7X^.c.G.N.N.B.B.B.x.B.B.x.B.=.o...J  . .j g g  .| o.o.o.| N j L  .#.X.X...J J N j L w $.LXPX@.p J H Y @.@.f f f K h f f f f L Y I I L f H K ~ E h w < , - z r.- - # > & o o & '.9 . o o o o # o o o o o o # o o o o o # # # : - : - , - - # # # # # o # ; < w - ; - - - : # - - - - ; # # # # # # - - 1 A 2 # % - - # - 2 : # # # > : # % # 2 GXUXjX# , - - - , w < < E u.w h y h t t i y y U Y <.5.{ Y H t t q i w q q q , , , w q y t t ! U U U P S U } y K S P :.*.Y P U P P H H I Y U f y f H H H P U U U Y Y H J Y *.Y H f f f w w h i e q y K h q t w f h j h w p w w < p < , ; - - 1 : # - - , r b h f h h p s w s r , - - - # # : : - # # - , e F ! ! i i W R u e , , , , - - - - - - - - - - - - - - - # # 2 - - # % % : # 7 ",
"  $ o o o o o o o o o o o # # o . . # - , v r.GXUXIXIXUXPXa.r 1 # # # # - , # o # # # # # # # # 1 , - - # # w $.K H U 3.<.Y *.4.:.m.v.:.V.:.j.v.>.&.I Y &.v.m.4.j.N.v.m.G.:X>X>X,X-X*XH.v.:.&.) b.b.P P ` [ j.-.:.` ) z.D.n.:.:.:.[ n.H.Z.Z.Z.Z.J.+X+X+XOXOX#X=X*X$X*X=X,X=X=X,X*X-X-X;X;X;X=X$X#XJ.*XpXnXVXGXUXUXUXUXUXGXVXpX>X>.l.N.N.m.B.x.x.x.x.m.=.X.o. .J J g g | | 7.7.o.o.o. .j  .@.o.o.X. .#.j N N L f @.bXzXj g L J X.4.1.Y @.L 2.L t w f f f L J J f J J L 2.f h s < , - z r.# : : [.t.. o o 9 & o o o o o o o o % # # o o o # # o # % # # - - o # , - - , - # # # # ; s , h |.%.< < - : # # # - ; 8 % # # # - - # # z f.; # # # # # # - : - : # # # : - - r BXUXjX# r - - - , w w h < , p w i h q i w q ~ Y t 7XVXS H H y t q ! i q q q , , e , q t F U } { U P P S S S S U U ` [ :.` ) I J P I I :.4.Y J H t H H H U <.<.U J H f H H H H U 2.K y f t w w < , y K K t w f $.h h < , < w , < < 1 - # : : % # # # # 1 r s w h h s p < < s 1 - - - - # : : # - - - , e u ~ ^ }.kXhXf.v R r , e , - - - - - - - - - - , - - - 1 - # # : # # # # # # - 1 ",
"  0 % . o o o o o # o o # # # o . o # - , Q Q cXUXIXIXUXNXa.r.- - # # # # 1 2 : - : , : # # # o - - # # , , w h ~ y Y ZXGXL I ) ) J *.4.v.:.>.4.:.I J Y ` ` X.X.4.N.l.l.N.G.W.:X$XW.K.D.l.) ] ] [ ` H U P ` [ [ P H P j.j.-.:.*.P P -.j.z.n.z.D.D.H.+X+X+X#X&X#X$X$X-X<X=X-X,X;X=X;X;X,X-X-X=X&X#XA.$XtXtXpXVXIXUXIXUXLXzXeX3X(.6.>.l.m.V.R.R.c.x.B.m.=.X.X.X.....X.o.o.7.R.|.7.o.o. .#.#. . . .O.j ~.~.p O.@.L L p f g L J X.=.=.*.1.*.X.Y K t , f h f L g X./.P.L f y f w < < , - # # # 2 : 2 2 % > c o o o # o o # o # o & % % # o # % # # # : # - 2 - r.i., < , - - - # # : # , # p.ZX7X- ; , # # # - # # 3 0 : # # , , 1 n - - # - : - # - # - 2 - # - z 1 - - k r r.qXy.7 i e , - , r h K u.w w , , , r < - , q K q wXVXt H H t q q i q t q q , , , l u t t { _ G S S S S S S P U U P ` :.4.&.&.b.4.&.>.>.*.I I L y y f P X.Y X.Y P f f f f y t y @.h y w w w w , , f t t f h J @.h w < , r h , , - - 2 2 % % % # # # # - 1 s h s w < < , < 1 - # # # # # - # : - - - q q h v  XLXUXUXDXs.v i , 2 , - - - - - - - - - - - - - - - - - - : - # # - , 2 - # ",
". o o o o o o o & > % # # # o $ o # : - , 2 z f.BXUXUXHX].2 z , - # o o o 2 x 1 1 s : # # # o A x # : # - , , h U f ~ CXCXL U I Y H *.<.I *.*.*.:.P H H P I J X.4.l.l.:.l.D.D.W.E.G.V.v.v.1XD.j.j.[ H H P _ [ ` P H U [ j.n.<.H P P [ ' n.S.z.D.H.H.H.A.OX&X&XOX+X&X-X-X&X,X<X<X,X,X;X&X=X=X*X,XJ.J.$X$X:X1XtXnXLXUXJXkX7X1XK.B.M.m.j.B.V.B.E.E.E.m.,.=.=.X...X.=.=.=.o.7.=.=.=.,.o.g  .#.O.a h p j MXJX6X< @.X.f f a  ...J ..*...*.=.:.Y J K $.w < < h %.L f GXkX, H f y w w , - - - # - # - , - # 9 r.o o & 8 > o # # # o # # # # # : # # # # # # 1 # a.LXLXa.# , , , - # - # ; , , h /.p.d - 1 : : # # ; # o 9 : # - 1 - z r.- - : # # - - # # - - - - - z 2 - , i ^ r ].r.n R i e - , e t h ^ , , , , r - r Q - , q q Y <.U H y t y q q t u t , , , , q u D D U G G P ` P P U P G P U P ) :.4.&.) 4.>.*.>.>.&.*.*.P U ~ P J I H J X.L y t w f t w t , w h w h t , P.I.y u.~ H Y J f f w p < < , - , - # > 8 # % # o o # # : ; 2 s 1 , , , , - , - - # # # # # - - # : - q u v 0.FXUXIXUXUXhXr i , , - - - # - - - - - - , - - - - - - - o s.s.# # , ; o - < ",
"# & o o o o o o # # o o # o > # # # : - # 1 z r 0. X9X0.i.]., - - # # # # # # - , 1 - - # o s.y.; o # # - , w y y L Y U U L U Y Y H Y *.I ) ) ) *.H H <.` ) y H :.l.l.>.N.G.F.J.F.c.x.>.M.>XN.j.:.) U I ` j.:.( P P ) g.j.b.U H G _ ' z.S.H.H.A.H.D.S.H.+X&X#XOXA.OX-X>XCXZX1X<X<X,X,X-X=X%X#X$XH.D.H.:X:X>X1X1XnXJXiX7XtX<X>X^.K.G.m.B.V.B.R.E.R.m.>.=.o.X.*.=.1.7.o.o.%.o.o.o.=...J  . .j p 4 ; +.LXUXkX- @.L J g g  .X.*.*.&.=.4.*.I J H K L w , , < w h X./.Y.H H f f w w < - - - # - # - 1 - - - - # . 0 q.o o o > % o # # # # - 1 - # # # # - - # s.UXUX~.o , - - - - # # # - < , - - i.e.# : ; # - z > % # # - 1 - - - 2 z - - - - - , - - # # - - - - - , 2 v l  XHXgXn Q v , # - , w , - < , r , 1 - 0.r.# , r q K y H U y S i q q q q q q , q e q q y U G G G ( P P U Y U G P P P ) &.&.&.I H I &.v.B.>.>.:.I P Y X.I I X.I J f f f w r w w w , w y f f K w 2.u.H }.P.J J J J L f p w < - - - - # # o $ % o o # o # # # # # # # # - - - # # # # # # - # # 2 : # , , r k q.PXUXIXIXUXxXr i e , - - - - - - - - - - - - - - - - - - : x c - # - 6 rXs.. ",
"& V & o o # # # o o # # o > Z & # - # # # - 1 r l 1 e - a.).- - - - , , - - - , , , - - : # s.9 # A : # # , < t y H H y f f H U H U { Y I ) :.` I H H L ` b.7X7.P j.l.m.B.D.D.J.W.F.l.^.^.l.n.l.-.` [ :.-.n.n.3.` ` M.j.j.3.H y P ' ' S.S.S.+XS.H.H.S.H.+X+XJ.J.J.+XOXiXUXUXiX=X<X=X&X#X#X#X+XK.H.K.Z.K.K.H.>X:XtXGX7X4XtX:X^.^.:XG.m.B.B.B.E.E.E.B.m.6.7.1.X.=.1.1.o.| X.g | 1.o.o.X.1.#.d 4 4 6 ;  XrX+.p X.J f f g L @.1.*.I 1.4.X.X.J L K w r , , w q y L y H X.Y P H y f w , , - - # , # - 1 - : - # o > $ o # # > : # # # # # : 1 - - - - - - - 1 2 ].~.; , - - - - - - - # - - - < - b n # : : - - 2 # 2 - : 2 , - - - r n - - - # - - - - - ; 2 - - - - e e 2 _.PXUXUXrXQ Q , # # , s , < , - - - 1 z 2 - - , r i t H H U U P t t t t q q q q q e q t t U U P P P P I ` P P U P P I ) &.:.:.` I I &.m.m.:.:.*.J *.5.X.*.*...J U J f y w w , , # , $.mX}., K H y P <.X.<.*.......X.L j L < - - - : # # # $ o o o o # # o # o o # # # # - # # # # # - - - # # B z # - , e v n lXUXUXUXUX5Xu ^ e , - - - - - - - - - , - - - - - - - - - # # # - o 6 0Xa.% ",
"o # # o o # # o o % # # 9 # $ # # # # # # # - 1 l i e r 2 # : 2 , , w t w , < r w , - - - o o . A {.2 # - , w y K y H L H f H H y H U P *.:.` ` I J H U P M.JX6Xq l.j.>.l.l.N.K.:XF.c.K.D.H.H.N.n.D.K.z.n.G.K.Y.b.3./.v.n.[ Y Y _ [ h.g.>X<XC.A.S.C.S.C.Z.A.A.J.J.+XOX1XCXCXtX<X<X*X#X&X#XOXJ.W.D.:X$XZ.K.H.K.G.7XnX4X1X1X7XiX7X^.^.B.N.B.R.E.W.E.B.,.=.!.P.*.X...o.J g g ~.!. .#.#.1.o. .a 4 4 2 ; # - < h J J g f f g L X.*.I X.1.X.X.J L h r w r w t q y J I J Y Y U P U h t , - - - : - 2 z , - - # % # o o # ; # # # # # # - # 2 1 o # - - , , - - 2 # # 1 - - - - - - # # 2 c : z , - # # # # # # - - - - - 1 2 - , , , , - - - - - - 2 - - , ; - - , , w , , l w.mXUXKX].l i , - - - - - 1 1 1 - , - 2 n - < , q q y y H P ` 3.S t F u q q , , q , q t t K U P ( ` tXP.` Y G } ` P :.4.*.*.) P P I *.4.>.&.:.*.U <.4.*.=.*.:.*.Y L H y w e - b }.- e.FX6X- K U H Y Y ` J I ..X.X.o.J f p , - o # 2 # # # o o o o # o o o # o o o # o # # # # # # % ; : - f.2 : ; - # - , h ! u.bXHXHXrXQ ! i , - - - - - - - - - - v 2 - - - 2 - - # - - - - # % # o # 9 ",
"& + % o o o o # # % # > c ; # # - - # # # - , w q e , , 2 1 - 1 , q t t t w , , < e , , - # : # : - # - , e w y y y H U H H H P P t y H <.3.` ) ) ) I ` :.) 5.2.*.>.>.>.&.>.M.B.G.F.F.N.N.D.D.G.H.H.:X:X:X:X:X:Xb.(.nX!.) ' b.} ( [ ] g.:X>XC.z.C.k.K.D.k.C.J.J.A.+X-X@XK.K.>X,X,X=X=X,X+XA.J.H.K.K.F.K.K.H.D.>.>XpX>X1XtXJXUXLXiXY.:X^.F.F.B.B.B.B.>.=.4.6.1.X.L d 4 ; ; (.~.g #.o.1.#.N p 4 ; 2 > - s w j $.g j  .g L L ..X.Y Y <.X.I Y f y h h h h w y f f H I *.Y Y U H y , s ~.6 # , - b E , - # o # % # # # > ; # # # - - - - - 1 [.t.o # - - 2 1 - 2 , - - - - 2 2 - # - : 2 - 7 1 - # - : # # - - - - - - - - # : # # , < - < w , , , - , - - - - - z v , r i r Q lX].e v e , - - - - 2 , 2 2 1 - - 1 z - - , , , h t y S P U S D t u t u u q q q q t K H S P ( :.>Xb.:.[ ) :.&.:.:.:.*.Y Y f f Y *.:.*.>.4.*.*.*.*.4.:.:.V.Y.J J U U y w , Q }.w , t q U H U U H y H ~.@.L L Y L h h p < # [.9Xo ; # o # o o . o 8 & . # o o o o > % # # # # # # : # # A 2 - # - - - , r ! R ! U.u.v R l e - - - - - 1 - - - - - 1 - - - 1 2 - - - - # # # # # # : % # ",
"& + o . o o o # o # # % ; 4 ; , 1 : t.9 # 1 , - , e e - W 8.- , , w q t y t , - , < , - - , - - # - , , , w w y y f y H U U <.Y U y y U Y ` ` ) ) &.&.I I ) H I *.) 4.v.&.:.l.x.N.z.N.^.N.K.D.D.G.G.:X>X1XiXyXtX7XGXUXMXY.g.' _ ` ) ( ' [ g.@X@Xk.k.D.C.S.D.H.S.C.+X:X,X-X*X=X:X=X=X+X+XJ.J.D.C.H.D.N.D.D.H.D.l.^.uX>X>XCXUXIXUXJX>X7X>XN.c.x.x.M.m.;.>.=.&.=. .p < ; B d < a  . ... .#.j p s < 2 ; ; s < d O.g j L L  .....J H H U Y J J J f L L f f f f L h f L Y U U U K q , 2 n : - , q w q , - o o o # # - - - : - # z b # - - o 9XUXKX9 . : 1 r.r a.v , - - - - n n - 1 2 - # - - - - # # - - - - - - - - - - : # o 9 lXa., , w w w , , , - , - - - - , e , , r l e U.w.v r , , - - - < < w , , , - - - # - - , , , h y y S U S y S F y u t t u t t t t S U P ` ` 3.( [ [ :.j.-.:.l.:.) H t Y Y H I I *.Y :.>.I I I Y.v.>.m.v.>.I I Y U S y t , # , , , y { P U { f w f eX2.w h f f h w s r # [.9X# ; ; % # o $ 0 % Z 0 . & # o # # 9 > # % # # # # # # # o # # 2 n - - - e r r R v e v e e , 2 n - - - - - - - - 1 # - , - , - - - - - - - # # # # - - ; ",
". o . + O o o o o % # # # # # # % % q.8 - 1 T sX2Xe , - , , , 1 , , , w y q , , - , , , , , , - , - - , , w i h f t t t t y U H t 2.~ w H Y ` I P I ) Y H <.P.:.*.I *.:.&.:.N.N.m.B.m.N.K.K.z.N.K.:X:X:XnXIXUXJXiXzXLXiXV.S.` Y ` ( ) [ g.g.@X>Xg.k.z.z.K.H.C.C.C.S.+X+X+X:X=X+X+X-X+XOX+X+XD.z.j.n.H.l.z.$XK.H.W.:X,X<XZXUXIXUXJX4XW.W.G.N.x.x.,.>.&.=.*.*.*.J p < - e.B < g  .L 7.#. .a O.b ; ; ; ; < d d j L L J L ........L J H <.<.H f f f f f w w w h h f J ~ U f f h w - - # - - 1 , i w , , # # o # # - # - - # # 1 2 - 2 - o  XUXLX'.% 2 r 2 r 0.2 e r # - - - - - - - - - - - - : # - - - - - - - - - - - - # # 9 hXr.# w y w w r e , - - - - - , - - , , , e , U.w.e e , - - : 2 s < < < - , , - , - - < , , , w w y y H S S F K i u y t t t t t t t U ` ` ` ` [ :.:.v.l.-.>.v.4.I 7XyXY X.Y I *.4.I I *.I I *.P.:.4.:.:.*.I I H H H K w , e , , q t H U H S y f y y y h w w w p p w < , - - - ; : % # o 0 '.* @ + o 8 # # o o % # # # # : # # % # # : # # : z # - - , , v ^ i v 1 e - - - 1 - 1 n 1 - - - - 1 , - , - - - - - - - - # # # # # # - ; ",
"o o % o o o o o # % # # # # # # # # o ; - # _.KXSX9.- e , , , r 2 w q q q w , , i e , $.E e , , , , , q q w t y y t t t y t K y q W K w y P ` ` Y ) Y I I Y I *.:.*.I I ) &.N.v.>XCXMXY.K.H.N.4.v.K.tXpXIXIXIXUXGX3XiX^.Y.^.<.Y ` ) ) ' [ ' ' ] z.S.z.S.S.k.k.k.z.S.S.S.A.+X+XA.OX+XOX+X+XK.D.@X@XD.D.z.H.H.+X$XK.J.,X1XiXLXUXUXbX>X:XW.G.G.B.:.;.*.*.>.*.=.=.@.f j n ; < a j  .g #.#.a j O.4 ; ; < 4 < < p j L  . .L X.X...X.L H H L L g f w , < h w < < w r f w h f w w w w r , , 1 # o , w r w - # # # # # # : 2 - - - # - - # - % - ).q.fX[.o - , n - - , - - - - - - - - - # - 1 - - - # 1 , # # # # - - - - , - - - 1 - , < w i h w , , , - - - - - - , , , , , , 1 v r , , - - - - , 2 , , , < , , , < < < s e - , , , w y y D S t t y y D D D D t t y y P ` ( [ [ ) :.v.>.:.) :.3.3.P yXnX3.I *.*.) ) ) &.&.*.:.:.) *.&.>.:.<.*.J y y t q q s v - < , t Y ~ 2.<.y H f f y w h w w w h < < , - - 1 2 # # # # o . + & # o o o # # # # # # # # # : # # : # : - - - # - - - - , , < W v , - Q k - - - , n 1 - - - - - - , - - - - - - - - # # : : # # # : ; ",
". o # o o o # o o % # # # % : : # o : # - 1 T sX2Xl w r e , , , v h , q h w q , u w , R i , q , , w t t t q q t t q q q q q t y h , - h u.f S Y ` Y Y Y P 2.3X4.:.4.4.4.&.) :.I kXUXUX7X] G.:.1.M.G.1XnXUXIXIXUXLXyX7XG.eXJXP.y ( ` ) ' [ ] g.j.j.z.n.j.g.g.g.g.g.k.k.S.S.S.k.C.OXOXOX+X+X+XK.K.K.z.z.z.z.z.J.J.F.G.W.>X>XtXzXiX>X>X:X:XW.F.m.>.&.&.*.*.X.=.=.o.f e.p.d p j  .a ~.U.g g j p < ; ; < z |.b < j 1. . .@.X. .J H L L f J L s w < d.d.- < < r , < < r r , , < , , r 2 2 - a.f.- , e , , - # # # # # - 2 : - - - - - , - 1 # . # 0.n # - - - , - - # 1 d.v : - - - - - 1 2 2 - # # , - # - - - - - - - - , - - 1 1 , r r i w q , - - , - - - x x 2 , , , - , , - - - - - - # - - - , - , r < < < $.b , , , k r , , q q y D y y t t y S S S D D y S y S ` [ 3.3.[ ` ( ) ) ) ) ` *.) P &.>.m.4.>.>.*.:.>.*.m.M.:.:.>.) ) ) U U H y w , q w , , , q w.~ y t /.}.t H K y f f w w h p - , < # e.T.; - 6 ; o # o o o o o o # & o o # # # # # # % & o - # - - , # - , - - - - , , - , 1 1 # 9Xd.- 1 - - # # - 1 - - , - # - , , 2 - # - - # # 7 2 # # # ; ; ",
"o o # & 8 o o o o # o o # o & : o # # - - r ^ q e q q K i , r , , , w q w q q q , q w , e q q q q t y S y t t q t q q , , - # w , , , , w y Y Y Y *.*.I y ~.JX>XH 4.:.4.:.4.:.) (.GXCXP.j.n.>.4.M.:X@XtXIXUXUXUXGX1X1XH.>XiX5.U ) ) [ [ [ [ g.b.n.j.j.g.' ' g.' ' [ g.j.n.S.k.+X+XOX+XJ.H.@X@Xz.j.z.n.n.z.c.H.H.N.m.m.:X>X^.^.:X,X:XW.:XE.B.x.m.>.*.*.*.X.*...X.J p h j f g  .p O.$.N g p p d 4 < p j t.d < j @.L O.@.J f p w j f p h h s < 1 n n - , , - , , - 2 2 , - - : - , 2 # U.IXUXU.o , b r - # # # # - - # - - - - - - - - , , - - # # - - - - - - - - - z , 2 2 - - - - - - # # - - - - - - - - - - - - , , - - # , s , , e , , , 0.v : - - - z [.0.# e , , - - , - - # - - - - - - - , < < w w w h h E , , v k - , w q t y S S y y y S S G S S S S S G ` [ ( _ _ [ b.) ` [ ` I P I &.:.m.m.v.v.B.m.m.:.>.V.M.3.` I ) Y <.I P H t w , w , , , , q ~ ~ y f K @.~ y f y y f w w w w e.b , - +.r.- - ; 3 # # o o o o # o # % # # % # # % # # > % A lXqX% # - - - - # # - - - - , 2 - - - r 2 - - - - - - , v r - , , d.n # - - - - - - # # - # # # # - ; ",
"'.y.o > 8 o o # o o o o # $ o o # - # - # b d.s , q u q q , , , , , r , q q t q q q q q v q q q t S H U S t y t q q w , - 8.U., , r - , - h <.U P Y I Y X.<.P.*.) :.&.) &.4.4.v.:.6.1.*.j.] n.b.>.^.:X:XpXJXUXGXtX>X:X:XN.P ) ` ( P ( [ [ ( ( [ b.b.j.] g.h.' ( ( ' [ ] j.n.k.>X:XZ.J.Z.z.S.H.j.j.z.z.z.z.F.J.J.H.z.N.K.:X:X>X:X&X$XJ.F.F.F.B.m.l.>.>.=.:.X... .L h f L L L L g a d j p d j d d d d < < 4 p p p p L j f w j 2.< < +.s n z , - # - - : : # 1 - : : # # - # # - - - - U.IXIXT.. , $.r - - # # # 2 1 # - - - - - - r , - - - - - , , - - - - - - - - # - - - , - - - - - k 1 - - - - - - - - - - - - , - - - # - z - , , , - - i.n # - - - # - 1 - - - - - - - - - - , , - - - - - < s s h w f w 2.}., , - , , - , K q t S y y y y H U S S S K U U P ( ( 3.[ _ [ 3.` ` ` I I 3.b.&.v.l.-.l.m.B.^.B.:.>.>.*.&.) I Y Y I U P f t , , , q w q q t t t y U U U H y y y w w < w < E VX}.- < - , 2 : # # o o o # % o # # o > % o > # # # # # #   XXUXLXx # - , , - - # # # - - # # - - - - # - - - - - - - , , - - - lX[.# - - - , - - - # # # % ; # # : ",
"Z B o c > # o % # o # o o $ $ $ - - # - - - # ; < w q q , , r e , , e , , w t y q q , q e q q t t S H H P.3XS y q t q , # w.5Xw , r - - , w t y P P P Y <.*.P I &.) *.&.:.*.) :.b.v.:.) ) ` ) ` &.&.n.:X:X4X7X>X:X>XH.tX>X] j.) ( :.` 3.} G P ( [ g.' ' j.n.[ ( ( ( [ [ ( j.S.S.D.A.D.D.z.k.j.k.j.j.z.K.K.G.J.+XA.D.F.D.W.:X^.:XW.W.J.Z.F.Z.B.B.m.m.m.4.>.6.1.X.X.L h h J  . .j N p p 4 j j d p d d s < < < p d p p p w < s +., ; 4 ; 6 - - - - # - - 2 : # # : : # # # # # # - 1 h r a.s.o 1 2 - - , - - # - - - - - - - - - - 1 e , - - - - , - - - - - - - - - w.Q # , , - , , - - z n - 1 2 - 2 - - - o # - - - , 1 : # - - - , - - - - # # - - - - - - # - - - - - : - - , # # - - - - , 1 < s h f L $.w h E w w , , , , , q q t t y y y H U K S S y H K H _ _ ( b.} P G S 5.[ P I H 5.M.) -.:.l.>.N.B.E.N.x.>.>.:.I I 4.I <.7X<.y y t , , q q q q t t y K H S H H U U f w w w < s b h d.E w < < 2 ; - # # o # o o % # o # > 9 0 9 # : # # # o > c n fX X: - # # # - # # # # - # s. X# - - - 2 - - - - , , , - - - - - 2 2 n 1 - - - # - # # : : # # % % : ",
". # > 9 & > # & # % # o # $ ; - - - 1 9 : - - - 1 v w q , , i i , q q h 2.! f t q q , , , q t y t Y [ t 3XiXS S y t , , , - - i , - , , , t t y P P P ) 3.:.*.) I ) ) ` *.&.) ) :.b.:.P L U P I J P.3XN.:XG.n.Y.:XY.K.G.l.l.k.] ( ) :.P G P P G ' ( ' ' b.b.G [ ' ( ( j.[ ] n.S.z.C.S.k.z.z.j.] j.j.j.H.K.K.J.$XtXW.l.-.c.W.W.$X$X#XW.E.E.E.J.F.N.m.M.m.4.M.7.X.@.h f f f g j d p B p.4 p j d d j j d < 4 b j B j < < < < ; # ; # # # - - - # % > : # : : # # # # # % # # # - - k r - . o o x z - r k - - - - # 1 - - 2 - - , - - 2 , , , , , , , 2 , 2 , - , , - r.Q # , - - , 2 - - - , - Q 0.# , - - - e.x # - - - - - # - - , , - , - - - 1 1 - - - - # - - - : - # 2 : # - : : - ; ; ; , < w p w f Y @.f w w K w b h , 2 , , w t t y y y H H S y y t F S S P P ( ` ( ( P S Y U Y Y J I *.*.:.l.B.x.B.G.B.B.B.x.>.:.) I 1.Y Y 5.U S H t , , q y y y y y y U H S Y U K y h h w , w w s j - w s < < 1 # # # # # # o o o # # % 9 9 DXPXq.o % # # o > A %   . # # : # % # # # # # - # a.[.# # - - - - - - - - - 2 , , , - - # # 2 - - - - n - : : : % # o : % % ",
"o $ # # # # o # o & # o % 9 - - - o a.9X1 2 2 # 1 , q q w w q w q q q K U.! f t q e , , q q q t S 3.3.G ( G P F t t u e , , , K w w , - , t y H P I ) &.:.&.*.` ) I ` I ) 4.*.*.>.j.` P Y ` ` P H /.tX-.N.H.G.D.D.G.N.N.N.z.k.g.] v.` ( G P _ P G _ ' ' b.b.b.' / ( ( j.n.g.g.k.k.n.z.k.k.z.j.j.] z.K.z.J.F.J.W.>XF.x.tX:Xz.$X,X,X#XE.W.$X$XJ.c.c.N.B.V.m.>.*...L f p j j g j p < 4 B 4 < d O.j j j d < < d j B j 4 < , , ; # ; # o : 1 x : # 0 q.# o . # % # o o # # # - - 1 # - - - - # # # 2 2 # - # 2 k - # 1 n - 1 1 v 2 , - - - , , , - , v Q e z r , , , , , - - - , - , , - - - - , , , , - - # ].PXDXv # 1 1 - - - - , - - - - # # - - - - - - - - - - - - - - - - 2 # 2 x # - , , w j f f f f J f f h f w h h w , - - , i y t y t y H S S y t t y y H H S _ [ [ [ P P U H ` ) Y I :.v.m.N.N.x.c.F.B.E.F.B.>.:.>.4.J H t t Y <.2.K t , e i K K S S U P U U H U y y h i w E w < , s h w w < s 4 ; - # # o # # o o # & > # > HXUXs.. : # # > % # % q.9 o # # # # : # # # # # : # # - - # - - , , - - - - , , , , , , e , - - - 1 0.r.- - : : # > > # # % ",
"o $ o # o # # # # 7 & o % 1 : # o : x n - 2 1 - - 1 w w w h r , q t y q F K t q q , e e R R q t t S ( ( _ ` S t t F i q , , q y q q , , , t K Y ) &.&.3.:.:.>.>.3.:.I I &.*.&.] [ ` I ` ` ( P S ) ) g.D.n.v.n.D.D.n.N.x.l.k.z.' b.:.v.CXkXG G U ` ( ' ' D _ Y._ G ( ' g.g.g.k.k.k.g.] n.S.n.n.n.j.k.D.H.J.#X%X$XF.c.N.uX>Xk.E.,X;X%XE.J.W.:XW.F.F.B.B.^.R.,.=...J p h j d d j d d s ; 4 4 p j j g d p w < < d d d d p , , , # # # o # : # : . q.].  q. X% # # & 7 o # x 7 - - - - - - - - # # : % % - - - - - - - z - - - , - - , , - - , , , - , , , e r , , - , , - r 2 , , - - - , - - - , - - - , o 9XUXPXQ # r v , - - - - , r 2 # - : - - - - - - - - # - - o # - : : 1 # : s , - - , w h K f J J f J f f w w f E s , < , r h i y t w y y y U F t t y t y S U ` ) [ 3.Y P Y ` 5.3.:.:.:.>.M.G.B.N.B.F.F.B.N.N.l.j.v.V.J 1.MX|.3.I.U H h r , e i K P U P U U K Y U y y y w h w.h , w w w h w < w 2 1 ; # # o o % # o # # # % # q.s.% : % & > 2 > # 2 lXs.. # & # o % % # # : # : # - - - - - z k - - - - - - - - , - - z z - - - 1 n 1 2 : # # # > : : : # ",
"o o $ o # # # o # > : # o o % 8 t.2 , # - - - - - e r e , r r q q i y t S y t q , w v e , w q t S S P [ G _ G D t y u q , , q t t q e e t t H Y ` :.:.>.:.] :.j.>.:.) v.3.P Y ( P h K U ( P H f U P [ z.z.D.D.z.z.k.z.N.m.G.j.] [ ( :.VXkXG S U } P ' ( D G G P ( g.g.g.k.n.z.k.j.[ ' j.z.n.n.j.z.k.z.K.J.%X*X$X$X$X+XD.B.B.F.>X:X%X%XE.$X:X:XE.F.F.F.E.B.,.=...f a p p d j p p d B 4 < s j j a f f p p s b p a f p w s 2 - : # o o # - : : A mXHXs.s.lX> o % 7 9 # # : - - # - : : - - - z 7 o # # - 2 1 - - - - - , - , - - 2 # r.mXw.- , , - v z - - - , , , , , , Q v - , , - , e , , - - , - , - # 2  Xs.- - , e - - , , , , < - - z k - - - - - - - - - : - s.x # # : # # - - , - - , t K J J p.1.f J L f h w w P.p., < , < i h t t y t y K F y t q t q t S 3.{ P ) ` ` P P P *.4.4.V.v.:.tX>XB.G.c.F.W.B.N.N.N.G.H.m.4.1.nX3XP } P S y q - , t S H Y Y L f f ~ y K w w s s w , w r E L E E , w < ; ; # # o o # # # # o o # > . . 3 # # > 9 # # # % A > o # # # 0Xq.o # # : # : # : # - - # 0.0.# - , 1 2 , - , , , , - , - , 1 - # - - - # # # # # : % o ",
"o o o # # o # # # # # # % # .  XJX+.- , - - - - , , , < < , w t h K t t y y q q , e r e , q y y S P _ P P U U D t t i u , , y t u q , , t t y H U <.*.) ( P [ >.v.l.) ` ` P H P S w h U _ P y q P 3.[ ) z.D.z.z.z.k.z.l.b.M.] j.v.:.( ( P U P P S G ' ( G G G ' ' g.g.g.g.z.z.j.] ] ' j.n.n.z.k.z.H.H.H.J.OX#X#X#X#X+X+XE.F.E.1XtX:X;X#X$X$X$XE.E.W.W.E.R.B.>.X.J L p 4 4 - p d < s 4 - |.~.a  .a p p < 2 s p p w < , 6 s - - : # # # # # z 9XUXUXmXx % % # # # o # # # - - # - # # - - - 7 x # # : : - - - - - - - - - - 2 , , , v 9Xb - , , , i r , , , , , , , , , , , , , - - , , , - , - - - - , 2 - # - - - , , r s - - - , , , - - 1 2 1 - # - - # - - # - hXs.o - # # - # - - - - , w y L 2.7.L J f h h h h f L J f w < , w i q q t q K U U U t q , t y t U U P P P P t S P P :.b.6.&.) Y.^.B.B.c.F.E.N.F.N.G.N.N.M.>.*.I I v.3.Y S t q , q t y y y U h h y y y E r , p s s < < < |.p.w t w p < < ; # # o o o % % # # o o % > % > # % # # # # o o . o % % o % XXA o % # : : x z # - - - - - - : - - 2 , , - , , , , , - - z x - - # - # # # - : # # o # ",
"o o o % o # % # # % 8 % # % # b ~.r - , : - # , , - , , , , r t K K K t , q q q q q t t t t t D U _ ` S S _ ! D F , e e , q , q t q , , e q q t y K U S S P *.:.>.>.) ) P J y K U y U K F y y { Y [ 3.[ j.j.] j.n.z.-.] l.] ] j.n.[ ( ( ( ( P ( ( ( ( ' ' ( [ h.g.g.k.k.k.k.j.g.g.g.g.z.z.C.D.C.D.D.D.H.K.#X#X,X$XA.A.A.$XW.x.7XuX:X:X;X:X*X#XE.$XW.W.B.E.R.,.X.....j p B ~.d d p < 4 p $.@.L L L j s < 1 2 2 1 # # # # : 1 - , - # . . # : - rXmXx # - - # % % # # # - # 1 2 o # - - - - - # - # n n - - - - - - - - - , , , - - , # , , , , , , , , , , w , , , , , i , , , , - - - - , , - z - # - 1 2 , , , , q , v v # - - , - 2 - - - z 1 - - # # # - # - - 1 - - - - # - - - - - # s O.w f #.f w j f h f y h K K L K y w w w w q , , t H H <.$., $.p.$.E t U P S y y t I.<.G ( ( <.5.zXnXY.V.B.E.:XE.F.E.W.F.G.G.m.m.m.-.&.) ^.4.U y q q t t q u q q q q h h y f , , w w s p w f f f f f y p w < - # # % # # o o o o o o # # o o o # # > # # # o # o o > : # o . o # % # o # 9 r.2 1 - 1 1 # - - - , - - , - - # - - - - - - 1 - - - - - - # 1 2 % # # # ",
"o o o o o o # # o : 8 > # # : # o - , # # # , - - , - , - , w t F K U q q , , , q q q u ! D D G G G P U S G G D t u e , , t yXI., t q , , q q q t y S y S H P I &.&.) :.) P H K K t y t ~ bXI.{ U P ` 3.:.-.-.j.-.Y.tXn.-.S.-.) ] j.' [ b.` G G [ ( [ j.[ ' g.h.g.k.z.C.z.k.k.k.j.j.n.D.D.Z.Z.Z.Z.z.H.:XH.$X*X%XW.W.A.+X&X>XtXJXZXtX,X;X,X,X*X*X*X$XE.W.E.B.,.=.X... .- 6XUX9X- d p p p < f L f j E < < 1 ; - - # o # # # - 2 # #   qXcX> # # x i.. - : # 8 % o # : # # # o [.NX[., 2 # - - # - # - 1 - - - - - - - - , , , , e e , , , , , , , , , , , , , , q , , , W w.- , , - - - , , - , Q k - - # , , - e w q q , - - - - - , r - - 1 - - - - : - - - - - - # - k 2 : - # - - - # - < L g p p f p f J J f H K Y J J J f w E E e q e q q y H f q q E w.E ~ q H U H y ~ y I.5.H P 3.Y /.UXUX3Xm.B.G.W.E.E.W.W.G.B.B.B.N.B.l.-.) ) I U y q t t q q t t q q q t y h t w q w w h j p q f J f J @.p , - - : # : : # # o o # # o o # o o # o # > % o # o o o o o o o o # o # o : A : o : - 1 - # - , - - - - - - - - d. X, - , - - - # - - - - # # # - : # # # # ",
"o . o o o o o o % > # # # # 8 : - : - XXqX2 o - # , - - - - , q q i i q , , , , q q q u y t D U G G P P G G G t t q q , , R 5X2.q q q - , q t t y y y t y S H H ) &.>.>.) U S q t q y t K 5Xu.t y S ( [ ) ] -.j.l.N.>Xj.j.n.-.] ' [ [ [ j.( G G ( ' j.g.( ' g.S.z.z.z.S.C.z.k.k.k.z.D.H.D.Z.J.J.C.Z.A.Z.Z.OX$XF.F.W.$X+X#X>XpXJXJXuX<X;X,X;X,X,X%X%X%X$XW.R.m.>.*.*.X.f p.iX~.d j j d p p f J L d < < , s b ; # o o # % o > 8 o o   jXGX8 o o z n # - - # > % # # # # # #   rXUXmX: x # # - - - - # - - - - - - - - - , , , , E b , , , , r i , , w , , , e e , , e , , r , , , , - - , , , - - 2 2 - 1 - - , e q w q w - 2 1 - # e.d.- # - - - # - n 1 - - - - , 1 - x 8.n - - - - - - - 1 w L L f f f J J Y Y Y U J H f f f w h h q w w q t f K h t q , - q q q t H H y H ~ S y H Y *.<.7.iXuXV.B.R.F.B.F.F.G.l.:XpXE.E.B.v.G.:.&.) P H y t t y ~ ^ y q q q q w y h y q t f h J h #.6X~.J J g L w s ; # # # : : - : o o o % # # > & & o # # # # o o o # # o o o o o o o o o 8 t.> : > # # - - , - - - : 1 , , - # kXHXn v r - - - - - - # # - , - # # # # # # ",
"o o # # o o # # # % % # o o # # : # n UXUX[.  % : # - 1 - , , - , q r b , - , , , , q q t D S P P 3.b.G ( ( G t t u q , q , , y F t u }.u., i q t y y t t U H H I ` >.*.) ` H q q t q t u , t y H U P P ( j.n.l.j.j.] ] -.[ j.j.[ g.g.( G ( ( ( ( ' ( ' ' [ h.z.z.z.S.S.C.z.z.z.C.C.S.H.J.J.+X+XA.H.A.Z.J.A.J.K.$XJ.#XJ.:X>X:XpXuX#X,X;X;X;X;X;X%X*X:X%XE.R.m.,.4.4...g p - < j #. .j g L L L @.j j s < ; ; z # o # # & o # o o o o o o # & # # : : % # # # # # # # # # # o 0.rXf.o # : # : x - - - - - - - - - - - , , e e , , , , , , , , , , , q , , e e K - # , , u.r , , , , , , , , - - - - - - Q r - , , i i i i - 1 2 - - - 1 - 2 - # - # - - - 1 v i W i , Q 2 2 k # - - - - - , 2 f f L P.#.L 1.X.*.4.*.X.J H H H f h f w w i w q q f f K ! , , e - i.cX~.q t t S { U y f K J *.4.*.m.V.G.R.B.B.c.l.c.j.V.4XG.G.x.l.:.N.Y.*.Y S S y F q I./.t w q q y w w i y q h @.7.@.w eXUXbXf @.L f s e.6 # # # # # - > ; # o 9 7 % # # % # o o o o o % # o o o o o o o o o o # o o # r.f.o # ; - - - - - 1 r , - , - w.f.- 0.v - - - - - - # # : 1 - # # # # # # ",
"o o o # # o # % # o # % % # o # # - 2 jXvXA o # : : 1 n - # , , , - e v , - , , , , q q t D S S P _ 3.[ G P _ G t ! ~.r , ^ u.t S q q U.^ - t q t y y i t y y U ` I ` [ U H y t q q q R K q t S K Y P ( :.j.b.n.j.-.] ] -.j.] [ [ ' g.' G ( ' [ [ ' ' G ( ' g.g.g.g.C.S.k.k.C.z.C.S.D.J.$X$X+XJ.J.A.J.A.A.J.$X+X:X$XJ.%X$X>X,XtXtX<X<X,X;X%X*X%X%X%X$X%XE.B.x.,.6.4...J f p d f g g L L X.Y L J O.e.1 : - , 1 # # & # o o o o % o o . o o # # o # c 8 # % # # . o # % # - : o   . - : 1 : : 1 - - - - - - - 2 - - - - , , e , , , w , , , , , q , , e q , r , wXmXi e W r , , , , , , , , , , - - - - k 2 , , r W w K i - - , - - - # - z : # - - - - , e W i.U.W e k 1 - o # 1 - - # - - < w w K P.1...1.*.4.4.4.:.X.I J P L L y w h i w R h w t w q , , , - U.HX~.- ~ S S H S H f q @.4.v.N.^.V.G.B.N.x.c.N.l.B.v.&.:.:.j.j.l.B.V.[ ` H H S K S t t q t w i w , E U.t t f L @.X. .P.iX|.@.@.J p w 2 # z 2 # - ; ; ; 2 # # % # # o o o o o o # o o 0 7 . o o o o o o o o o # # % o > > # # # - - z - - - , - - - , v 2 2 - - - e 2 - - - # # : : # # # # # # # ",
"o . o & > o o # # o % # o # o # # : # # : 9 > # # - # : : % # - , Q , # , - , , , , , t y S S P [ 3.b.M.G ( G G t i u.w , ~ ! t t u w - w.u.q t y y y i q q t H U P P ` P H ~ t q t t t u q q t ~ U U ` :.[ ` :.[ [ -.[ ] ] j.[ ] [ [ ( G b.M.( h.j.' ' G ' [ g.g.k.k.z.k.z.z.k.C.J.J.$X&X&XJ.J.+X*X:XA.A.J.$XH.H.J.J.$X%X>X:XtXtX,X,X,X*X%X%XE.:XW.E.W.W.R.B.6.>.=...J f a j L f g L  . .Y L f < < ; # , < 1 - # # o o o . % c & . . # o o o > # > % # # # # q.c o # # : : # # - ].n # - : - , - - - - - , 1 - - - - , e e , , r e , , , , , , , , , q q , - hXGXT q , , , , , , , , , , , - - - - - - , , , w i i w , , 2 - - - - - : # # - - - - - 1 r o _.U., v 1 - 1 ].0.- 1 - , - - - , w f f J Y X.4.4.I :.=.:.*.Y U Y U h w w , , E R , w q , R v - e , w q y ~ t S P H U K Y <.4.N.D.x.B.B.;.x.x.B.N.l.v.4.v.&.:.>.>.v.l.>.` Y U H K t q y t t w q q , y f E f f J L L X.1...f o.#.g f w < , , r.n : - 2 < , 6 ; # o # # # # o o # # o o o o o o o o o o o o o o o o # # # o o # # - - - - - - - , - , - , , r }.n # - n v # - - - # # # # # # # # # # ",
"% % o o & o o o # o # # # o # # - - - # # : # # # # # % > # # # , ].n - # 1 , , - e i q t y S _ [ b.[ [ [ [ G G D t , q q q t K S t q , bXyX- t t S K t t q y S H P _ U P U K w w y i t q q q t K P U ` ) ` ` ( ( [ [ ) ( ( [ [ [ ' ' g.' ' ' G n.b.( [ _ ( ' ' g.z.k.k.z.k.j.j.C.J.H.+X$X+X#X%X%X=X,X#XA.A.J.F.F.G.H.#X*X#X1XLXnXE.;X;X:X$XE.E.E.E.E.E.E.R.B.M.>.*.X.J g f p L L L  .J X.Y f O.~.< , ; < < 2 - # % % o o o o 0 % o o & o o o $ # o o # # # o fXXX. # : # # # # # 0.n - 1 1 - - - - - - - - - - , - , , - - , - , i i , r , , q , , , e q q q q t q q q q e , , , e , , , , , - - - - - , , , q q w , , - - r v - - 1 9 # - - - - - - , 1 0.NXmXi.x k o 5XUXcX# - 1 n - - , , w f p X.X.X.X.4.(.6.1.*.=.M.Y H U E w q , h b , , , , , i r - , - , w t t t ` 3.P y 5.LXeXP N.D.l.B.m.^.R.l.l.l.>.>.&.) :.:.:.l.v.:.&.I H U t q }.U.q K q q q i ~ w y K f L @.Y J Y 1...X.#.L L f < , , 1 2 7 z - , ; ; 2 $ # # # o # o o o o # + % o o o . o o o o o o % o o o o o # # # # # # - - - - - - , - - - , - , v , - - , - - # 1 z # # # : : # # # # # ",
"7 % o o & o o o o o o # # # # # # - , - # # # # - : # # # # # # - 2 0.- : - , , - v ! q t y S P _ [ [ b.b.( ( P D t q , , q q K S i q , w.! q y y S H t t t H H H H P ` S y y w q t i u q , q q q S P ` P S P P _ ` P _ P P ` ' ( [ [ [ [ ' G ( ( ( _ ( G _ _ ( g.j.j.] j.n.j.j.z.H.Z.A.A.J.#X#X*X*X#XA.A.OXJ.K.E.G.H.$X*XJ.>XCXiXE.*X%XW.E.F.E.B.B.E.E.B.B.B.B.,.=.=. . .O.d L L L J o.@.J f O.U.r 2 < < < , z : o % # o % # o o o o # # o # o # # # % # # # : 0.2 # - # # # - # o 1 : - - - - - - - - - - - , Q , , - a.U., e - Q R r ! , , , q ^ u u q q q q i i q q q , q q e w , , , , , - , - - - , , , , e q , , - - r n - - , # - v 2 - - - , - 1 kXUXUXrX2 1 # f.NX9X# - - , - - - , w p j L X.X.J 6.iXM.X.:.*.4.L f f y q , - v b - - , , , , - - , , , w y K Y { 5.3.H <.kX(.) v.j.j.>.-.>XV.&.v.4.*.&.) ) :.4.M.v.:.&.P J H H y q wX3X, U K w q R u.y L K K X.X.J J J J ....J @.L  .d < , - - : : - , - ; ; o # # # o o o o o o o % & o o 7 Z o o o . o o % o o o o o o # # # : - - - - - - - - 2 , , , - - - - , - - - - - - 2 : : x ; # # # # # # ",
"# o & % & # . 8 q.% o o # # # # - - - - # # : # : : # # # # % - # - x - : - , , , q q t y S S S P [ [ n.g.' Y.3.D q q , e q q t t t w q - , y t S H H S t t H H H 3.3.S t t q q , q t q , , , , q t y S H H S S S S G G G P G b.tXj.( _ [ ' ' ( G G D D G G Y.4X[ j.] ] -.] ] j.z.Z.k.Z.$X+X+X%X1X*X&X,X&X&X$XW.F.F.F.W.#X*X*X#X*X,X%XW.E.E.E.E.:X:XF.F.x.>.6.m.x.>.6.1.p iXkXw f L X. ...L L f , < < r < w r v : # o o % # o o # # o o # # # o $ $ # # # # # # # - # # # - - # - : # - - - - - - - - - - , - , e , , - 5X9X# q e r , e q , , , R 9Xi q q q q q u q q t q , q q , , , , , , , , , , , , , r q q w , , - - - - - - - - 2 k 2 1 , - , - 1 r n mXxXc z 2 , 1 2 - - - - - , - , < < p j f L J <.P.X.X.X.*.*.I L f w , e r , - - - , , e , , , , , , , w K U Y Y <.Y ) J t ) :.:.:.>.>.M.>.:.*.>.>.) ) ) I *.*.M.m.&.I H J S H y t , t U h y w w q w K f y K L X.J J J J J J J  .@.O.h s < , ; 2 - - ; # # # # # # > o o o o # o o & > o . % `.8 o o o o o . o o # # # o # # # - - - , - - - - - 2 , , , , , - , - # - - 1 - - - 1 - 9 9 9 # : - - # ",
"o # . 7 '.8   Z 9X7 o # o # # # - - - - # : 2 : # - # # # # # # - , # 2 6 - , , , e i u y S S G P ' ] ] ] ' ' _ S q q , , q q t t q q e q q q S S S H P H H U P H ` U F i , , e , , , , , - , , , q q y S S U t t D S S G D G } Y.( ( [ g.[ [ ( G G D D P P [ Y.g.j.j.n.z.] -.n.D.Z.C.+X&X+X&X&X$XA.:XtX*X;X*X#XJ.F.H.F.J.*X,X;X,X,X%X%X#X#X%X*X>X>XE.B.x.x.x.>.:.>.V.6.f (.|.f J ..X.X. .X.J h w < r p < h 2 # # # o o o o o # # o 7 k - : # # o o % # # - # - - # - - - # - - - - - - - - - - - , , # # - - , , , , , , w , , q w.i , , q e q t u q q q t t q q t t t q q e q , q q , , e e , , , , , e r e q q , , - , , - , , - - , 2 x 0.# - - , 1 k - U.d.- k r 1 - - - - - - - , - , < p w f 7.2.J I 4.Y X.*.:.*.X.L L h , , - - # - - # 1 z , - , 1 , , < y K P H J P U Y ) ` 3.P.4.*.*.4.4.4.:.*.*.I J I *.*.4.I J >.:.) I Y U y t q t t f f y t y t h f h L f f f L ....X.1...X.L 2.p w h < ; ; ; - # : % o o o o o % # o o & o # o # o o o # % & o o % o o # o o # # # # o 2 n - - , , , - - - , - , e r r , , - k hXjXz # - - - - 2 : : : # ; : - : ",
"# o o o 0 & o . o # # % # # # : - , ; ; # o # # # # # # # # # # # - - - 2 , , w q w u t U U S _ ` ' [ [ [ g.( P t q q w , , q q t t q r w t i ~ S S P P I Y Y U P U y } i , , , < , , - - - - # - - , t y t t F y t t t D D G D D ( ' [ [ ' ( ( ( G G U _ _ G G g.k.n.D.S.j.j.n.z.H.+XJ.+X$X#X&X+X+X$X$X=X,X*X#XF.Z.F.J.J.*X&X*X,X*X:X*X%X*X;X,X*X%XE.B.B.m.x.x.l.l.4.4.1.w f Y H L X.#...L L p < < r , h h 2 : o o o o o # o # # o t.i.- - # % > > 8 ; # # - # - - - - - - - - - - - - - - - - - - - Q a., r e - , e , , , , , , e , , q , , q , q t q q q q t q t t t t t q , q q q , , , , , , , , , , , q q q , , - 1 2 , , , , , , - - 2 - - - - 1 e , Q 8.e e r - , - - - - , - , - , w s L K <.Y P *.Y Y Y *...*.I K f w , , - # - - # # - - - , 2 , , , < y f H Y J f L J ) ` >.^.*.J I >.4.4.*.X.*.X.J I Y *.I (.4X*.4.4.<.Y U t y e t f t y y h t w w w h ~ f @.#.L J X.1.7.Y w @.X.g f j w < ; - x : ; > # o o o o o o o o # # o # 7 o o # o o # o # # o o & # o o o # # # : z # - - , , - - - r , , e r e , , # [.UXUX5X. - - - - : 2 : : # - # # : ",
"o o o o # o o o o % 0 V # # o # - # : # # o o o # # # # # # # # # - - - # - < t t q q q y U S P ` j.] j.b.j.[ S I.I., q , , q q , , , q q t t y K P P ` ) ) ) P P P S q , , , - , - - - - - # # : - - q y t q q t t t t D D S D G _ ' [ [ [ ( G ' U D _ ` ' ( ( g.k.z.C.z.z.j.j.z.Z.$X+X+X&X$X:X1X*X#X:X*X*X#XE.F.N.F.D.$X%XpXiXx.E.*X*X,X,X;X;X*X%XW.E.E.B.l.m.N.B.B.6.=././.H X.J  .J J X.P.h < < < w w w z > 0 & . . o o o # o c ).k # # # # 9 3 # # # 1 2 a.a.# - - - - - # - - 1 , - - , , , , o  XhX, r v - , , , , , , e , w , q , i u q q q , q t q t i q q q t t t q q , , q e e , , , , , - , , , e i e , , - - , - , , , - 2 - # - 1 2 , - , e e , , e , - 1 - - - - - - - , , , w h f H U Y 4.I *.Y U L I I I f y , , - - - # # # - - - - 2 , , w , , y q U MX6Xy H P ) ` ` I H f I I *.*.Y Y <.<.Y J I *.I >X>XX.5.Y X.U y y t i h y t y y h t h f K L K w eXMXf f J #.../.3XX.L L h h p 4 6 2 r.2 o # o o o % o o . Z Z o o # 9 # # # o o % % o o o o % o o # # # # : % # # , 1 , , , - Q Q e , , , , , - , - n NXBX0.# - - , # # # : : # # # - - ",
"o o o o o o # # o # # & & # o # # # # # % % # # # # ; ; # o o # # - - , - , y y y t t t t S S b.n.] j.' ] Y.b.t U.U.t q t y F q 9XkXr., q u q q U } P S ) ` ) Y P H q , , , , , - - , , , - - - - 2 9 , t y t t q t t t t t t D G ( G ' [ [ ' ( ) ( P ( [ [ ] ( k.n.z.z.z.j.z.l.n.D.J.$X+X#X%X*X*X+X&X*X=X#X+XF.c.Z.J.F.W.W.nXnXx.J.$X$X,X,X*X;X;X*X%XW.E.B.l.B.B.B.V.^.x.R.6.*.1.@.X.f J X.Y f f w < < , 1 > # c 7 . . . o o o o 8 c # # # % # % # # - # 9 ].DXBX2 # # - # - - - - 2 , , , , # # , , e Q 2 - , , , , , , , , r , e e e , ^ R q q , , q q q e i e , , q t t t t t q q q e , # - e z , , , , , , , , - , - - - - - - 2 z - - - 1 - - , , , , - - - - - 1 , - - - - - , , , , , , w f X.1.4.I I L L j L L L H H w , , # # # # > : - - , 1 l i , q t f t K wX/.y Y U U Y Y y Y.>XH I *.Y H K ~ <.U P Y Y 4.&.I 4.<.X.L ~ y y f f U y t q e y w h K K @.J J P.(.w w #.p.a eXMXH f f f j j s 6 x % # o . o o o o o o . 0 0 o o o 8 o > 8 o o o o o o o o o o o o o o o s.c % - < s p < < # 0.e.- - - , , - - , , - e r # - : - - # : # # # # # # - - ",
"o o o o o o o o o # o # > % > o # o # > % # # # # - 1 2 o o o # - - , , , w y H H S y t t S Y :.l.j.j.[ [ :.P P y t t t t U 2.u.LXUXrX- t t q q F P ` P.v.` P ) H y q , , , , , , , , , , , - - - - 1 , t t t q q q t q t i i D G G ( _ ' ' ' ] [ ] ] ] ] [ j.g.j.D.H.S.z.z.n.j.z.H.$X+X+X%X#XA.A.+X%X,X*X#X+XJ.B.F.A.W.$XOXJ.W.:XJ.$X%X*X*X%X*X;X;X%X$XW.J.F.m.,.B.E.W.B.R.(.7.4.*.L J H Y f g f w < , - # # o # o o o o o o # o o o o > > # # # # % : : o # rX9X# # - - - - - - - # - , - , U.U.- , - - 2 z v , , , , , , , , , i q , q e , q q q q q t q , , , , , q q q q t F T q u , < d.b : - < , e , , - - , b 2 - , , # o - # , 1 - - - - , , - - - - - - - 1 z 1 # - , , - , e , , , , w L I :.m.:.J L f p L 2.L f f t < , - # : : # - - - r r r r , w f h K y q K y K K y H H t P.~.H U U U t t U K K U Y Y *.*.>.1.@.J w f f f y f H ~ i q t w y L K K H J Y f w 3X|.O.O. .O.@.f L @.L g h < # # o o o & & o o o o o o o . # & o o o # o o o o # o o o o # # o o o o o A A s., w h h p < r - - , , - - - - - - - , - - - , - - # : % : # # # # # # # ",
"% % o o o o o # o o o o o % > # # o V t.% # % # # - # # o # % # - , , w , w f K K S y y S Y Y ` :.:._ ` ` ) ) P U S t t t S H i iXmXp.q t y i q H t Y.LX7XD P ` U t q , r u w e w e , , , , - - , - - q t y t q q q t q t D ! t G G U ` _ G ' [ [ ] ] ] [ [ k.k.n.H.:XD.z.S.z.l.z.H.$X#X,X,XOXA.J.#X#X*X*X&X#XJ.F.F.E.$X#X&X#X:XE.W.$X#X%X%X;X*X;X,X:X$X:XW.R.(.iXtX:XW.B.^.7X=.>.>.<.J H J H J f w < , # # # : # o # & o o o # # # o # > % o o # # # # # - # 2 2 # - # # # - - - - - - - , i.IXJXv - , , - r r - , , , , W E , , i , , q q q q t t t q t , q q , , , q q q q q u q u e , , ].Q # , , , w e , , - , r , - - o i.NXU.0.n - - - v 2 - - - - - - - - - 1 , - , , - , w , , , e w < - L 6.I M.Y.I L f w h L f f w w w < - # # : : # # - 2 , e , , w w w y y h E s w f L L U @., w K L K f w t h y K L L Y *.>.4.*.Y 7.p.f L y f f y ~ E q y K E 2.L K L L J p t GXBX< p g f w h p $.j d w - ; # % o o c 0 o o o o . o + . % & o # o o o o o o o 0 c o > # o A A o % % o % n < f h L w w v 2 - - - - - - , - - 2 , - , - , : - - : - - # # # # # # # ",
"# % o o % & & & o # # # # > % o o # > > # # # # # # # # # % # - , e w i r h h U K y y S H H H U [ ` ` U G P P S U U ! F S S S S q t q y S S U y H P 3.yX/.P ` Y U H t w i i t t y w q q e , , , r - - w t t t u q q t t q u R t t t F P D G P ' ' ( ] g.[ [ ' j.D.D.H.H.S.z.k.z.C.+X*X*X;X=X%XOXA.A.#X*X*X#XJ.J.J.E.W.:XW.1X:X^.E.E.E.#X*X,X;X,X,X,X%XE.F.E.N.pXUXZX%XW.F.B.=.6.m.N.P.H L Y 2.L f < < v 2 # # % % # # # # # # # o # # # # o # # # # # # # # - # - - - # - 1 1 - # - - - - r Q kXhX, - , , , - , , , , , - ^ Q , , , q R } , q t t t q t T t t q , , , , , , q q , , i e , , - - - - , , , r , e , - - , , - o i.GX[.mX[.o - - e - # - - - - - - - - - - , r e , < q w h i r r , 6X|.X.*.4.v.*.P y w w w y f y p < s 1 - - - > ; - - - - , e , , w w t w p h $.K h Y H L h s p h L h f w w w h @.H J 4.:.4.m.*.2.LXJXY w h f K K f y f y f K h t h K J J p , p.p.p p p p p w < w s d s 1 ; > # # o # $ o o o o 0 % o o o & o o # o o o o o # 8 & o > # o > 9 # # # # - # , s h E w < - - - 0.1 # - r n 1 - - - - # 1 # a.s.- - # # - : # # # # # ",
"o o o o # % > 7 # o # % # > o % o o o o # o # # # o # # # : - e , t w r w r y K H S H P H H 5.H S S t y U P P S S U } U S U P P y t y S S S P U P P ) J P Y Y H H H i t y K t t t q t t w q , , , - - q q q q q q q q q q t u t t t ! U t D G G ( ' ( ' [ [ ( j.n.z.z.H.D.z.z.D.J.*X*X=X,X,X*X,X1X+X*X#X&X+XJ.E.#X$X$X,XE.7X>XW.,X>X$X$X*X,X,X,X,X;X%XE.F.E.B.7XCXuXW.W.W.B.m.B.m.v.<.<.Y U p.Y f w < r ; # # # # # # - - # # # o o o o # o o # # # : # # # - - - - # - : 2 - # - - - - , , , - - , , , , , - , , - , , , , , , q , ! u q q q q q t t t q u i q , , , , , , q , , , , e , , - - - - , , , e , r 1 - , - - , - - - - r.z - - - - - e.v - 1 , - - - - , - , w w w w w w i ! K < , mXiXy X.Y P ` K q q , w p w f w < r , # , < # ; ; - , , , r w r w w f , , ~ <.Y U Y U f w h w w s w w w w w w f f X.*.*.:.4.1.2.CXMXL E E y y L U L L f h w w w h L h w +.cX[., h f J j d p w s < < b d - 2 : : # o # o o o o q.0 o o # 0 % o % > o # o o & > o o # # % . . - - - # - - , w h ^ r , - - - z 1 - - - - : 1 - - , , - # n 0.# - - - - - # # # - # ",
"# o # o o o # o o # o # % % o o # # o # o & o x q.o # # # z b w y y y h w , , t U U Y I H U U y t t ! q U H ` S S S S S S U P ` U H S S U U P Y Y I ) U H S S H S t t q q K K y y y t t t q , , - , - , q , , q q q q q t t t t t u u u y D S S ` [ ' ' ) [ [ j.j.k.C.D.Z.z.c.K.+X#X=X;X,X<X;X<X1X#X$X#X*X&XJ.J.+X&X-X-X^.MXpX$X<X,X$X$X#X%X;X%X%X;X:X$XW.E.E.B.B.W.^.B.B.B.x.x.6.4.1.X.I Y Y Y f w < - - - % # # # , , , - # # o o o o # # # # # # - - : # - : - # : 2 - # - : - - - - - e , , , e , , , , e , , e w , , q , , q R , u.p.- , , q q t q q q q q , q q , , q , R mXcXT # , , - # # - - e , , , k z - , - - - - , , - # - , - - - - i.Q # 2 , - - - - - - e e , , w i t t f , i.NXhXj f H J P S y t , , w , E E w h < 1 w.b - ; ; , , w h h h w w h f , p.}.P [ P.b.<.K f y y H w < - , s h h h f J <.X.X...X.1.X.f y K u.h y y y H L f L L w w h s h p , p.IXkX# h @.2.O.j d p s 4 < b 2 2 4 1 2 # $ # o o o % . . # o o o # o o o o # o # o o # > # # # y.a.# 1 1 , # - , , b u.i - - - - - - : - - - 2 x # - - - - - - # - - - - - # # # # # # ",
"# # # # 8 > o # # # # # # o o # o # o o # > o > 8 # # : , r h y f y h w , , u.@.y U ` I f H K i , U.HX].q K P S S S S S H Y P ( ` [ ` P U [ P I *.) ` U S S y H y t t t y y K H H H y t t q , , , - , , < , , , q u w q q t q t t u t q t t t S } _ ( ) ' [ b.j.k.D.K.D.Z.Z.Z.H.J.#X,X1X,X<X,X%XA.J.*X#X*X=X$XW.=X=X,X1XCXUXIXpX1X%XW.W.W.%X*X%X%X%X$X$X$XW.B.W.E.W.E.m.m.B.N.x.=.X.*.X.I *.Y L y < < , - - : - - d.$.< , 1 - # # o o > % o # # # # # - 1 - - # - - - - # - - 1 - - - - , , , - r i , , , p.w.e , , , , , e , , e r , l R - , e , , , e q q , , e q q q q e # U.UXUX_.rXw.# - r - - , r , , - - , , - 2 v - - n - - f.n - , , , - # - , - - - - - - - - e , , , q y y y y # rXUXUXU.- f f y t y i w < < w h h s s r s Q h , < < , w h E h w w h w y , u./.U U b.b.2.E f h H S t h b < , q y L L Y <.J I Y Y Y X.f t w f h y t w f f f h f w , s h p w s s $.j s j L @.@.O.O.p 4 < 4 s < 4 4 < ; % # # o # #   o # o o o o o # o o # # o # # o % % # : # '.~.# 1 - - - - , < e e , - - - - - - - - - - - - # # - - - 1 , - - - - - - - - - - - - ",
"% # o % lX9X  # # # # # # # o o # o # # o # # # # # # - , w K K K f q q q , 2.L y U Y I H y y i , w.yXi.t H S S S D y S H H S P _ ' ( P P S ` ) 3.4.y /.3X{ ~ t S t t y y K ~ U P H y t w q , 2 1 - - - , - , , , e e q q q t t t t t t q t t y t P S P ( ` [ j.j.D.K.D.D.H.Z.D.$X&X=X,X,X,X=X%X#X&X+XA.,X=X#X#X=X&X*X1XnXIXJXtX:XW.E.E.#X%X$X%X#XW.W.$X$XW.E.W.J.F.F.E.V.V.m.>.=.X.*.>.*.Y J f w , , , , 2 1 - , ].v , < , # # 9 % 8 A # o # # # # # - - - - # - - - - - - # - - - - - , , , , , q , w , Q r , , , , e e , , , , , q , , , , , q , e t , , q e U.} , q u e , r rXwXv }.Q # [.GXrX- - , , , , - - , , , r 2 r 2 , , i.v - - - - - , , - - - - , - - - - - , , , , w w f H w ~.FXBX+.< w w t y f y w s w w q y h w s < < w w w s w h ~ L K y t w w t t i b E }.3Xp.7.~ h t u.}.w w E r b E f L L Y H y J J L Y Y H L $.h y f , w f f g f f h s p w s p w p # < j d f L  . .j 4 p 4 < < < < 1 2 ; ; # # $ o & q.7 o o % % # o o o o o # # # 8 % > # : : : , , - - # # - - < < - r r - - 2 - - - - - - - - - # : - - ; 2 - , , - - - - - 6 - - - - ",
"# # # o s.A o > % # # # # # # o o o o # o # # - - - - , w f K L y q q , q q t t K P U U f t w q w q - q Y U y H K y t D S H U P [ ( ( G U { :.) b.M.H 3.5.{ U y K K t y y t q H H H y t q e , , - # - - - 1 , - , , , , q , , , t t t q q t t y t H P G P P [ j.j.n.D.H.J.:XK.F.J.#X*X=X,X,X;X%X=X,X1XpX,X*X#X&X#X#X$X$XF.pXtXl.F.J.J.J.#X$XW.A.J.$XW.E.:X$XJ.J.J.F.x.V.V.B.>.*.=.4.*.>.*.J H y y w < w e r , , < - , < - 2 ; # o o 8 9 o # # # # # # # - 1 2 - - - - - # - - - - - - - , - , r , , , , , , , , , , , - e , q q q q q , , , , q q q t u q q w i u.! q q q q , e - - e , - u MXUXHXv - , e , , r < , , - - , r.2 - , - - - - - - , , - - - - - - - - - - - , , , w i y U Y L p h s p w w w w y h f p w h w w h h w < w w w h p - w w @.@.L E f w w w h ! v hXLXUXNX~.2.U w b e.s w , h 2.}.L f Y Y /.Y H P P U H w P.3Xw w w w w J L L j h h p s < < s s s s d d p a a j  .g p p p s d 4 ; - ; ; # # $ $   '.UX{.  o o o % > > & o # # o # & . q.c : 1 , , , - - - # - , , , , v 2 2 v , - - - - - - - - # - : # - - - e < - - , , , - - - - - - ",
"# # % # . o # % % # # # # # # # o # o o # # # , , , w w h H H y y , h E , q t K U S U K t q , , w h i K U U H y t q q i y y Y U ( ' 4Xb.S /.b.] ) *.) U t t t h U K K K U U.u.t H K y t t , , 1 - - - - : 2 , - , , , , e q , , q q q , q q q t S P P P _ ( ( ( ] z.H.H.C.:X:XD.D.J.=X,X*X;X*X=X,X,XpXAX1X#X=X*X#XW.E.E.F.7X:XG.^.$XW.E.$X$XW.J.J.J.E.E.E.J.F.J.F.G.N.m.m.M.m.=...*.4.>.:.Y L K y w , , , , w w , , < , - 1 - # # # o # % # # # # # - # - - 1 - - - - - - - - - - - - - - , e r e , , , e , , , , - 8.w., , , e q q q q q q , t t ^ y q q q q F q t t i q q e , r e e e , , d.lX]., r , q , , v r - - , , - 1 2 - - - - - - - - - - - - - - - - - - - , 2 , , , K U f U P L L f w f w h h y h K h f w y h h y y E E < , f K w ~.CXiXK K L L h b Q e v t }.UXUXUXUXhX~ <.f < - < h h y i h f f U L p.L f H L L H y L Y f w w w w J J j j p w < w s $.w s s < < < < p B d p j j d d j h p < ; - # ; ; ; $ o c oXA o > # o o o > 7 o o o o # o o c 9 # - 2 s 2 1 - ; , - 1 , w w w - , , , - - - - - - - x k # # - , - - s r , , , - # - - 1 2 2 b ",
"# % # # # % # # # # % > : # o # # o o o # # - , , < w f K P P y f w r ^ u t t ~ U S K t , w , w w y S S S H Y q , e q t t y K P ( [ Y.5.Y ` v.j.] &.P U U S q y q q U U t 6X~.q S K y t w , - , - - # % % - - - - - , , , , , , , , , , , u 2.F { _ ' [ _ _ P ( j.G.H.H.C.S.D.D.z.:X&X#X#X%X&X=X,X,X,X<X,X#X*X&XW.#X$XE.c.:X^.B.W.$XJ.J.W.W.W.W.J.D.F.B.c.x.N.G.G.F.x.>.:.l.m.>.*.=.m.4.:.Y P K h w q , , , , , e , < 1 , - # # # # # # % o # : # - - - - - # - - - - # - - - # - 2 - - - - , , , , e , , , , , , - hXlXq w.i , q u q q q u t t y ! D F t t t y t t t u q e e , , , , , , , # e - - i e e r e , - , - - , - - - , - 2 1 - - - - , # o - - - - - , - - , , - , q t y S P P.U Y P H H K y K H U L J f f t f Y f w E E < j f L w kXUXIX2.q j h # 6XDXr e i 9XUXUXIXUXzXY <.y w 2 w h t L L t y y y K y f f L Y L L J H w f w w w w f L L p w b U., s $.p < 1 ; - ; < 4 6 4 d p 4 j @.L d p 4 2 $ # # # 6 z # o   . o > 7 o o o o o o o % & o # # o : - , r r < < < 1 1 < < , w w w w < r , - - - - - - - 1 - # - - - , - , < < , , - # - , , Q b s ",
"# # # # # # # # # # : : # : c # % > o # # : x - - < t f Y <.U f f < , , T t y H y y t t q , s w t t t y y y H t q i , q F ~ S S P _ G U Y ` [ j.j.) ) U D U ! i ! t S ~ K y q y P U y q , , - - # # : # # # - - - , , , , , , , - - , , - R 3XU P ( [ [ _ P P ( j.Y.D.K.z.z.S.z.z.D.J.+X*X&X=X=X=X=X*X*X*X,X*X#X#X#X-X$XA.&X:X&X=X#XA.A.J.F.F.F.N.c.c.x.x.>.m.N.W.^.6.7.6.l.n.z.=.=.>.>.:.I f f h y e q q q q q , < w , - , # # > > # o % o # : # # - - - - - 1 - # # - 2 - - x z : 2 r - , , , , , , , , # - , , e u.^ l U.i R i q q u t u t t K y F F D F D S ! ! t q , q , , , , , , r b , , , , , , , e , , , - v , 2 r - - - - - - - - , , o a.wX- # - - - - - h , , , t u y H H U P.Y I ` ) P U L U P P f f f H H L @.L f w # eXmXy h d T.mXiXg f h p ~.nXyX, r I.d.HXUXUXLX[.Y Y H t w w w w w f f w w w w w h h ~ Y H L Y L y y y w w h f J j p p h p.p < w < b v - # ; ; ; < 4 s 4 p s j L L d s 6 > # o # 3 6 - # o o o # > o o o o o o o % & o o & % # 2 x , , , , < 2 s b h w h h f w s v , , , - - - - - # - - - - - , , , , - - - - # 2 2 o o , h ",
"- # # # % # # # # # # # # : 8 & > % # # # : 1 - - , < h Y U Y H w w e e q t f y t t q w w w r , w < w t t t y t q e e t U ` y H S G P P H U { :.[ ` P S y F ^ i K t y U H y U H P U S t , - - - : # # # # # # - - , , , , - , , # - , , , , , Y ) [ :.` ( [ [ ] j.j.z.D.z.S.K.>XK.z.H.:X=X&X&X=X=X*X&X+X+X,X*X&X$X&X#X+X#X*X*X&X=X%X$XW.J.J.H.J.C.l.-.-.l.j.N.N.B.^.V.M.7.4.j.j.v.>.M.v.:.Y H L h h y w , w t q , w r 1 , - # : : # # # # # # # # # - - - - - : # - - - 2 - - n v - r z , , , , , , , , Q wXi., , , - , , , e W R t t y t t F y I.! D D D U D D U K t t q e e v e , , , W W , , - , , , , , e e - - 2 - 2 z - - - , - - - 1 z 2 o f.hX, # - , , - , $.i q q t t F y U H S *.P M.b.y Y Y y U H y H H I I <.<.L J h < ]. Xw p b < , t f K - f.UXUX[.- h ! $.}.jXlX[.b E K y y f y y f h w < , < < , r s h J H H P Y P L @.p f w f j f p h p , , p h d < $.b 6 ; - ; ; < 4 4 < < s s s d s 4 4 ; # # $ # . 9 c . $ c o . o o o o o # o o o # # > : - 2 2 - - - - - , , s s w h E E w h w w , , , - , - - , - - # , - - 1 1 - - - - - - # : 9XwXr h ",
"# # ; : # # : # # % # % : > o A Z o o o # # # - , , , h H H U U f w w r i , , y w w w y w w w < - - , < i F F t q q w y P ) P H H P ( P H S H S H P G D u q q q q h h y S H P P P P _ F q , , , , - # # : : - - , v e , , , , # - , , T r w y Y ) S 3.` ( ' j.[ b.j.k.z.z.z.H.K.C.z.1X1XOX+X-X+X#XOXJ.H.J.+X#X#X+X#X*X*X&X=X*X#X=X,X*X$XF.W.$XH.z.l.) &.:.l.N.B.M.M.N.v.6.4.4.m.>.>.v.M.^.4.H H f f h w h w q q q , r 2 - # - : % # # # # - : - # 2 : - - , - - 2 1 - - - , - - - - , , - , - - , r , - r GXlXo , r i q q , , , q q t t ! 2.y y F D t t D D t D t y t t q e , v e , , , r , - , , , , , , - v r # # - , , , , - , r , , - , - r 1 - - - - - 2 , - , i q q q i ~ K t y K P I ) *././.y P f y f H H I ) >.1.<.f f f f , - < < s s h L y h < s.UXUXwX- K p.$.K i i i v i w p w f H K y E h < , < 1 < w w f H H Y ` *.Y L L h f J J f p p p b j p L L j d b ; ; ; # # - ; ; ; ; ; < : : : 2 4 6 4 $ # # o % % & o @ Z & . o   . # # > % o o o o # - 1 2 - - - - - - - - < < w h j h t w w < < < < , - 1 - - - - 2 2 1 - : : - # # - - - # c UXUXU.- ",
"- # : - # : x # # # % # c t.o > > o # # o # - , , , < w f f H K f w w , q |.}., , w w w , , < , - - ; , w h y t y y t U P P P H _ ` P P H y t t y S S y t y u t t t t y H P P h Y b.[ _ S y t u q - # # z r - < r v , , Q , - 2 , , , i i y U H >XY.U b.3.( I.b.) ] j.j.z.z.z.z.C.D.$X:X=X,X+XOXA.A.:X$XH.&X&X#X+X*X=X=X=X=X*X*X,X,X*XJ.E.W.H.H.z.:.*.*.:.4.4.m.V.^.Y.Y.Y.G.m.=.4.l.-.>.4.I Y f f f q q b E y w w , , - - - # # # # - x # o : : : z : - - - - - x 1 - - - - , - - , , - - , , v , , - , - v Q - , , e , , e i e q q t t F Y t S S S S t D D t S t t y t q , , r , , , , , , , , , , , , - e v - a.U.# , - , , - - 1 2 r - 2 - z r , - , - - 2 - , r , w t t i ~ u t t H U ) &.) P.Y.U H H H H H U <.4.:.<.J w w f w s r # ; 1 < w s h h p 1 [. X$.y Y 2.f i h h Q v v h h f f H U t t h h < < r < < w w f L X.@.X.L f w p f L J p f h d O.O.p j j j d < ; - ; - - - - ; ; ; - - # # : - - ; # o ; # # # o # $ . Z `.. o s.0 . # > o o # # > 9 ; 1 , : - 1 , , 2 < < p w b h h f u.E w h h w e , - - z - # , 1 ; - - , - - - - - - < 1 2 iXkXE y ",
"- # - # # : 2 # # : . o 2 x # # # % # o # # , < , , r , p h h y f w q h q iXeX- h w q w , - - - , - - < h f H f t y f y P P ` ` 3.` P P y q q q q q q t D K F t y y y S S G S w ~ M.[ _ _ } K y t q - - , , , e , , - , v , , r q e e q t P t 4XUXJXU Y.Y.S 4XP.P P ) ] j.z.N.D.z.D.F.D.:X1XJ.+XA.Z.:X:XH.$X#X*X#X&X&X*X=X=X*X*X,X=X#XW.E.F.z.l.&.I U Y 3.4.6.Y.Y.!.^.:XY.:X^.4.4.l.:.v.*.I P t ~ 2.q w , h h , < , - - - - # # : : # z s.q.% # # # # - - - - - - - - - - 2 , - , , , r , - , i , , , , - - - , , , , , , , b r , i u.K S y H y y y S S G S S S y F F q q q q , , , , - e , , , - , , , - , 2 - i.d.- , e , - - , , - - - r 2 - - - - - - - - - 2 r , r q q q q q t y S Y *.&.:.Y J <.Y Y { U J I *.<.Y Y f p w s , r z ; ; # - - , < w < w - , y Y H t w h s < r R , - < p h K K U.P.w w , < < < , < w w h f j L p p p < p J f L O.f p p p p w p d p 4 < ; ; # ; 3 ; 2 3 ; # # # # # # # o A s.$ : : # : $ > % $ 3 o o {.Z . & % o o o o XXjXo - - - - - r r s < p p p j j p w /.E , s b r , 2 - , _.d.Q - , Q z , , - - - , , , w h p , q H ~ ",
"- - # # : : - - # : fX{.. o # # % # # # - < < s w w , r s s - , f f y f r t t h w h h < < v 1 # - : - r h y H P Y f H P U ` [ 3.} _ G S y q , , , , e t t D u t y y S H P _ } Y 3._ U.P.[ b.` y t t , e q w e , , , , - - - , , y q r R t _ P /.GXMXU P U y K K S U P v.v.-.N.Y.D.N.c.Z.A.Z.+XA.H.D.H.H.Z.A.&X=X*X#X&X&X*X*X&X%X*X,X*X$XF.c.j.:.Y L L U 3.*.P./.7XmXHXGXuX^.^.V.v.v.B.M.) *.U y f K r r w r < - , , , - - - # # : - # # 0.A o # # # # # - - - - - - - 2 , , , , , - r Q , , , - , , , , , , , - , , , w q , , , , u 2.U ` S H K t H H H U P S S U F u F q i W , , , : U.].# - , , , , , , , - , - o - - r , - - 1 , - - , , - - , - - - - - - - - , - , w e q E K q y H P 3.:.&.*.Y J I <.<.U *.*.H Y !.L @.s j s < - z x # # # ; # # , < w ~ u.U f f w h E s - , # ].BX}.- h K y u.$., , , < , , < < < < w w < < , 4 s < j J L J j d p d d h O.L p 4 s x ; - - ; 6 > > 8 $ o o # # # # % o A y.# : ; - - - ; # o o # o . o # o o o o > o c a.# - - # a.s., h h f j h f f f f w , ~.|.w w , v rXv 1 r BXKXw.# e , , e , , < w < w w h L Y Y U J ",
"1 1 # # - - - - o z LXjX. # # # % % > - , < s h h f q , s < h h t P U f f w t h y w E , v |.r # - - - , y H P *.P.Y J *.*.` { } ` G P P S t q , , , q q q q t q q t y S H U } 3.` 5XPXJX3X[ <.h y t q q y U q , , - - - - - , q t q i ^ D G ` Y M.4.Y P t t t } ~ S [ [ ) :.n.N.z.z.z.Z.H.J.:X,XJ.H.D.z.k.:X&XA.,X1XJ.*X*X&X*X&X%X*X>XD.Z.z.:.&.P L H 5.Y.j.M./.DXUXUXUXIXeX^.^.N.G.V.:.I ) Y y y w - e , , , , - - - - # # # # # # : # o o : : # : # # - - - - - - 1 1 - - , - - - v v , , , , , , , , , , , , - , R R , , , , r q t K P } Y H f K S S P P P G F t u wX^ ! w., , - - r r - , , , , - , e r , - , 0XrXe - - - - 2 2 - - - - - - - - - - - - - - - - , - , e e r i y K Y ` [ :.:.I P I <.` <.5.<.Y !.M.<.f j w s w s b 2 > # # # % # o # 1 w h L K t w w v r , , , o hXUXhX# r w w - < , < < , , < < < w < < < - , ; ; < p j X.Y L f j p p p a @.L p p ; 2 2 # # # # # $ > $ o o # > % # # # > o : : 6 ; ; ; - ; $ o o o o o o # # # # % # o o - , - - n Q < J L J L J f f f f L < /.6X< h < < w., v 1 9XlXv , , , , , w w w w w w h K Y Y Y X.<.",
"- - - - - - # - - # 0.9 # # # - # : b < < w f j K f K h < b HXbXt H P U L K K ~ K t q s w - , - 1 - , y y H I I I :.*.) [ P P ` ` P U U S D y y q q q q , , , , , q q t y S U h.G MXUXUXnX) 3.h H H y t y y w , - - - 2 - - , , w , q t y S P *.*.) P H y y y U F t b.3.P l.D.j.z.D.z.D.D.J.&X,XJ.D.D.z.z.J.#XA.$X&XJ.$X&X&X*X&X#XF.F.D.z.n.j.3.5.U y ` b.j.Y.iXUXUXIXUXUXCX:X^.Y.M.M.&.*.P H Y y R p.v , - - - - # - - # # # - # - : # # # # # # > : - - - - - - - 1 , - - , - - - e e - , , , , , , , , , , , - , r e , , , , , q q D G { U t q t t S S G D D F K u ^ K q , , , , e - - , , , , , , , , , , # , DXGXi - - , - - - - - - # - - - - - - - # - - - # - , , , e - E ~ H H { [ 3.&.) ` I 4.*.:.M.Y I nX7Xq L w w < < s e.2 o # # # # # # # - w w t i w < , , , 1 2 - # 0.6X0.1 - - < , +.1 - - - - - - 1 r < < , , 1 6 ; - 4 f L L ~ j f f g J @.@.f d s ; ; 2 ; # # o o o # o o o o % % # o # & > : ; < < ; ; ; ; > o o o o o & 8 o % > > : # - , - , , , < h J Y 2.2.L f f f j L L w < - - s < - , - , o # e i , , , , w < w w p w f K U L f <.P.",
"- - - - - , - - 0.0.o # - # : - 1 , - , w w f L L Y I.~ O.$.mXiXH ` ) Y X.Y U U H y t y e , , , , - , K U H I ) ) v.3.[ ) P P S t P U P G U D D y ~ ~ , , , - - - - , , w q y [ ` |.FXGX3X:.3.f U ` S Y { y t , - - : 2 - - - - - q i F t y H P ) [ Y.{ t t K F t y S _ [ j.l.z.k.k.D.F.D.J.J.J.H.H.K.D.K.J.J.$X$X#X$XJ.+X$X$X#X#XD.c.N.j.-.:.3.3.H U U } b./.bXUXIXIXUXUXZX4XY.4.X.:.` I P H Y q R 5Xv - - # # # - - # - - - - - - # # : : # # # : : # 1 r - - - # - - - , - - , , , , , , , , , , , , , , e - - , , , , , - - - e ^ F G t t t q q y t D y t F i K u , q e q , , , r , , , , , , , , , , , , , , Q ^ r r - , - - - - - - - - , 1 - - - - - - - - - - - - , , v v q y U U ` Y P P :.` I :.=.:.I U yXY.H Y h w w < < # - : # # # # # % # - , , , < , ; ; - - 1 1 - - - o - 1 , # : : 1 : - # # - - # ; 1 < w < - - - ; ; < p f f f w p.@.f L L X.L j s 4 6 ; ; # ; > $ # o 9 & o # # # > > # # > : ; < 6 < ; ; > $ o # o o o & & o : ; : - - - , - , < r w h J L 7.@.J L p w L j f p h U.5Xb < , , , r ].i., w , , e w r , , E K y f w y f H f Y ",
"- - - - - , , - r.r.- : - 7 # - 1 , , , w f L Y X.U 3Xp.p.1.f I 3.` ) I 5.P.y S K y L h , , , w - i.$.t U U P U Y *.I ` b.` P H S S S 3.3.G P U S G i , - - - - - - - r , u u.U 5.P @.P.3.b.[ U ( _ K H U K t , , , - # - - - - - , u D t t H P -.j.M.` S S H K D S S S [ j.n.D.j.j.z.D.H.+X+X+XH.H.+XH.J.H.H.,X:X$XD.A.J.+X$X$X$XF.l.j.l.) P P S P _ b.P.b.Y.tXPXUXUXUXUXbX:XN.n.b.Y ) P H S t w e e , - - # - # # - - , - - - - - - # 9 n # : : A 2 # - , - 1 # # # - , , - - , , , , , , , , , , , , , e , - - , , - , , , , , , i u t D t q q u y t i u q 2.$.q q w u e , , , , , - - , , , - , , , , , , , , - - l , , - - - - - - - - - 1 1 - - - - - o # - , - - , < - i.Q , K U 5.<.H H H ` &.) :.4.:.J X.1.Y Y ~ K < w < r wXr.# ; # # # : : # # - - - , , - - - - 1 - - - - # # - - # # % ; # % # # # - - # , , , , , < , ; < p p f w w w E @.2.L L L #.h < ; # : % # & > % . s.HXNX9 # > $ > > % ; # ; ; ; ; ; $ # # % o o o o o & q.> # 1 2 1 , - , - , < < < s p j h p j L L p.j K w $.$.3XbXh , < , , , 5XU.# e e , r r , , w w p y w w w f f f X.",
"- - - - - - , , , - : # fXDX].# - , w y K @.X.X.<.X.iX3X*.4.4.4.m.:.<.I X.2.y H H y h h w , , , , U.u.y y y y y H Y Y H ` P U P H S S { 3.G P P G S t , - - - - - - 2 i.e ! ^ h <.' ( [ } ` Y Y ( ( H H U U y t , , , , r e , 1 1 , q t t S H ` v.b.` U P S H S y D y S G [ v.n.n.-.j.z.z.K.$X$XJ.J.+XH.H.J.H.J.D.D.H.Z.Z.H.K.K.W.H.N.H.v.) H H ` 3.{ 2.|.wX3X/.iXJXUXPXmX>XY.v.>X4Xy H H U K t q e - , - - # # - - - - , - - - - - - # : : - r.c # - , - - - - 9XjXn , 2 - , , - - , , , , , - , , , , , v r.2 # - , , - - e Q , - i i t i y q q u t t q u e i.w.r e R E , , , , , - - r v - , - , , v , , , , - u._., , - - - - - - - , - - 2 2 - - - - # [.0.# - - - , 2 , - , w t H 3.{ P U H I 3.b.M.&.*.Y J L U U K h w < - r bX X. # # # # - - ; - 1 1 - - , - - , ; - # - - # x 7 - # % > # % % # - # # - # - - , e , E 2 1 , 1 2 < w < < h , E p.g L L O.d 4 ; o o % % % # 8 . 9XUXUXq.o > 3 # $ 6 ; ; 3 ; # # % # $ o o o o o o o 8 s.2 - 2 x , - - 1 1 , 1 r < < , < < p d p p u.f h K L U.kX$., r , - , 2 - , e 2 e , , , , , w w s h q , < < f @.2.",
"- - - , , - , e - - # k HXUXlX. , < p K Y <.*.1.M.P.nX7Xm.V.m.4.*.*.1.J H H ~ f t y w w , e , , r - q K t w , q t u.u.t Y Y H U H S U U P ( ( ( U H y q , , - - - 2 v , q u i y H [ ' ' S y H U ( P U P H H S y t q q e w r , , r e q t y H P ` ( P [ ` P P U U y S y { P.) ) l.j.-.j.n.H.D.Z.H.J.J.+X+XJ.H.J.z.H.z.D.F.Z.Z.D.D.H.l.N.^.:.Y P P 3.b.3.~.FXUXHXeX>X4XyXwX/.Y.P.<.<.@.H y H U y i w , , - - - : # 2 x 1 - - - - - - - - - , 1 - 9 1 - - - - - - # HXUXU.# , - , v , - - , , - - , - , , - - r U.2 - - , e , - - 2 e , w q q u q q q u t u u , - yXwX- , , , i , , , w , - , e - - - e e r , , e , , i R , , - 1 ; - - - - - - - 1 , - - - - #  X0.# - n 2 - - , 1 - , w H S y H P P [ 3.3.:.*.Y *.Y L L f K h < 2 v - # - , - # % : - - e - 2 1 # - - - - # - - - - - # a.r.# x a.2 # # # : # # - - - - - - , r e r r - - , , , , 1 1 < < < j j d < < 6 # 8 % # > % o # o 8 gXXX7 # 9 > 6 d 4 # 4 ; $ # o o o o o o . . o & # o o # - - 2 - - # - 1 - 2 b r , - - , ; < b $., h h f y J !.L w r < , , - - r , - < , - - - , r r r r e < - , y Y <.",
"- - - - , , , , , - - : ].rX0.: - , h f Y Y M.Y.(.(.ZXiX^.^.G.m.=.X...L J J J f w , w - o - , e v - q t , e e , , K ! y U U H U S y H U P G ) ` P y y t t , , , , < i q t t F Y ` P P t q , t y H P Y P S S U S D F y t q q q q w r e u D P [ ` /.P.Y ` ( ) P S S H q 2.3XP ) ] -.[ -.-.-.l.z.Z.D.J.J.$XJ.A.S.C.H.z.z.D.z.z.z.N.D.H.l.j.I L J P ` b.{ mXUXUXUXZX/.Y.M.BXIX6Xp.<.J y y t y F q q e , , - - ; : # - - - - 2 z - - - - - - - 1 : # # , - - - - - - f. X2 - , - , i , - , , , , - v r - , , , - - - - - , , - , n - - w w e w q u w t q t q h i.rXUXUXrXi., , e , , e v , - - - , , , , , - , , r , , , , , , - 1 ; - - - - - - - - - - - # - : o # - 1 r.2 - k 1 z r - w t S U 2.U P ` 3.3.` I Y <.L f L h w E s 0.f.- - , - # & > # e w , - - # : , , , , # - , - # # : : 7 # A s.# # : # - ; - - , - - - - , , , e.2 - - # # # # # : ; 4 4 d d p , ; $ # 8 # o # % o # > o . . > & % o jXJXB p.4 $ 3 $ o o + . o . y.0 . 9 8 % : # # # : 1 # # : - 1 1 1 1 - # # # - , j e.w f f f L H , f h , < , r 1 - , - - , 1 - - - - d.i., r , , , , y H Y ",
"- - - - , r , - - - - - # o # - - w y K ` 4.^.>X4X7XJXnX7X7X:X^.4.J J 2.5.L H 2.u.< , E ].2 1 r v Q R q , - , - - - , H H U H F U S y y S S ` ) H t t D y u , , , e u i i y y U [ S S i , , , q y K H K y t q t y U F D y F y t t y t F F _ t >XUXZXS ` P S P Y P y H H H P ) ( :X/.P [ -.-.j.z.Z.Z.K.$XJ.A.H.K.k.j.j.j.-.j.n.l.l.G.N.] P H L P [ b.<.lXUXUXUXVXP.Y.Y.GXUX6XY { P S t t y F q , , , - - - - - - - - - - z n - - - - - - - - - - # # - # ].hX0.- - o - , v r - , , e , - , , , v 2 - , - - - - , - - , - - , 2 , , , , q w t I.2.t t t y i R 5XPXPX}.v e - , , , , 2 - - , - - - , , , , , - , , , l W r - - - # - - - - - - - - - - # # - - , - - - 2 2 - - , - , w t y H U { ` P U ` *.P H Y H f H t t w r s 2 r 1 , - - : ; # 1 ].u.- - - - : 1 , , 1 - - # - 1 : : # # # # # > # # - 1 s , - - , - , - - < , , , 1 % % # # # # : - < < 4 < < - % o # o o % o # o & $ ; # % % > # . 9XzXhXzXB # # o & + o o . . `.Z . o % # # % # # # # : c > # # # # - # % : # 2 s 1 r h s h w h f h f w w w , 2 , , - - , - , - 1 - - z z , , , , , , q y H ",
", - - - - 1 - # - - - - - - # - 2 w f P 3.Y.>X>XyXCXUXLXnXtX7X^.^./.*.` <.Y Y #.+.p , lXUX9X  R r 9X].- 2 - - - - - < t y S y F i t q t y H P P S H D D D t q q q q t K , - w S G D y q q q , , , , q h 6XcX9X, h y F U U Y P y q t S U U U y P.BXiXS 3.Y S S U Y U P P P ) v.v.M.5.P ` [ ] ] j.z.z.:X$XZ.A.+X:Xj.l.j.-.] v.v.-.[ ( [ ` S H P I <.4.5.~.CXIXDX|.u.I.b.Y.4X{ ` U H S t F F q e , , 1 - - , - - - - - - - - # - - - - - - - : # # : : . o DXUXfX# e e - - 2 r - - 1 v , - , , , - - - # # - , , , - - , - - # # , , , e u t f ~ Y H H P U K u # 5X5X- e , , , , - - - - 1 - , - - - - - - - - - - , 2 k a.- - - - - - - - - - # - - - z z # - , - , 2 # - 1 # - - , w y H I P ` 3.S H Y L f f H L y t t t w r e - - # # - - - - , , b 2 # - - - - , - - - : # : - 1 - # - - - # # # % # # - r r - , , , , - 1 , - - % : % # # # : - ; ; ; ; - - # # # # # o o o o O o $ $ # # > # $ & o . o [.y.; > # o $ o o . o # o 8 # o o # % # # # # # > 9 % % # # # % # # # # - 2 , s b s s < $.i.< s , q w , , - , s 2 < , - , - - - # 2 1 - 1 , w w q t q ",
"- - - - - - - - 2 - 1 : # - - , e y K H Y 7.~.6XCXUXUXUXIXbX7XP./.7XY [ X.Y *.L p h q  XcXf.o e - v R q , , e q , , < t t q t t u q q q t H U H S H S D F K K q w t q , }.5Xe 2.U U i R q e , , , , q - hXUXCX, h F S U { 3.U y y y S P U ` { y G t Y ` U S S S H { Y P ) ` [ b.` S P ( P ( ] ] z.D.D.z.D.A.S.z.l.-.-.j.v.[ ( ) ` P S S P ` ` [ [ *.5.u.P.4XI.2.5.{ 3.P t { K y t U ! y F , , , r 2 - - - - - - - , r - - - - - - - - - - - 1 - : # 2 A ].jXr.# e U.W v - - - - - , - # % - - , , r , - - , , - - - - 1 - n x - , , e w t y t y H P H { ~ i , u.u.e e i u.r e 1 - - 1 2 - , , - - 2 - , < , - - , - # x 1 - - - - - - # - 1 n : - - z 2 - - - - 2 v 1 - 1 - - , , q K H Y P U Y H U K L U.K y K y t t w w , , - x Q 1 - - , - , , # # # # 2 2 2 ; # # # : # - 1 - # - # - - - # o # - : # 0.e.- r w , , v r - - # # # : ; : # : ; < 2 ; ; z : # # o & o o o o o o o o # $ # # o o o o o $ . o # > $ o o o o o . o % & o # & # # o # # # # # # # # # o # # % # # : , , < , - s v , s +.< w w , w , , , < E w < < , , 1 - - # - - - - , h h y y w ",
", - - - - - - - - - - 1 - - , e t y S P.wXkXCXHXUXIXIXIXUXIXZXVXiX7Xb.` I H J H f f w - , , , , i q t R i i y y w , u i t w q q , , , q t H y y P y S y q U.8X- q q q q GXPXR i U i q w.r w e , i w r , u.kX}.- , q y H U U H y S U U G P ` ` P t S ` P P S S H H U U ` [ ( ` ` ` U G S ) ) -.z.z.n.K.K.z.C.S.z.l.] -.j.j.[ Y.Y H U y y H U Y [ ` U 3.5.2.~ <.5.3.` ` ` Y K y w w K } y q e , - , - - 1 # - - - - - , - - - - - - - - , r , , - - 1 hXmXo # # - , r 1 r 2 - - - , e - # # - - , e e - , - - - - - - # # - NXlXo - , , e w i y H U H S Y U q t ! R e , , v , , , - - - - - - - - 2 2 - 2 2 , - - - , , , 1 # - 2 - - - - # s ].7 o , ; - - - - - 1 z 1 # - # - - - , y f Y U S y H f K H U y h y h t , , , - - # x n 2 - - , , # # - : : # : o # # : - # # x 9 c : # # # # - # % # # - # - - , }.i.  , r 2 1 1 - # # # # ; # : o   # ; ; # s.c # o o # o # # # o o 0 > o $ # o o .   o o o $ > # # o o o o o o o o o o o 0 8 o # # o # o # # # # o # # # o o # # : 2 ; ; , - , < < , < $.E q w w r r , w w w w w w 2 2 - - - - - - , < h i t y i ",
"2 , , , - - - , # - # 2 2 # , e w y t u.}.wXkXNXIXUXIXIXUXJXnXiX6X(.<.*.Y J X.X.f f w w , q e r i ~ ~ v ^ ~ U S t w u t q , - , , r e , q t t y y y y F F ^ R , , , q - U.}., e w , e , w r e e q h u.t q , , e e q t U U S S H U U U _ P G P U P U P ` U H H H S U { t S { ` P P U P P ( [ j.j.l.z.D.D.z.z.z.n.j.-.[ [ ) ( b.H y K t q y y <.` P P _ ` Y { 4.5.{ ` Y U K q w i , w i i q W w.- - - - , - - - - - - - - - - - - - - - , Q r - - # n IXkX. n r - - # - - - - - - , , , , w e , w < # s.DXf.. - - - : 7 # # ].s.9 - - 2 , q q q t y H y t h w r , , - e e - - , 1 2 1 - - # - # z 8.- - - - - - - - - - , , - - - 2 - # - - - # - - ; # - - - - - # # - - - : - - - e w i K K y t y q t y y y y h w < - - - , - - , # - , , , 1 # # # > > # . {.vXc o : # # A z : # # # # # # # # ; # - : - # - yXrX].z : - - - : : # # % % # o A 9Xn # 3 : % : % o o o o $ # o + o 0 3 o o o o . 8 8 . o o o $ # % # o o o o o o o o o o & # o # # % % o # o o # # % % # o o # # > ; ; - < 4 < w w w h L K h w < s v r w y h t r , , - - - - - , - - , w y t y y ",
", , , - , , - - x 1 # - - - < r r s w , q L p.|.MXUXUXUXJXiX>X7. .L P I X.J <.5.H K K f w , r R w.! i.].t.R } U y i t q e 1 - - , r , , q t i t q t t F i q , , e , e R , # - , , - , , , , , q q t K y H K w w , q u K H y y H K S U } P D P ` y S ` P H H H S S Y P.eX3XU U S H S S G P ` v.j.l.D.z.z.n.N.n.z.] ] -.' ' G t t q q q t t y H P S G P P S Y X.Y H t K y w , q q i ^ q w r e z - 1 1 - - - - - 1 - - - 2 , - - - - - - - - - - - , n U.n # z 2 - - - # - - - , - , , , q q q q , , o '.DX).  # - # x ].: # o o x , - , , q q t t t y q y h , - , v r , - - 2 x z - - - - 2 2 - 1 2 - - - - - - 2 - , - - - - - r - - 0.0.# - - - - - - - - - - - , - - # # - - # - - < e , w < , q q t t t ~ R < , r < - - - - - - - - , - - , # # # % # # o hXLXt.. # : : o # # # # # # % # # # % : : : - - - o cXUX[.# - 1 - 9 z # # % % # . 0XUX9Xo c o ; # # o o o o o o o o o . o $ o o .   C Z . . o o # o o o o o + o o o o o o o o o # # # % # o # o o # o # % # # # o y.].o # - ; s b p < w f w w s r < s - - w t y y w , , , , 1 1 2 e , , < w K y t i ",
", , , - , , - # U.].- - - , , < r w w t H 5./.4XtXnXIXGXiX7X>XY.5.@.Y I J ..Y Y K K f y w h b E E 5XFXIXHX X^ { F i q t , - - - - , - , w t t q q w i t q , , , , r , e v 2 - - - - - - , e }.R K f y U S F t , , w w q q t t y t F F U S S U { I.U P U S S K K H t /.UXCXt t y D S S P G ( j.b.n.H.z.z.D.n.j.] ] ] ' ' ' G S y q q t t y U Y P P S P G U L j L kXiXw , q q q , ! ! q w , - # - - - # - - # - x 2 # - 2 - - - - - - - 2 1 - # # - x . - v # - - - # - # - , - - , r , h p.w < e - 2 7 : # # - - - 1 9 : # - - # - , , , , e r i w q w w , j b , v e - , - - - - - - - - 1 z - # - - - - , - - - - - , x 2 , - , - , e.n - : # - - 1 , - - , - - - - - # - # # x x : 0.v - - , , e w t t q i h r , w.E - - - - - - - - - - - - % o : 2 # # # x 0.# - # - : - : # o # : # # # # # # # - s.0.# - . ].rXjXHXd.o - : : # : % # # o q.qXq.o % $ # o o o o + + o o o o o o o # % o . . X . . + + o . o o o o o . o & o o o o o o o # # # # o o % # o o o o # o # # o {.rXo # ; ; 1 s < w w p s h p w 1 - a. Xh y f y w w e , - r l , , , , w h ! F t t ",
", , v e - r , - 2 r , - , t y q w < w t y Y 4.Y.4X7XJXbX>X7X^.b.<.Y U I J X.P J j f H h - - b R U.KXUXUXUXKXU.! T u q q e - - - - - - , q q i q t t i t q , - , , e , , - - - - - - - - - , u.h t K K K U ! q , , , < w , q w q , t t y y F t ~ bXP., S S y K H K S 2.kX5Xq q q y D D K S P ` [ j.n.j.n.j.] j.j.] j.g.[ ' G t u.iX^ , t t U { P P S S K U ~ f ~ CXBXy , , , q , q q e , , - - - : 2 - - 1 1 - - - - - - - - - - - - o 8.n # e.x # - # z x # - # - # # - - - - - , w , lXUXhX: < r e , 1 1 - , - - - - 1 1 - - - - , , - , e r r i , < , < kX5X# , - - 2 - # 0.[.# - - - - - - - - 2 - # : - - ; - - , : , - - - , - - - - - ; - - - - - v ~.1 - - # ].s.# - # [.a.o r - - - - , r , w q q e e , , r , , , - - - 1 - # - - - # : > 1 2 - - - # # # - - , # - : 2 n > # # # # - # ; 2 : A z # - - - o fXLXf.. - : - # % > # # o o o % % # # o # 8 & . % + . o o o o o o # o o . . X . . . + o o o o o o o o o & & o o o 3 & $ # # # o # # > % o o o o # # # # # % % # # - ; ; s w w w d h d h < # b HXUX9Xt ~ y w w , , - 2 1 , , v w e w t i K y ",
", , e , , , , , , , - , 2 h L , , h w y y H <.5././.VXuXP.^.N.3.Y Y U U L Y Y f p f H y  X9Xs e wXUXUXIXUXUX0Xu T q e q e 1 - - - 1 , , , q t t , , , , e e - - , , - - - - - - - - - , - - , q h K y H S t w , , , , w , , , , , , r q K K t q $.K I.U t y t H y y 2., , u q q t t t y S S P P ] ] j.n.n.j.] j.j.j.g.h.h.( D ! 3XK t t H y y H U S H y K ~ P U 5.u.h , - - - , , , , - - - - - - - - o 0.[.- # - - - - - - - - , , 0.NXlX> s.0.# - - 2 - - # - - # - # # - - - , , r GXUXFX1 , - # - , - , e - - 1 , - - - - - - - , , - , , , , , , - v hXd.# , , - - - # n f.- - - 1 - 1 - - - z - - # , - - 1 - : ].0.o , , - s 2 - - # ; - - - , - l w.2 , , - a.q.: - : : : - - - , - - - , , e q q r e , , - , , , , - - 1 - - - # # # - 2 1 - , 2 , , , , , < - - , # 2 f.0.# # # 2 x # # 2 x # # - 2 - - # 6 Q # - # - # % # # o % > # > o o # # o # 8 % . . o o o . o o . c V > @ @ . . . + 8 O . O o @ o o o o o $ $ o o o > 3 3 # > ; # # # # # o # o o # # # - # # # # # # - 4 < d E s j j p h r - z BXLX6Xy E K w , , , 2 - - - , v e , q q i K i ",
"- , - , , , , , , , , , , s s , , r w y K Y @.2.7.#.nX6X7.M.>.Y K K ~ Y H L P w < f y U PXIXQ -  XUXUXIXUXUX Xe r , , u.^ - - - 1 1 - , r - , q , , r , - - # - - - , , - # - - - - , , - , , , h K h y K y q R }.v , , , , , - - e v , i i w q , q U.^ t q y t q t y q q , , e t t t t t t S P ` ) ] j.yXY.P ] z.b.[ g.[ _ U t - t D t t y y S H H H t w t S U ` U K w - - - - - - - - - - - - - - 1 - 2 x - - - - - - - - - e r - 9XUXUXf.o # - # # - # - : : - : # - : - - - - z , f.hXs.- - [.lXr.# , - , - 1 - - # . - - - - - - , , - - , - - , , < e , , , , , - - - o . - : - - - 1 1 - - - - 1 n - - - 1 - : n 2 : : - - x 1 - , ; - - , , , e e - , e e - o # - - 2 # - - - 2 1 - , , e , r h , , , , , , , 1 # - o ].r.o # : # : # - # Q z - , , , , < w w , , - - # : : : # # n b : 2 # - - # - # - - : # o # - # # % # # # # 8 x # o '.].8 '.9 . o o o o . . o . % o o & '.xXo   . . . o & o . . O @ O $ O & % o o % $ . o o 3 z : ; # # # . # # o o # # # # - - # # # # # ; < w w h p d d w p < r , v u.< h h h w , , , , - - , - - , , , q w t t ",
"- - , - - }.^ , e e e , , 2 ; - , - , t y L <.2.P.p.eX|.1.M.4.f w h f H f y t < , w y y .X9Xr l n xXUXUXUXlX8.v e , , R < # # k 0.# - - Q  XQ , e , 2 - - - - - - , - - 2 2 : - - , , , , , e # lXZXh t H K E E U.u q q , , , , - , e r q , , w w i q y y q t t i y q q , , , , q q t t t t t P ( :.[ j.G.z.j.n.j.-.' b.>X' D D y y y S U F S U <.H Y y q y S U U U F t , - - - - - - , , - - - - - - 1 2 # - - 2 z - - , - - , , - r hX0X& - # - - : - # # r.'.# - # : 2 - - , 2 r , , , q , - DXUXfX. # - - - 9 - # A ].- - - - - - - - - n 1 1 - , r w , , , , - - - - # - # - - - - , # - - # : # : r.: # # : # : o # - - - # - , , - ; ; - - , w i u u 9.l e , - - - - - - 1 - - - - - , , r , e - o # , , , - - - [.kXr.z 2 - 7 # # # - , - 2 2 , , , , , w , < w , - - # # # # : - - - - ; - - - - - - # - : # - - # # # n % o o > 8 % . c IXUXV & > $ > o o o . . o . % % # o > y.# + . . . . . 8 & . . . o o O `.Z . % o o o o o 3 3 : # # : > c % # o # # # # - - - - : : # # ; < w , w w p p w w w w < - - w h f w w w , , - , - - , - e h , w q q q ",
", - - , - e.v , e e , , q q w , - , < , y H I 4.!.P.7X(.4.>.&.P f w h H y w , , , , y h , - e l W Q wXlX9X8.R i , - , - - # % : 2 > : o e MX[.# - # - - - - # # - - - # [.sXo - , , , , e r v - eXkXw L S S ~ t $.K u t q , , - - - w.w., e i q q q i t t q t q , u t q q , , , e , q t q t S S P [ [ ] ] j.^.V.:.` G b.4X_ S D t t t K ~ /.{ y { H S y t w y i t t y q , , - - - - - - - , - - - - - - 2 - - - : n z # - - - , , , - n 2 - 1 - - - - # - # n r.# # - : - - - # - - < , v h , -  XcXy.o # # - # # - o  XDXz # # # # - - # - 1 - - # - r , w w q , - - - - # : # - 1 2 , - # # # # # : : : : - - # # : % - - - - - - # - - ; , - 1 i , q 9.dXdXL.u u - - - - - - - - - - , , , , e v - r.fXd.# , 2 1 - z PXUXmXo - k 0.- - - - - - - - , < , , , , , , < - - - # # : % - , - - # : - # - , - - - - - ; - - # % : > # # # # % # o & jXlX8 o o # o o o O . o . . o o o c 0.o o + O o o o . 0 & . o o . + o C 9 o o . o 0 0 o # # 2 6 - : 8 '.8 o o o # # - - - - - c q.# # - < < w h h j h f f K h t w h w w w w w , , - , , - - - , , , , , q q , ",
", - - , - - , , , , , q t F t q w , < w f P ) ) >.:.7XiX&.&.:.I f h f f w w < < e < w s i , , r l l w e , R ! l , - - - - # # # % x : - - 2 2 - - # : 2 - # - : - - - # 8.i.# , 2 , , e w e w w # - h K K K y ^ yXI.q F F u , , - - , , , , r , , , q t q , q , w.^ E i , , , , , , , u t y S S U _ [ [ ] j.:.) ) P P G t P S t y t q t h <.U P y { 3Xu.q , w q q t q q e , , , , , - - - - - - - - - - - - - - # - , - - - - - - , - 1 2 - - - # - x - - - # o - : # : - # e.a.- , - # - - , , # # # - : # - # # # # : c 2 # # # # # # - , # - # , , , , w q q , 1 , - - # # - , z r , 1 - - # # : - - : - - - 6 x # - - - - # # # - 2 - ; , 1 , < p.! 2XKXKX2XF i - - - , - - - - , , - , , , q w - BXUXHXn # , s - 1 hXHX X# , - , - - - - : ].n - < w , , , , , , < r - - , # # : # # - - ; > # - - r 2 # - : - , # # # : : o # # # # o % # o . o o # o o o & o o @ + . o o o o V y.% o o + . . o . . . o o o o o o   o $ o o o & & o % q.6 x 9 ; # % # # % ; # 2 s , 2 2 , 4 2 : : , 1 s s s f L h y t K K y f f w w w h w , , - - - - , - , , , , , , , , ",
"- , , , , - , - , q , t i K t q q e w w y U Y &.:.&.M.^.4.1.<.L f h w w < < h w , 2 - 1 1 - - - , r v r r e e 1 - - - - # # # % : : : 1 - # # - - - - - - - - - # # 1 , - # , - 2 , , , r w w w w ~ K y h w b mXUXDXw.t F y q , e , , - , , - - z e , , , , # s.UXDXv - , , , , , t t w w t t y H P G ' [ [ ( P P S S D G G S t t t e , q t y ~ t <.CX|.q y t i q q q q , , - - - - - - - - - - - - - - - - - - - # # - - , 1 1 - - - # # - # - - : r.1 # # - - - : # : - # i R e e - - - - - - - # - - - - # # # # # # o : - # # # # # # 1 - # - , , , , w , < < , , - - # - , < s w < s , - - - : # # - , , < v s , - - - - - # # : x - ; - l q , uX/.9.SXSX2Xt q , , - - - - - 2 2 , , r R q , i , mXUXDXv # , , , , , v - , , , - - - - - , Q r - e i t y t t y , - 1 - . - - - - 2 # # # - - - - - 1 - - - - - - - # # # # # # o o o 7 8 # # o o o # o . + @ . o o o o o o o o o # o o o o o . 8 8 . o o O & o . o o $ # # $ o . . . # 8 6 1 ; ; ; # # - 2 < 1 j j p j h w < , 1 - < b s d w < h h f t y y f K f h y y h i , v v , , , , , , , , , , , , , ",
"- , - 2 - - v i., , w q q w K t , w w y U Y I >.>.:.*.4.1.I H f f h h < < < h w < 1 - - # # - # - 1 r , , , - - - # # # - # # # # # - : - - - - - , - # - - - : # : z 1 1 2 - - 2 2 , , w r w , t t K U y w b hXUXMX$.K K y t w i e , - , - - - - - - - , - o a.LXNX1 - q e , , , , q , h y S H S U S S P ( ` 3.P S D D D U S t t q q , q w t t y y L K f U K U t q , , , , , - - - - - - - - - - - - - - - - - - - - - - # 2 1 - - # # - # # - 1 : # # : : # # # # # : - , e , v ^ , - , , - - - - - - - - # - # # : - - - # - - # # # - - - # : - - < s w < w < , , - - - - , w E p j r r < - x - # - - , < w p w < , , , , - : ; ; - - , , r K f J K D 9.L.T F q , - , - - - , e w e , ^ ].w q h q Q 9Xi.- e - , , , , - , r , , - - - - , - - , r u.i y F t t y w - # n rXi.# - - s 1 2 # - - - ; - n 1 - - # - - - # # # # # # # # o > # o o o # % # o . . . + o o o . o o o . o o o o # o o . 8 8 . o o O & o o o o # # $ 3 o o + . m Z - ; ; ; ; 1 1 1 < w h L f j L p h h < < w w s s w p w w h L y w y f K K f K f w w , s v , , i w , , , , , , , , , ",
", - e.z - , v e.w , , w w y t w $.h t y Y <.*.4.&.4.4.X.*.Y H K f w w , w w , < , - - # # # # - - - - - - - - - 2 - # # : : # # # # # # - , - - - - - - - # : : - : # - - - , - - , w , , w , , w q L ~ K h w v wX$.i { S y f w , , , - - 1 - - - - - - , , , - 0.z - , , , , , - - - e u S S S S H H t U S 5./.t y K D D D y y t q e q e e w q K h , y y K t y y t q , , , , - - - - - - - - - - - - - - , , - - - - - - - - - 1 # # # # # # # # - - : # : # # # # # - 1 r 1 - - z r 1 - - , x - - - - - , - - # # : # # # # # # # - : - # : 2 - , - w h w w r w < 1 , - - , < s h s p s w < r 2 n : - , , w f w w w w t q , , 2 , - - < < r e t f H t F u e T u q , , - - - - , , , w , e w q i w w , # - , - , , , , , , , , , , - - - - - - - - 2 Q w i t t h w , , # a.KXU.o - - - 2 0.# # - 1 2 - s - - # - - # - # # # # # # % o o o o # # # # # o o & + + . o . . o o o o o o o o o % o O + . . o o o o o o o . o > $ o o # o + o & 8 $ : ; ; < s s w w h h L 7.7.@.E w w w < s p p f w f f y f f f H L f f Y f y f w e w , - , r r r q q w e , , , , - ",
", - z r - , , - , , r r , w w w $.K f H H y P X.X.X.I *.I J H q , f $.v w w w r 1 - # # # % # # # - - # - # # # : # # # # # # # # # # # - # - - - , , - # - 1 : # # # - # - - - - 2 v r , e w < w y t H H t h E $.h ~ U K f q , v e - , : - # 9 z - - - , r , - o # v h , , , , - - , , , q S U I.2., h ~ q t t q q q y D t t y q u i e , , , , q q i U.h q q t y t , , , , , - - - - - - - - - - # # - - - # # : - - # - # - - 1 1 # # # # # # # # - # # : # # 8 # # - z 1 q.oX].2 v 2 , - - 2 # # # # # # # # # # # # # # # # # - : 2 - - - 2 - - < r w w < w s < , , 1 , s s w < w < s w < , - a.r - w , , f y w f y y t q , , , , , w w i R K y w t t u u q , , , e , 2 # e - , e , , , - e h t r e , , , , , , , , , , , , , , , - - - - - - - 2 - , w w q r , - - - 1 v , - - - - # : # # - , ; - # # - - - - - o - # # # # o & # o # # # o o # o # o + + + + + 3 + . . . . o o o . . o o . o o o o o o o o o o . o o q.B # o % o o $ . 3 9 < < 4 s d p w L L f 1.1.J J f j p w p @.@.f J f f L H L Y L X.L f Y H y f h w r r , < w , t i q , , , , , - - ",
"- , - - - , - , - , e < , , < E u.U U H Y 3.L J L H P L P w y eX}., Q r , r s s < 1 2 > ; # # # # # # # : # # # # # # # # # # # # # # - # # # - # - - # # # : : # : # # # # # - - , e , , , h s , t @.<.t K y t L K K S t w , e  Xi.# 1 - # : : : - # # , i , , , 1 e , , , , - , , - , hX|.# bXPX~ y y t q , , , , i i y t q t q r e , , , , , , , q U y q q q t w q , , , , - - - - - - - - - - - # - - - # : - - # # # 1 # # : # # : 2 : # # > % # : : # # # > # # 1 < 0.DXUXIXXX, e , - - - # - - : - # # # - # # # # # # # # # # : - - # # # 2 h h w w < < w < - - - - z w , b s 1 2 r r , - 2 2 , r w t y y y f f H K t q , h b q w q u h h - p.lX5Xp.$.- , ^ ^ , , -  XmX}.- v W , e , , i u.r , , , - , , , , , , , , , , , , - - - , - - - Q v - q h w , - - 1 - - # - - - - - : - - # - - # # 1 - - 2 # - - : # # # # # # # # # o c 9 % & 7 o o o o o o   Z vXZ   . . . @ + . . . O % o o o # $ # o o o o o . o . 0 8 $ > # $ o # $ B x , p p h h h g J @.X.J L L L L L J f f 2.!.L L f <.P.X.X.X.X.5.I J J f H f y w w w - r R w w t q e e , , , - , ",
"- , , , , , , , r 1 - - e < , f L U H t |.PX/., f f f f h , w zX0X# s s , r b r - z 9 3 > o o # # # # # > % # # % # # # # # # # > % # % # # # # # # # # - # # # o 8 A % o # # # - , , , < , , < $.h h K q y i h t y t t w - , , v r - 1 - # - # # : 2 hXa., w , , , - - - , - - - , 2 u.kX|.- 5XiXt K y q , , r , , u y t y S y t r , - - , , - , , q q q q q q q t i , , , - - - - - - - - - - - - - # o - # # # # # # # x # # # # # # % # # # % % # 2 : o # # > 7 % < < 9XUXUXUXBXq 2 - - - - - # # 2 : # # # # # : # # : ; # # # o # - - o ]. X1 h w w f d < , , , - - 2 , , , , b ; , < 1 - - 1 b 1 w r w t y f f H K K t w q , e q q q y y h - 5XUXmXz j < , Q v , , , DXUXNX, e v e , , , w w , e , , , , , , e , , , , , , , , , - - , - - r 2 , , q i w , , - - - - : - - - - - ; - # # - # - # 2 2 - - - # 2 0Xq.o # # # o > > % : 9 c V 7 % # # # o . o . 8 `.3 . o o . o o . o . + @ o o . & > 3 # # $ o o o o $ o $ $ > % $ # # 3 > ; < p p p f j L J f X.1.*.@. .L L L J f L 5.Y Y J X.X.*.*.*.*.*.X.X.I P P H y h w w < s R i q t q w , - , - - , ",
"- - - , < , , , r w , - , < , , w K H t p.iXu.< p w w w < s r , , - - 1 1 r v 1 1 # ; # o 8 8 # o # # # # # o o # o o o # # # > {.q.. % # # # # # # # # : : # # # # A [.0 > # # - 1 - - 2 - # - v s q q K w w w , b q , , - : ; - # - # - # # - # # z rXi.- , , , - - - - - - : - 1 z w.q , U , , t w w , , 1 , , , t t t S D S i e , , r , - z U.e , q q q t i q q , , , , - - - - - - - - - # - - o A rXx o # # # # # % % # # # # # : % # # # # # # # o # # # : > # w h f.JXUXUXhXq , - - - # # # # # # # ; # # # > > n 0.> # > o c r.# # : NXGXb w w E p h p 1 - 1 - : 6 : # ; # : : : ; ; ; - - 1 2 < r w h w w f f ~ ~ t q R w.w t t y t f K u l }.e.- 4 ; - , , , , e  XBX[., e - , , , - , , q , , e , , q q , , q , , , , , , , - - - - - - - , , e q q , , - - , - - - k - - - - # z z 1 - - , - - - # - - - r.c # # # # # % % > 8 % # % > 7 % # > o o . o .   . % & o o o o o O & o + o 0 {.% # 8 B % # # o o $ $ o # ; # % % # # $ $ ; 4 p d d j j j p.(.J 1.1.J J g L L J X.Y Y Y Y I I =.:.I ..*...4.1.*.Y I P f f w < < , h K i i i , R v - ].a.# ",
"- - , , , , , , , , , , - - < < w y y @.~ , w p p 1 1 1 , 1 2 # # # - - 2 - , 2 6 : % #   hXxXo o o o # o # o o o o > 9 # # o % 8 > o # > % # # # # # # # # # # # o & q.Z 7 o # # : - - # - - - , < w w r , , , , Q , - , : % : 1 # - - - # # # : , - # - , - z - - - # # # : z - - , , t K U S y q , , - , , , , q t D S S S K F , - r w.1 - 1 w., e t q q y i q q R q q , - - 1 1 - - - - # : n - # x [.k # # # # # # # # % # > : # % # # % # # # % # # # # # # o # , ^ Q '.jXqXx i r - # # # # # # # # : # $ # . q.rXXXq.o # % # A t.# : # a.[.s p w j h p d 1 1 - # - : 0.B - ; o # ; # ; ; ; 1 1 < < < w b w w f f K K w q R R h f h f H f f i , # # < ; - - k r , , e , , , z 2 , , , , - , , , , , , , , q t q , , , , , , , , - , r e , , , , , , , , q r w , , - - - - 2 1 - - - # 2 2 s 2 # # , - - 1 - - # # n : # # % # o # : 2 9  XfXy.> > > & o o @ @ + % o o $ o O o o o o 0 $ o & 3 Z % # x t.# o % o o # o $ ; # # ; ; # $ 3 0 ; s s p p d g g 7.(.#.1. .J f J g J 1.1.*.I J I X.X.:.I I *.*.*.4.4.*.<.U H H y w t w w t i ! q r , MXBX, 0.v - ",
"- - , , , , , , , , , , , , r r < w w L h w s < < , - - # : : : > # % # # , 1 ; < ; # % . T.'.. o o # o o o o o o . 0 A o o o o o # o o % : # # # # # : # # # # # # 8 ].> . # % % # # # # # # # - - , < e e < , - 1 ].x # : # # : : # - # - - # - # - : - - , e e 2 # # > > # # - , , , t i q q q q , - , e , , q i K U S S S y q , , - 2 , - - - e e i q t w q q i $.R , - , - - - - - - - # # 2 # # - o # - # - - # # # % % # > # # % # # > # # # > : # o # - # # # , $.a.# + & x i r - # # # # # # > # # % # # # 8 q.% % # # # # o # : o % # s b w p j L p # ; 2 - ; ; ; a.~.; ; # % # # - ; 4 4 < < 1 , - - < < w w h h q q , , t K U U I J J i e , - ; - - 1 - e 2 r , , - , , - , , - - , e , , , , i R q u , , , , q , , , , e e , v i , , , , , r w.U.! h w - - - - - - - # - - # - - # - - # - - - - x 2 - - # : # : : # % > > : % {.UXUXHXA 7 % # o o & . . o o o o o o o o & # 8 '.8 o # o > ; ; ; ; 2 # ; # $ 3 4 > ; - # # # $ 6 d 6 s d d p p O. .a g o. .L J J J J X.*.*.X...4.1.I I ..X.:.*...*.:.:.4.*.Y P y K K y t w t y q r E - 5X9X- - , , ",
"- - , , , , , , , , , q , , , , - < w < , < < r < , - - # # % % % : : - - , 4 4 < - x 3 # .   # o o o o o o o o $ o o o o o o o o o # # # # # % # # # : # # # # # % # > > 7 o # % # # % 9 & o # # - - - , r 1 - # # t.9 o # # : # # - # x : # 1 - , - - - - - - r v # > 0 : - - , t q , , , - - - , h q q q q q q S U P >XY.t t q , , - , - - - , e , q y q q t t u.5Xq i R , , - - - - - - - # # - - - - - - - - - # # : : # # # > : # # % # : # : : # # # # # # # # # - - 2 7 8 k , - # # # # # # % $ ; # # # % % o . # % o # # # # : # > 8 % ; < h b j p O.}.4 ; ; > 6 ; B a.< , : % # - ; ; 4 s < , , , - , v < , w t q q q q y h U H Y I Y Y y e e , , # - 1 - , , 2 e - , - - , - r , - , r , , , , w.u.q u u.u., , q , , , - r r - , , , , , , - r U.}.W , , - - - - - # - 1 - - - - - - - - - - - # - , - # # - # # # % # % 8 > : # rXUXUXUXf.> > # # o . y.'.. o o o # o $ # $ > # y.0 $ ; ; # ; < b s < < ; ; 5 4 6 ; < : ; % % > 4 s s s d s p p j N #.P.o.J J ..X.L ....I 1.*.X.4.1.J X.*.I *.4.=.*.:.=.X.I X.P H H U L y w y t q w , # # # , , , , ",
"- - , , , , e q q q q w w - - - , ; - , r , , , , - - - - : > > # ; 2 z 1 , 1 B s # 6 % # & # o o o o o o Z & o & o o o o o o o # % # 7 o # # # # # # # # # # # # # o o 9 8 o # o # # # % o o # # - - - - , , - # # . o # : - - : # # # n s.0.# - - - , - - - , - - - > 2 # - , q q q , - - z 2 - - E r , q t q t S Y ` 3.5.y q , , - , - - - - , e q q F F q u t I.wXt ! u.r , - - - - - - - - - - - - - - - - - # - - : # # # # % % # : # # o # : # # # # # # o o # # # # - - - - - # # # # # # # q.B o 8 # # # # % > # o o % # % o # # # % # ; ; p j j p $.T.4 < - t.[.; d s # - < : : ; < < < 4 < < < , < r 2 1 < , q ~ i q t t y 2.3.P ` Y H f , - - - , , - - - - - v U., , - - - , , , , , , , , , , e q - yXbX, , , , e , , e r , , , , , - - - - e , , , , , - , # a.cXa.o - - - - - - 1 1 , # - - - # # - - - - : # # > % # % : 2 t.BXLXfX9 : % o o o   {.qX  o > > # 8 x # # 2 ; o > ; ; < - ; < B +.s < 4 4 s d 6 < < : # 0 > $ 4 j d p 4 s d d a j  .(.(.g L @.Y L J X.*.=.4.*.J J L Y 2.*.*.4.:.*...M.M.*.X.I H ~ Y f K y t t q , Q ].z - , , , q ",
"- - , , , , e w q q r i w - - - , - ; s , 1 , , , 1 - - - # : > 2 6 ; < b s < s < ; ; % & & # o o o # o $ m # o o $ o o o o # % o o % # o # o # # # # # # # # # # # 9 % # # o o o # % # o o # # # # # 2 s - - - # # # > # ; 1 - 1 # # - # t.a.# - - , - : - - e , - 1 - - - , - h Q , - , - z r - - - - , q t t t H Y U S t t w , , , , - , , - , , , q q t q q q t t i t , e , - - - - - - - - - - - - - - - - # - , - # # # # # # > % # # > 0.# # o # # # # # o o % o o # - - - # : : # # # # # o c c # & $ $ # # > % o y.Z o # # 9 # # o o # # - w p p p.|.; 4 4 ; d +.d p p p.b ; ; 1 , < s < < w p w w r v , < w R h ^ K y K H H :.3.P U P H f w , , - , ; - , - # , z e.- - - - , , , - - , , , , e , q u t ! ^ q , i i , , , , , , , , , , - - - - - - , , - - - - o 0XUXqX> - - - - - - - - - # # - - - - # - # % : # # # # # # : 2 1 x y.0 > 2 : # o o o . O o o & > # > 3 # 6 9 ; ; 2 ; 2 < ; < < < O.+.4 4 d d d d 4 ; ; 8 8 > ; < p p h s p d j  . .@.L ..L 1.<.L w !.eX=.X.*...J f g L X.<.X.X.....*.4.Y.<...X.I <.Y f f y y t i - 0XUX].# e , r e ",
"# , - - , e i h q w y K t , , - - < < < ; s 1 - - - 1 - : # % % 7 > s.].9 x s ; ; ; > $ o o o o o o o o o . o o o o o o o # > & % o o o # # # # # # # # # # # # . 0.HXqXo o o o > > # o o o # # # # # - 1 - - : # # # : # # - # : t.2 # - # o - - - - - - - , , , - - - - - - - , e , , , , - e v , , , , w t t q q y t q q e , , , , - - , , , , , , , e , , , q t y t q , , , , , , - - - # - - # - # - - o # # # : # # # # # # # : c : # 0.iX: # s.n # # # # 8 & 7 o o # # # # # # # # # # # o # o o % o o # o % o o o q.V o o # 9 & o o o # # ; s j p O.e.a p 4 6 4 ; 4 ; +.JX.Xo < < < < < $.O.h h p h w w h h K ~ h y f y U Y H J P P H H P f h h < - - - , - 0.0.- , # - - - - - e - - , e q q q q u q q t q , , q i e , , , , , , , , , , , - - - , , , - , 2 v k - z [.r.t.# - - - - - - - - - - - # : 1 x # # # # # # # # # 2 : : 9 2 : 8 : : 2 # o # & 8 > o # o # o o # o 8 c - ; < s s < < p p p p p p d b d < s 4 ; ; 6 6 2 2 < < < b s p p d  . .| o.X.1.*.X.1.X.M./.@.Y J f J f f H Y Y X.<.X.X.X.Y X.I ) *.*.I Y U y t q 3X5X# i.0XR q F y t t ",
" Xr e , , w r h h h w t ~ E < e , < < < , - < - ; : : : > 9 # > % XXLXIXqX> 6 ; 9 > o o . @ + * 8 . . & & o . o o o o o o o o o o o o o # % # # # # # : # # # # . A DXXX. # # o > & o # % # # # # # # # # # # # - - # : - # - - # f.x # # - # - - - - - - - , , - - - - - - - - - - < w , , , 2 < , , , h u , , , , , - v v - - - - , , , , , , - , - - , , , , q t K y t q q q q e , - - - - - # : : : .  X Xc % # # % # # # # # # # 7 9 # 2 x - s  X0.# - # # > % # # # o # 9 # o # # o # % % % o o o o & $ o o o s.A . . . o o o # # . . o # # ; 6 O.O.p ; d p p 4 4 ; ; 6 d ~.+.s p d 4 2 1 s d h s h w $.u.f K U L L H H H f y H Y Y H H H U L P.$.< , - - - - 7 x # 0.s.- - - - - - , ! i , q t K q q q q q q t t q , , , , , e e , , , - , , , , , , , , , - , w.z , # . # 1 - - - - - # - , ; ; # - 2 # - x : # o # > : # # # 9 # 2 A : 2 2 : # # % o # % # o # # o o o o $ o $ x 2 4 z s +.j w a g L g g j j 4 b s.s ; ; 4 4 s 4 , - ; ; ; 4 4 4 p d 1.#...=.6.=.X.1.1.J f Y h w s w y f f f J f J j f f L U I P ` *.I Y H h y y 2.^ w , o q H P U K y ",
"DXr e , , , , r $.f , q E b , r < < s w +.+.- ; - - # > # o % 8 # NXUXUXDX8 6 : x > o $ + o + O % . . + + o o o o o o o o o o o o o o o o o # # # # # # % : # % # # o # o o % o o o # # # # # # # # # # # # # # # # # 2 2 - # : : : - - # - : # # - - - - - - , - - - - - - 1 - - , < e w , - , - - , w e e , - , , , , , , - - - - - - - - , r e , - - 2 Q , - q y H U y t t t u q , - - - - # : : # # # t.DXLXt.. # % # # # # # # # # o c q.o : - % # # # # # # o # # 8 # 8 q.# o o o # # # # # o o o # 9 8 # o o y.c . o o o o o o o . & $ # $ ; s d d s p d d 4 4 ; ; ; ; 0.s.; j j s < 4 s , < p p f f L @.Y J L L L L f H 2.<.3.U U U H U y y kX}.# , - - - - # # # 2 z - - - - - - r _.^ , q q q q , , , q e i q u i e - - , , , e w , , , , , - , , , - r , , 1 1 - - - - # - - - # - - - - 1 , # : 9 - # % # # # # % % # # # # # # : # # : # # % : # # o o o o o o o # o o . y.fX# 2 d d +.b w p L  .g j g p p B ].x o # 4 6 4 < ; # ; > ; 6 s 4 d g  .1.X.=.1.6.X. . .J H f w < , d h w y f h f w L @.f K U U <.<.P P H f f y K q t t , , w y U H E h ",
"w., , , , , , w , h MXuX# , < w h s w < +.$.- 1 1 : # o c y.> & # XXLXLXXX& 2 ; ; o o @ . . .   . + . . . + o . . o o o o o o o o o o o > > o # # # # o o : # # # o # > & o o & # o # # # # # # # # # # # # : - # # ; 2 - - - - - : : 2 1 # : # # # # - - - - - # # - - # : # - - - - , r < - - , - - e , - - - - - 1 , , - : - 1 , - - - - - , - - - - - r , i t F H U H y t i y q - - - - - - - - - - - # rXDX0.o : # # # # # # # # # # > 3 # # # o # # o # o o % # # > & o # o % & o # # # o o o o o o # & # o # . o o o o o o o o o . y.0 o o ; 4 6 d d d d d 4 ; 3 3 ; ; 6 d b B j d ; < s 4 < d p p p @.Y @.L f y @.5.f Y 5.5.5.J Y y K t f y E h , - - - - - - - - - - - - - , - , e W l e , q u i q q , q t q q i h , W i.e , , E R - , , , , - - - , - - - 1 , - - - - - - - - - , - 2 - # - # - # # # : x : % # # o # : % # # # # # # # # # % # # # % # # o o o o o o o o . 0 s.# # 2 < < d d d j j j j p p p s ; ; rX6X$ 5 b ; b x - ; - n d < p p g L  .@...X.L L g f f L h , 1 s h w < w h w < h h w w K Y U.5.t H f f w , y K y q w w q f y H h h ",
"- e , , w w , - , h mX9Xo s h w w h b w.w - - , , # # o > c o > 8 > f.'.> > > : # o o o . O = y.8   . . . . . . . o $ o o o o o o o o o 3 8 o # # # . r.'.o # o # o % o o o 0 & o # o o > : # # # # # # # # # # - 2 2 1 - - - , , - # : : : : # # # # # # # # # # : - # o 0.0.# # - - - 1 , , # - - - , 2 - - , - - - # - - # - - 1 - - - - # - - - - - - - e v q D H K K t t y t q e v - - , - # # - # - : # 2 # # : # # # # # # # # $ % # o # # # o o % o o # % # # # o # o o # # # o # # o o o o o % o o o # o # o o o o o o o o o o . % o o # # ; ; 4 6 6 4 5 5 3 $ $ 4 ; $ ; 4 B s 4 z d < s d h E J J J X...J J J L L Y Y J J H H H y y y K w - , , - - # # 1 2 - - - - - - - - , , , - , e , , e q q t q t t u q h i # U.wX, , , , w , , , , , , , , - - - - - - 8.2 # - - - - 1 : - - 1 : # # # # : # - # : % # # # # # # # # # # # 2 8 # o # # # o # % # # o # # o o o > > o .   # > # - < < d p d j j p p d p s 6 # zXiX# d d ; n B ; ; ; 9 : ; d d j g L  .f f L j f J j h s < - < < < w < < w < s Q < < w h E K w y t w w w f U S t y t w y H U t f ",
", w i r b v w v w 1 o  XlXb h < E w |.GX$.v z - - # 8 & o o o > 7 > # % 2 > # % # o o o + . @ y.0 . . . . + + + . + O o o . o o o o o o o o o # # # o c A o o o # # o o o % 0 % o # o # # # # # # # # # # # # # - 2 2 , , , - r.0.- , # - # # # # # # # # # # # # 2 : # # 9 n : : # - - - - - # # # # - , - - 1 - - 1 2 - - - - - # # # - - - - - z - - - , , , q t H U H y t y y t , 2 - - - - - # # - - - # o # : # 2 : # # # # # # ; # # : : # # # # # % # q.c o # o o o o o # o # # o o o o o o o # o o o o o o o o o o o o o o o o . . o O $ # # $ $ 4 4 5 3 3 3 $ # ; ; ; d ; ; < 4 4 4 B j p L J X.5.J 1.....J ....X.1.X.X.*.X.I J h i h w < , , - - - - o a.s.# - - - - - - w.w.- - , , e , , , q q t t t , q , ^ U., , e , e , , , , , , , , , , - - 2 - - - - 1 r - - - - - b - # # # # # # # # # - # # # # # o o # # # # % > : % : : o > > o # # # o # > % o o # o o % % o o o # # # > ; < 4 d b j p d O.p a 4 ; 4 4 d B 4 ; , ; ; 6 ; B > # < s j j j O.j f f L f h $.L w < < B 4 1 r r - - < , n }.s - < w w w i , , E O.w h f y S y K t y h f H y ",
", i b r < - r [.+.# . {.NXh , w b O.$.|.E U.r.- - # o o o o # o # > 3 8 : % # # o o o . . . .     . . . . . . . . . + o o o o # & & 8 # o # # # > % o o o o % o o o o o o o o > # o # # # > % # # # # # # # - : - - , 2 , - - r n 1 # - - # # # # # # # # % # # # : # # # # : # # # - 1 - - - # # # : - - - - - - # - - ].0.# - - - - - - - - - - 7 - # o # , , t t H H S y y t y i i - - , - - - - 2 - - - # # - # % c > # # # # # # # # # # - - 1 < , s p.; 8 > o # # o # 9 c # o o # > # o o o o o o . o o o o . o o o o o o . . o O + + o O & $ o # $ 3 4 4 $ & $ 3 5 $ 4 4 ; B B B < < 4 d d p j f (.bXX.=.4.1.1.X...=.7.=.4.1.1.X.J y i h < , - , - - - - # : - - - - - - - - v v - , , , , , , , q q q t u } ~ q , q , , , , , , , , , , , , , , - z w.z - 2 - - # - - - - - 2 - # # : # : : # # - # # # # # # # 9 : # # % : # o x n o # # 8 8 # # # o o # # # # # # o o o o o o o o o % ; - - ; < d s p O.$.p d p ; d p d N j 4 - - ; 2 4 9 > ; 6 < b B p d d L h f p j L f w w s f.d , < - Q r.# - - - - - < , < , , w , , < w L K U H K U Y L < f S H ",
", , - - , , , 2 : # n r.# < s O.s s < # r z 2 - - # o o o o o o o # $ $ $ # # $ $ o o . . @ . .   . . . .     . . . o . . o o $ % $ 8 o o o # % o # & % # s.& o # o o o o o o o o # # o o > # # # # # : : # : # 1 , - - - - - - - , - - # # # # # : # # # # % # # # % : # # # - : # - 2 , # # # # # # - - - - - - - # - 0.7 - , - # - - - - - - # - - - [.].# w w t S y t q q q t q e , , < , , - - n 2 # # # # # # # # # > # # # # # # # # # - < < p p  . .4 o o o # o o # > c % % o # c & o & # o . o o o . . . . 8 0 . . . . . . + + o + o O % % o o O $ $ 3 3 O # 3 0 5 5 d 4 B B B 4 < 4 4 p g g @.7.P.X.6.4.4.6.*...>.m.4.:.:.X.M.Y t R w w w , , - - - - - - - - - - , - - - - - , - , r , , e i q t t t u u.! q q , q , , w w , , w e e , e v , - Q Q - , , - - - - # 1 0.- : - # : # # # > # # # # % # # - - o r.0.o # # # # # % > % # o o # # # o % % # # % % # o # o o o o o o o o o > # # - , < 4 s p p d d j < p O.N a a 4 ; # 2 6 ; # $ # ; 4 < < 4 p h b j j j j h w w p w , < < < - n e.: # , - - - - 1 , - , , w < < f U H P U y y L y < w S , ",
", , , - - 1 - 2 : o hXUXs.. < s < ; < s s , - 7 : # o & & o o # o # $ > $ o o & O O . . + . . . .     . . . . . . @ + & @ . o o o o o $ $ o A q.. % # o 9 '.# o # % > o # o o o o % # o # # # # % # # : # % : : - - , - 1 r - - - , - # # % # # % # % # o # % % # # : % # : ; # # # # : - # # # # > : - - - - # 1 2 - - # # 1 # 0.x - - 1 - - - - - # - cXjX# }.w.t S y y t q t q q w , , w , - - 1 1 - 2 : # o # # # # % % o o # % % # # # - , < p < !.nX(.- $ % o & > o o o o o # o # & o # # o % O o . . . o . . + + . o . . . . . . . o + o O O . . o O O 3 0 O O 3 3 5 d d d d a 4 d p 4 a p j  . ...f o.V.^.6.m.=.=.m.m.m.:.:.*.P.X.f 2.K h K < , , , - - - - - - - - - - , e - - , , , e , , e u e e , q y u q u i q , , , q e , , r r , , e e , , , - , - , , - - - - : 2 : # # # % > # # # : # % % % # # # : - : % : > # > : o o # > o o o # # o o 8 7 o % 2 # # # o o o o o # % o o o # # # ; ; - < w < < d  .N 4 B 6X#.j j 6 ; ; ; ; ; ; ; ; ; < 4 s 4 j s < 4 s p s h s w s w < < r , , , - 2 , - - - - - , - - v r , w w f L H U U H f f w < w w w ",
"< - , - , - - x 3 # [.NXA o , , 4 ; ; < 6 - # % # # # > # o # # o # & & $ o O @ . . . + + . . . . 0 . . . . . . . + + = & . o o # o o o o o > > # # o o 0 % # # # % 9 > o # o o o # # # > % # # % # # # # # - # # - - # - 1 - - # # # : # # # # o o # # # # # # # % : ; ; # - ; # # # # - - - # % 2 : - - - - - 1 1 - - - - - # s.0.o 2 8.- - - - - - - z z , W ~ K { { t 6XeX, q u ^ q , w , , - : - # : % # # : > # # # o 9 9 # o # # # # : - - ; - ~.VX(.# > % 9 > o o # o o o o o o # o o o . % + o + . . . . @ @ . . . . . . . . o o . . . @ . . . . . O = 8 O 3 5 ; M M d B N j N j B N g a j o. .1.1.1.1.,.M.=.=.>.4.Y.Y.:.4.4.I X.X.U H K y q w e e , 2 , - - - - - - , , , - - , , , < , e , , , , R K t t y t q q i , , , , , e , , , w e < , , , - e r , - - - - - - # - # o # # % # # # # # : # o 8 9 - # - # # : > # : # # % % > s.> # # # o o & 9 > # # # # # # o # o o % % o o # o # # ; ; # < s < p d L  .N O.#.o. .N d 3 $ % ; ; 6 6 < < 4 d 6 4 s 4 < 1 < , < w p p h d , , < , < 1 , - , , , , , , , - - E i q w w K Y Y *.Y U K w < y w - 1 ",
"n # - - - # - # 7 2 o . o 2 2 - : : ; ; $ # # o o # % # o # # o o o o o o . @ % . . . @ % . . . @ C @ . . . . . . . . . o . . o o o # 3 o # o o % # # o > % o # # o c c # % o o o o # # > % # # # # # % : : - # # o # 1 - - - - # - - # # % # # > A % : # # # % > # # ; # ; ; - # # - - - - - # # # # # - - - - - # - - # - # - - - - - - - - - - - # - - - e u y U U U t /.}., q t t q q , , - - ; : # # # o o % & # o # o c q.. o # # # # % : # 6 4 ; d 4 ; $ # 8 > o o o o o o o o o o o o & + . . o @ . . . . + @ @ . . . . @ & . . . o @   C C   . . . . O * * 5 5 B M p.%.O.%.O.N O.p.%.a N  .o.#. .X.6.1.,.=.=.=.1.4.4.4.>.=.*.*.1.X.I Y H f y q , , , 2 , - - - - , , - - - 2 , , , , , , , , e , , 5X}.q t q t q u q , q q , q , , , , 2 , , , - , , r b , , - - - - # # o B r.# $ o n s.o # % # : n n x # # : % # # : # # % > # # > q.> # # # o # % & # % o o # # # # # # o # # o # # o o # % # # < s p d j j O.N N  . . .O.s ; # o # ; 6 4 4 6 4 4 s 4 ; ; 1 ; ; - - ; < p d p , - - < s < , r < , w < < r < , , , , y f w H J Y <.U Y U q r i , , - ",
"1 : 2 - # # # : # # # # # # : : # # # # o o o o o o $ > $ # # o o o o o o . . @ + . . . o . + @ +     . . . . . . . . o . . . o o o o > o # # & & o o o o o # # o > 0 > o # # # o # % # % % # # # - : # : - # # x ].: # - # - # # 2 9 : # # # o q.rX> # # $ # # > : - : # - o s.].o - 1 - - # # # # - - - - # # # - - # # % > : : - , 2 2 - - - - - - - 1 , q u D U t t K q , F u t q i i w , , - n > o # # # # o o o o # # o # 7 # o # # # # % # % & o o # # > > o o # # o o o # o o & > % % % . . . . . . . . . O . . . . . . O = . . . o + . 8 0   X . . . . O $ 3 M GXMX#.%. .#.%.N j O. . .g o.#.X.X.X.6.6.X.X.,.1.4.=.X.*.M.4.H X.L J I I J U y q q , , - - - - - # r n 2 - - , , , , , , , , , , q , ^ K - 5XbXt t q q K h r q , , q e , - , e , , , r v , , , - 1 - - - - . [.9X# ; o > c o q.x # c a.# : : - - # % # # # # # % # : o . # # # # o o # o o # o o # # # # # # # # # # o # o o # & % - - s b d j  . . .g X.#.| a 4 $ $ o # ; ; 4 s 4 < d B 6 6 < < ; # # # - , ; < < s 4 - , e < w w s w < < s s w < < w y w f f f f H Y U U H t q e e , - ",
"- 2 : : # # # # # # - # # # : % # # # o o # o o # > $ # # $ $ # o o o . + O . . . . + . . . @ + . . . + + . . . + & o + o o o o o o o o o o > & o > & o # # # # o > 9 % > # # # # # # # o # # # - : - # - # # o s.kXz o - - # # o # : # : % # # % 9 % # # # # # # # : # - - & T. X# , , , , - - - - - 1 ; - 2 # # # # # # : : - # - - , 2 - - - - - - - , , , q y S Y.Y.S y q t K t F K K t , , , - % # # # % % # o o # # o   XXNX# o o $ o o o o % o o & # # # o o # # # o o o o o o o o O o . . + . . . . .   . . . . .   .   X X   . . . . . . O . X X . . * * 3 3 B MXzXa N N N j B O.N N  .a 7.7. .1.1.7.=.6.7.=.,.1.X.X...X.....J J I >.4.*.H t q q R e - 1 , - - - - 2 e , , - , e q , i R q q q t u t t , I.}.u F y K } F t q w q q , - , e v e , e i i q u , , x - # : # # > & # % # o o # A 9 # 2 : # # : 1 # # # # # # % > % # % # # # # # # # # # # # # # # # o o # # # # # % # # o o o % > : - b e.p O. .g L a p.7.| | a 4 ; > Z 8 ; < < j d d O.+.4 zXrX. # # # o # # - ; < 4 1 1 v < , w < s s < < s w < w , w y f w f f f P Y ~ H y y t t w , , ",
"- , # - : # # # # # : # # # # # # # o . o o o # # # # 0 0 & $ # o o o o + @ o . . . . . . @ . . @   . 0 & .     @ 0 . . + o o o o o o o > & % # o 9 q.# # # # # % # # % % o o # # & & o o # # - - - - # # : - - - - - - - - # 2 c # : - 9 # # # # > % # # # # # : : # # # 1 n # # e e e e e e - - 1 - , , - z : > # # # - : : - - - - , # - # # - # - - - - , e t t ZXGX, q i t f U Y U K y w , , , - # # # : # > > o # o o & '.{.% o # # o o o o o $ 3 o o o o o o o o # o o o o o o o . . . o . & @ . o . . .     . . . . .   X .         . . . . . . + O O @ O 5 d N a N #.p.N d d B O. .N M j j O. .o.%.=.=.!.V.=.6.,.X...J J X.L Y L *.v.v.*.` Y y y v v e.1 , - - - - , - - - , q u q q w i q y t t t t t D q , q u } F t D D t q q e r , , , e , , q i r , q q - - - - # : : # # # # # # # # o # : # # : # # # # # # # # # : > o # # # # o o o # % # # # # # # : # o # # o # o % 7 o # o o o # # ; , e.~.p h j j p < .Xp.a j d d ; ; s.8 ; s 4 d N N j a d uX{.O o o o o o # > > ; ; - < Q , < b r < 1 < , - , r Q s w h f w f w w /.@.L K t t y h y , w ",
"- 1 2 : ; - # # # : # - : % 9 : # % % + . . + o o $ % > 3 $ $ # o o o o O o o o o . . . V 0   . + . . X . . oX`.  . . + . . o o & & o # > % # # o # > # # % # # : # # # # # o # # # # o % o # - - - # - : - - - # - - - - # o XXlXo # - : : # # # 9 : # # % # # : # # # # # - - - r r , , 1 k 2 2 - - - , # - : : # - # # # - - , - - - # o : n - - - - - 2 , , $.K U.U.e w y y f K H K H y w < , - - : : # : # % > # # > s.0 o   c o # o q.0 . 8 Z & > o o o o o o o o o $ $ # % o o . . . o . . o + o + . .   0 y.  . @ O = @     .       . . . . . . . O O o * m M M  .#.| #.M N d N #.o.N N  .N  .#.o.o.,.,.6.6.M.6.=.1.J  .o.L J f L *.*.4.<.` Y f y - e v 2 n e - - - - , , , , q q t t q y F F t D D t U D t q q q K S D D D t q q u v v q K F t q - - - - , , - - - - # % # # # # % # 9 > # # : : # : # : > # # # # % # # # # # # # # # # # o # # o # # # # # # o & 9 & o # # o o o & % o o # # ; < w p j j h h j d p O.O.a d s ; # o # ; s d 4 j O.O.O.O.# o > o o . o $ o $ # ; ; ; < < < , < r z 1 , ; < < 2 s v r , w h w w w E h h K y t f f y q r ",
"1 # 1 2 # - # # # 2 - - : 7 9 7 > ; > > o o O o o % # ; > > % # # o # o o o o o o o . . = @ . + o = = .   . oX`.  . + . . . o o 7 9 # o # % o o # # o % # # # : : # # # # # # c 8 8 # # # # - - - - # : 1 - # , # n +.# - - # n q.# # 0.'.- # : # : # # # # o # % > # % s.c o - 1 7 2 .XhX).1 k e - - - - - , # - - : - - # # - - - , # a.jX Xq.1 - - - - - , , R K , , w < w q y y H y t t y w < , - - : # # # # # % > # 8 o o # > % # o t.V   8 Z o o o o o o # o o o # > $ # 9 3 o o O . + . . . . . o . . @ C C . . . + @ @ .   . . @ .   . . . . . O * $ O 5 d M M | o.o.| N o.N N | | | | N g  .o.o.1.M.m.m.6.6.6.1.X... .J J g K h U I <.<.U f y w e , - , z r - - - - , , , q q q t y K S S F D t D F } D t q q t F y t D D y y u q t i S t t y i w , , - - - - - - - # : # # o : c # : # # # : % # % o : : o % # # % # % # # # # # # % % % % # # o # # # # # o o # & # o # o # o o o # o o o # ; < < d h h d d O.j p +.#.g p 6 ; # # # # 2 < 6 j j d j B s > o o . '.Z o o # o ; ; 1 1 , s w w h $.s < < < < < - , , b r < w w , , y L K K L h h t w w ",
"1 x cXrX# : # # : z 1 r x : # 2 s b s s ; # ; # o # ; ; - # $ $ $ $ $ # o & o . o o o . + o + + + * = . . .     + + + . o . o o # & o o % % o % # # % # # # : # - # # # # # # [.q.> & o o > 1 - - - # # - : - - - # - - - - , # o - # z q.: - - - - - - # # > # % [.c o ].n $ - 2 - .XUXUXLX).r F q - % # - , - - 1 1 - - - # # - - , #  XUXfX. # - - - - - - , , e q , , , , w E w y t t t w t , w , - - # : - # # o o # o o # # o # 8 # o o o o o o o o o o o o o 3 & o > & o o o . o @ + % o o . . . . . . @ =   . . . . . . . . . X X       . . o O $ 3 3 5 5 d M M M | %.%.%.%.%.o.| o.7.%.o. .| o.,.7.M.M.7.6.7.=.o.o.o.X.X.@.g j h H H @.~ f y w w , v e - , , , - - , - , , i i t y y H U U t S S S S t t t t t u K ^ y y y t t y t G G S 5.U.t U K y t w , - - 2 1 - # 1 : % # % 2 # # # % % % % # # > : # # # # # # # o o # # # # # # o % > > % # # # # # # # # o o o # # o # # & % > o & > o > 2 - 4 d p p 4 d j  . . . .j s 2 # # # # ; 4 < s p 4 d d > # o o @ `.C . o o # # ; 1 1 s w w h r w < s < , < w < < , w.$.- < , , w t f f y y w q , , - ",
"o f.UXPX: # - # - - r b z {.cX0Xp.+.O. .p < ; : # # < ; ; 6 ; $ 3 3 & o # % o . o % O o o o + + o . . X . . + . . o + . o . o o o # o o o # % > % # o o o # # : # # # # # # # % : > o # o : : # - - - - - - - - - , - - , : - - # # # # o - , # - , , - - # : : # c > % o - n , r e vXUXUXUX0XR u.t , o # < , , - - - - - # - , - , - , r f.z # - - - - Q r - , , , i v - , , , r w < w w w w q q w , - - - - - - # x y.# . o o o o o # o # & o o o o . o o o o o & 0 > o o & $ o o o . o o + o o . . . . . . . . . . . . + O . . . . .       . . O * $ O 3 0 5 5 M M M | | %.| o.%.7.%.=.7.7.7.7.o.| o.,.,.6.,.,.,.7.X... .L  .(.#.< p 6Xu.w E L y w w < , , , - - - , - - , , , , t i t t y S } 5.S P S S S t D D t t y q q t q q t y D S G t 5.JXUX~.q ` _ S t - - , - # - - # # # : : # : # o # # # # % 2 9 % o # # > # # : 8 : o # % % # o o # # # # # # # # # # # # o # o # # # # o # % & o & 0 o # ; ; ; < d < < d p d  .j N d 4 < ; # x 3 ; ; ; 6 d e.6 6 3 o o o &   . . o o # o - 2 1 s , < r < s w p w < < < < < 1 - , , - Q }.h w f f y t w E $.- , ",
"# > {.].% : # - - }.i.r 6XIXUXUXzXe.%. .a 4 ; # # # 6 6 > > ; $ 3 8 # o $ o . . . o . o O . @ V + .   . . . . . + + o o o . o o o o o o o # % 9 : o r.lX X# % # # # - # # # - # 2 > o % > # # - - - - - - - 1 - - - - - # - , - # # # # n r.- - - , , < - , # # - # : : . - < , h w XXUXUXHXs.e F u , > : , w , - v , - - - - - - - e < - . # - , - 2 , v 2 - , - , l , - , - , , s , , , q q q t w w - - - , , - # > 0.% o o > # o o # o # o o o o . O 3 . o o o o % o # o # o . o o . . o . o o o . . + . . . .   . + + + O + + o . .       .     Z 3 $ 5 5 5 d d M B %.N M N N o.7.7.=.7.7.7.7.,.=.o.o.=.,.=.=.o. .J o. .L j j p < p $.d < p w w w s , w , , , - - - - - , , , , q i i t S P P P P S S S D S U U D S S } u.y t t y S S U _ t P.LXUX}.t ` ` S t , - - e.z - - - # # > : # # # # # # o # # : % # % # # c % : o o # % : % % # # o % o # # # # # # # # # # # o o o o > > # # o o o o o o # # ; ; < s s s p j j N g g a 4 z 2 1 z > # # ; x cXLX9Xo > 3 % o o + . o . 8 > o # - ; 1 < r w w h w w h w s b h < , , - - , b p.r < L f f K w e.d.- , ",
": # . o # # - # o f.p.h MXUXUXUXJXp.%.O.4 B z . o ; 3 6 3 3 ; > $ o o o o o . . . . . . O . O 8 . @ @   . . . . & & o o o o o o o o # o o # % # - # rXUXFX: # : : - - - # # : - # # o ; 0.2 # , , # o - - 1 2 , - - - # - - - # - # - # n 0.- - - , , r r z , - - - - , f.+.# < h E b  XhXU.r k , , , z < , , , , b 2 - - - - # o , r , - - , - - - , , , , , - - , k 1 - , - - - , < - , , q w w w h r # - , 2 - - # o # % o Z & o o # o o o o o o o o 3 & & o o o o o o o o o o o o + . o . @ O o & . & & @ . . .   . @ = O O @ + . .     . . C '.0 $ 5 5 5 M 5 d d M M M B M M o.7.7.7.o.=.7.%.#.7.%.o.7.o...X.J g  . .L L j < < < < , < z 1 < w s s < , , , , , , , , , , , , w w q t S U G S P H y t S U U U _ U t } JXLXU., S S D G G ` &.3.Y./.{ 3.P G _ S t , #  Xd.- , - # # z : # # # : # # # # # # # # # # # # # # n ].; : z # # # # % % # # # # # # % # # o o > 8 % # & % o 0 '.o . o & o # ; ; > 4 2 < s s 4 +.O.j N a a 4 6 6 2 2 2 ; # # B PXUXcXo & Z 8 . + . + @ @ @ # # # # ; , 2 s s p h h p j p w u.e., s - , r o U.kXb , E L f h h w v r , ",
"2 # # # # : # z f.s E h rXUXUXUXMXe.+.O.d 6 4 s.t.# ; ; 3 3 ; $ o o o o . . . . . . . + o . . . . @ C . . . + . . o o o o $ % o o o o o o # % # : o a.jX{.: : - - - # - # n 9 # - # # # : : 2 r - e.r.# , , - , 1 - # - - # - - - - - - # # # - - - , w < e , , - - : 2 MX X. e h j $.h , i r 1 - # - - , , , , w - - , - : - z 0.z 2 - - - - , , , , , , , , - , - 1 k , , - 2 1 - - , , , e , w h , , - : - r 2 1 z # # % # o o o o o o o o o o o o . . 0 & o o o o o o o o o o o o & % o . o @ @ 0 & + % & .   @ 0 . . @ O . . . . .     .   oXCX$ O 5 d d B m 5 M M M M +.M M | 7.1.7.7.7.| o.o.7.7.o.#.| | | #.j L f w d j d < < < < s z # z < < , h w v r - , , , , , , , q w q q t S D D S U U S y S G _ } G U ! } DXJXI.q D S G G G P :.3.P P { { H S y w , - , , , - - - - # # # - # # - # # x 2 # : # # - 1 : # # o '.DXc o # # # # # % # % # # o # # # # # # # # c > > 8 o o > Z Z & o # # # # > 3 6 ; 4 s b s s j d N d p 4 ; 2 < - s > # > # [.jXy.O $ o . o o o o 8 8 o o # > 9 - ; - , 1 s w w w w h w b s - - - r z - b ].E r w y f y r r < - , ",
"# : # o : - o f.GXi.< E i.hXFXcXT.%.2.O.N p < d.d.o $ ; 6 ; # # o o o . . . . . . + . o o o . + . o @ . . . . o O o % o # # # # # % # o o # # # - - o # 0 n 2 - # 2 n - - 2 2 ; - - : % # # z v # rXhXo - - - - 1 - # - - - - - , - # : # # # # - - < w w , - # - - : - b r 1 r r h h K R r , - - - - - , , - , , < , - # f.t.t.lXv - , , - - , , , w w q , , , , 2 - 1 , - 1 x 1 - 2 2 , e , U.E , v - - , < w < 2 1 # # # > o o o o o o o o o + . . & 8 o o o o o o o o o o o o o o O + + . o o . @ + . . o . . @ @ . . . . . . . X X X . . . 8 m O $ ; d B M m q.B $ ~.zXM 5 M a N | #.R.7.o.#.|  .#.O.L  .o.N O.d < $.p.u.b s < < s < , - - 1 - , w r < v h , e w q , w w , , q q q y y D D F S q q S S G _ _ G _ U S _ } S U S y G G G ' j.:.b.Y t P Y U y w - # , 2 - , - - - - # - - - # # - # - - # # - # # - - # # # : c % # # # - # # % # # # # % # # o # # # o # # # % % # # # . Z 7 o # # $ # $ ; > # o ; z 6 4 s d p a 4 < s 4 - < < ; # $ > . . . % o o + + . . o $ # o o o $ 3 # ; ; ; n z < w w p w h h , , 1 , 2 - , - # < w w t t w q r e , , ",
": # x f.- - : z e.d h E $.+.i.u.$.2.$.j d j p < 4 4 ; 4 6 ; o $ $ & $ o o o . . o o # % % o o o . o . . . + @ o & o & > > % % # % > # o # # # # - 1 o c XX: % # # n r.# - # - - - # # # - - - , 2 z v , - , < - , - , - - - - # - - 2 : # # - # - , 2 r e , - # # # # # # , r < w s w < < - z 1 - - - - - - , , , , - , - 2 z - x , - - , , - - , q w i t q q - z ].2 # - , , , - - , e , - , }.1  XHX0Xo - r r r , # - % % # o o o # o o o o + o % o + 0 o & 0 $ o o o o $ o o o o o & O o O + o . . . + . +       . . . . . . .     X . . X @ O . o 3 m M B d T.Z 5 d %.~.M d M N N N | o.%.#.#.g  .N j j a d a p p < +.p.e.d w < < 1 - - - - - - k i , , w < , h E i q w w q w w q t y t t t t q 2.|.U S U G h.4X3Xt U t t S U D G G G G [ z.n.) P.Y.U U S { E - - , , , - - - - - - , - # - - - - # 1 1 - 1 - - - # # # 2 # . # # # # # # # # # o # # # % % # % % o o o o # # o # # & > o o # o o # $ $ 8 > c y.3 ; 3 ; 2 4 4 p p 4 4 s s 4 p 6 > $ # # # o o o + . . o o . 3 8 . o o o # > ; o > MX Xo < w < w h < - , 2 r , , < - , w , w i q q w w , , - ",
"1 # a.rX- - - , < p h h h $.2.@.2.L f s s b d 4 < 4 d 6 6 4 ; ; > 3 $ o o o . . o o : . . % o o o + o . . . * o o > > # o 2 x : : # o # % o # # # - - # : n : - - # - 1 - - - - - - # # - - , - < e e - , , , - - - - - - - - - - , 2 # % 0.2 - # - , , , - - - # # % # : 1 - , s ; 1 2 - # : % # % # , - - e.0.- < - - , - # - # - , - , Q , , q w w t i F q , 2 x - , , , - , - - , e , - - o o hXUXlX. - < h z - , - # : o o # # o o o % o o . O + o . o O = O o o o o o o & 8 % + o o . O o o o . . . . . = `.8   . . . X X .       . . . O & & $ 5 B d M M B M M M N a N O.M N N O. . .| |  .g j d b +.j p d d 4 p < - < w p < < - , - # - - , , , , e w < w w t w i w , , q q q q q t q q - t GXUXu.S D G h.4X} D S U U _ G G G G G U ( ) v.b.Y.>XP H q F ! q e , , , - - - - # - - - 1 - - # - 1 1 z r.2 1 - : # # # % # # : # # # # # # # 8 s.% # % 8 & # # # > % o # # # # # # # o o o o # # o o % 0 . cXUX{.  $ # ; 4 6 s 4 6 6 s s p d 6 # o $ # $ o . o o O o o o $ % $ # o # # # 3 ; # o y.B ; r s w w < w 2 - , < < < v , , e w e y q q h w h 2 - ",
"1 - - # - - - , 1 < p w h L L K K h s 2 4 6 B d M d d 4 4 4 ; ; ; $ $ & $ o o o # # k 0X_.# # # o o . . o % o o # & 8 qXcXqXB - : # o # % # # # - # 2 > 9 ].# # - - v - 5X9X. - - - # # - 1 , , - 2 z , , < , , 2 - - 1 1 - - - - - - # 9  X: # - , , , , - - : # > 0 % # # - - - ; 1 1 , - o o o # # < < , z r , < , , - - - - - - - - , , e r q t t q K ^ w q - # , - , , , 2 - - - - , , - - # 2 ].x : ; , , < - - # # # o o o # o o o 7 o o o . . . o o . . o o o o o o o O % o o . . O % . o o . + . .   C fX0   . . . . .   .       . . . @ 3 0 m M M M M M M M M #.#.N O.M M N N N N N g g a p p j b d d d 4 ; < < , < < < s 1 - 2 - # 1 - - , 1 , , w s h h w , q q , , , w i t q t q q q q iXkXU S G G G G G U G U _ U G G G G G D 4XVX/.v.' G S $.p.q q t u , - - , - 2 - - - # - - - # : - 2 z 0.9Xx z 2 - x 2 9 % : : : : # # # # # # 9 r.# # % % o % # o > # o # # % % # # # # o o o o > % o $ # o 0XNXy.V 8 o # ; 6 d p p j b p 4 4 ; o o $ o o o o . . O % o # # o # # o o # > # # $ 8 . o 1 1 < < , s Q , 1 < < < , w < r w h i w q y t h U.v - ",
"v , , - - # # # - - ; < s h h h s s < ; 4 4 4 j p.j 4 < ; ; ; # # # # $ # o O O $ o L.KXSX- # 4 3 o . 8 . o o > c   XXUXUXHXZ # - # # # % # o # - - - : # 1 1 # - , 1 - 0.8.# - - o # - - - - # 2 1 - s , w b , , , - z n - # : - - # # % 8 # # - - 2 2 - - : : # # % # # : A : # : , - 1 - # # % # - , < < , , < < < < , - - # # - - - , , , w E R t i ! $.r , - , , - , , - - - - # - - - - - - # . # : : - - - # # # # # # % o o # & & o o o o o o q.0 . o . + o o o o o o o o o o . . O . + m 8 + = + . . . @ . . . . . . . . @ = X   . . o $ 3 5 d M M M B M M M M %.%.M %.O.M d d B d d d d a 4 O.d 4 s s 4 < ; ; ; # - < w r r - # % - 1 - T u e , , < < w w e r r - , , , q t t y S y U F y t t U } G S D D U P U S S D D S G G G t iXUX3XP ( P t eXZXr r $.r , - - - - - , - - # - - 1 - 1 1 1 2 r.hXz r.n , r : r.x % : : # # # # # # - # o # % . . # # # # # # o # # # : % # o o o o o o o $ $ o # z 9 : # y.9 # d d 4 d j j  .d p 4 ; O o O o o o $ o o o o > % o o . o o o o $ $ o o & Z # # 1 - - , , ^ w.- 1 < p w w w w f f f h h w w w r b 2 - ",
"< < w s - # # # # - , < p h p p p < < 4 4 < p  . .s 6 ; ; ; ; $ $ # & > $ o o o $ : l 2X_.e s 5 3 0 qX'.  $ . 0 fXhXfXUXUXIXt.k c # - # # o o # - - - s 1 - - - - 2 1 - # # - - : 0.z - - # - - - - # v 5Xb r , , w , - - : : - - # # : # o # # # - - - - , 1 : # # # # # : 6 : # # - , , - # # # - 2 - , w w < w w r r , - - : # - - - , e r u u i i u i ~ r , , , - , - - - - - z n # - - - - - 1 - : # # : # # # # # o # > % 9 8 . {.s.o % o o . O Z 8 o O . . o o o o o o # o o o o + o . @ + . & @ . = & . . . . . . . . . X = @     X . O 0 $ 5 M M B B M M B M M M M N p.%.d d p p a N N N N a O.s 4 4 4 4 < - # $ o ; < w r r - # # 1 , _.SX_.- 2 ; ; - , < - w.e.# r , , , q q y U S U S U D t 5.{ S S S G P P H S U F t F U U P P [ Y.<.U Y U H u.U., }.GXv - - - - - - - - - - - - 1 - - k n 8.hXPX0Xw.8.e - # # # - - # # # # # # # : # # > o > 8 o # % # # # % o # % # # # o o o o o o o # # r.e.2 n - : ; ; ; s d j d  . .j p 4 4 ; $ % o o o $ o o o # o o . . o . o o o o o o o o o # > 1 2 6 2 6 z r w 2 2 1 h h h h w h h K K h w w w w , - - ",
"w < < 2 - % 9 : # - , < p p w w < w s d b b p $.O.< ; ; # $ 3 > # o # o o o o o o 2 k - - r B z ; c {.* o o o o y.0XZ jXFXoX> x x 7 0 % # # # # : ; - 2 1 # # - - - - # - - k - o }.n # - - - - - - - r ].h , h w , , - - - - # - 2 # # : # # # - , Q 2 # ; 2 # o # # # % : # # - % # # # # > 9 # # - , , < w w w s h h - - - # c 2 - - - , h e q q t t q , , , , , - - - - - - - r v - , - , - - - , # # # # # > # # # # # # o '.'.. A 3 o o 8 o o o . . $ o o & o o # o o o # o $ o .   . o . + o + . . = @ . X . . . . . . . . X       . . @ $ O 5 m 5 zXzXO 5 B M M M M M N O.O.a a a  . .7.p.j g p p d d 4 4 < - # o $ ; < w e , - # : - - sXIX8X# 1 1 - - , , - - , , 1 , , q i y y K S S D S D S D S H S D G G P S S ~ F t t _ 3._ ( P G ` H <.Y 5.S U } ! ].2 , - - - - - - - - 2 2 - - 2 - e. XxXUXUXIXhX X8.# x 7 - - - # # # # # # : : # # o o DXBXo # # % # # & o o # % o o o o o o o o o # # s.t.; 6 ; $ 3 $ B d 4 j j  .d j d 6 4 > % o . o 8 0 o o o O o o . . o o o o o o o o # o o o & - 1 z - - 1 h b < - < w w h h w p h h w w , w h w < - # ",
"y < s 1 - : 2 2 # - < < p f y w w s s j O.j w p p 4 ; ; # $ 3 3 o o o o o o . o % % > 4 d p d 4 2 9 $ o o o o o . . > $ 8 $ 2 1 # 2 2 # # # # # # - - - - # - - - , - - - - - - - 1 - - - - - - - z r - - w i i w , , , - - # # - z : # : - # - - - r.z # # # % x # : # # # - # : % # # # # : 2 # e.a.# , , w w f h h r s - # : > : - - , , , , , w R w q e r , , , , - 2 - - - - - - e , - - , 2 , - # - ; # % > # o o # o & s.PXPXy.# o o o + o . & = $ o % 0 o o o o # # o o o # . '.vXq.  & @ . . . .     . . . . . . @ . . = 0 X   . . * * O 3 5 3 O T.T.* 5 M d M B N N O.O.N N N g |  .7.~.@.g N d d s s s < - # # o # < , , - # % - 1 e L.8XW , - - - , , , , - , - - , , w h h t t y S U K S S y H Y H S _ P S t t F t t D U _ ` [ [ ) [ P P P { U U y , o , , - - - , - - - - - - # 1 n z n n r.lXIXfXr.Q v - c z # : : # # # # # # # # # # o 8 jXqXo # # # # # o % % o % o # # # # o o o o o # # # - > > & o ; 4 d p j j  .p.j d 6 ; # o o o o + 8 o . o . . . . O * o o O o o o o o # o o o f.[.2 [.iXi.s w - qXHX X- s < , < < , < < h w w q , , # ",
"w < 2 - # # # - # - < w h h f f h h p w < 1 p s p ; # # # o # $ o o o O o . o . o # ; 4 4 j 6 < d B ; o # o # o # # & n A ; : - # # # # # # # # # # - - - - - # - 1 - r }.r # - , 1 - - - - - - - - , , w w w - , , , - 2 2 - - - - 2 : # # # - - - - - # # : : x - : : # # - - % o o : : # # # # n e., , , < w w w s r b 1 # - # # - - - 2 1 , , w v , , q i , , , , - n 1 - - - , , , , , , r s , # - # # o # o o o o # o # q.DXDXq.> % o o . . + 8 @ o o % % o o o o o o o o o o . XXLX'.  & @ . . . . . . .   . X . . . . . @ @     . @ @ O @ 3 * 5 0 . . 3 5 5 M M N M N O.N j N O.#.g J | 1.1.g j d p p d s 4 ; o # > ; - 1 , - # # 1 r l e , e e , - - - - , 2 - , - - , , , q w q t y y y y S U H P Y U P P P S t t t t t y U ` [ t >XpX:.P ( ` U U w e , e , - , - - , - - - - - - - - # z z k k r.hXA 2 z , , # # : : - # # # : # # 9 n # o o > o . # # # % % . 9 cXNXV o # o o # & # o O O # ; # ; # > > # % # - p j j j a j p 4 6 m > # o % o o o o . + O . . o o & $ . . O o o o o o $ & # +.p.z GXUXkX# h , BXUXlX. 2 , < , , < , , s , , e , - , ",
"< , - - - # # # - < < w h J K f h s < < < s +.6 ; ; # # # o o # o o o o . . . o o # # 4 4 s r 1 d M ; # $ # o o 7 > o 0.f.s 2 # - # # # # # # # - - - - - - - - - - - , 0.2 - - - - - - - - - - - : # , , w w E , - , - 2 1 # - - - - 1 : r.2 # - - - - # # : # # - : ; : 6 : - % o # # # # # - - - z h < w w E h w r e - , - # # - - 1 1 - , , , , , , , , , , - , , - , - - - - , , , w , , , < , - 6 > # # % o > > o o % 7 . y.q.. # # # $ y.0 . o . + o o # & # o # o 8 8 o o o o % Z . . . . . . + . . @     . @ X   X X   . . . X . . o + * & . T.{.O * 3 5 5 d 5 4 d M B B N B B  .#.#. .N g g d N d p d < 6 6 #   fX Xo , - - - # - w i u u e e , - , - , , , , , - , , q q q t y y f t y S S H S S U P P H S D y t t t t t S U ` I.>X7X{ P G P U q , , , , , , z e , - - - - - - - - - - , e 2 2 r.0Xn z 2 , - - # - : - # # # : # # c 0.o a.{.o # o # o # # %   [.UXUXXX. # o o # # o # $ ; ; ; ; , - : : o o 1 p a j  .g a d j b s B > # # # # o o o . o @ o o o o + o 8 & o o o o o o o o # ; < < 0XvX~.r E s f.qX0.: , z z - 1 b - - - - - - - , q ",
"; - # - - # # # 2 s r < w j h p d p < < , 1 x ; # # # # # o # o o o o o o @ O O # # # < s r r s 4 5 4 # o o o o # # # 2 2 < - - - # # # # # # - - # - 1 - - - - - - - - # - r , - - - - - - - - - k a.2 - , , i.r - - - - - - - - - # 2 7 z : - - - - - - % . o # - - # 1 r.2 : > % : - # - - - - , w W h w h h h w w < , - - # # - .  X X, 2 - e e , , , , , , - , , , - - - - - - , , , e r w < 1 - ; > # > o o A A o o # 9 # Z Z o # # o o 0 & . . o o + o % % o o # # & % o o o o .   . + 0 . . . . . . .   . . . X @ X . . .     = = . = = & * * 0 8 m Z O * 5 3 d 5 d d M M d B 4 ; B +.4 N O.a j j p p d p 6 ; # # t.A % - - # # 9 s.b h i e e , - - , , i i w r , Q i q y y t t K U f y ~ Y K S y H P H U P S y t t q u q K H U P /.P.q Y H y y t u q , , - - e e , , - - - - - - - - - - - d.v 1 2 r.7 2 , - - # # # # - # # # # % # # # o n q.o # o # # # # # o 8 jXcXZ o % # # o o o # ; < 4 < < ; 4 - o ].qX6 p g O. .j p j O.b 4 # # # o o $ $ o o o o o o # o o o . Z Z o o o o o o o o ; < s d < , w @.L j - , - , 1 2 1 - - 2 - - - - - - , , w ",
"# - - - # # : - - 1 r s w w d p h p < < # - # # # # # ; $ # $ # o # # o o O O o o # : d 4 r e r s a ; # # # o o o o # 1 , - - - # # # : 2 - # - - - - 2 - - - - - - - - - - , - - - - - - - - - # 2 s.x , , - 2 : - - - - - - - - - # - : o - - - - # - : # '.].1 1 1 : # : # : # : 1 - , , , r , , , E $.$.w w h w < < , , - - # # # z z - r , , , , , , , , , , , , , - - - - - - w , , , w r 1 1 - # # # o # o # o o # o # # # # # o # o o . . o o o o o # o # q.9 o # 9 > o & o o o o . . @ . . + . . @ .     . . . .     . .     . @ 8 @   o 8 3 * O 3 * O * B 0 5 5 d d 5 d d 5 ].uXT.5 d d d 4 j b j d p < ; > # # o o ; : # : # r.NXp.w r r , , , , w r w , e w r }.R t y f y t y y q U H K U U H U y H H S y t t q q q q ~ K S P P S H y t q , , q q , , - - , - - - - - - 1 s.x - - - - - z 2 - - - : z n 2 - # # # # # # # # : : # # : : o . 2 2 o # # # # # # . o o o % % & # o o # - , , r s r < < < . 9XCXj p j L L j j j j s 4 < < 4 5 ; 4 $ $ o o % # o o o . o o o % o o o o o o o # ; < w s s s h h L h < 0.k 1 1 - - - - - - - - - - , - 2 e ",
"# # - # # : c - - ; < s , < p < p h < j [.4 - # # > # # % # $ o # > # # # # $ % # # 2 d 4 < , 1 s 4 ; # # % # # % % : : , , - # # # # : 2 - - - - - - - - - - - - - # # - - - - - - - - - - - 2 , - - 1 e # - - - # - : - - - - - - - # - - - - - - - - # , PXPXe r 1 - b x # # # - - < r r w w , , , , w b w < s h w , , < , s v 1 - - - - , , , - , , , , e e r , - - - - - - - - , < , , , , 1 - - # # # o o o o # % . o o o o o o # # o o & 0 o o o . o % : :  Xq.. Z HXDX0 o & o O . @ 0 + . . . . @ .   .       . X     .         @ 8 8 {.Z & = O * $ O 3 * 3 3 5 5 5 5 m B 5 B GXUXzX; M 4 ; 4 s b s p < < ; > # # 9 3 ; # - - : ; Q j h s p < 1 < r < < w , r q q q y K K K S t t Y u.H U ~ U <.U S U Y Y ~ t e r r r e , , q t S S t q t q , , , , - , 2 1 - - , , - - - - 2 s.7 - - - - # # - - - : : - z r # - # # # # - : : 2 : # o 8 x # # > % # # # # # o & # . o # o o o # # # # ; < < w j s s 2 , s s - d j J L L h O.j w < < < s B uX|.o $ # $ % o . o # # o o o o o o o o o o o o o ; s < r s s h K K h < # , 2 - - - - - - - - - , , , , b e ",
"o # # : # # % # : 2 ; s < , w w w f E h ~.s - ; # : % # # # # # $ # # 3 % # # # 2 z ; ; 4 ; 1 < s < # # # # # % % # # - - - - > : # # # # - # - - - - z z - - - - o  XBXa.- 1 - - - - - - - - , , , - - - - , # - - # - z : - - - 2 1 - 1 , - - - - - - - - [. Xe w , , Q n # # # # - < w w w , , , s , - - w , < h < , , w < h E , - , , , , , , , , - , e w , , , , - - - - - - - - - - , - - 1 - - # # # # o # # 8 # y.9 o & o # # o o o + & 9 o o # o o % 9 : # % # Z LXHX0 o & o + . @ = + . . . @ @ . X .   X @         X X @ O . =   oXUXHXm . * 5 O O 3 3 $ $ 5 5 5 5 d M d 4 iXLX0X4 d 6 4 6 b d s s 4 2 $ # # # 3 ; ; 2 : # , , < p w # # ; 1 - r r w , , r e w t y y H U U S t U U.P U U H <.U y $.E 2.U.w , , , , , , , , q q q q , q q q , , , 1 , , , , , , , - , - , , o - - - # : r.z # - : # # # # - - # # # # # : n 2 # % : 9 : % # : # o # # # # # # # > 9 # o o # # # # # : - !.zX~.1 d r z 1 0.e.- - w p b h h p p s < s b < %.IXzXo $ # & o & '.0 o o o o o o o o o $ o # # & & > s < 2 ; , < h t r b z e - , , - - - , - - , r R w < 1 , ",
"o # # # # # # ; # - - 4 < w < w h f p w - < b , # - # o o # # ; 3 > 9 - ; < ; 1 - < 4 4 4 4 < 2 4 ; # o # # # # # # # - - - # ; ; # - # # # - - - - - r - - - - - o kXUX[.# , - - - - - - - - - , , - 1 - - - 1 - - z 2 x 1 # - - 2 - - - - - z 1 # - - - - # - w w e , , - : 2 : # , w w w , , - 1 z - - - - < w < < , w h w w < , , , , , , w w e , , , d.W - , - , - - - - - - - - # n hXr.o 1 # # # # # # % > o # # c > # o o # o > 3 % $ o o o o . o # $ s.z o # : o c c + O $ o o o + . . . . .   . @ .     @ @         .   X . . . @ qXUXHXC O * 5 $ O 3 5 5 5 5 5 d 5 B B M d a %.d d B 4 < 4 B s ; ; ; ; # o # ; 2 ; ; ; : x 2 , r b < t.{.s < < r b w , , , E U.w y y H H K y y y H P H U H wXu.t y K K i w e , e 0.2 - , , w q , , , , q q q , - 1 , , q , , , , - , - - - - - - - # : A 2 - - # % # # : : : # # # # # # : : # o f.kXo # # # # % # # # # # # o & c % o # o # : : - , # |.ZXiX%.- - , 2 2 1 - - w w s r b s ; , < s b ; p.UXCX; # o o   9XUXfX. o o o # o o o # > o # # $ @ o ; ; ; # - , w - v  X< , 2 r , < - , , , , , r ! w r , , ",
"o # : # # > > % # # - - 1 b < w h K f f h f w eX6X# o n q.o - z 2 : d - ; +.4 1 , < < < 4 4 < 4 ; 4 ; # # # # # # # - - - # # # # # # # 1 2 - - - - - - - - - - , - x a., , , - , , - - - - - - - - - , , - - - - # s.e.# r z - , - - - - - - : - - - - , - < e w , , , - - : % % - , , w w , , - - - : 2 - - 1 e - - < w w w w h < e e , , , , w r , , , v r - e r - - - - - - - - # - x  XA . o - # # # # # # : % # o o o # o o o o & 8 & o o o o * {.c . $ x : # o # % . . % o o o + @ o . . .   0 `.@ = .   . .     X         . . . . @ = `.C o m Z 3 O O 5 m 5 5 d m d d M M N %.O.d d d d < < < < ; # ; # o o # # ; ; ; ; 1 1 0.z , e < b JXUXiX# , , , e , , , r h h h f f y q t i U U Y Y P S ~ ~ y i t u , w v # }.GXn # - , e i R q q , , , , , , , , , < , , e , - - - - - - - - - - # # - s - # : : % : - - # # # # # # # % # : c '.t.% . . # # # # o # & & # > > o o # o # : : - - < g #.e.O.2 6 # - - ; - - , , 2 2 < ; # n B - < < 4 T.a.% o o .   `.FX{.. o o o o o o o > 8 # # o o o o # - # % # 1 r n lXLXwXr r e < , , , , , , , , y y h s w ",
"# % : # # # # # : : - - , , , p p J /.@.J f p MXiX# # x +.; 2 +.d , < < < j s -  XiX- < s < < < 4 s 6 : # # # - # - , - - - - : % # - # - 1 - - - - - - - - - - , - # # - , , - - , , - - - - - - - - - - - - , - - , , - 2 v - - - - - - - - - # - - - , < , w w , h s - - - - - - - , , r , - , 1 - , - z 2 - , < s w h h f y t w w e , , , - , , , , - , e w v r - - - - - , , - - - # o o ).].# % # % # # # # # o o o o o o o o o o o O . o O & 8 {.m . # o o o o # o % > o o o o o . o o . .   0 .X.   . .     . . .     . . .     . X .   . @ 0 0 5 5 ; 5 M M d d 5 5 5 5 d 5 B +.d 3 $ O 8 3 # - +.0.- $ # % # # ; , - , 2 1 - , < w , $.HXUXrXo , , , , , < , q , t y h t w h K t K Y P U U H y w , , r i , - v z n  X1 - - - , v v , , , < - , - , , , , , - , , # - - - - , - - , - - - - 2 - - # : : # - # : 1 # # - - - # # # - # 2 ].% ].fX# o # # # o # o o # o > # o # o % # - 2 s < - - - 6 : # # > ; ; - # - - 1 , - , e.+.- > $ > # o 8 q.8 o . . o o o o o o o o o o o $ o o % * + # # ; 3 z 2 v w $.CXUXbX~ f E E , - - , , , , , t w w r i ",
"% # # # # o o : # # - - - : r.b p J 2.1.f w #.O.< p +., - h d d p f h p w < < < f.]., b E w s w p < 1 - n 7 # # - , < , , 1 - : : # - - - # - - - , , - - - - - - - - , - - - - - - , , - - - 1 - - - # - , - - , - - - - - # - - - - - - - - - - - - # - , , h 2.w s < , < w < , , - , w v , - - - - , - n 2 - - - r , w ~ E y p.$.w w w , , - 1 , , , , , , r w , , - , - , - - , - - - - o MXBXo % # % # # # o o o o o o o o o + o o o o o o o O o   o o o o o o o % o o & o o # o o o . . . . o .   . . .   . @ = X   .   @ =   = @   . . @ . X @ @ 0 B ; 5 M M d d 3 $ $ 5 $ 3 $ $ $ o . O = + $ ; $.w., ; # # # # : - - 1 1 < < < < < w w p.[., - , - , , , , w t q q t y w , h h , y H S S U K y < , , w , e # a.f.o o - - - - - - ].a.- Q 2 , , - - - - - , - # ].wX, - - - - , , - , , z 2 - - 1 # - - # : a.0.# - - - - - - - - # - - # # f.0X# 9 % # o 8 # '.t.o o > % o # % # - # 8XhX# , 1 1 # # o o # > : # : - - - Q ~.r , # # > 8 c z o Z FX'.  o o . # # o o & o # o o $ # o . 0 Z o o o $ 6 r w p O.< p.uX1.J ~ K r , - 2 1 , w w q q , , h h ",
"> % o # # % c 2 - - - - - - < h 2.Y Y Y f h f p s s e.h s h h p h L L h L h < < d w j d h h h E w w s - x 1 # # # - - - - , - - - - - # - 2 1 - - - - - - - - - , , , - - 2 , - 1 - , - - - - , 2 - 1 z - - - , - - - - - - - - 2 - - - - - - - - - # - , , h y E h w < w p w w , - , e r , , , - - - , - : # - - - - , , h K y I.p.i w w , , - 2 e - , s w , , , , , - , - - - - 1 - - - - : A 0.# % > o # # o o # o o o o o % & % o @ = o o o o o O o o o o . o o o $ # o   . # o o o o . o . @ @ . . . . .     X .   . X   @ =   C C @   . . . . * 0 O $ 5 d d d 5 5 5 $ O 3 $ o $ $ o o o . + . $ ; < < p ; o % : # - - ; 2 2 2 < < < < p E < # - , , - , - , r w t t t t t , , , q w y t U H H U K < - , , e i , , 2 - - - - - , - - U.i., d.v - - - - - - - - , o wXmX2 - 2 , , - - z , - Q r # 1 z - # - : # n 1 - 2 - # # - - - # # - - # - # o > c % # o 8 % y.n o # # o o # % # # # d.].- - - 1 c # # # # # # - 9 : : - x f.1 2 z # % % : : # 7 s.0 + & + # o o o # o     o o o o o % 8 $ o o # % - , < w h L j %.J Y t w , , 1 # - , r q q q , , w w ",
"# # # # o c ].: , - - - < , , h Y <.Y P L w h h s h < w < h f f f  .@.K L h p s d j $.h h L f L u.r w < , # # # # - - - - - - - - - - - - - - # - # - - - - - - - - - , - - - - e , - , , , - - , - w.].- - 2 , - - - - - - - - , - - - - - - - - # - - , y w U h h h h p p f h h , , w q w v , - - - - - - # - - , 2 e h h K f f y R h , , , - - , , - , w , , , - - - , - - - - - - - - - 2 # # : # 2 c > o o o # o o o o o o o o o O * o o o . o 0 8 o o o o o o o $ . 8 {.8 . o o @ 8 + o o @ + . .   . . = 8     . X . . .     X = @ . .   . . X @ . $ 3 6 5 5 5 3 3 $ O 8 y.y.o o o o o . o o # - < s < # # : : # # - ; ; 2 4 ; 4 b s s h Q p.- , , , , - r h t y f y t q , , , , r w t ~ U H H K w , - , v , , , - - , r , - - , , - - , - , - , - - , , - - , , - - # - z , , - - v , - - - - - - - : # - - # # - - # - - - - - : # # - # # # - # : % # : # % # o : # # o # 3 o # : - # # - - - - : % # # # # # # # : - - - # , 2 z ; - - : # # o . o o V o > % # o + > fX{.. o o % . Z `.$ # o # # - 1 w f f J L L L L K r - - 1 f.n , e , , , w , , , ",
"# # # # # % 2 - , - - , , r w K 3X4.I Y U h i w w r r r E E f f f X.@.K y f s < < p h h f f f h p.L w w < s : # # # - - , 2 , , , , , 2 , - - - # # - , , - - - - , , r e - , , - , , - , , , , , , r v - - - , , , - - - - - - - - - - , k - - 2 BXrXo E t h U H y L K y y h L K f w , w h E - - # # - - # # # # - , r b h y f y ~ ~ q , , , - 1 z , , , - , , , - - , - - z r - , , - - 1 1 - # # : # x : : : # o o o o o o o o o + . . o + o o o $ o o o o o o o o &   Z mXZ   o o o = + . + . .   8 '.@ . 8 0 . . .   . . . @ C @     . . . .       + 0 3 & & $ $ $ & O o 0 0 0 + o * o o o . o ; ; d < - 6 > ; : # ; ; - # - ; ; < b p w w r b e - , , , , , w t K K f t q , , , , , , , y S Y U f h < - - - - , , , , - 2 < , , , - - < , r r - , - - - , - - - 1 , # 9X].o - - - - - , , - - - - - - # : - - - - 1 - # - - - - - - # # # 1 - : # - 2 % # % % # o o # o # o o o o % # - - - x k - : # # # # # # # # # : # - % # - # - : 1 1 # : > % . Z {.7 o o # # # . A UXNX% . + o o > 0 % # # # - : < w w K H L L X.X.L , 1 , - 9Xd.- , r e w , , - - ",
"# : : # # 2 n - r , , v w w f ..6.=...J y t q w w , s p E K w f f L L K f w 2 < < w w f J J f J L Y L y , 2 : # # # - - - - , , e e , , , - - # x [.1 - - - - - - - - 2 , - - , - , , r , , q q , v e - , , - , e , , , , - - - - - - - - , - - , hX9X# $.~ U y H K H K f t f J L U K f h h w , - - - - o # - - - - - r $.w K f H K f q w , , , , r , , , - , , - - , 2 - , k r , 2 - - - 1 2 1 - # : # # : : % # o o # o o o o o O + . . o . o o o o o o o o o o o o & o o 8 o o o o . . . o . . o . 8 C . . . . . @ @ . . .   @ `.=   .   X = . .   . . . . 8 8 o $ & O O . .     . @ 0 % o o . # ; < 4 ; ; 2 ; 2 ; # ; < 2 ; - - , - , s w r , , z , 2 , - , , w f y K f t w , , , , , , w t H ~ U t y s , - # - , , , , , , , , , , 2 , , , , - - - - - - - - - - , - , i.0.# - - - - - - - - - - - - - 2 - # - - 1 - - - - - - - - # # # - n z # # - # # % # % o 9 c # # # # % > 8 # # - # - z : : # # # # # # # # - - # # # # # % 3 - - , , - : # c . % Z o o o # % o o > `.Z . . & & # # > : # # # # # - < h K H H J X.@.L < , - - 1 , , , r w w < - , < ",
"# # # : # 2 0.1 2 w , r q f J J f &.>.J Y y y q , < w w , f f w y f J H J p < < < w f f f J f L Y Y Y K w - - - # # - - - - , , , e , - - , e - v ].2 - - - , , - , - - - - , , , , e i.b , q , w R i , , e q , q q q q , , - , - , , , - - - - - # # , w u.K y H y H f f t t J P.{ P Y U K h w < r , , n 2 # - - # - , E w U t y H f q e e , , e , , w.v - - - - - , - r - o , 1 , , - - - 0.2 # - # - # # # # # o o # . . o . . . . O . + o o . o o O o . o o o o o # o % o . o o o o % % . + + o . . . . . . .   @ @ . . . . . . . . . . = X X =   . = =   = & . o o . . . . . . . . . o o o o o # ; 4 < < # - 1 ; ; < < 4 ; - , < , < < s 1 , , - , , - , , , w t t y K w w e , - - - , , q y h K y t r - - - - - , , , r w , , , < Q r - , - - - - - - - - - - , , , , # - - - - - - 1 - - , - - - - - z - 1 - 1 z - - - - - - - - # - - # s v - , # # : : % % o t.t.# # o : # s.T.# % # # # # : # - # # # - - # - - # - # # # o # ; # , < , 2 : : 8 A c o 7 o o o # > % > . . + o + o o ; 3 ; : # # o $ ; < s h h y f L L f h w , , - , , e r q y w , < , ",
"# % # # - - - 1 , , , w E J f =.7X!...X.<.H K f f r , < w h J f y f L f f p h j f w w y K f q y Y Y Y K w , - # - : 2 - , - , - - - , , e , i e - # , , , , , , , , - e ^ r - , , , r U.v , q u q , e , e q q ^ ! q q q q w E , , , , - - - - - - - , , , , y Y U H U f y y H J *.Y P P P H K h b w.w h CX6X. - - f.w.- , i y U H y f t q , , , l , , i r - - - - - - - l ]. Xr , - - , - - - - - - # # # # # # # # % o y.'.o o . o + + O o . . o o o o o o o o o o o o o o o o o o o o @ @ . . + . . + % o . . . . .   . . + . . + . . . . . . X X .   @ = . . = & . . . . . + . . . . . . o o o % ; ; 6 ; - - 1 < r s < p 4 < , < s s r , - - - - - - - , r e r , E y t t t , , - - - - , , , w y y y w , - - 1 - - , < , , h h w < , e , - , , , - - , - - , 2 - , , , , , , - - - - - - - - , , 2 - - - # # 2 2 - , - r 2 - - - - - - - - # - 1 - - - - - : # # # # # o # # : # > > # # % # # z - # - : - : - - - , - : # # % & o # : - , 1 2 z 1 : o q.y.o & o o o > 8 # o 0 8 o o o o & # - : # # o o $ 6 < < p s w w f J g j E s w w , w i i h y $.u.r w ",
"# : # - : # # # , , - - i J J !.ZXtXJ 1.X.2.J f L s - < < p f f H H J f J J L ~ K f H f f ~ 5XP.w f f f w , - # # , 2 , , , - - - - - , r e q , q , , , , , - - , , , , r e , e , - v mX}.o T ! q e , , e , q ! y y F K t K ~ w , e , - - - - - - - - w b , q f y Y Y f t f J P H P P H H S Y L h }.h h ~.w.- , , n e u.}.e y U Y U y 3X$., , , , , , - , , - - , - , - , JXUX5Xo w.e., , , - - 1 - # # # # - - - # : . hXcX. o o + o o o o o o o o o o o o o o o $ o o $ o o . o o o . . . * C . . . o o . @ . . @ . . . . . . . . C = . . . + . . @ . .     . = @ . o . . . + . . . . @ + o o $ > 6 ; ; < < < s s - < w j b p d < s s 2 , # 1 2 - - - , - r v w.e E r w , , , - - - - - - - - e h w w , , - - 1 , , , , < w f K h w - , , , , , - , 2 , , - , e r , , , , , - , , - - # - r.r # 1 2 - : - 1 1 - - - - , 2 1 , - - , - - - 2 2 - , - - - - # # # # # # : % : 7 : # o o # # # # : - : : o s.0.# - - , - - : # # : > # # # : 2 s 1 1 - : % o # o % # # o # > o o & % & o o > t.2 - : # o V 0 # ; < < < p w w w g g f h w w w w w f h y f $.$.w , ",
"- : 1 1 z # - : 1 - Q i.- y @.<.Y.4.&...*.5.L J f w , , < f J J U H J L L L L ~ L f f K , 5XUXMX# < f h w , - - - , , , e , - - - - , w i u , q , , , , - , , , , , , , , , , q i a.MXUXPX5X^ i q i o # q q q y K U K K S y t t , , , - , - - , - , - , , , , q K h y K y f H P Y H S H <.Y H 2.d.mXP.- , , w , , - - E u.y L H Y U y 3X$.- , , , , , , , - , z , e , , , lXDX].U.UXDX, - - , - - - - # # - - - , - : # 9 c o # o + o o o o o % % o % 0 o o o o o & o o & o o o o o . + . . & V . . o . . + 8 & @ @ . . . . . + . . @ + +     + . . . . . . . . . . o o o o o o o . . + 0 & o # # # z 0.; < s p < ;  XlX}.w 2.p p s - . # - # 1 2 - # - - - , , - , , , , b e , - - - # - - - , , r w < , - - - r 2 - < < < s w h f w w w , , , , , r 2 - - w.u.- R w , , e h w , , - , 1 - , - - , - - z x 1 n e.- - 2 e - - , 2 , r , , - v v , , , , - - # # # # # # 8 3 # # # % % # # # # # # # , # r.[.x - - - - - - # # # # # # # % : 1 2 1 - ; 2 : # # o > # o o o # # o o o # > % # ; : # : # o r.B # ; < < w < < w w f f p p < < w w w w w K K t w < w ",
"- - 1 1 : 1 BX9Xo - Q U., w t Y H H I X.Y J L L H w , < q y Y Y P J Y J L Y U J L H ~ p.w u.lX X# , w w , , - e , , , , , , , , , , , r w q , , , , , , , , , , w r e , , , , q i e.hXUXDX].i q , :  X9X- , q t 2.2.y H S y H t , , , , , - - - - , , - - - , , w y y L f f Y U U y t K U U p.3XDXUXGX}.$.t w w , , b w , K f Y 5.U H , t w , , , , , , , r s n , r , , , - T R w.cXrX- 1 - - - # - - - # - v , - - - # o o # o o o o o o > o # o o % 7 # o o o o # o o o o o o . . o . + @ . . + . . + o . . + @ . . o . o . & @ . . .   Z s.. + . . . . . . . . . . . o o o # o o o o o % o o > - ; 3 ; 4 s p # < HXUXBX- d d d ; n hX'.o - # # # # - # - - - , 2 - 2 , z r - - - - - - - - - - , - - , 2 # - , , , - , s p E h w y y w w , - 1 k - - , - Q w.h e q q q v W e - , , , - - - - - - - # 0.d.- : v - - 2 1 - - - - , , , , - , , - - , - - - # # # # # # # # # # # # # # > c % # # x 2 # 9XrX1 - - - : - # # # # # # # : # # # % # # , : : : % # & o o o # o o 8 & o o > : # ; : - - : # o ; - 2 p w w < , < p w w s s < , < < , , < L K w s < w ",
"- - # - : - rX].# , - # e r q K <.*.I <.~ { Y H H w , w q f 5.5.I I J H 4.P.5.P f y L @.h , # o # - v , - , - 2 e , q e , w r , i v q q q e , , , r , , , , r , , , , , , b r q e - - rXa.o e q , # 9XrX# , q t K y U { S H S y e , , , - - - - - , , , # # - , , , w y y U Y U y q q t q y $.u.hXLXzXd.E y q i w , v yX5Xe y Y Y y t H t e e - e e , , - W r - - , , , , , e e , , , 1 , r e - - - - - # - r - - 1 1 - # # # # o o . 9 '.& o o o o o o o # o o # o # $ o o o o . . . . @ @ o + . . . . . . . + . . + . . + o + + + . @   Z '.o + o . . . . . .   . . O $ $ % # o o o o o o {.{.o 2 - # < 4 s w ; # qXHX6Xp d j p # uXUXFX> o # # # # - - - # - 1 z - - , - - - - : - - - - - - - - , - - s - - , , - - 1 , w !.2.t f y h i , - - - - , - - - , R i t i u i q , , # # , - - - - - , - - - 2 - - - , , - - - - 2 , , r , # , e w , 2 v 2 , - o o # # # # # # # # : : # # ; > # # # z 2 - 2 z - - 1 : : # - - - - - - # # : 9 % # # # # # : : % # c # o # o o + q.& Z '.# 9 9 9 2 : 2 : : 2 0.< h L h w < 1 , 1 < , , , - 1 r 2 , , < < h h w < , ",
"- - - x - - o # z , - - , , r y Y U H Y U Y H H f h w t t H U ` *.I ) P <.<.U H H y w y h w - - # : z , - - , , e , q i w , i w u i , , , , , , , , , Q r e v , , , r e , , , , e , , d.v , q , , , - - - , , e w t y H S S H y q , , - - - - - - - , - - , - , , , q w y t K K h R u.q R i w , b kX}.#.L h t w w , w mXhX, q t y K y q q w w e e - . , , r , - , , , , , , e e e , , e e e , , , - - - - - - , < , - # # # # o o & o & y.o o # # # . . # o o o o # > & o o o o . o @ + . . o . . o o + . . . . . . . @ @ . . . + o @ . . . . + @ . . . . . . o . . @ $ o $ o y.iX> o # o o {.[.o - ; 1 < s d j d # ; b < p j h s - ].FXsX# # o # # - # - - - - - - - - 2 r - - # - - - - - - - - , 2 1 - # - , v r , < , , w h y f y w K r - - - , , 2 2 z r R i U 2.S t i i , , w.W # , , - - - - - - - # - - - - - , , - - , , , , e u.b , e - < z 1 - # s.].# # # # $ # : : 2 : # # # # # # - - 1 - # # - - 1 1 2 : # - - - # # # # # 2 # o o # : > # % % # & # o o o o . o o y. X- z b : 1 r f.n # - 1 < w E h w w < 1 r r < , - - 1 1 - , < , w h w r 1 - ",
"- - - 2 - 1 - - z - - - , 1 s r q y H H P H U K E E w w h q $.{ U U Y P H y y h f w , w w , , , - # # - - - - - - - , , , , U ! q , , - , , , q e , e b e , , , , , v w , , , , , q u w.i , , , , , - , , - - 1 , w w q u t t , , , , , - - - - , - , , r s - - , r e e q t w w , u.5Xw w.r , , E eXP.f ~ U f t q y t ! y t q q t u.K q t y q v - Q 9Xb , w q , , , , , , , , , q e , , w , , , , , - - - - w w w , - : : # o o o % % . . # o # # o A Z o o o # o # % o o o o . o + % o * O . . o . @ 8 . . . @ o . + @ . . . . . . . . + o . + . . . . o . o o o o   o ; # o t.rX2 - s ; ; # # - # b b < b h +.O.4 s < d < +.z - - , r # # # s.0.# - - - - , , - - 2 2 2 v 1 # - - - # # - - , - - 1 , - 2 r - < < < r w , w w w w w q w , , , , w e r k n z E K U P H U H ~ R , }.5Xe., , , - 2 2 - - - - - - - - - , , , , - - , - U.IXrXo - - - - - - o 0XhXo # - - - - : : # : # # # # # # - - - - - - - - - - : - - # # # # # # : > o o # # # # 9 > # $ $ o o o o o o o o 8 o # h b v  XhX Xk k 1 , , < w w w w w w w w ; s w , < - , ; < < , h ^ w , , - ",
"- , - - - 1 # 2 n - - - , z 2 < w t t y U H U P H y w w h U.$.K t y t y K w w w w , , , , , , - - # - - - - - - - - - , h , q q q q , , , , q q T R , - - , , , e , , , , , , , , r e q , , , , , , , , , , - - , < , q , , w , , , , , , - - , , , , , , , - - - 1 - , , K L t q y w , , , , e w E L Y H f y t /.I.q y t t i u t i t ! U t u e , mXUXiX- , q h , - , , , , , , , , , , , , i i , , , - - < h f h s # [.qX% o % o o # # o % # # o # FXLXc . # # # o o # o o 8 % o o . . C 8 . o . O + o . . . . . o O . . + o o + . % & o o . O . . + o o o o o . = 0X.X9 ; ; # . ; s < < 4 ; 2 2 # 2 s w h p f g d p < s 4 ; - - 1 1 # # - - 0.x - - - - - - # U.].: , - - - # - - 2 q.2 : - # - - - 1 , n Q - z $.1 , < < , , w w r , - , , , , w e r 2 # , r K U U 3.U y P.P.q , r ^ v v , , , , - - - - - - - , - - , - - - , , , 0.lX].# , - - - , : : # - # # # - : - # # # : : # # # - - - - - - - - - - # - # # # # # # # # # % % # 8 # o # ; - > # # . o # # o o o o o & o 2 z n hXIXUXPX[.k l , r < < p p w < w w < , < w w < , < s < , w i r r , - - ",
"- v , - - - - z 1 - - - , , , , w w w h h f y H H q t y y u.y t w w < s w , q w , , , e , , - - - - - - - - - - - - - , Q e t q i i , , , w i q , , , , , , , , q , , , , , , , , , , , , , e e , , , , < , - - , ; , e , - - , , v , - - - - , e , - e q , , - : : - - , i Y S y w q e , , - w.u., @.@.y Y U H 2.<.H S H y t K t q q ! K t t q - rXHX|.- , , e , , , , , , e , , , , , , , i i , , , , , v h f L h < $.e.: : # # # # % % # # # # # fXhX> o % # o % o o & m 8 % O O o @ O + + . . O o o o o # > + o o o o + o o + + O & o o o . @ & & o o o o .   qXUXUXa.- ; ; ; ; 2 < < < , s s - - < s h p f j d w < < 1 - - 1 - - x z # - o - - # # - - - # s.].# - - - - - - # 7 A 1 n - # - - # , n 1 < < , E Q 1 , r r r w , r w , , , - , w , - , - - , h U Y 3.U H L K y , , e r , 2 - - - - - - 2 , - - , 2 , , - - - , , , - - - , - - - - - n x # o : - # # - - # # # # # # # # # # # - - - - # # - - 2 - - # # # # # # # # # o 7 % # : ; 2 4 - o t.y.% # # & # o o o o 8 % '.IXUXIXUXNXz v k b r < < p w < s , , - s s , , p < < w h L K w w - - 2 ",
"- , - - , # 2 n - - - - , t t t i i , , r < - < w w q t K t w , E v , , # - , , , , , w , , - - - - - # - - - - - - , , , , i t u i e , q q t q , , e , , , , e w , - w , , , - - , , , , , , , , , e < p h , - ; ; , 1 , 1 2 - , i , - - , - , e , , r i w , - - # - , , t S H y q r e , , - }.5Xq y H P P P P Y P P Y P H U ~ S H K t U /.K , q - , , , q , - , , , , , , , , , , , , , , q , e , , , - , y U f K h , - 1 , - ; ; # t.0.# - # 9 : o o # : # # o # o # 8 0 . % o o O Z % o + o o + o o # # : 3 O o $ $ o o o . o o & & o o o . C y.o . . o o o . {.LXFX0.; ; 6 2 ; s < p w p < - < < < < p j g j p < < s , , - - # o rX0Xo 2 1 # # - - - - - - - - - - - - , x 1 # - # - : # - - - - - - e.b , w , s.s , , - Q i., , < - - e , , , , - , , , w h S S U U U K K y , , , , - , - - - - - - z 2 - , - , - - - , , , - , , - - , , - - - # 9 : : # # : # # # # # # : > o # : # # - # # - - - 8 : # - 2 - - - # # # # # # # # # # 9 & # 1 2 2 r.& [. X# ; > > # # % o o > > '.UXUXIXUXNXk W n < 1 < 1 < 1 r v - , , w , w w s < w f h U f y w , - v ",
"- , - 1 - - a.8.# - - , e y y q t , , v - - , - # , t t t q r r h < # 0.MXeX- - i ^ r < w , , - - - - - - - - - - - - - , e r q , e w q q t q q e e , , , , , , v }.v 2 , , # o # - - , , w r , , , 2 , w h - - , - - - - k 7 - - , - , , , - - , , , e y t , - - - - , , t y H t w w w , , e , , y y U Y U Y Y I *.I ) Y P <.Y S U K S F u.F q , , e w , , q , , , , , , , , , , , , , , , q q w e q , , , f U H K y < w s < < < , ; x 8 # # : : - # # # : % % # o o > # o o A 9 # % & o o o o o o # > - # - # o o # o # # o % o . 8 c o o o o & * o o o o o o # o A +.2 < 4 4 4 < < < p d j j p < , < < a j L L f p w h < ; 2 # : o A A % 1 ; # : # # # # - - : - - - - - - - - - - # - # # - # - - , - e.w., , < 1 , - - - < r , - - , - e r , - , , , , , , y t S y H H y y w , , r , - - - - - - - - - - , r 2 - 2 v , , - , - , , , , - , , - , 1 # # # > : - # # # # # # > 8 > # # # # 1 1 # % - #  Xf.o # # - # # # # # # # # # o # o # % - 4 s 1 e.s # # - ; ; # # # % % % : b x cXUXUXLXXXl r 1 , , , ; < - - - - - < , , p w w w f f Y <.H y w w < , ",
"- - - - - - n z - - - , r r s e , - z ].e , # r Q - i w e w , i.i.$.x s.UXBX# - e r , r w q , - - - - - - - - - - - - , , , , e , , q q t u t q e e , , , , , , , v , r , - Q s.- - 1 - - e r - , , , - , - - 2 1 , - # - - # # - , , - - , r l - - , , t t , , , , , , , q w , w w d.i.# , e , w y f P Y Y *.&.) I *.4.b.4.Y H H K H U D t t q q , , , q , r r , , , , , , , , , , , , r u q i i w q q q y L U Y L w y y , w w w < 2 - # # # # # # # # # # % % # # > o o # % & % o # o o o o o o # > > 7 c 2 : & > # o # # o # & o o o o $ % 0 o . o o o o # 8 > > o - s 4 d s < < , b h f L L f w < < f f f L  .L f w < < 1 , - # 1 # o , # - - # 2 2 # 1 - # # - - - 2 - 2 x # - - - - # # # # # - - - - - r , , , , - - - - - - , , - - , , r , , , , , , , y t t y t t t w s r , , , - - - - - - - - - # # - , 2 r r , - - , - - , - , , - - - , - - # # 8 : # # # # % % # o # 8 : # : : - # # # # : c x # : : z - # # # # # # # # # o o > # # - ; ; , ; ; ; ; # $ # # o . % 8 - s v 0.qXkX Xv v r - , - - z z # - - 1 - - w r < h $.s f f Y *.H H f w , , ",
"- - - - - - # - - - , , e w 2 , , , , 2 e 2 A BXHX Xw h , < w e , ].}., d.w.- , , , , r w w w , - - - - - - 1 - - 2 e - , , , , , , q t t } K t q , , , , , , , r 2 - , # Q DXUX9Xo - - - , , - , r 2 , - - - - - - - - - - - r.r.- , - e # a.}., v , q q t q , , , e , , s ; 1 , w h r , , , , y K f P P I ) I I &.*.Y *.b.` H H H H K U S t t u q , e q , u u , q q , , , , - , , , q u q , R y t q y y f U Y Y Y H f H 7.$.E L w s - : # - # % # # % # # # # o % 9 # o # # o o o # # # o o % > % > 7 c c 2 9 c 9 > o # o % > o o # # o o o & $ o o o o o # 3 3 > 6 4 s < < < s < < b h w w h j f p f J f f J @.J J j < w , 1 2 # 1 z # - - - # # 2 2 3 ; - 2 , - - 2 r - - 1 - - - - # # : # # # - - - , - , - - - - # - - - - - 2 2 - - , w , 2 o o 2 e , q t w 2.2.q t w , r r - - , : - - - , - , v , n n - - - - , , - - - , , , , , , , - - - : # # # # # # # # # 9 2 . o # # : # # > : # # # # % # # - - 1 n s - # - : # - # # # # > c & # ; # : 3 ; > ; $ # # $ # o o o # , w h E r e i R r , , , - , # # - - - - - - , b h h E h p f U H J J f w w w ",
"- - - - - - - - , , , , e r w , , q e e - . rXUXUXCXw , < , - , w , w w - - , , , , w K y y t w , - - - - - - - - z n - , , r , , i q q y ! F t q , , e , , , , Q r - - o d.UXUXmX# - - - , , , , 2 , - - - - , , - 1 k - - - a.a.# - , , - e r i R , q q q t q q q q q e 1 ].NXuXh r r , , , i h $.K H J J I I I Y I Y I H U H y y S H U K t q q q e e , q q q t t , , , , - , , , , q , ^ cX6Xq y t t y t H P U Y I J L 3XP.J L y w 1 z # : # : % # o # # # o # # % # # # % # # # % o o o # : 7 # # 0 c a.T.9 x 8 % : # o > % 9 9 o # o # # o o o o o o # o o # ; 4 < p < < < < w < , < < w f L j @.2.L L L L J f @.O.w w < 2 1 , - - # - - - : - # : n # - n - - # # - # - - - - - # : - : : # # - - 1 1 - 1 1 - , - - - # 1 1 # - - - - , , e , ].]., e q h w h }.~ , w - e , # , - - - - 2 , - , , r - f.f., - , - , , , , - - , , - - v n - - , - # # # # # # # # # # # A > # # > # # # # - # # : # - # # # # - +.1 # : # # : % % % % c o o 8 8 # # ; ; ; # # o o o # # o o # - , < 2 z z r e , - , - - # A r.# - - , - - - s E w , w w w J J H f f f w , ",
"- , - - - - - , , , , , , w w , q q q , e o  XLXIX0X- w h w w w w , , y t w , , , w y w y H y h w w , , - - - , - - , - , Q v - , e e ! i y D y t q , R ! , , , , - - - - - 0XlXr.- - - - e , - , - - - , , < < , - - - - < , - # , , , - - - , , e i.i , , , , q q q q r # jXUXUX$.- w , , , w.U.h H P P H H Y U Y U <.<.U y y y H H U U U y q q , q q q t q q t q q K i , , , , , q q # 3XUXmX, y K K K S y H U Y I I Y Y <.L J h w 1 - - 2 # : # > # % # % % o # # # % % # # # # # # o # # - # ).9XV lXLXLXxXA 9 2 # o > . s.HXFXq.o # o o & o o o o # # o ; s b s p p w < w < < w p w w < O.$.f X.1.X.@.L f J  .J j h h < , , 2 , , 2 2 # - - # 2 2 # - - - - - - - # 0.z - - - : # 1 : # - # # - - - 1 - , 2 - # - , # # : - # 1 # - - , , # a.UXUXw.- u w h h E w , , , , w. X- , - , - , , - - e 2 - , , - , - , - , , , - , , , - - 2 2 - - - # # # # # # # # # # . qXLXjXo # # # : 1 1 - ; ; - # # # # - - ; 1 - : 9 : - - # > # # > & o o $ o o # % $ # o o o & $ # o o o # - - # # % - - - - , - # o s.].o - 2 2 1 2 < < < < w w p H f H J f q h h i ",
", 1 - - - - - , , , , , e < < , , e , , e E w i.d.w K K f y f y R y w y y w e , , h ~ f H H y K y i , - - - , , - - , , , , , , , , e ^ F t F F D t q i i q , , - - , - , - # , - - - - , z , - , - - , w w , < < , - - - , , , , , 2 , - - , e , l }.R - , , , , ^ u , i , ].FXhXw , , , , , e h y H P y y U H U 2.H ~ /.K , R ^ S S Y 3.U D t u _.^ , q q t t t t t F u , , , , , e u e K 5XI.q y U U P U H U Y ` X.Y H H U @.L K w - - x b : # # 9 : # # : : : > # # # # # % 9 # # # o # - - o 9XlXrXUXUXUXUXfX2 x > % : . XXUXUXf.. o o o & & o o # ; # # ; d O.h j E h s < , < d w , r , h  .J #. .X.@.K f h L j f L s w < < s < , s n 1 - 2 2 - - : - - ; - - # # # r.z # - # o n r.: 2 - # # - - - 2 , - - - - : , # 1 : # : z - - - - , # e.HXGXn - i t y f , < , - 1 - 2 i.z - - - , - - , , - , - . - , - , - , 2 , - , , , , , , , - , - # # # # # # # # # # # o cXUXHX# o : : # +.Q - 1 : # 9Xa.# - - - ; # : 2 2 - - # % # o # o # # o o o # o o # # o o o & # o o o o # # # # o o # - ; - - - # # : : - , < < < w < < w w y f f L P Y I Y <.f ~ ! ",
"- - - # - - - - , , , , w y t q q r e e , , w , q H S Y H t f K h w t q f w , q , y L H P H S H K K r , , , , - - - 2 z - , , , , , , q t t D U S S F i q - , w r e , , - - - 0.r.# - - - - - r r - - , y | !.=.w , - - - - - , - 2 1 r 1 , , , e q u q , < - , - v r , , w , < < w w , , - e R q f K y P y y y y U K y q w q , u y S H U S D t i I.! , q t t t t u t t q q , e r , q u t w , t U U Y H H P H H U P I y 7XMXP.H f f w , , - , - : : # # # # # # 8 > % > # # # : 7 . # # o # - - 1 1 1 vXUXUXUXUXNXc # XX'.o o 7 hXqXo o o o $ o o & $ # # # - ; < d d.2.h h s < < < < w < 1 < w E  .1.L J J f f h p u.~.p p s w < < < , w , 2 - 2 +.1 # ; - - - - # # - : # # # - - % x n - 1 ; - - # # - 1 - # - # - - - f.r.- - # - - - - , , , # x 2 - , q t f K , - - , , , # - k - - - , - e , - , - n ].r - , , - , , - - - - , , , - , - - - - : : # # # # # : # # o 0.rXs.o : # : - # - - ; # -  Xa.# , - ; # 2 : # # o # ; # : > # o # > $ o # o o # # # # o o o o o o . o # # # # o o # - 2 - # # # # 2 1 , , < w w , w K t f f y f Y Y 3.S wXJXP., u ",
"- - : - - - - - , , , q t S t F ! q e - w.iX~ , f U P H S H H H y y q t t i w , , y U U H H S S K K u e , , , e , , , , , , , e , , , , q t K U S U U u 5XeXh , v e - v v r - 2 k - - - - , - 2 2 - - q , (.AX7X, , - - 1 - - - , , - r z , - , e e q , , i.v # # # , , , w e w h w , , , - r b t K y S y y q t t t y w q e , , , t H H H U t q q , q i u D D F D D F u t t q e r q q q q t K y y U U H U H H H H y J f 3XkX5.H K H t , , , - , - - # - - - # # o # # % # # # o y.MXc . # ; - - 1 r 2 hXUXUXUXUXhX2 z q.0 o # o   . # . 0 0 o # # $ % # # ; 2 2 p j eXU.f J h w < < < < w < < p f #.L g f J f f J J E u.p w w < r < w w w w , - - - - , # - - # - : : # # # - # - # - # # # - , # # 1 2 # # # # # # - - , A z # - # # - - - - - - - # - , q t K K y , e r - , - - - , z v , , - , - , , # [.JXi.# , - , - - , - - - , - - - - - , , ; 2 1 # # # # : # o # : #   . : # - - - - - , 1 , - o o 2 ; - # # ; - - : s.q.# # 2 > # # o % o o o o o # o o # o o . o o o . o o # - 2 9 # - - ; ; # # # # - - < w w w w t h K y K K @.K U ` *.S |.lX2.q i ",
"- - 0.2 - , - r v - , w q t q q u q i w R ~.K q H U U H H H Y H t y q , q w w , < h U ` P y y S S q , , , - , , , , e , e q q ! u , , , e q wXU.q K q u LXUX}.# , - - v v e - - - - - - - - - - , , - q , 2.uXp.- , - , 1 - , - k z - - , , , , , , , , , z 2 - - - - - , r v < , - , h , - - - i q q f , , , w y y t , , , , - , q q ! 2.2.S t t t t D D ! K ! I.} D F F t q e , , t u i q t t S P P Y U P H K S H P *.J H P P U U w e , , , - - - - - - - # # # : A > : > # o t.jX0 o ; : - - v v v t.NXUXIXBX}.U.2 n '.# # o # : # # > > o o % # # : 1 1 r s b d hX}.X.5.X.L j g J L j f p j J <.@.f J J J f f j w w p < < < r h w h K r - - - - - - - # # - # - , - # # - - - - - - , - # # 2 2 : 2 - - - - - - - - - # - - - - - - : - - - - - - , , w w h y y t b w.- - - - , , r v , - - - - , e - v r.e - - , - - - - - - - - - - - # 0.|.- - : : # : : # # o # : 0.# # # # # - # 1 s - , - 2 - - - - 1 - 1 z # 2 9 # rX].. % % # # # # # 9 # o # # o o o # % > '.9 o o . o o o > A : # - - % % # # # - - , r r w , t y K f f f f ~ H P U S Y H t q U y ",
"- : - - - - r Q 2 - , q i w # - , w e w , , q i K K L y y H Y H y t q q e q t < 1 h P P H y h y t e , , , - , , h e r i q u u i q F e , e , ^ K F y q w rXbXw.e - , 2 r v - , z - - - - 1 - , - - , - , w , , , , , - , , - 2 - - - - - - , , , e , , , , # v 2 - - 2 - , e r , - 1 r w , - - - e ! u.f , , w t y F t , , , , , q t y F F U ~ y y t t t D { I.mXPXMXI./ / t e , , t t q u i F D S ` } P P U H y y S Y 3.&.I P P U K y w , , - , , , , , , , - # # : t.x % : # : # o # - # - - - 2 r l ! u.5X Xi.U._.- n t.o # # # # # # o o # % : # # ; v , r b Q 0.MXeX<.P.4.o.@. .J L f f g J L J L H J L J p f E w s s w s , j O.w w h < , - - - - # - - - - - # # - - # - - - - - - - - : - a.0.# - # - - - - - - - - - 1 - - n - - 1 - n 2 - - - - - , w w y y q w.]., , - - , , , , , - - - , - - , - - 2 1 - - - - - - - - - - - - - # 1 b 1 - - 1 - # # # ; rXcXs.A # # # # # - # : 2 - # - r.x # - - - - - 2 - - # x z # : # : # # # # # 8 # o o % o . o # # > XXA o % o o o o # > # # : : # # # # # - - , 2 w w , t t y h w < w w f K ~ /.H t ~ P.y y ",
"- - - - - - , r , , , , i i wXyXe , , , q u w t h K ~ f t y K y K ~ t q q q t < w h P P y q b i , , r , , e i , e e w r u u t i t F e , , , , w K t t e # # - r , , 2 - - - - e.k # - , - - : - - - , , , r , , , , , - - - - - - - - , - , , , , r , , 2 - 2 , - - v , , - - , , s e - Q z # - - $.}., , w y t t y i w , , q q q D D y y H U S S D D D } U bXUXUXUXmXb.b.D , 1 , q q q q u y S S U 3.H H H S y H U P ) I P J P U P y q w , , , , w w w w < , - : # # - : - - # - # - - # - , , , e u ! K u r W l - 2 # o # # o o # # o 8 & # : # : : # 1 r v Q 2.U.GXrXP.Y.M.2. .@.X.J p f f J L *.f H J J J h h w w h w , < < , < w w < - # - - , - - - - - - - - - # - - - - - # - # , - # : 1 : - - - - - - - - - - 2 - - - - z - - - - 1 - - # 2 - - < h w t y y r e - - - - , , , , , - - - - , e r , , , - - - , , - - - - - , - - , - - - 1 - - # - - : o x PXUX[.  : # # # # - - - - 1 Q 1 z 1 1 2 - o # - # - - # : : # # # # # # # # # o o o o # & 8 > o # # . o % % o o o o # # # # : z % # # # # - - - - 2 < v w w r s , < w < w y L P.H y Y 2.t y ",
"- - - - , , - # 2 Q , e , ! PXPXR - , e e , e w w w w t w y h y i ~ y q q q t , 1 w y y ~ z r.Q - - , , , , w , , W v , , q t q q q q e , , e , , q q , v e , , - 2 , - - - - - - # - - - - - - - - : 2 , , - - , , - - - - - - - - - - , , e , , r , , - - - - 1 - , - - r v , , - , , 2 1 : - , , q w h i F y y y i w , q q t F F D S y y S H S D D G { _ VXUXIXUXGXb.h.D q , , t q u q q t D U P S S H I H H Y 5./.I P P P I P P S t q K E u.d.h y w f f w , - - , - - - - ; - - - , , , , , - , e q R v - 1 z 1 : 2 # # # o % > # > 9 o # # - 1 - 2 s v Q d.~.rXLXvX3X>X^.P.1.X.X. .f f L ..<...Y J L @.L p s < w < , , , , 1 2 s < < s - - , - - - - - - - - # - # # 2 2 - # # , # - # - - # # - - - - - - - - 1 - - - # - - # - - # n 2 - - - 2 2 - < v w t E w , , , - - - - , , , , , , - 2 r e , , , , - - - , - - - , - - 1 1 # , - - - # 1 n # : - - > # ].9Xc > # > : # # # - , # 1 n , - - 2 : n mX].# : - # - # # - % # # # % # # # o % # o % > 7 # o # # o o # o o # o o o > : : # 1 % # # # # - - - - - - z , - , , - h h w w w t q K K H y ~ U ",
"- , - , , , r 2 - r , , q q }.}.e , e , , - , , , , - , w w y y q t q t t q q , - , w , 6XwX- r e e , , , , , , , , , , - , i t q q q e , , , , , , , , e 2 , , - r r - , - - - - # - - - - 1 - o # z x - , 2 - - - - - 1 - - - - , , - , , , , , , , , , - - - - - - - - z v , - - , , - - , - , q , w w F S t q t q , , q q t S D H U S S H H S S S U } _ 6XIXUXUXrX/ ' D q , , q t q q q t y U P >XkX3.H U S U 3.P.) ) ) I I I H P 2.f L h /.|.K H f U h h s - 2 2 < < , - , , - , - < w , , : # 2 r , x gXfXk : : : # # # o # # # > s.r.# - , - , , 2 - Q ].iXLXUXUXCX3X!.P.X.J I J J !.M.X.1.X.X.L L f h s w w w < < 1 - - - 1 s 1 < s - - , - - - - - - # # - - # # 1 1 # - , 2 - - - - : - - - - - - - - - - x - # - - - - # 7 s.2 - # o ].rX# # - - w , w E w , , , , - - , , - - , r , - v v - , , , , , , , , - - - 2 , # 2 2 - - # # : z 2 : # # # : : 2 # o # : : : # % # : 2 - # - - - - 1 - o e.HX{.# - # - - - # - # # # % : % # # # o 8 8 o % # o # # o > % o o # # o o # > % : # # # # # # : : # - - # o - - - - , , , w h w e t y w y U { { Y ",
", , - < r , }.0.- - , , e i q , q q , , , , , < , , - - - , q w q t t t y t , , - , y y 2.^ r ^ 2.t u e , , , , , , , , ].p., q q , e e e , , , - , , < - , , , , - - 1 - - - - - - - , - - # n t.x : 2 # 1 2 - - - - k c - - - - , , , , , , q , - , , e n - - - 2 e.2 # - - - - - , , , , , e u R t t y S y q q , , , , q t y D S { <.S Y K t S H P P _ b.Y.3XkX8X! } / D q i q , q q q q t t S t 7XGXP.y H H P Y I ) 4.>.I P I P ) b.I H H <.5.U Y Y Y H K b , , , e e r , - , - - , w t q , # % : z , ].UXUXr.o - - # # # # o o o . '.[.- , < 1 , $.s.}.rXlXPXUXIXIXUXBXiXyX3XY.*.f Y M.6.1.*.*.Y L f f < w s w , , , 1 1 - - # 1 z - - , - - , - # - - - - - - # - - - # - - - 1 - - - - - - - - - - - - - - - 1 : - - - # # 1 n A : # : % r.[.- - - < , , < , , , , - - - - , , Q Q , , - , v , , e , , , , , r , - - - , - - - - - # : 1 : 2 : # # # # - # z : ; : : # # # # # : 1 - - - 2 1 , - - - # - - # - - - 2 , - - # : # # > # # # # o 8 7 o > 9 o o o # % # o o o # o o # # # # # # # 3 : # ; - # # # z s.# - , , , i y y q w f K t y U S Y *.` ",
", , 2 , w , v 2 - k w.e , t K q q , , , , - 1 i.2 , - - r e , e q q w q t t t w e h y H U U ~ U U ! K i e , , , , , - , w.w.< e e e e v i , , e , , , , , , , - - - - - - - - - - - - - - # # 0. Xs.# # # - # # - # - : 1 - # - - - - , , , , , e v , , 2 2 - - - - 2 - - - - - - - - - , , q u F F ! U { U y q e , - , - , t F U K S H U U y y S U G P _ } I.G G G _ F i u i u q q q q q q q t S U ` ' Y ) I P P I I ` 4.:.) ` ) ) ` ) &.:.*.*.) P Y <.U H y w h R q , r r , r w , , , e i q q , 2 $.R q E hXrXx - - - # # # # # # # # # # < < h h < p.wXkXVXGXUXUXIXIXUXPXGXnXiX4XY H 1.J X.4.*.J X.f U.HXwXo , , , , - - : : # # - - - , , - - - - 6 6 - - - - 1 1 1 - - - # # # - - # - - - # - - - - - - - - - # 1 1 # : - # : z o # - # z o o : - - , - , , , h e - - 2 - 1 r v i.i.- v Q , , - w R i R , , , , - r 2 - - - - 1 - - - - : # o : # # # # # - # # : - : > : # # # # # , 1 - 1 1 # z 0.- - # # - - # - 1 - - - # # # # % % # # o # # o # o % # % & # o o # o o o o # o # # # # # # % ; - - # - - # 0. X# , r w t y U U P H H Y H H U { 3XY.H ",
"w - , , , , - , < , s , q y K t t w e , , - - 2 - - - - v v r , w q q , w y t t i i t G } ! u.0XeX} F i e , , e e , , , # - , e r , , e r , , , , - , , , , - - - , - - 1 2 # # - - - - - - - : : 1 # : c - # - # - # # # - - - - - , e e , , e e v , , , # # # - - # - - - - , 1 - - - , q u ! ! ! 2.{ } t # , - # - - e i u u q y y S U t t t F S S U _ U U [ / G D u i q e q t q e e e , , t H U U P ` I I ) P P I :.>.:.:.:.:.:.&.v.b.>.*.P ) ) I Y H y K y h E i q , , , u.r , , < , q i t w E w.u.5X}.i e z , : - # # # # # # ; > - s E w p j j p w b U.5XBXUXUXUXPXeX|./.5.Y H L @.X.....I J X.f ~.UXbX% - , - - - # # # - # # - - , - - - - - z x # # - - - 1 - - , - - - # # - # - - # - - - - - - - 2 - o - z k - # - # # - - - # > c : 1 # # - - - - , r v , - - x k - , < , r - 0.i., - , e , e e , , , , , , , - - - 1 n : # - - # # : # # # # # # - 1 # : - # # : # # # # - - - - - - # 2 x - - 1 # - - 1 - - - - - # - # # # # % # % # % % # o o o > A 7 # o # o # o > A > # # # : : # # # : # # 1 2 1 k - - w h y H y H <.I P I *.) J Y.tXv.v.[ ",
"e - , , , w , w r < w E y U Y t t R W < - , - - - - - - - 1 , , , w q w i y q q q , u i F d.DXUXUXlXw.W i , , , , , , - , , , , , , e , , q , - 6X}.# , r , - , 2 z - - - : 0.z - - - - - - # 1 k # - : 2 - - # - # # # # - - , , - , , , , , i r w w , - - - - - : - # # - - 2 e - - 2 1 i F ^ ~ ^ $.~ ! I.}.r v r.- # b R q , q t q q w q q q t t y S U Y K K D y i t , q T q , q e , - i lX|.q U ` _ ` Y :.*.P ) P ) v.>.:.:.>.>.:.l.:.&.) 3.` ` Y H y y y t q q ^ R , , , , - , , , w t K K K $.i.MXUXUXlXn E s , - # # # # # # - ; < h j w f f O.O.|.u.p.|.wXMXIXHXiX3X/./.p.Y Y h J ..Y Y J J J L w w.eXn - , e e - - - - # 1 k , , , , , - - - - # # - - - # - # - , # 1 - # - - - - : - 1 - - - - 1 1 - 7 r.1 # - - : - - - # # - # x ].2 # - z - - - - - - - 2 v - # # # , e , r 2 - - , , , , , , , w , - , - , - - , - - - - : - - # : # # - # : : % # : # # : # # # # # # # - - - - - - - - # - - - z 2 - 2 , - - - - - ; 2 # % % % # > % # o . % > # o % : : o % # o o # > o . : % # : # # # # - - - , - , , , t t L U y P <.*.) ) :.&.I 4.M.P P P ",
", , w w q i w w y w K <.U U y t t i h , - - - , - - 1 , , , , , , , , w w w w , r r , r r hXUXUXUXUX9Xq - r , , , , , - , , , Q e , , , e q q , U.u., , e , - , , - 2 z - # A x - - - - - - - - 1 - - - # # - - - - - - - # # - , - - , e , , , e , e , - - - - - - - - - - - - 1 - - o # , ^ w.9XBXDXhXb 5XVX, rXlX: 2 , , e , , q w q , , , , q q t S U U y w e r l e q q , , r e , e , v wXU.t S P ( [ ` &.` :.` >XY.) >.:.:.-.-.-.-.j.) V.pX3.P ` U y t y w q i R w q , , , , - , y t t f ~ 2.$.rXUXUXUXUX6XR E , - # # # : ; , - < w w p f X.J J 2.|.5.2.P.Y.|.JXuXU.>XP.5.@.<.Y K Y Y Y J J L H K f - 2 s , , e : d.HX[.o - 1 r , - , # # - - - , - - - # - - - - # - - - , # - - - # : 2 - - - - - - - # 8.].1 : - - 1 1 - - - - - - - > : - - 2 - - - - - - - 2 z - rXNXe.# e , - e , , , - , , - b r , , , r w., - - - - # , 1 - - # - # # 2 : # # # # : # # : - # # # # # - - - - - - - - - 1 - - - -  X].# - - - - - - - ; z # > : # # # # o > A 8 8 o o # # : # # # # # # . q.s.# # # # # # # - - - - , , e , , y ~ K K 5.L I *.) :.>.:.4.Y H ( _ b.",
"i q q K y t K K f y U I P P y y q , , , , 2 v , , # - , , e , , , e w , , , < , yX X# r u lXUXIXUXUX X}.yXR e , - , , , , , - ].v , , , , q q q - - , , e , , , - - : : : : o # - - - - 1 - - - 2 , - - # - - 1 - - - - # # - # - - - , e e v , , - , , , - - # # # # # # - - - 1 - : {.0XrXe.5XIXUXUXUXlXw.^ , Q d.n r e r w - , e w e , , , , i - , K K K t q , , , , , , , , s v , q , , - , y H P P ` ` 3.>.v.3.Y.n.) :.l.l.-.) ] j.j.) Y./.) P P y q w q r t ~ u., i w , , h i.r u.E s h Y b.<.iXUXIXUXUX9Xy E , - # # # - - 1 < w p d @. ...1.*.J f <.<.<.5.P.ZXeX2.M.<.L g L U P H H J K f f f w w w - 1 , w , # U.GX].# , - - , e z mX0Xo # - - - - # - - - # - - 2 x 1 1 - - - - - - - 1 2 - - - - - - 1 - - , - - 2 - - - - 1 1 - # # # # - 1 - - - - - - - - # Q IXUX9Xo - , , v , , , , , - , r r , , , r w.- - - - - , - - # - - - # : > # 2 : o 2 BXrXo > # # # # # # # - # - - - - - - 1 - # - 2 0.z - - 2 < , - - , - - # # # o # o . % cXLXXX  # # # : - # # % # o % . s.{.# # # # # # # # - , , r w w i y f 3XU.K L y y L <.&.:.v.>.!.P.G b.Y.",
"w t t S S S U U H J P &.b.U U S t q q , , , r - # i.w., , , e - # , e , , , - e u.^ , F F }.LXUXUXDXW lXKXR - , - - - , , , - - , , , q q t q q , , , - v e , - - - - - # # - - - 1 - 1 - , - - - , 1 - v z - - 1 , - # # ; 1 - - - - - , s v , , - - , - - - # # - - - - - - - , o '.UXUXlX0.BXUXUXIXUXIX_.u i - - , , q q , , - , , , , - , , , ^ u.U H H S q q , , , , , e r - , e q , e , t y S S _ [ ) :.:.:.:.[ ) :.>.v.l.-.-.j.l.l.) ^.v.P 3.H y t r w q - U.wX# , , , - s BXeXq K w p U :.3./.HXUXUXBXu.~ ! w - - # # - ; < w p p d 7.7.J *.=.X.Y <.Y 5.$.E bX5X2.M.Y J p J Y U y t f h y t y w w , , , , , - e x - - r < < , , v Q DXrXo # - - - , - - ; - , - # - - - - - - - - - # x 2 - x 2 # 2 1 - - - - - - - 2 - - - # - - - - # # - 1 Q - - - - , - - 2 , - 0XmX0.# , , , , - - - , - , , , , , , - , v 2 - - - - - - - - - - # # 2 : # : > o c NXqXo # # : # . # # # - - - - - - # - - - - - , - - - 2 2 - , - - - - - : # 2 % o # . & KXUXjX  # # # - # # o % # # # o o # # # % # # # # - , , , w i y y K y K ~ K $.kXkXL H Y :.>.) >X/.P _ / ",
"U S U y S P H H H P I 3.P.[ <.Y H y q q , , - - # rX5X- l W - 0XlXe , , , , , , # , i F ! ! }.lXkXU.K u.w.q , - , , , , - , , - e e q q t t q q i i , , w.r e - - - # # # # # - - - z t.r ].v b , 1 k r U.f., , 1 2 - - - 2 ; , - - - - - r , - - - , , - - - # # o . # - - - - - # e.FXDXn n HXUXIXIXUXUX5X^ ! , , , , e e e , , , q q , , , , - hXLX2.w t w q , , , , e e , , , - e , e e t y y S S H P b.>.:.n.v.[ [ :.3.:.:.j.l.n.n.j.j.] ) ` *.Y K t t E U.}.CXLXwXU.u.q q - rXlX, h h w S P 3.2.~.hXiXU.~ L U r , , - # - < r h h h f @.L f J J J J L @.~ Y @.iX/.5.5.Y Y J K U K w w w w , , t w w , , , , , e , - , - - - - , , - - - # - - - - # # # # - - - - - : # # # - : : # - - 2 - # 1 1 - 2 1 1 - - - - - - # - - - - - # z 0.: # - - , - , , , 1 , e v , - # # - , - , , , r , - - , i r r , , v v e d.v - , - - - - 1 - - # # # : : : # # : 1 # o : # # # # '.z # # - - , - - - r 2 - - - - , - - , , - - - - - - - : # : A > # # # o '.qXc o # # > o {.vX'.o $ o o # # # # # # - : - - - - 2 < , w f H H P P Y , eXUXUX X, Y P P :.P ( 3._ ( ",
"U H H H P U P P H P U U P Y H Y Y y ~ ! w e , , , l l - r r # mXJXz - , , , # a.kXW q u i ! S U ` ` 3.S , i q , , - , e , , r R , w t y y t t q t i , i i.r - s - # - # ; - : , , - n s., E $.}.r l W r 6XwXe R r - - - - # - , - - - - - - - - , , , , - - - - : XX0X: # - x - - , - i v z 0.mXUXUXUXUXHXi.T i u - - , w r r , q q i t w e w w , ].rXK q r - , , , - , e , - r Q , , i q q y S H S S S P 3.>.[ Y.M.' [ [ :.[ ) -.l.n.n.z.n.j.) ) ) ) P y y L p.|.HXUXrXi.~ y y y h h y i K t t D U 5.2.L U u.~ f h h < , - ; , < w w h y h L f f J J g f H K K ~ Y 3XP.Y Y Y U H y K h < r < , , r r , , , r , , e , , , - , - r r - - - - # # - 1 - # # # # # # # - # # # 2  X0.o # : : # - # - - - # - , - z 2 - , - - - # - - # - 1 - , z - - - - , , , , < < - , , , , , , , e , r w , e , , , , e , , , - w.w.- r , , - , - - - - - , - # # # # - : : # : # # - # % # : rX0.# - - - # - - - 2 - - - - - - - - - - - - # - 1 - - - # # : # # # # # .   . : & # o $ DXUXcXo $ # o o o o # # - # - - , , w.].w < f f I I -.:.Y p s.HXGXd.t U ) ` ` _ } ` ` P ",
"y S y y U Y P P H y U Y U H H Y Y f K h q w , , e , e 8.e 1 : 2 x - 2 , , e 2 U.bXv , e q F ~ U { { Y U K i q e , , e w q h R i q q K H S H S y i t t t e , , Q 1 - - - s - # - - - , r r w U.iXw.} U.^ iXhXR } l r , , - # ; , - - - - - - - 2 - , , - - - - . 0.UXUXr.o - 2 2 # - , , e r w.}.BXIXUXHX XW W , , 9X].- , - , , e w i i w ~ r w i q , i t e - , , , , , , , , , h , , r q t q t K U S S P Y [ ) ` [ ` ` ` 3.:.[ [ j.[ ( n.P.) >.:.) I P P S H y , ~.eX- w y S U y y w K i q i K S H <.2.5.p.~ U f f h , - - ; , - , w w w w h h f f f w h K y K Y H Y <.P Y Y U t t h y , , , , e v , r Q e e e , q e e , , , - Q 0.- - - - # z 2 - - # - - # # # # - - - - - r.x # - # : - - - - - - - 1 - - , 2 - , - - - - - - - 2 1 - - - - - - - , , , e e e , 1 e r r , , , e , , , , - , , , , - , v ^ , , , - - r , , , - - - - - - - # # # # - - - # : - # # # # % # : : : # - - - - - - - - - - - - - , , - - - 1 - # - 1 # # - - # : # # : > # # # # % % # # {.NX'.; 0 o # o # # > % : 2 - 1 < , $.u.w w f L X.>.>.4.Y f j ~.p.H U Y P P U ` P P P P ",
"H H S S U U U H H U <.H H y K y y K f y t w h r w e e a.r - 2 - - , - , - r v # # , , e t F K U ~ U U { ~ y q q w q w h t y t q F y U 5.Y U H H K y y i t h w - , - - - - - , - - , , , Q Q }.kXU.U._.].BXDXa.U.8.v 1 - 7 ].9 # - - - - - # - r - - - , - - - o > jXlX> # - # - - - - Q $.u ! ! $.8XyXU.! i.^ e - 0X].# - - - - , q t i w i w q u w t q t , , , - , , - , , , , - , r q q q t F H S S S S H b.v.[ ) ` G P ( ) :.-.-.[ P P ` ) ` ) v.>.P ( _ P U S u.d.q i S U S H t h y K q u.2.t U L X.5.<.K K f f w - - , # # , 2 < < w w h w w w w w K K f f H H H P H P U U y t w q , w , - Q i.- , z , , , , , - f.mXv - 2 , - , , - - - 0.n - - - - - - - # - - # - - - # - - - - - - - - - - - - - - , - , , - , - - 1 - # - - - , , - - , v < e l , e , , e e R , e , , , , , , , , , , 2 e w v , e v , , , , , w.2 - - - r 7 - - # - # # # # # # - - - - # # # : # # # # # - # - 2 - # - , # - , - - - - - - - , 1 - 2 1 - - - # : : # # # # % # % ; # # # 3 3 # # - 6 ; 8 > # o # A 8 o : , , w h ~ f h h L 5.*.>.:.X.X.5.5.<.I P I Y P.7X5.P Y S H P ",
"K U U H H P U P y Y Y P y t w y K K y y f y $.h w w r - , , , , - - - , - - - , - , , q t t y K U U U H U y t q q t i h t U U K S S P 3.` P H H H y y t t i r 2 , - - 2 - - - # - , r i v r.hXHX9X XwXNXUXUXNX[.0.k 2 - 2 A : # - - - - - - - - - , 2 - - - - - # o o # 2 - - - - - , r W i y R ! i F ! R v W Q , o # - - - 2 2 - w u t q q w , r h w q t , , , - , , - , , , r , , w q } y t y H y S S t y Y ` :.b.` [ G G ` ` ) [ [ Y S P ` P ) :.3.` [ _ _ G D K ! t i S U D S y q t K h y y U Y L X.<.@.L H h j w , , # A f.- : , 1 < w h w w w p f f y y y y P Y H f P P H H K t q w t w < s n - - # - , , e r r w.iX]., , - 2 - - , - - , - - 2 - - - - - - # x 1 - - - - - : - - - - - - , , - - - r v , , , , n 1 - - - - - - - 1 - - 1 , s p w e e 9._.T u l , , , , , , , , , , , , # e.}., R e - - , , , , , , , - , - 1 x - - , # # - # # - - - - - # # # # # # 2 : - # # # - : - # # 1 z - : - - - - - - - - - - z 2 - - - # - # : # # # # # # % # % # $ 3 > 6 x 1 - 3 $ % o o & o # : < s h L u.f f Y X.*.:.*.*.Y P m.4.3.:.( :.P 6XIX3Xt K 2.H P ",
"Y [ ` U P H y ` /.P.3XH f w q q t y Y H H f f y f w w , , , , - - r r , , - , 2 , , , ! ! q y y y U 3X<.y H t t q t U ~ S Y 3.H Y ` P P ` P U Y S H H y t w , , , - , , 2 , 1 : - , e ^ ].rXIXUXJXGXIXUXUXUXUXBXjX0X].r # o : z - - - - - : - - - - k - 8.0.# - # # # : z - - - - - , - , , , q u v i U.BXhXr Q e - - - - - x z # v }.r , , - , , w , , q , , - , - , U.Q - , e , , r w K F y y t y H S y t S P ` v.` ` 3.[ P ` :.) [ H P { 3.3.P P ( 3.[ P U D D t q q u y S t y y t y y U H U U H @.X.<.7.X.J f f p < , # x a.: # - - , , r < < w h h f w t y y H Y H H H H f K h t q t y K h - # , - - - , , , v i - v |.e - - 2 - , , - - - - 2 - - - - # - 1 - z x # - - - - - - - - - - - , , - - - , , - , , , r - - - z 0.1 - - - - - 1 , , < w l - _.KX_.# u , , , , , - , , , , , , - e Q v r , , , , , , , , e 2 - , , - - - # # n 2 # - # # - - - # # - # # - : : : : : # - - # # : # r.MX].# , 1 , , - - - - - - - - - - - - # - # # # 7 > # % # > > # # % ; ; ; ; : # o # # # o # > 2 w f j @.y wXiXJ X.X.=.*.X.J X.&.) ) [ -.[ :.5.|.Y 5.yX3.P P ",
"U ` ` P H P H ` /.5.<.U y y t y y y H H P S f L K , w w , - , - - v z , , - - 2 , , - v E , t t y U P.P H K f y K y y U Y S 5.b.b.P.P P U P [ P H P t t t q w < , 1 - - r.e.- # , i t U.yXGXUXUXUXHXNXPXUXUXHX9X_. Xr., , - - , - # - - - - - - - - - - 0.n # - # # # - # - - - - - , , - k Q , 1 k #  XUXIXW - e , - - - - - - # r u., , < Q s - - , , v e - , , - e U.Q # , , , w i i y t t K Y.2.t H K t y P _ 3.` G /.Y.P ( 3.` P P P ` P ( ( ( [ ` P P S t t u q q , q q q q t h y H U H P P J L Y ..J =.~.L w w w , - # 9 9 # # - , - , < < p h K K y y y y P J H f f y f K y y y t H y , w , , - - , q , i $., , , , , , , - - - - 2 , - - - - - - - 2 , 1 - - 1 - - - 2 1 # 1 1 # - - - - - - , , , , , , - , - - , - - z : - - , - - - - < w , e e 9.wXyXW , e , , , , v , - , , , , , , , , , , q q , , , , , v , , , - - - : - # r.n # # : : # : # # : 1 - # - # : : - : # # : - # # - n rXr.- - - - , , - , , - , , , , , - , , - - - # % % % % # > # # : # ; # # % o # # $ # # - - , < w p @.7.w iXbXJ X.*.&.*.*.I *.) 3.:.v.[ >.3.` y U b.7X{ U P ",
"{ [ ` P S Y 3.S y 3.Y I y f K y y U Y Y U P f f K w , , w w , - - - - , - , , , - , r ^ , q y y y H P H U U 2.L t y Y Y H P P ` P P Y U U S P P H Y Y.u.q y w < 1 , , 1 z 2 - , < i K ~ E  XHXUXNX[.].9XHXHX X$.~ R q q , 2 e - - - - - - 1 2 # - - - - # # - # - - - - - - - - - - - - - k n - - : - k hXwX, 2 e - , , - - , e , - # 1 , - d.n # - < z r , , , , - - # - , , - , e r q t t H K 3X5.t y q y H H _ ` ( P U ` ` _ ` ` _ P P G G ( ` ` P Y S t t t t , , r r , , q w t y y H U Y Y J H J Y J *.1.!.@.h w w r 1 - - # - 2 : - , , < w f K f y f f y H J H f f y t K K t h K y S <.E , , , , , , q t t i , e , , , , e - , - - , - - - , , - - # v 2 # - - - - # - - 1 - 1 1 - - , , - , , - - , , , , , , , - - - 1 - # # - - - , - - , w , , e , , yXU.- , , , , , h r Q , , , , , , , , , , q , , , , , , - - - , - - - 1 - - - # : : : - # : - - - : # # - # : : # # # # # # - - - - # - , - < , , < 1 +.s - , - , e , , , 1 - , ; % o # % > # # # # # - - # o o o o # o # ; 2 < , < f p j g J J Y *.M.*.X.1.:.) *.) *.3.b.:.<.P I I P U t U [ ` ",
"[ 3.` ( P H P P P 3.) I P S U U U U ~ Y H H y f y p < , < Q z - 1 - 2 , , - - - s 1 r i.w q t y y U Y Y U H f f y y ~ <.y H S S P P H U U S y U S y wX5Xq f h s , , - s z - r r , i K ~ u.$.6XMX~.~.|.i.kXkXR u.! i q q # V a.- 2 - - - - - : - - 1 1 - - - - - - - - - - - - - - - - - - - - , , , e , - - , r , r e , , , , , , - - , - # : - - 2 - - - - , , , - , , , - , , - , , q y y y H y y y F y t t H U P ` ` S S H P [ ` ' _ ` _ ' ` P ` P S t q q q , , , r l , , , w w y U ` I X.X...Y J Y P 1.*.J  .f h h e , - - - - 1 - , , , w y y f f L U P H J U H f f w w t w t y H H S ~ ! U.h , , , , t t t q , , , e r Q Q , , - - - - - - - # - - - r v - U.0.- 2 2 2 , - - 2 - - - - - - , , , - , , , e , v v 2 - - - z kXf.# - , l 1 - , , , , e e e e w q , e r , , - e r e , , , , , , , , , , , e , , e , , - , , - - - - - - # # - 2 9 # # - : # # # # - # # # # # # # , - - - - - 2 2 , , , , w w w w h r < , , , , , , , - 1 - - # % 8 : # # # # : : # # # o o o o # o - 2 2 w < < h p w f L 1.P.4.4.4.2.g H I *.` I Y ` I U P P ( [ [ ` U U { ",
"b.` P ` ` I ) P I [ ) ) ) U S U ~ H H K f t t t t , w < - 2 k - # 8.w.- , , - - v v w q q q q , ~ U P U U U y q y t U U H H S H U H y y S y t K Y h Y K H H f w w < , w < , < w r h U ~ 2.$.|.iXu.Y.I.$.eXrXt } u e , - - & % - r , - - - - - - - 2 2 1 - - - - - - - - - - - - - # # - - - - , , q u t q , r w , e , , , , - - - - - , - : - - - - - - - - - - - - , - , , , e e , , q t t t y H H t K t q t y P U ` ` P P S P ` ( ( ( P [ [ P P P S t I.~ , , , , , , - , , , w y U b.b.I ..X.1.X.H y H J I X.J J K h , , , , , , - - , , < f K f H I Y Y Y *.Y U H y y w < w w t t y H t q t U.~ r q q q t t t q , e e , ^ Q , 2 , - - 2 , - - 2 0.2 - - , 2 - Q n , - r v - - , z 2 - , 2 2 , - , , - - , - , r e 2 - - - # x lXd.# - - l , - , , , w r , , e r , , , , , , , , - d.b - , , , , , , , e e r , r b , , - , , - o 1 - - # : - # 2 z - # : # # - # - # # # # : # - - - 2 s 2 , - r r < w w , f f h h , w < , w , - , , 1 , - , - # > c : # # # # : # # # ; % o o o # # > 6 s s h w h h w p g f X.1.Y *.J L <.P ` { Y Y U H f H U _ P U P P P P ",
"3.:.P ` :.` ` ` 4.` ) :.:.[ ` U H y h w - r r , , , , , - # # 1 - 1 2 - , < , - , w h i q q K U.~ y H Y Y U t y t y H H Y Y.{ t S D y y t q q t K ~ L I H H J h p < < < , w , < h w w h E ~ /.7X<.3.3.i ].}.e i , e - - - % # - - - - 2 1 - 1 - - - - - - - - - - - - - - - - - - # # # - - - , , , ^ K q , < - , < , , - - - - - - - 2 1 - - - - , - - - - - - - , - - , , , e r - , , q y y H U U ~ y q q y y P U P P P [ [ P P 3.` P v.b.[ ( ` U S S } F , , , , , , , , , q y H P ` <.X...J J H P Y Y I ..J I L H y } ! u e - 1 1 , , w y f P H I *.I *.*.X.*.U H f w w < , t y y H H K y i , i F u u u u t q q r r , - , Q e - , , 2 v , - o i.GXi.o - - - - # - - - - - , - - - - , o - r - , - z v , , - - - - , - - - - - o - - - - , , - , r , , , U.v , , , , , , r , , , , r e , , , , , , , e , , e , , r , , z z - Q [.- # - - : - # # # - - - # # # # - # # # : 2 - # - - v i.w., - , < s E L L f w h f f E h < < w < < - i.a.# - - : # # # # # # # # # # % % # o # o # $ ; 2 4 h j h w s w s h f L I Y f E BXHXP.H Y Y U H H y y 2.{ P P S { ~ H ",
"( ) ) v.b.>.:.:.b.>.&.&.:.[ <.U y y , d.}.- Q 2 , - - - - - - # - # - , , , , , , , , w w i U I.U t S P H y y t t t y K U 5.Y H S t q t t q q t q t y H Y <.U Y f w h h w h w , b mX].- h L 2./.h h i , 8.8., u e e r q , - e e , , , - , - n x # - - - - - - , - - , , , , - - - # : - - : - - - - b w w , - < s , - - - - - # - - - , - - Q z # - , - - , , - - , , , , , , , - , , , q y H U H 5.5.t t t t S H S S P P P P P _ ` _ [ tXn.) ` P G H S q q i e , , , , , , q y P P P I *.4.....J J H ~ 2.Y *.*.*.Y U K /.U.q e w w.b < w w f K U Y *.) 4.*.*.m.:.P H f w w , , t h K U y i h q q , q i q , - e q q i e , e , r e - , , , 2 , - - k d.z - - - - - , , , - - , - r 2 - - z hX X% - - - r z - - - - , - , , - 1 - - - - e , - r z - - 1 , - r $.< - 1 , , , , , , , , , , , e , e e , , , , , r i , , , , , e e - r.0X1 # - - # : # - : - - # # # # : # # # # # : - # - r z v e , , , w w $.E J L L g j f $.$.w w h p w , v z - - : # # : # - # : % # # # # # # > % # # # # , < < < s w < < s < j L J L w $.PXUXd., Y Y ) U H y t K K y S S U U S ",
") ) ) &.) G ) &.:.:.:.:.:.Y S y q , # r.].# , , , - - - - - - - # - , - - , - , , w t t w y f y U U y H H f f t t q y y y t y F y q q , , e , q w q y I Y *.I @.Y f J @.J K K f K  Xp.< < < f L E s , , , , w , # w h K y t y q , e 2 - - # 2 1 - - - - - - - , , , - , 1 , - - - - - - z x - - # , - , < , - - r e - - r k - - - - e , , , , , , e , , v r - - - - - , e h q q i w w w q y K H y y K y t q q i y t S P P S P ` P G P U 3.[ ` _ P P P S t t u r r e q , u ! t y U U P P Y 4.I J J L Y U <.*.X.*.*.*.I { ~ ! y w R $.w w < w h Y <.4.>.&.&.I =.^.4.P H f w q t w t y H S y q e q q e e e ^ 0XU.# e e q , , r e , , w , , , 1 , - , - o - , , - - - r 2 - - - - - , - - # U.UXPXe # , - - - , , 0., - , - , 2 v - - , - , , , , , v r - , , e - , , - e , w , , , , , - , , , , q , , q q q , , r , , , , , - - , z 2 - - - - - - x z # 1 7 z - # # : # : : - # # : : 1 2 < < w , , b u.w h @.f f L f J h f p w w w w r s - # - - : - - # # - : : % ; % o # # # : : # # % ; # - - - < w w < < < p J H J E E ~.~.b K Y ) ) Y P H q h U y y S S y y ",
"[ ` ) S P.zX~.[ 3.P [ b.P S t q e , - - # - , e , - - - - - - # z x - - - - # - q t y y y t t h Y H H K y K f y t q , q t w e , e e q h r q q q q e ^ Y H 5.Y L J J L J L L H U y , p s - < h L f w < w y y y I.6XL @.~ f y w q , , , - 2 r - # - # - - - - - - - , - - - - - - - r 1 - - 1 1 - - - r w.< - - , w e , - r.e.- - - , w e , , , i Q q e q ^ v : - - - , , e t t S U U y y y h y y t t , q y w , , q t y U G U _ U G S _ P U P S S ` U G G S t q q , , q q i $.w i K y f H U U H H U U U H L Y X.*.*.*.X.Y L f h < w s < w , , y Y :.v.m.>.&.X.X.X.Y Y H f t t y y K H H y q q q q q , , # lXUXHX}.2 , e < , , , e , , , , , , , , , , , - , - , r , - - - - - - - - - - - v kXwX- - , , - - - 2 ).2 - - , - , , , 2 , - - , r - , v v - , , - , , , , - e v , - , - 1 , , , , , q q q t y t , - , , , q , , , , , 2 , - - - # - - z 2 # - - z - - : 2 - : 1 - : : # : - 2 < s L h w p f w J Y f f f f p w w < < w e , , 2 - # - : - 1 1 1 # # # # # # o # # # # o # # o # & o # # - - < < < ; < < w h K y yX~.o |.P.H I I P Y f y y t t S S K H y ",
"[ ` P q /.LX3XS Y P P ` { F y t , v kX].o - , , , - - - - - - - 2 2 # - - - # - , y S y q , w y y S H K f y y i w i U.R , , e , , , R bXw., e , q , i K H H f J J J @.X.J H f K h s < - ; +.$.2.w w w f f h q eXGXY K @.y q q q , , e , e r - - , , - - - , , - - - , , - - - - , b r , - - - - - - 2 b , - , , , r , , 2 - - - z r , w , , r h v , r w , - , - - 2 1 - , w t y K K h t t t q q - hXBXu , w , , , q K U G D G S S S S P U S y S U U G U F D q e , , e q , q i i R q q t S S S K U y Y <.J Y J I :.m.*.I J f w p < , w , < w f Y &.:.>.m.:.>.*.:.:.*.P S y K Y U H H H t t w q q - w.a.# wXUXBX}.v , q q , q , - r z < , e , , , , , , , , - 2 z , - - - - , 1 2 1 - , , - # # - , , - , - - , - - - - , , v , - , , - - , 2 , , , , - , , , , , , - , , , , - , Q 8.1 v r , e , q q q t q , , , , , , , , , - , - , - , r - - - - - - - - # - - - 2 - # z 1 : - 1 B z 2 b h O.$.h w < p L J J f f L w h , < < < , , - # : z - - - - n s.# # - # o # % % # # # # # # # # o # % o # 4 < < , - < w y f y w $.O.p 7.Y H J P P H f y q q S H S y H y ",
"[ ` P U ~ [ ` H H H S <.{ q q q , , }.i.# - 2 , - - - - - - - 1 # # - - - # # - < i i t w < < , K U t y y t h K , R 5X$.- , , , e , r u.i , e , e , y U S U P.Y f J @.L f p w h < 1 ; : - 2 , w h h w w y f h ~ ~ K K $.K t q q , , , , , e , , e , , q , , , , - - - - , , , < , - , , - , - , , , , - - - , , , r , , - - - # 2 , , e w e e , Q e r R w , , , - - - , 2 , e r w h y t w , w , # 0XmXw , , e , , q K S U S D S y S S S S y y S D D } 3.U F u , , , , e w q w w w , q t y y t y y y <.5.H Y J I *.4.4.4.Y f f < w h w , < w H *.*.>.m.N.m.l.G.z.>.3.Y J P U <.` U U U L i , , - o W a.1 v ].W , e q t t t t e - 2 6 ; , , , , - w.v # r.mX5X# , , - - - - - - z z # 2 e , Q r , , # r.i., 1 - - - , r , - r , , , , , , - - - , , e , - , , , , , - , , - , - - r.i.- , r - e , e q , , q , , , , , , , e , , - , , - - v 1 - - # - z , - - - - - - # : 2 - - - 2 rX0.h PXiX# p h < < p f f j p f p p w , - , , , , , , : z : - - # - 2 : : : # o + s.s.# # o # # # # % o % o s.]., < < 1 - - w h h h f < p f y P.5.U U U f y y ! i y y t t K y ",
"( P P H U Y U U H S t q 2.h e , , , # - - , 2 , - - - - - - - # - - - - - - # - < r u w , , , , U.$.q y t t R R , w , < , , , e , w , # , , , e , , w y K 2.}.L y f p h p < < w s ; # # # # - , , , < , w h w y ~ h y K y w w , , , , e , h t q t q q t , - - - - - - - , , , b E , , , , , , , , 2 , , - - - , - , , - - - : - - - , , e r , , e , , e , , - , e - # 2 x - - < < w w w w , s e , - - , , , e e , q u q ~ } y K 2.U y S D t t K F D U F t q w r w , , , }.E - , , , , q t t q t y y y H *.Y X.*.>.*.*.4.Y L L # < E w q w f J ..*.>.m.N.G.H.H.n.:.[ P I I ) &.` 3.{ U y e - # ^ rX}._., q , t u u t t S S D t e , - - , , e , - Q v # U.LXhXo , , - - - - - - - , - z v - - z ].r - Q x 0.}.# , - - - - , - - - , , , , - - , , - - , , , , , , , , , - - - , , - , , 5XhXR q , e , , , , q q q e , , - , i.w.# , - - - - - - - 1 2 2 - - , 2 - - , # - # # - , 1 r , ~ MX6X, p s s < w p p p p p w p - < - - - , , - , - - n - - # : # - # : # o > A 9 o # # # o o o o # o o [. X- < 1 , 2 s < w E h s w s w h p.L U U y f f t 3Xu.t K U y q q ",
"P P S S F ! t y S t t , w.Q , e , , , - - - - - - - - - - - , - - x z # - - # # - < w q , e - e v q q q y t w q , , , e Q , , , , w , , , - - , , 2 r y y ~ q w p w < w < < < < s ; ; ; # : - - 2 - - < , e h j E i y w q w u r r , v h i q , q y i y q , - - - - - - , , , , w h $.w , q , , w , , , , r 2 - 2 r - - - 1 : # - , , , , - , - - , , , , v w., - , - - - - - # r b < w , , w , w , < , , 2 , - - , , q t t F y t I.q y t t t t F y y t t t q , i v , h , Q r - , , , , , , q q q h K U U P Y X.:.>.:.:.:.J J K wXU., h i U H f g J *.l.G.N.H.S.l.v.` ) ) ) :.>.>.:.Y S q , - o hXUXMXe e q u t t t t F _ ` { / D T i q , , e , , - - , , u.z - , , , - - - - - - - r , , , , 2 Q 2 - , # k Q - - , , - - - - , , , , , , - - , , , , - , e , , , , , , , , , , - , , e BXIXd.q , , , , , , u t t , , - - , v r - , , - - - # - - z 2 # - , , r , - - - - # - ; , s w h E - , j d d 4 < w p w w h p p , E z - - - - , - - - - 2 - , z % # # # : : : o o o # # o o o o o o o > - - 2 2 < s ; 1 s < < w s w r < < , , t y y y i ~ i ^ K q U 2.t w v ",
"H S D y t q q q u q q e r , 1 e - , , - - - - - - 1 , - r - 1 1 # - - # - 2 2 - , < w , , , , e , q q q w q w b , r Q - 1 , , , w , , , - , - - - 2 , w t w w < < < < , , w < w h s b ; - - - - , - # , < < < , - w w , , , , , q d.U.i t q q t q t K t , - - - - - , e w y K h y ~ h y y E q , , , e r - k z , , - , - : - - , - , - , - - , r r 2 , , r v , , , - - - - - , , < h w , , i.wXv - - , r , , , , , , , q t i q U.lXd.q u q u q q t q t q t q e , , , , e - e e - , , , , , , q q t K H H H J I *.*.4.>.*.J Y J eX~., t y U P f a g 1.Y.*.:.Y.Y.M.:.) ` :.&.l.m.:.` H y t , , # d.mX5X- q u i t ! D D ! } S { / D ! D t u w , , , , , , , # - , - , - - # - - - - , z , - , - - # - - - - - # , , - , , - - - - r , , , - - , , , , , , - , , , - - , , , , - , , , e , i.}.e q e , , , , , i u t t e r , , - - , , , - - , , - - - - - - - - , , , - - # a.lX4 - w j J h h h p d p 1 < < < < p w w p , }.w.- 1 ; - - , , - - - : - : # # # # # 2 : # # # o o # o o o o o # ; ; - 2 4 ; , ; , < 2 < < , , 1 , < , e q i t q , r w q t t q t q w h ",
"t q t t t u q t t , , , 1 # # 2 , , , , - - - - - 1 2 - - - - - # - 1 - - 2 : [.GXU.o R e r , , e e q q q , w v , e r , e v , , , , , - , , - - # o - , < < r , - < < - w E p h h p < , 1 , , , - 2 - 2 , , , < , , w r e , , , w E h q q f h E w , h r , , , - , , , , , y L L K y y H f f t q w e , - - : - - , # - - # - - - - - , - , - , z r , - - - - , , - , - - - - , , , h r e w $.}.r - , e w , , , r e e , e e q i mXUXmXi q t q q u q q q q q , e , , , , , , , , , , - , , , , , w q t y S H J J U Y 3.&.I Y U L f y y y y y H S f L <.<.~.~.b.I.b.[ ` :.:.&.:.:.) I U t q q , , - , - e , u.^ t u D D ! R  XlXhXU.! 9.D F t , , , , , e , , , , , , - 1 r - 2 - - - , - - , - - - - - - - - z z - - - - , - , , r , , , - , 2 2 - - - , 2 , , , , , - , , - , e , , e , e u q q q , , r e t t t t t r 1 , , , 2 , , , - e DXfX. - - - - - - , 2 2 , 2 - # e. X< < h  .H L @.j p s s < E b , p p p p s s b < - # , b , ; , - - - - - # # # # # # # # # # # # o # % o o # o # % > - ; , - # , , , # , 1 , - # 2 < , ! d.i , , , , , q t i , , , e e ",
"K } t , e q q t q , , , , e.i.# e v - , , , - # : - # - 1 - - # - - - - : 1 # }.NX6X Xu.r i e , q q w w q , , , , e e , v v , - - , , - , - - # 0.s.- - - - 1 - - 1 , , w h h f f f w w h s , # , n 1 2 < - 1 2 , < < , < , , w h h y y t w y f w < w , , , , , 2 r , - , t f H H H y H K y f y w r e , - - : 1 # r.0.# - - - , r - , r 2 - , - - , , , , , - - , - - r , , , t y t w R R , - , , , , , , , , , v Q , , q e , i.lXi.q t q , ^ R , , q i e , , , , , , , , - - , , , , - , , , w w q t y U P H P P ` *.Y Y Y H H H f y h Q U P U 3.` |.PXPX8X} } } ` ` *.&.` 4.) H y t e q q , , , , q , i u q q D / R XXIXUXUXHXd.u T D t e , i i , , , , , , , , - v w.- - - - - - - , - , - - - - - - - , 2 - - - , - , r - - - , , , , , , , - , e n z - , Q r - , , , , , , - , , , w , q , , , q q q u F q u q e , - , r , , 2 - e cX9Xo - - - - - - - < < - v 2 - # o 2 h p.1.H X.@.j f p < < i.e., p d w s s s < , - 1 2 6 < ; - # # # # - ; : : # # - - # # # # # # # # # o o o o % 8 - - , - - - , b i.2 - ; 2 ; - , , i w.r - - - , , , q q , r , , , ",
"! u.i r , , , q q R q , - 9XrXo , , - - n z # 2 k - - - , - - - - - - - - r , - o ].ZXv , u e q q q q t q q , , - 2 v , , - , r - - - - - 1 1 o 0.r.- : - # - # - 2 , w w w h p h L L L K h < < < < < < < < , , < v r < s w < t h U E L y t y y y w w w w q q , , , , , w i U f H U P H H Y <.K w , , 1 - - : 1 1 n n - - - - e v - # - - , - - - , , e , , - , - - - 2 , Q b t t t q u R w q , , , , r e , - - , , , , e r q , w.- t t u , e , , , e h w , , , , , , , , , , , , - U.i., , r E r q q y K y y f y P U I I Y H f H U S y b P ' ( [ U bXUXUXJXY._ P 3.` ` ` Y 3.5.{ y q e r q q q q q , q q , q q t } u.DXUXIXUXUXlX8XL.D t q , e e , , , , , , , , , , , - - - - - , , - , z - - - - - - - - , , , , , - # hX X# , , , , , , , , - , - e , - , 2 , - , , e , - , }.v - , , , e , q q t t i i , , e u u e r v e , e z - - # - - - - - - - - , , , - - , - - , p d O.L Y @. .L g < < , r 1 < w s b s < < - - o [.T.o ; ; - - - # # # : : - - - 1 - - # # # # # # # o o o # o % 3 ; - ; # - ; - b ].2 # # : - # , , e , , 8.r # 1 2 , , , , Q w , , ",
"q , Q ^ , , q q u ^ u , , r r , , - , - - 1 - - - - - - - - - - - - # : 1 r , , - r v , , w q q w w y y w w e e 2 , , , e , , - - 1 1 - # 1 2 - - # - - - - : # # 1 , b h p p s h f f H J j p d p w E h < < < s < w w w i w y h $.p.@.L U H H U H y f y y t t r w , , , w y t t U U U H H Y 2.L w , - - # - - - - # - - - - - , r 1 x x # - - - - , - , , - - - , , - , - r r h t q q i e , , , r e - , , e , - , - , , , , , e i e q q q , - , , , , , , , , , - , , , , , e , , - w.w., , , w e , q q t t K K y U U Y Y X.J H P Y I f p P ( P [ [ 6XJXPXiXY._ ` P H <.U y y U U q q w R r q , , , , q q q t q t { u.GXUXIXUXIXKXIXsXt F q , , , , , , , , , , , , r e , - - - - 2 1 - - - - - - - - - - 2 , 2 r , - - # ].i.- , , , , , r r - , - , , - - , , - - , , , , r r w.e - - , , , , q t y F K v  X9Xv i y q , , , - - - - , 2 - - - - , - - - , , , - , , - , , < d p g J X. .L g p < , - b B , < d 2 - - # # - d d p.#.- < - - # - # # # - - - , , - - - # # # # % # # o o o # $ ; > ; ; ; 6 s ; , - : # # # - , , , E e f.0.o - - - , , , , , , , ",
", , , , , , e q q t q q , , - , - - - 1 - - - - - - - - - - - - - - 2 # ].GXa.o 1 1 - - , q q w w w i i t w r r r , , e e , , # a.r.o : - - 1 - - 1 , 1 , - - # - : # ; < < < < 4 p f H J g  .j p f L f p w w f h E t w y h @.2.~ ~ H <.<.U H Y U H P H U K y h w , , , w i ~ t H U H U Y U H y t , - - # # - - - - - # - , 1 e , z Q n # - , , , e , , , , v Q , 2 - - - - , r w h e , , R , - - , , - - l b , , , , , , e , , e q , u q , , , , , , , , , , , , , , , , q , q , q e , , , , , q q q q q t K h t y U <.Y I I Y Y I I J f :.[ U Y 3.3.d.~.{ 3.U S K t w q q q q q q q , r e , , , , , , i u q t D U T rXUXUXUXKX8XsX2XD t e , , , , , , , , , , , , e e , - - - - x k # - - - - - - , 2 , , , r , 1 , - , # - - , , , , , e e - 2 - , - , , - , - , , , , , e r , , - , , - , - , q t F , 5XUXUXrX- y t , , - 2 i.w.# - 2 - - - - , - - , v , - < - - - , s s p g J  .L L L j h w r 1 z B 2 # # # # - : ; - - a nXZXT.# - - # # # # - - - 1 2 r r 2 1 - # # - # % . o # o # # ; 8 3 $ # ; < < - : > % # # # , , 2 b e # # - # - , , - , , , , r ",
", , , , , , , t t q e e , , e , , - # 2 1 - - - , - - - - - - - - 2 f.2 0.fX0.# 1 1 - - , , , e w w q i q , , , , 2 - , , e - # n z : - - : - - - - - 2 , , - - - # - - 2 1 - ; ; ; p j L  . .L  .L J f w f h w E 2.w y f L <.2.eXMXwX@.<.` P Y Y U P S U K y h w w w w i t ! y y H H U Y U f f y , - # - - - - - - - - - - - , , - # # 1 , , r r w w w q q v Q , 1 1 - - - 2 r - < , , , e , , - - , , - - w , e , , , e r e i q , e q q , e , , , , q , , , r r , , e W e q , # , e , , , , , , , , q , , w q w y H H P *.J I X.Y P J P.V.:.X.J ` [ U ~ b.3.Y S y q , q e q e q q , , , - , , , , U.w.- t t u ! ! R W 0XBXmX5XT D D D t u , , , , , , , , , , , , , , , e , , # # - - - 1 - 1 - - , , , z - , , , - - - - - - - , , , , , - - , - - , - , - - , - - w.^ , , - e , - , - , , 2 , q y ! , 9XUXUXfX# F w., - , e ].d.# , - - - - - , - , , 2 , < < $.r < s w h h j L o.@.L L L L w 1 1 - # ; > % # # # > ; ; ; ; ~.JXzX# , 1 - # # # - , e v v z r z z 2 # # # % # q.c o o o # # : ; $ ; - , s > # # o # % - < w h v - - 1 : # # 1 , - - , , , , ",
", , , - - - e q q e , 2 , , , , , , - - - 1 - - - , # # - - - - - - r 1 # o # , - , , - , 1 - , e , }.GXyX, - , , - - - - - , r # # 1 - - # : - # - # : - 2 - , , ; ; - - , , # +.T.w d  .L g J  .Y Y 1.@.f h p s s , w h ~ K eXUXUXIX5Xf Y H U U Y H H U K y y h f y f f y t w t t f H U H U y t , - - # - - - - , - - - - , , , - - - r q q t y t y h E y , , , , - , , # - lXXXo - - , , , - - - , , , - - , , , , , , , , w q h r - w , r r , , , e , , l e q , , e e , , l ].Q - , , , , , , - 0.BXhXr , , < , w i H Y *.*.*.*.) I /.P.) Y I ) ` ` { 3._ P y t q , v v , , r q q , , , , , , e wXU.# u e q i D T T F } } / ! T D t u q , , , e , , - Q Q , , , , - , r , - k 1 : - - - - 1 z 7 - # 0XJX].# 1 - # - - - - - - - - , , , , - - - - , - - - , - - - v n - - , - , , , , , , e q q R u.i v rXrXv r i u , , , - - - - - - , - - , - 1 < - - 1 w w b w h f f h f f f f L Y L L j p , - - : # % # # # # # # : - 1 # e.0.- - : # # # # - r ! v ].hXfXu.W 2 % & # .  XUXcX. # % ; ; ; ; ; ; ; < ; z > # # - - , w s < r Q , , - $.0.- - , - , , , , ",
", q , , - , v ^ , , , , - , , - , , - - - - - - - # f.0.- - : - - - - - - : - , , , , - - 2 - - , , NXUXPXv # , - - - - - - , < - - r , - - : # : : # # # - , , 2 s x 2 1 , , # a.|.< p L J J J J X.f iXiXw p p 1 , , , h E f zXUXUXUXkXf Y H K q y U y H f f w f K L U H H t , w y f h t f y y q , , - - - # - - - , - 1 l , , - - - , h t q t y y h h f t q q w s , , , # - kX X. , e , 2 r - - , , - - , , , , , , - , , , , , w w , , , , e , e e , , , i q q q q , , e - kXUXNXe , i e , , , # U.UXUXwX# , - , , t K y I :.4.>.3.` I :.*.) H H P ` { U U G t q w , e , , , e e w e e , e , , q - 5XU., q , q t D / / D F F D F F u q , , , , r , , , , w , q , , , , , - # r.n # - - - - - 1 k - # hXUXXXo - - , n n - - - - - - , , , - - - - - - - - , 2 , - - - - - - - , e , , , , , q t q u u w u q , e l e , , , - , , , - - - , , , , , s v , - < w f < j E q h p h f h f J X.L f a w , , - # # % # > # # # # - : # x a.: # - - # # # - , , , [.LXUXUXhXr v 1 % # o s.mX0X> # > ; ; < < 4 < ; < < x z # # # - 1 w s < s 2 1 , - p.d.- 1 - , - - - r ",
", , , r r , , , , , - , , , , - - - - - - - - - - - s.8.- - - - - 1 - 2 z # - - - , , - - : , , r - ].BX0X- - , , - - - - - , , , , 2 , - # # : n 2 o # - # , z - 9 8 8 x 2 , s , # d j f f L ....*.J P.P.f f p , w , < h E f ].LXUXJX}.~ ~ K y U.$.q f f K K f y K Y U H U f , }.d., y f h L y , , - - # n 0.- r , , - , e , - - - - , w w w i w w y K H S K h q r - - , - - - # , , , , , - - - - - - - , , , , , , , , , , , , , , , - , , e e q , , e , , q , , e , e , - mXUXGXe - u q , , , , , }.wXi., , Q , q i y P Y 3.4.:.4.) ) 5.<.U Y y H U U K K y q , q , , , e l , , e , - , , , , , - wX]., , , q q t u D t t D t t q q , q q q q q , , u e q q , q e , , , , , , - , - - - - - - , , - z a., - , - 1 : v z - - - - - - , , - - - - - - - - 1 2 , - , , - , , - , , - , , w e e q t q , w r u i e e , , , , - - - , - - 2 - , e q , - Q i.< w h f w w $.$.w w - - h h J  .L p 4 < - - : # # # # % # # : # # # # - 9 - - # # - : # - - U.f.xXUXIXUXDX0.1 # : > # .   o c % % $ ; ; ; < < < w < 2 < # % # : # , < < < 1 , < w , - , - , , - , , - ",
", , , u t , e e , - - , , , , , , , - - - - - - - , # # - - - - - 1 : - k : : - - , , , , - - n r # . 2 # - , 2 - 0.a.# - - , , r - # - - # # # : 2 # # # - 2 1 ].DXmXq.> - - r < < w L J f o...J *...< p  .j < < , r , w i E v T.0X~.~ ~ K y y ~.e., w y U f t f H L Y J U Y y ~ h , w , ~ 3X< , , - r.2 1 z - - 2 r , - - - - - - , , i i e w w w f K H U U h w w z w q h q t S F q , , , - - - - - , 2 , , - , , , , , , , , , , , e , , , q , , i ! , , , - , q q q q e , ^ 9Xd.- , , , , , , , - # o # , , v r q t K U Y 3.X.I P U Y P P K K K f t t t w q , , , , , , , r , , , , , , i w , , , - - q ].w.- , , q q q t t q q , , , , , q q t u t y u q , , e q w q , , r , , , , , - - - - - , e - # , , , w.r n d.1 # - - - , , , , , , , - - - - , - - # - - , , - , - - , - - - , w q q i e q e , , e , , , , , , - - - - - i.v , , e q u q $.}.r K K y y < s.]., , s.rX+.w p f j d < s z - # # # # o o # # : : # # # # # - # # # : : # : # U.[.jXUXUXUXNXr.9X X: - : # o > 9 % o # # - - < w < w w w 2 1 ; - 2 ; , < p.Q , < < , < r , - 2 , r , , , ",
", , , q q t q w - , , , , , , , , , - - - - - - k 2 : - # - - # - - # 1 - # : # - , < < , , , , - r.A # - - , - - n 0.# - - - - - , 1 - # # # # # : : # # # > : BXUXUXjX: 1 < w p p h f J  . . .J f 1.(.#.g f < w r # , e , h E r t ! ~ H U y w , , , q t y y w L <.Y Y Y Y *.Y w < w , , h h r r - - 2 - - # - , - , , , - r 2 - , , , r r , < < w t H U U t - t U E w y { U S S S i , , h Q , , - - , e , - - - - , , , e , - , e w h w , , q , , ! w.q , , r w , q , q , q , - , , , , , , , , e , , , , , , , ! ! t S y <.P.U P H H H U y K y t w q , , , , , , , , , , , , , i , e r e w , r , , , , , w.u.r , , , , e e , , , , , , , , q t q t y t q q w , , w q e q q , , , r , , , - - - - , , 2 , e , , r , v 8.- - - - , , , , < < < , , , - - - - - - 1 1 , , - , - - , , , r , e w h h , e e , , , , , , , , - - - , , , v , , , e t K q p.yXh K ~ L U f d s < o lXCX1 < < < d d 4 6 > # # % # o o & 8 % # # # # # % : # # # # > 0.# # > 1 1 t.NXLXDXa.r.UXUXV # : > # # o o $ > o # # : ; 1 < < < r < s b < w w w h r 1 - kXeX- , , , < , , , 2 , ",
", , e q t t q , , - , # - , , , - - , , - - - 1 2 - # # - - # # - # # 1 : # # # , , w h w , , - o  X X# n ].2 , - - : # # - , - # b ].1 # : ; # : : n # # % > 8 mXUXUXqX- NX9X- h h j j  .J J ....w 7.uX#.p f p < E d.v , , e w i h U K t E E , w , , e q t w w t K U U U Y Y J h w w w w w w r r - , - - - - - , , e 1 , - rX Xo r r , , , , - , < t H Y P 3X6XU G t t K y f w y y w , , r v r 2 , , , , - - - - - , , , , , , e r q q q , q , w e , q , - R iXp.- q , , q q e q u q q q , , , , q w , , E w , , ^ U.t y q 3XeXH H y y t K f t q , , , , , r , - , , , q i q , q q q e e e e e , , , e , , - w.^ - , , , e e , , , , , , , q q q t t t q q q w , , , , , , , , , , e r - , - - r - - - , , e e , - - - - - - , - - - , , < w w , , , , - - - , 1 1 , , , , , - - - , e Q , , q w w , q , e w , , - , , - , , , , , , - , , q t F U $. XmX~ H ~ ~ U h s < < 1 n d < ; < w p s < # # # # # o o # % > # # # # # # # % # # # # > x # o # 2 v v v ].i.i Q jXgX8 # # # # # # o q.Z # o # o . : - 1 s b s $.U.h K h < b v , , rXkX~., w , , , , r b , ",
", r q t t t q R v # ,  Xp.- , , - - - , , - - - - # - - : : # - # : - # # : : - 1 , w w w , , , - # x 0.> 0.- # , : 0.0X9 # - # # 2 n 2 ; : : # # % : # : % > 7 q.fXqXx z rX].< p p d j f g X.J J J f J J J w , < E ].Q i.r - , , q q q w R R - , , q e w q w h q q y P J I Y P K f q E $.w w , , r w w , - - , e , , < , , r.n # e w i w , , - s h w U t d.IXUXeXt f K H H t w f y q q q , , , - - , r v - - 2 - - , , - , r i , e , q q w r e q i W , , , l d.h , , r u q , , q , u q , , e q , , , , , i , , , i ! t y y U ~ K y t i y y y q , , e , , e r , , , , , q q u u t e q q , , e e , w , , , , , , , r e , e , e q , , , e , i e , q q q t q , , , - - - , , , , , - - U.i.# - - - 1 - - - - - - , , , - - , - - - - - , w w w w y t w w < , < , , , , - , , , < , , , - r Q , , r h q w w , , , , - - , - , , z e , r w w w t w y <.b.I.9XMXp.2.2.~ U K < < < s - - ; - < s s 4 ; # % > o # o o o % # o o # # # # # # # # # # # o # # # , e v r , r Q r # o # - # # % # o o > > o o . 0 {.> o - 2 +.s }.5XE 2.E w b v - w # h p.< s h w w , 2 v , ",
", e e q q q t r e - o yX|.# , , - - - , - 1 - # z 8.- : x n : # - : - # # - - - 1 , r w w w , - - # : 1 - # Q $.- - 1 s.2 # : - - , # - - o - : # # # # : % > > % - - 6 s # < < s w p h J L X.L g J g g J w p. Xb < , 1 v 1 - , , , , w e r e , , w q q w , , E s q y H Y <.L L f K w y h w w , w w y y h , , e v - , w - 5XhXo - , , w w , , , r s w L y p.LXUXwXy L U Y H h w y y w i q , w - , , - , , - , , - s w , , , e e , , q q q t r w r e e , q q , - , , , $.U., , , e q q e e , , , , , w e , - , , i q , t t y y y y q q t t y q q q , , , , , , , , , q , q t u u , ! R q q e , , e , , , , , v r , r w q q , u u q i q , q r e R bXu., , , , - - - - , , - - , - - - 2 2 - - - - - - - - - - , - - - , - - - - , , , , w w w h f y t w w w r r , - , , , , w s , - - v s , r , i R , w w , , , , z - - - - , Q e - r w w i y y U 5.Y.2.0XGX~.I.P.2.U f < , < , ; - ; ; ; 1 2 2 ; : % # o o 9 fXt.. # > > # # # % # % # # # # # # # - - , e , : 2 2 1 , - - : # : % # # o # o o o o . 0 {.8    XrX2 2 hXbXb $.h s w < < < < < w h h h w w , , r , ",
", q e , a.w., q , w.rXi.# , , - - , , - - - - - k n - - - - - - - - - - - - - - , , s w e w , - - # # - - # wXyX# , . # : # - 2 - : # - # n n : : 2 % - - # # % 2 6 z s s < ; 2 1 < s h %.j f L f p f g j , eXUXf., 1 2 # - - - , - , , , e , e e e q q , , , - - , w w y ~ J H f y f w w w w q w K y H K w - , w , , e - }.wX- - - , w , , , r s w h K Y E U./.` j.[ ` ) 5.2.h h w t y w q w , , , - - - , , , , r q q q q q , , , q q q t u q i e q i , e q e , q , e e , , e , , e , , , , , , , v v , , , , e e e q q K y y w , e q q t q q , q q , , , e , , , , , q t u t ^ 3XR q e e , , , , , - - , r , , q q q q q q q e h i q q e q v 5XQ - , , - - - - - , - - - - - - - - - - - - - # - 1 - - - 1 - - , - - - - - 2 r , , , w w K K f w w w < w r e , , , , , r r - , # a.w., w w w i , q w e , , - r z - - - - , , b q q t f K ~ 2.U.}.wXDXIXbX|./.u.U w , s b , - - - ; , , 1 1 - # o % # o 7 0Xy.o   '.{.o # o o % # # # : : # o # - - - - # o o # # # - 1 : o # # # # o o # o # o o o o # o ]. Xa.0XLXIXhXT.+.w w r < < w w f h f w w h s w < , ",
", q w , 9X X, i , d.UXrX. , , - , , - - - # # - - # # - - # - # - # - - - - - , , , , , , q E 2 # x ; - lX}.x E - n 6X0.% # # - - - 1 - # a.0.# 1 x % # # o c q.# < s v s - # > - < s < p p p j f w f L f f $.~.s < - - # - - - - - - - - - , r w , e , - - , - - , , W h w $.f f y y y w , , w q p.}.y f w , w w , , , w # # , - k e , , w , w s w w y U @.q t :.j.) :.` /.yXU K K y t h y w w , - - , , , - , , , q y ~ u q , e , q q q q w q , , w i , e q , , q , , , r - # - 1 , , , , , , , , , , , , , , - , , q q t y q t , , , e q , e e , , , , , e e , , , e q q q - wXGXW - i i |.Q - , - 1 v , - , q q q q q t q q q i i u w q t w # - - - 2 1 - - - - , - - , - - - - - - - - - - - - - , - - , , , r - - - - - - , , , w w h L K h w w < w , , e e , , , r , - - - - < w w t F K ~ h w w w , < , # r.x - - - - r h q q y f K ~ u.I.wXPXUXIXUXBX~.p.K w < w.w.- - > - - , ; - , - # & # > % o   # # o c c # o q.r.% # % # : % # # # # # # # o o o o # o # # o # % % o % % o o o o # # # # : , o b  XDXUXUXHXXXa.r , s 1 - w f y f f w w h h w < , ",
", q - 0XIXLXd., y F u.v # - , , , , - - - - - r r # - - - - - : x 1 - - - e r , - r v , , w R , # 2 - - }.u.- , - x U.2 # # - - - - z 1 , - - , - : : o o o 9 x # , w s 1 ; o ; : : 2 B d < p f h w s h j f < # , ; : # 2 % # # # # # : - , , e , , , - 0.f.# - - - , Q r E ~.s h y t w w < w , w E ~ U Y w w y y w , q , , v r - z r , q w w , w r w t y K L Y 3.` Y H q }.nXS y y y h h h r , , , - - , e , , t y t y U K ^ u , , , w q q e , , w , , e q q q , , , , , - a. X8.8.- < |.w.- , , , , , , , - a.i.- , , q q y , q , , , r < , , , - , , , , q , , , , , , u ^ U.mXUXBXU.w.i W r , - - r Q , , , , u q q t i q q q K R # q K q q e - - - - - - , , - - - - - - - - - - - 1 - - - , - , 2 - - , 2 - - - - - - , 2 , , < w w h h h f w < , v E - , e , , b r - - - - - , w i F ! f y K t w h e , , - 1 1 # z r r 5Xb , h K L u.}.7XhXHXUXUXUXUXIXmXiX5Xd.$.2 2 # : ; # # : 1 - - # # : % % # # # # # # o .  X[. XrX# : > % # # # # # # o # # # # # o o o o > % # % # # % # # # o # # # o # # - 1 z n a.BXGXs.x r s s r < w w f h K h f y t w < < , ",
", u , XXIXLXa.q F D - # # - , - - - - - - - - ].].o - - - - - 2 e.2 - - # Q u.- - , - 2 , e , , - # - , - , w r < - # # # - - # - - , - , , - ; , ; # o # # o # ; , w < o B {.> # # - s b , d h p p w s p h s < < , ; # : # # # # # # : - - - , - - - # 0.).o - : : - , - , w s h K K w w r e , w w t H H f w w w y i w , , r , , - , , w , q w , r w q w y K H U L $.p.[.DXLXwXu.@.y y t t w , , , - - - 1 q w f y K 2.S ! 5XE , < q i w q , , , , w e , e i e , , , , # # DXUX0X2 , , Q v , , - , , r e r 1 d.d.- , , , , t w , , , , , , , , , , , , , , , , , - , , , i 8._.xXUXDX[.w.e - , - 1 - - - - , , q i U K i i w , , E }.rXU.q t q , , , - - - - , , , - - - , e , - - - - - - , , - , W , - , , , , - , - - r z , , < w w w w p w w < - , , , , , e , , r , - - - - 1 < e q t y y t y i w w < < 1 , - - - 2 n , b r ^ y K ~ /.yXnXDXIXUXIXIXIXUXLXMXkX Xi.< - - # # # # # - - # # # # # # # # # # # % o o q.q.: 2 # : 9 2 # # # # # # # # # # # # # 2 > o ; > o o o o # o o o # # o o o # % # 1 2 n 2  X0Xz n s s w < < < w w t f f f y w w , , , ",
", q i r U.a.i i D y q w - - , , - - - , , - - v Q - - - - - - - - - , - - - 1 , - - , , , - , , - - , , w w , , , z x # - n : - 1 1 - , , < , , , : : # # o o # , r < z 9 9 s.: o # # # # - 4 < < < w d < < s < , - - # # > # o # o # # # - - - - - - - # o : # : : # , x - - s h h E f w w < w , w w y y y y f w h ~ ^ q v R e e r r w i w w w < w < , w w y L y y u.|.lXUXUXGX3XU.K y q , , , - - - , , , w f y S Y 3.K H i t h f y h w , , , , , , , , - e , e , - - e.i.9XDX]., r , , , - , r , - e e r e # - , , , , , , w , , , , , , , - - , , , , , r , , , , , e e q - q bXw.# , , e , , - - , , - , , q t f y t t w q q # }.UXmX, R r , e , - - - , , , , - - - - e - - , - - , , , , , - e , , , , - , , , e - - , , , , r w w s , , - - 1 # - - 1 z , , , , , - - - , - - , , q q t q w e , , , - - - - - - - - - - , h y t t S { 5.U.lXUXUXUXUXPX5Xu.E d z - - - # # o o # # # # # # # % : # # # % # # % # o # - : # : % # # # # # # # # # # # - : - : 2 6 - # o # o o % % # # # # # # o o : # - 1 s 2 d.].n v h r w < < $.h h u.L f f w w , < 1 - ",
", , e q - , t t t e r e , , - - - , , , - Q 1 # , , - - - - - - - , , # - # # - - , , - - - - - - - , w , , , , , z 2 # - : , , - - - 1 < e , - # # - : # o o # r r , z x o   # # o o o o o # - , < < < , - b s # - # o & 9 # o o o # # # # # # # - - - - # - - # # # 1 n - - 1 w w y h h h < w w , y y y U q < w i ~ ! q - e i u q w i y y w t w , w , e p w h y K K $.E hXCXp.h t $.! , , e - - - - - , , w p H U P P ~ f , w y U ! h e , , , , , - - , - - , , , , - i.].# u , q u v , , , , r e , , - - - , , , Q w - , , , , , , , , , , , , , , , , w e , , , - , e , q q u |.! u u q , , - - - - - - - q h K y t q q q , w r v 0Xf., r , , , - , , - , , , , - - - - - - - - , - r r - - - - - , , , - , e , , - , - , , , w v < b b - - # 7 9 # # o lXPXQ - - - r r - - - - - , , , , e e , , , - 2 , - - - # 1 a.e - - - , r K K F } b./.5XMXIXUXHXyXU.I.@.j 2 - - - - # % o $ # o # # # # # : # # # # - # # # # # # # : # o o o # % % # # o # # o : 2 - # 2 n : - # # % # # # # % # # > # # # # : # - s e Q w., v h w w < < +.$.$.5.H g f f w p 1 : , ",
"a.Q p.U.q u u t q , , , , , , , , < e , e v , - 1 , x 2 - - - - - , , , - 1 - - - , , - - - , - - - , w , , < , , - # - - # # , ; < , , , , , - i.n # : o o & - , s 2 : > % : # # o o o # # # < < w p < s s - z 2 # # # # o o o o o # # # # o > : # , , # - : 1 - - - - - , 2 ; h h w w w w w w w w K h h y E h w K ~ i d. X0.i K t q u y f L h w i R , q w w w K @.y f w p.5X, h t w q , , , , - - - , , , < w P U P U H w w w t K K w , , e e , , - - , - - , , , , , , , , - q q r v - , - - , - , - , , - , , , v , , , , , , , , , , , , , , , , , , , , , - , , , , , , , e ^ u q i , , , , - - - - - , y L L h y t t q , w v - - , , e , , - - 2 - - - , - 0.n # , - - - r v - , z , - - - , - - , , - , , - - , , r v , , h b , < < - - - : 2 : - o rXBXx # - - 1 1 - - - - - , , , , , , e , , v , , - - - - r r.1 # - , , , b ! i F { P.(.].lXPXXXa.u._.<.i e 1 , - - : 9 & 8 9 o o # # : # # # # # # : : # # # # # # # # # x A o # # # > # o # > > # # # # : : # # % > # o o > A > o # o # # # : s.z 1 w < , - e h w f w w p p.Y f H J f f y w < : 2 ",
"w.Q $.w., u ! t q , , , , , , , , , , , r - , , - -  Xa.1 - , , - , , r r # . - - - - - - - - - - - - , < e < - - 1 , # - - , , , , < r r w , , ].e.# # % # > - r z 2 > 8 r r , # # o o # # - < w s s w s +.< 6 s # # # # o % o o # # # # # # % : : - - 2 - , - - - - , - , - - w s w < , < h w w h f f p - }.U.K ~ i [.PXUXNXe.F ~ ~ q K y h h q p.u.- , w y y ~ 2.y t w $.~.K ~ q }.d.- - - - - - - - , , w w K U U H y t , , q q w , , , , , , , - , , - - , , e , , , v r , , r , - , 1 - - - , - - v n , - , - - , , , , , , , , , , , , , , , , , , , , , , , , , , , , , , , u e , , , , - - - - o }.kXt y h h y w w w , , , , - , , e - - , - - - - - - - 2 2 , - - - - r z , - , , - - - - , - , r e , - , w.U.# r 2 , e q , r w < , # # - x : - - o o - - - - - - - - - - - - , , , , - i.Q , 2 - - - - - - - - - - 1 z , - , e q u U *.P.p.wXDXd.u.u.2.T q u e , , - # # # o o # # o % 2 : # # # # # # # : : # # # : : # o c A o # o # # # o # c 8 o q.0.# # # # # : : # # # % 8 % o o o # : # 2 [.Q < w w w < < y f f f h f K f H Y H J y H h < # 9 ",
"# - - - , r w , , , , , , q , , , , , , , , - - - - x r , , - , e , , e -  XBXQ # , r , - , - - - - , , r z < , 1 - - : # - 2 , - - , r r w w < , - # # # # 1 2 z z Z '.V z b 2 : % # o o # - < w s p s w < , # # B 9 o # # o o o o # # # # # o # - - 1 U.2 - , - - , 1 - < , - < < , , , , w w h f f 2.f < b 2.<.~ E NXUXUXUXrXq ^ ~ i h U E y f i w , e q h f y w q w w E $.K K i w.v , , , - - - - - , w w f y H K t q , , , , , , , , , , , , , 2 v , , , , , , , , , v e , , , , - , - , - - , - - 2 e - e r , , , - , , , , , , , e e e , , , , , , , , , , , r , , - w.Q r v , , e e , , , , , - # e.5XU y E w w w w < , , , - - - - - w.v v r - - - - - - - - 2 2 - - - - r v v 0.- - , , , , , , r e , , e W Q - , - - , q t h w , s a.1 # - - : - - - - - - 1 - - # - - - - - - - , , z v r r 2 - , 2 2 - - - 2 - - - - - - - , , e y { u.h |.bXl i.5Xu T 9.D e 1 - - # % # o o # # o % : # # # # # # # # # # 2 n % # - # # o o # % 9 % # # % o % % o n A # : : # # > : # # > > o o % # o # # 2 d # s b s s s s s K Y f y y f H U U S 2.U.K H h < 1 # ",
", , , , , q , , , , , , , , q , , , , - - - - , - - # # - , , e W r w i - wXPXw.# w b , , , , , , , , , , 2 - - 1 - - - # : , , , , - , , w w < < 1 ; : # - 1 - - c vXIXDX[.r s 1 - % # # - ; 4 s s p < s ; - - : x > o # # o o o o o # # o # > > # # - r z < , < 1 < r < , , - , < , , < < < w f w f @.h < - $.2.H h zXUXUXUX Xt ! t K t L ~ q h t w q , h h w w t w w s r , r i r - , , - , - - - - , , e w w t y q i K , , 2 , , , , , , , , e , 2 r , , , , , , , r , , - k , , - , - - , v 2 - - - - - - , e # - , , - # , , , , , e , , , , , - ^ p., , , , , v , - , r v , , - - , , - - , - - - , - , L f h < w w < w w < - - - - - , a.z - - - - - - - - - - 2 r - - , , - - e.d.- - e e , , , , , , , , , - - - - - , , q y y h w b a.2 - - - - - - - - - 1 2 - - - - - - - - - - , , , - - , , # - , , , - 1 1 - - - - - - - , , e i F K t /.kXe r W T dXSX2X1 1 1 - # o o $ & o # # % - # # # # # # - # # # - : # # : # # # # # > s.> o # # # o o # o # # % > # # % # o # # # # : : # % # : : 2 , r d p j w s h L L f f t h @.L H U L @.2.y w w # o ",
"- - , , , , , r , , , , , , , u R e , v e , , , - - - - , , , e i w q i t y i , , w , r , , , - - , , , - - - - - - - # - - - , , - - , h h w w < < , , 1 2 , [.hXcXUXUXUXHXi.z 2 - # # # ; 4 p j j < < ; ; ; # # # o # # o o % o o o # # : > 9 9 % : - - e - , w h < < w < , - - < < w < < w < w w L h h p w E { { K p.BXUXgXb U i q t t y t y t w r r , w s r w w w < , , , - , - e z , , - - - - , , - , e w , ~ ~ E u.2 - , - - , - - - - , , - - - - , - , , , , , e , , 2 , - - , , - - v r , - , - - - - , v 2 - - e.i.- , - - , , , , , , , , e i , , , v , - - , , - - - - - - - - , , - - - - - < s J f < , w < , < , - - - - - - - - - - - - - - - - - - , - - - 2 , - , , - - , - , , , , r , , , , , , , - - - - , , t f y t h < - - - - - - # : - - - - - - - - # - - - - - - , - - - - - - n , - , , - - - - - - - - - , , , < , e F w p.6Xe e W l SXKXdX1 - , # # 2 c 0 > o o o % - # # # # # # # # # # # # : # # : # # # # # o # # # o % > o # q.> % ; # # # # o o # # # # # # # % : # # - < p w p w w w w L H K f w ~ u.K y y f w h h s , b e.",
", - - - - , , e , , , , , e , i ^ , - v r , e , , , - , q q t q q w t i H t , i q q , w , , , , , , , , , - - , - - - - - , , , b $.r , E h w w , < < 2 - - # mXUXUXUXIXUXUX[.k z : # # # < s w p d < - # ; ; # # o o o o o o o o o # # 2 c % # o # : 2 , - , , < w w w w w w , < s E , w , < w w w p f w y }.$.$.~ @.w ].IX'.< h w w w q q w w w q , w r < < < w , , , - - - - - , - - - - , r - , , - , , w e r v i , r , - - - - - - - - - - - - , , - - - , , , v k - , - - - , - - , 2 a., - - - - - - , - 1 rXf.# . ].JXi.- , , , , , , , , , , - - , , , , - - - - - - - - - - - - - - , , , - 9XrXs w f w w p - , < - 2 i.2 # 1 2 - , - 1 - - - # # # - - - , , - - 1 z - , , - - - , v , - , R , , , , , , , , - , , w w t y h h h s , - - - - z 1 - - - - - - - - - - - - - - - - - - - - - - e.kX0.- , , , , , , , , , - < e , < - , e l r O.U., , 1 1 _.dX9., - - - # 8 q.& o # > % % - - # # # # # - # # # - : # # : # # # # # # # # # # # % 7 o # c > : # # % 9 # a.A o : # # # # # # - - - - < w p p h h f y f f f f w L L f f f w w < < 4 , 6XkX",
", - , - - , , , , , , , , q , , , , , - - , w r w - - , q t t q t , , F K S q i t q , , , , , i v w , , , - , , - - - - - , , h 0XDXb - r < , < , < , , - ; : a.{.jXUXUXUXHXq.2 z - # # - < 4 d < p < # B 0 o & # o o o $ & 8 o o # # ; 2 > o & 8 # $ : - - , < < w w s p < < w w h $.w w , < < w w w w f S ~ h w w E h E ~.n r w w , , w h , , i r , - , , - , < , , - 1 : # - - , - - - - - , - - , , , , , , r r , - , - - - - - - - - - - - 2 - - , - - , , - , d.i.# , - - - - - - # 2 r.2 - - - - - - - - - n z - - 2 ].n - , - , , , , , , , , , , , e , - - - - - - - - - 1 - - - - - - , , # hXmXs w w w s O.[.b < , s ].x # 1 2 - - - 1 : - # : z 1 # - - - - - - , , - 2 # # , , , v , , , , , , , , , , , e 2 , w i t y y f f L r , , z : - z 1 - , - - - - , 2 - : 2 - - - - - - - - , , - r Q - , - - , , v i , 2 e , , - - s Q , , 1 e r r - , ; 2 e - - 1 1 - # # o o o # # > % # - - - # # # - - - # - - - # 0.0.# % # # # # # # # % : o # # # o % # # # # : : n 9 # # # # : # # # - - 2 1 r w p p f w w f t f h h p w w f K f f p < ; < s E p.",
", , , , - , , , R e , e w w q , - , - - , , e i w , , q q S K y q u.u.w F y S S i q q q , , , , w e q q , , - - , - - - - , w , i. X< - , , < , , 1 , - , : - 1 # 0.cXHXFX{.2 x x # # # ; < < p d p p 4 t.Z o # # % o . $ o '.B o # ; : # ; o T.{.o # # # - - < s s p p w < , w w f w h , w w w h r < w f y w < 1 r r w < - - 2 , , , , r E , , , , , , - - - - , - - - - - # - - - - - - - - # # - , e - , , , - v r - - - - # - - - - - - - , n 1 - - - - - - , , r , - , - - - - - - - - - - - - - - - - - - - # # - r , # - , , , , , , , , , , , , , , r , , - - - - - - - - 2 - # - - - - , 2 - x z 1 r w p < E lX].- < , , - - - - - - - , - - # - x 2 - - - - - - - - - - , e.Q - , , , - r r - , , , , , , , e r , w w t K ~ h q t w # v }.2 # - - - , - , - , , 2 - n a.- - - - - , , - , , , - w.Q - - # - n , - , , , , , , - i. Xr - - - - - - - ; ; ; ; ; - : : # # # # # # # # # # # - - - - - - - - - - - : : - 2 2 # # # # # # # # # # # # # # % % # # # : # : # # # - : # # # > 2 - - 1 1 s w < p E h w y y w f j p w w f L J L p w 1 h s h E ",
"- , , , - , , , R r , q e w , , - , - - - , , , q , , t y U U y , 6X6X- F F K Y K y y q q q q e e e q , w r , , - - , , , , < w , # , 2 r , w , - - - , - o : 2 a.0.x t.c t.0.2 x # # # ; ; < d e.O.< z > $ $ o # o $ y.8 $ 2 ; # 2 ; ; ; > ; 9 0 # $ % # - : < < < w f f w , w y H H y w , w s w < , < w y < 2 - - , w w , - - , - - - - , , , , , , , , - - , , , , v k # - - - - - 1 - - - r.a.- , - - - , , , - - - - , 2 - - - 1 - - - - - 2 - - - - - - - - - , , , - - - - - z , - # , - - - - - - - - - 1 - - - , v z - , , - - , , , , , , , , , , , , , , - - - - - # - - - - - # - - , , 1 2 2 < z 2 < < w p s < , - - - - , v r - - - - - - # - # - - - - - - - - - - - hX9X. - , , - , , , , , , , , , , - w , , q h U U f t w , - , 2 - - - - - , , , , , - - - 2 2 - - - - - , , - - , - # a.r.- 1 n - , w.2 - , , , , , - , - , < ; # - : : - - , ; ; # # # # # o # # # # # # # # - - - , , - - - - - - - : % : : : x : # # # # # # # # # # # # # # : 2 2 - : : - # # # # % # # 2 x - - - - 2 < < w E f f K y L K h w p f y f L J f p w h s +.n ",
"i.- , , , , , e - w i q , r e , - - - - , , , , r w q y U P S y t e r t t U S U U y t q q q w w q q q q w r , , - - , w w w r w w r , 1 r , < , , # - 1 # o # : Q Q v 1 - f.a.# # # # ; ; < < < O.j p 4 > # # # o $ $ '.x ; ; - ; 2 ; 1 2 ; # . o # $ > # # - 1 < w w w w w w w J L f w K U.E w , , , < w w - # # : , - - - : - , - - - - 1 , # - , - - - - - - , , , v r # , , - - 2 z - 7 Q Q Q - , - r 2 - , , z 1 - - , 2 - - - - - - - - - # - - - - k 1 - 1 - , 2 - - - - - 1 k - # - - 1 1 # - - - - - # - 2 - - - 1 , - , 1 r , , , , , , , , , , , , , , - - - - - - - , - - - # - ; 1 2 , 2 2 - 2 0.4 , w p , 2 2 , - 2 , - , 2 2 , - - - - - - - - - - - - - - - - - - , v v 2 , , , , , - e , , , , , , , , , w q t U H y y K w , , - # - - - , , , , , e , - - - - # - - - - - - - - - , z , # - . rXHXx o Q 2 - - - - , , - - # , - e 1 # # ; - e , - 1 : # # # % # # # # # # # # # - - - - - - - - - - - - o # 1 - : z : # # # # # # # # # # # # # % # 6 9 # - - - - z : # % : n > # # k 2 - , , < w w f w f K U w < h L y y f J L J H Y L u.$.fX",
"z - - , , , , , , , , q i r e , - - - - , , , q i y w U U P G S y , , u t t { <.S y t y t q y y t K K t q t q , , , , , t y f w h p w w , < < , - # - - # o % % 1 < < 2 1 - 1 : # # # % ; < < p d j a 6 2 ; % # $ m > o 3 6 < # # ; < 2 2 1 ; $ # o # # # # - , < s p w < w w w K J X.f ~ bXd.- , , , , - - ; # # # - , # : # - - - # - - - # a.w.- - - - 2 s < - - - - - - - , - - - - - : r # # , e r - - - - # rXd.# - - - - - 1 - - 1 - - 1 - 2 - # - 2 - # r 2 - - - - - - - - - - 1 1 - , - - - - - - 1 - - 1 # - - - # - - 2 v - , , , , , , , , , , - , - - - - - - - - 2 : - - # # # # - - 1 2 ; 2 ; < , w w < < s < - - ; - r - - - , - - - # - - - - - - - - - - - - - , # - , - , , , , , , , , , , , , , , , e w y K H H U K w r 1 - - - - , , , , i.R , e v v , - - , , - - - - - - - r z # - - # s.9X2 - - - - - - - - - - - - o Q BXDXA # # - - - # t.).o # # # # # : # - - - n - - - - - - - - - - - # - r.n # # # # # - # # # # # # # # # # # # # # # # : : 9 # # rX].# 2 # 2 : # # z 2 - , , w w f h w t y h w s w y K H f J J L K <.2.$.f.LX",
"- - - , , , , , e , , , W i q w , , , , - , q i K h w y H G G S t y F t t t U U D y t u t S S U S S H S H U H t w q w f f U H y H U f f w , , , - , , # - ; : # - - # # # # % > # % & # ; ; p p j N d 4 - # ; > > 3 # o # ; $ # $ ; ; ; 2 , , : 2 # # # - - , w w w w h , , s w f J L f K K w < , , - - # - - - # # # - - - - - , - - - - z # [.a.- , - , b t.r.- # # : # - # - - - , - - - - - - - , , - - - - - e.v - - - , - - 1 - - : - - - - # - - - - - - 1 , - - - 1 - - - - 1 - x z # - - # - - - - 1 - - - - - # r x - - - - - , , , , - , , , , , - , < 2 1 - , - - - # # # # # - - # # # - : # ; ; - , < < < s B ; - ; ; 2 - - , - , # - # # : - # - 1 z - - - - - - - - , , - - , , , , , , , , , , , , , , , e t y y f y f f y w - - , - , , , , , $.v , q h E , , - - , - , - - r n - - z n - - - # # r.Q - - , , , , - - - - - . ].UXUX].o : # 1 9 # 2 7 : : # - # : 2 - - - - b - - - - - - - # # 1 2 # : ].0.o # - # # 9 : # # : # # # # # o % & # # # # # : : : # 0.x , 1 # # - - # - - , < w w f h h w , , v r w y f L J J J L X.L K ~ E ].LX",
"e , - , , , , , , , r , , , q , , , , , , , q i F h }.~.q U K y t w i w.R q t D U y i t q y S H S U J I I P Y U y f f L U U U U Y *.I f y , , - , < < - - 1 - 1 - - : # : : # # # & % # # ; d p g N a ; e.z ; > ; # # # o # > $ $ 6 6 1 2 s , ; ; > 2 : - < s w h w w w , < h w p f f f h w r , , 2 - # - - - - - - # - 1 - - # - - 1 - - r , # - - , - < - 1 2 - : # # # : 2 , - - - - - - , - - - r z - - - - - - - 2 , - , - - - - # - - - # - - - - 1 1 # , 1 - - - - - - - - # - - - - - - - - - - - - # # - 1 2 , # z n - - - - , - - , , r , , - - , , - , z 1 # , - - - # # # # # - : : # # # # # # # - 2 p < w s s ; , - - ; - , , - # - # # # : # ; - - r 1 - - - - - x 2 - , e v , , , , , , , r e , , , , , , w w t t t ~ U y f w - < , , i , e , , , , i t q q e , - - - e v - - , r - - 1 a.v # - - , z r - , , - , , - , - - - # 7 qXrX> # - # : 9 # # # # : # - # : z - , , - , , , , - - - - - - - - - : # - - # - # : - - # x : # # # # # o > 8 % # # # # # : # % o # - # , - 1 1 - 2 < < w y w w w , h v - - r r y K h f @.H J Y P H K $.r.DX",
", - - - , , , , , , , e , w h , , - , , , q q t , }.UXLXu., i w , # U.IXyX, S ! y y t t t t y y S ` *.) I ` 2.Y H f L L Y Y U ` *.I Y P f w h r < < < , - , , , 1 1 - 1 - # : # % # o # # ; p d N j ~.+.B d # ; ; # $ o # # ; ; ; 6 - - 2 s : % # a.s.- < < j h h h h w < w s w w f f w w w r , , 1 - - - , - - : : # - : # - - - 1 - - - , 1 - - , , - - , , , , - - # : 7 - - , - , o o , - - - - 2 2 - - - , - 1 0.Q , , - , - - - - - - # - - - - - - - - - - # - - - - - - - - - - - # - - - - - - - - - - - - - 1 , - - - - , , , , , - v U.r , , - - - - - # - , - - - # # # # # # # # : # # # # # # - - 2 4 w s s < , , ; ; , - 2 1 : # # # # % # : : - - # - , - - - 2 a.r rX9X- Q - , , , , , , h , , - , , , e t y y y t I.u.y y t w w , e u , e , e r e q w q e w , - - , - , , - - , , , - 1 - - 1 2 , - - e , , , , - - o # - - - > o o # - : : # - - . [.9X# # - - # - ; , 1 2 1 < < , , - - - - - - - - - # 2 1 ; - - : # # : 1 : # # # # # # # # # # # # # - : # : : : - - - 1 s r , r w w h y w w < - v Q - - , w t f K K @.p.f H H y H $.E  X",
", , , , , , , , , , - , , r ^ r e , , , , e q q - U.IXPXu., q q , # u.NX X, U K t t t q q t H <.<.J <.&.M.b.P 5./.U f Y Y :.I ` :.I :.*.P h h w w w w , 1 < , , 2 z 2 2 1 1 6 # o # $ o # ; d b +.B zX|.o ; - ; # # % $ ; ; - ; ; 4 [.0X+.> ; # # 6 d s w w L K K h w < < r < w w K E h , s , - - - - 1 - - - - # # # % # - - 2 1 2 - , - - 1 - - 2 - , - , < s , - - - - - - - , Q 2 [.5X- - , , - - - - - , , - - z v , o # - - - - - - - - - - - # - - - - - , - 2 - - - - - - - - - - # - - - - - # - - - - - # # , 2 1 - - - 2 1 - , , - e , , , , , - - - - - - , - - # # # # # # # # # : # # # # # # 2 ; ; 4 s 4 < < < 2 2 4 , # n : : : # # # ; # # : - - - , 1 - # - 2 - - }.d.# - - 2 e , , , , v e , - , , w t y f U y H y y y y y E ! q t q q q e , , w q q q , , , - 2 r - , , - , i , , - - , 1 - - # - , , , , , - - - r.0.- # o : # # # : z 2 : - - o '.{.# % # - - - - , < b , w w w , , - - - - # - - : : - - - - - : - - x : # # # # # # # # # # # # # - : - # : # # # - - , s s h y y f K f w < < - : - - , i e w w f f L $.y y y w w h $.u.",
", , , , , , - - , , , , - , , , r v , , , , q q q - i.w., u q u q q - - , ! 2.t y t y t $.K P <.<.I I &.M.b.) Y <.P H J Y *.I ` >.>.) :.Y K h f f J 2.s , , , 1 1 2 z 2 2 , , # o o o # # ; s d p a N p < ; 6 < # o # # # ; 6 4 d < CXUX}.. ; # # # b b p f L K y f f w w w , , w y h s - # # # - - 1 r - # # # # # # % # # # - - - 1 - - - - - s n - - - , < r < , 1 - - - - - - Q : hXMX# 1 1 - - - - - - , , , , - - e lX9Xo - - - 1 k - - - # - : - # - - - - - 1 - - - - - - - - - - - - 1 : - - - - - - - , - - # - , - - - 1 - - - - , - , , , , , - - - - - - # - - # # - # # # # # # # % # # # # ; ; # # ; < - - < r s < 1 ; # ; % % % # # % # # # # # - , - - - - - # - - # # , - - , , , - - , i.W - , , , q t y S H S y H S t t y f t t y q q , i e , , e e , e , , - - , - , , - - , , - - - 2 : - - i.2 , , , - - 1 x 1 [.s.o 0.a.# - # - - - - : 2 : # o . # : # # # , , < s , < h f t q , - - - 1 2 # - 2 2 # - # - - - - # - - : # # # # : # # # # # # # , - - - - # # # - - - , w h y h y h h w , , - - - - - - w y w w w h h L y h r 1 Q h t ",
", , , - , e , , v 2 - e , , , , , , , r , , , q q , # - q u u i q t t t t S H t t y t y <.<.Y <.<.*.:.>.:.:.` ) I Y H I *.) ) ) V.^.:.I *.<.H K Y Y 2.E , < , #  XkX# # 2 z s # 8 9 > > # ; < p d N 4 4 4 4 4 6 y.XXA # ; 4 s s d s ~.0XB $ 3 > > 4 < p f 2.Y f U Y h t h w w w q t w , - x t.# # - 2 , - - # # : : # # : : - # z 9 : 1 [.z - - , 1 , - 1 r s r < - - - - - - - , - - 1 2 - - - - - # - - - - , , e e - r GXyX. - 1 - - - - - - - : - - - # - - - - - - - - - - - - - - - # - - - - - - - - # - 1 - - - : - - - - k 1 - - - , - - - - , - - - - 2 - - , - - - : : # # # # # # # 9 > # # # > : ; # # # # ; , < s 2 - # # # > o # # o o % % o 0.0X1 - - # - - - - - - , - - - - - - , , , e e i , - , q t y S U H H U S y y t y q t F q q t e e , , W , q e i , , , , 2 - , , , - , , , - - # - - 1 e.2 , , - - - Q a.# # - o f.XX# - - - - # - - : - # # # > x # ; n , - s r , r L K y w , , - - 1 2 - # - 1 - - - , - - - - # # # # - # # - # # # - # # # - Q 1 - # : > # - - , , w w w h w w w w , , - - 1 o [.hXr , w < < < E E w r 2 z n  X|.",
", , , , e , , - , , , e , e , w w , e h , , , w e e e e q - - u y t y y t y y S S S S H y H P ` <.*.4.>.:.:.&.&.*.*.Y X.*.:.&.&.v.v.>.I I *.H f L X.H f w w < # a.[.: 1 ; x c o [.T.# > - < < < j N d d d 4 < # hXUX.X. < s 6 s 4 b 4 - 6 - > ; z s < w f @.L H H Y K w r w < t w w w < - BXUXt.. : 1 - < - # # n q.# # : : : 2 : # # : s.z - - , - 1 - . , h w , - - - - - - , , , , - - - - - - - z , - - , , , v v , , , , - - - - - - - - - - - - - - - - - - - - - - - - - - - - - - - - - # # - - - - - - - - # - z z - - - 2 - - - - - - - - - e - - - - 1 - - 2 - # # - : # # # # % > # 3 9 % # # % % $ % # o # ; - 2 # # ; o # # # # # # # # # % o n ].1 - 1 - - - - - - - - - - , , , , , w w q q q w < , t y U U ~ H S H H S S S S H f y t i u e - , hXJX X- w e , , , , , , , - , - - - - - - - - - - - - , , , 2 - - - # # - # : - - - - - # # - - # - - # - : - o 0.wX, - , , w w K H f h , , - - - - - - - 1 - - , - - - - % 7 a.- - - - - - # - - , , # # 1 1 - - # - : - - - - , < , < , < r w , , , , , < # qXDXb , < - , 1 , < < r , o [.UXUX",
"w i , , , r r - - , , , , , , , r Q r , , e , , , , e e , U.5Xr q t t t q q S S K Y y S H P P ) I &.*.*.4.:.:.) I *.*.Y ) >.>.4.:.:.l.*.*.I U P P *.X.h f s < 1 #   jXDX> # ; 6 B 6 # # 2 < < h s B B s s < 6 ; s.iXZ # ; ; ; s s 4 b s ; ; $ # - 1 < s h f L y y H K t < , , y K i w r - hXNXA o : - - , - # # # # > : # o % 2 - # % : # # , - , ; - 0.0Xi., w r , - - - - - , - , - - , , , , - # ].Q - - - , , i 5X, , , - - - - - - - - - # - 2 1 - - - - - - - - - - - - : 1 - - - - - # - - - - - - - # # # - - - - - - - # - - - 1 , , 2 , - - , - - - - - - , - # # : : # # # # # : 2 : # # : % # # # # # o o $ o # # q.].; $ # # % # % # o # o # : # o - - 1 : - - - - - - - # - , - , w w w q q i h w , , q t K U Y S H P Y Y U S P t t H y K r w - r HXUXlX- r e , , , , , , , , - - - - - - - - - - - , , - - , 2 - - - - - - o o - , - - # # - - - : - # - - - # - 2 v , < , , w h L f y y r , - - - - - - - , - , - - - - - # z s.2 # # - - # - - - - - - - - - - # # # - ; - - - , , < , , < < , - - , , w w , 1 s w < < xX].o 2 1 , , w o ].IXIX",
"q r , , - r 2 - , , e e e , , , , r R e , , , , , , e - z PXUX}.- r e q , w y K U K I.~ H H I J I I I 6.Y.&.) ) ) Y I Y *.:.:.:.&.N.>.&.*.Y P Y *.I <.@.f h s - # # rXlX> # - d B ; - < 4 < < j 4 j B 4 < ; 6 3 o . # 2 ; - ; < < ; < < ; 3 $ # 9 4 , < p h E f f y f w < w w t w f s r - # - o : # - : : : # # # # # # # # # - # # # > 1 - - , - 6 ; MXUXCXr , < , - - - 2 x - , - , - , 2 , - , - r 1 - , - , r hXUXhXr , , z 1 - - - - - - - - - - - - - - - - - - - - - - - , - - - - - - - # # # - - - - # # # # - # # - - - - - - 2 - e.0.- - - - - - - - - - - - - # x x # # # # # # # : : # - # # # # # o 8 > o # $ . '.XXo # # ; $ # % % > # % : # : : # # - : # - - - - 0.2 - - - - , < i q q q F i w e e q q t S S H P P Y ` Y P H /./.t t i e e e - ].hXr., , , , , - , - - , , - - - - - - - - - - - , 2 - - - - 2 1 - - - 2 [.t.# , , - - # # # - 2 : # - - - - , , , < w w w w w f f y w , r , - - - - - - - , z , - - - - - # # - : - - 2 x , - - - - - - # o # : - - - , - - - 1 2 - , 2 , - e e , w w i w < < , h , w uXT.# 2 x ; , 1 - : T.s.",
"t , , , e - - , , r v q r , , , e , e , e , , , , , , - - MXHXa.- w , , , , t y K S I.{ U H <.7X4.I *.4.*.I ) *.` J H Y *.3.) &.&.M.V.*.J X.U q f *.I P K f s - : 2 - o ; - ; 4 d 4 ; ; < < < p < < 4 4 ; ; 6 ; # ; ; ; # ; < ; ; - - 1 ; - # ; ; - ; 1 < s < t y K h w w h y t t w w w 2 - # # # # # - # # # % # # o o # # # # # # # 9 1 - - - - < # lXUXmX< , , - : : # z s.# - - 2 e - , 2 - , - - - , , , , 2  XHX5X, , , r - - - , - , - - - - 1 - # - - - - - - - - - - - # ).r.o - - # - - 1 1 - - # # # # # # # - , - # - - - - 2 - 1 , - - , , - - 1 - - - - - 2 : : % # # # # # : # : 9 - - - - # # # o # $ o # o o 9 > $ $ ; 4 2 9 % > c # : % x > # # # : : - # : rXf.x 2 - - 1 d.r , r i q q t q q w r i t q t t H Y Y I P P J H P.b.S y q w , r , - # , e , , w e , , - - , , , , , - - - - - 1 - - - - - - # - 1 1 - - o f.UXDX- # 1 1 - # # # # - # - - # - 1 < , < < w w w f w y f y w < w.r - - - - - - - - 2 - - 2 - - - - 1 - - 2 - 2 f.n - - - - , # # % o : # - # - , - - 2 A 1 - - - - r r , < , w w s p h L h w - - - ; : : : : 2 2 - , ",
"K e e , , 2 n - , e r q q , , , , , , , , w , , , , , w 1 - 2 # , e q , , , q t t F t y U U U 3XM.H <.*.Y *.3.*.Y P U Y I <.) P &.4.*.tXeXf Y 3X/.K ..Y P f w - r - # - 2 , < w p < ; < < < < < s < 4 6 ; ; # # $ # # : 2 - , ; ; 6 z < - - ; # # ; - , - 1 , h h h w w w h i t h w , , < - , - # # ; # % # # > # o % # o # # : : # : # - - , ; - ; ; z [.n 1 < 1 - : # o [.lX> o 1 v r , , , , , , , , , r z - - r d.- , , , , v 2 - - , , - # - - 2 - - - : - - - 2 z - - - - - r.x # # - 1 - # 1 2 - - - - - - # # # - - - - - 1 n 2 - - - - - - n r - # - - # - - # : - # # # # # # # # : # # 2 ; - - # # # # # : % o 0 A q.3 3 < < s 6 1 : 2 : : 9 # 2 : # # : # # # # : ].e.o # - # : a.z , , w t t w q , , - e q q q t H Y ` I P P P I P U ` S S t q e e , , - , , , , , , , , - - , , , - - - - - - - - - - - - - - - # # - - # n vXrX# # - # # # : # # : : # - 2 < , r < < r w w w f w f H y p s 0.2 - - - - , 2 , , - - - e 2 - 1 2 1 - - - - - 2 - , - - - # 2 jXNXZ o - , 0.b , ; - % : 2 - 1 2 - - - - < < < < w w J L J j h w - # # - 2 % 4 h h f ",
"q , , , , w.$., , q q q q e , , , , , q , , , , , , w w , - - , q q q q , , , q q q i t t f H q J X.Y U <.<.Y Y Y { ` <.Y <.*.I *.*.:.(.>XH L iX3Xq Y Y Y K w r 2 r - 1 1 1 < w w p d s < w p p 4 < ; ; < < ; # # # # # : ; ; - o ; 6 ; < - - # % ; ; - - - < r ^ t w w w h y t f w , < < , - # : > % # % : # # # # o o # % # % : % # % > : - z z 2 B ; o ; < , , # : 0. XPXUXcXs.x - , 2 v , , , , , w , , , - , r v , e , e r v , - - , - 0.2 - - - # - - - - - # x n # - - - 2 2 - k - - - - - - - - - - - - - # # - - - - - - - 7 - - - - 2 , , , , 2 x - : : - # # - - # # # # # # # # # c n # - : - - ; # ; 1 : # # 8 8 # > x s < b 2 x q.: 9 : : # # # # : : # # : : # o # - - # 2 f.# - < w w w w w , , , - , , q q y <.P P Y I ) <.` ` Y U S y t t q q , , v , , , , , , - , - # - - - - - - - - - - - - - - - # # : # # - - - # o # : - # # # # # ; # 2 x # - r , w r w w , w w < w y y y f w w - - - - - - , , # # - - - , r - - - - - - - - - - - - - - - o v PXUX].o - - i.w.- - : # # - - - # # - - 1 2 < < w f f f L L J h s < # - - - ; , w f f ",
", , , , , i , , q q q q t q , q q q q q q q , r e , , , , , , , q q q q , , < , q q u q e w w h L Y L H <.@.+.9XP.*.<.1.=.&.*.<.*.:.M.I I *.I H L H f U K y h L E $., s , 1 4 < s h f  .#.g g g a j d p j p < ; 3 # % # # ; $ # # # # ; z z , - ; z - - # ; b y w q y L f f H H f h f w < , , - z 1 o % # : 1 : # : # o # # # # # # o % # # # : f.9 2 ; : 9 c : - - - n 0.kXGX].n r # # e.}.- , , e v h , , , e , , , , , w e , - - - - 1 2 a.r - - - - - - 2 - - - - 2 - - # - - - x r.- # # # : : # # - # # # # # # : # # - - - - - - # # # , - O.wXE w $.Q 1 2 - - # : : # # # # # # # o 7 DXLXr.. # : ; ; < 4 s < ; ; # o $ ; 0 n 2 ; A NXLXXX# : # # # # # # o 0.'.: > # # # # # # - n - - - , , e e , , , , , r , , q S U S S H f y h K y S K y q q q , , , v }., , , , , , , , e w., - , - - - - - , - - - - - - 2 2 # - - - - - - # # - - # : : # # - # # - # : - - , s s w < w < w p < $.2.w y w , , - - - - - 2 ].q.# - - - - - - - , - - x r # - - - 1 - - < - ]. X1 - - z - - - - # # # # % > {.t.# - - , < < v h f f J J j p s s 6 1 - - - - # < w ",
", , - , w q q q q i t , q q q , , , , q q w i - , , , , , , , , , q , , , - 2 r q q , u , # < w K I H U L p.BXUXMX^.(.1.&.-.-.*.:.4.v.:.&.) I f f y t w t w t f h w h w < < < w w p f o.P.1. .J J @.O.L L j p < z - # - : o # # # - - ; ; , , , < n - - ; ; h f y y K L f f f H t K y w < 2 - - 1 - # % o # - # x 9 # # o # % # # # # # # # : # : : # - - - > # - - # 1 , 0. X# - - - - 2 2 , , , w $.r q w , , , , , , , e r , , - - # o # r v - , , - - - - - - - - 1 - - - - - - - - . ].NXA # # # - # # # # # : : : : # - - # - - - - - - < < f 7X2.t p.}., 2 1 - - # % % # # # # # # o 8 DXLXq.. # ; ; ; ; < 4 4 4 d 3 # $ 3 3 > 2 # .XUXUXDX> > : # # # # # o t. X# # % # # ; # # # # - - # - - , , e r , - , , 1 , q t H S S q t w , , t i K y kX3X- w , , , , , , , , , , - , v 9Xv - - , , - # - - - - 2 , - # ~.n - - - 1 1 - - , - - # - - : # # - # # # - : - - , , r < w w w w p - U.]., , , w e , - - - o r.UXlXo - - - # - , - - - , 1 , - 2 1 - # , , , - # o , - - 0.- - - - - - # : . qXUXHXc o - - 1 , , w f h L j j p # n a.- 1 2 : : - # # ",
"w - , , q t F ! } y F ! t q , , , , , w q q w , , , , , , , , - , , , , , - - Q i R i , w.d.r < K Y S S y ~.UXUXUX3X~.=.7X1XI &.:.&.&.:.) I U U y w w , s w w y y h w h h w , w f J L X.1.1.#.#.7.1. .L g p p 2 - : - - 1 a.d # # # - 1 1 , < < # U.hX- 2 < w y K U f w w h f h 2.y t w , , 1 , - # # # # # # : : # # % # # > : # % > : > : # # # # # : # # # # - - : 1 , v i., - , r 1 - < , w r r h i q w e - - , , , , , , - , - - 2 [.e.2 z - 2 r - - - - - - - - - - - - - - - - - . ].lXc # # # # # - # # # : : % - # # - - - - - - - < < < P.Y f K i.5Xk z 1 1 # - % # # # # # # # # o c A o # # $ ; # ; ; < 4 6 B 3 o $ > 3 > 6 ; Z DXLXXX% > # # # # # # # o . # # # # % : : # # # 2 2 - z r - , r r , - , , , e R K y y y t w r , , q t t f iX}., , , , - , , , , , , - , , , r , , , , - , v 2 - - - n v - # 2 1 - - # - # # - , - # # # # # # # # - # # # - - - # # , , < w w $.E w w ; < < w w e , , - - 1 8.0Xs.# - - , n 1 - - - - , - , - - : # - : # # - - - - - , 2 - - - - - - - : o fXUXHX0.o - - , , , w w f L p w d b x z : 2 # : 9 : # - ",
"y , v e , u y K K y F F y q , , , , , , , b , , , e , , , , , - , , - , , , r r v 3Xu.. 9XBX2 - w f i t w h lXIXkX5.7.=.7X1X&.&.:.&.&.:.) I P H t w < , s s w w L J ~ L f f f H f P.!.X.1.1.X...2.#.f 3X~.d b 4 z 2 - , , a.x - ; ; , < p w w < , i.~.< w w y y f L h r w w w $.6XK - w , - - - - # % # % > # # o : : # # # % # # 3 % > c % # # # # # # # # # # # - 1 - 2 1 - - 2 1 - , , , , w i w q h w w , - - , , , , , , 2 - - # f.UXmXo - - - , 2 - - # - , - - - - - - - # - - - - # o # : : # # # - - # # # # # # # - - - - - - - , - , , i.w.h z rXBXy.1 z 1 - - # # # # # # # # # # . . 7 > # # # # # ; 4 ; > 6 # $ $ & $ % > > 0 ].Z > > : # # # # o o # # % % # # # # # # # : # 2 2 # 1 2 - , , , , - - Q ^ i h $.i U y q e , , , q e q K , , K w , r - - , , , , , , e , , , , , , r 2 - r , - - 1 2 - - - # # # - - , - 2 - - , - - - # # , - - # - - - # - # s. X, , r w , i.$., o rXhX# , , , - - , , r l . o - - - - z - - - - - , < - - # : : # # V V # - - - , 1 2 - - - # # # - # % x {.q.# : : - - - 1 < w p p ~.+.b BX].o : # # # # # - - ",
"y , w.R , q q t t D D t t q e , - - - - , e - , e e , e , - , - , , , - , , < , r R r , z 0.- 2 < < < , < w u.~.b.M.4.=.;.=.=.&.>.>.>.:.*.U H t q , , e s , w h h K 2.K Y H Y P.H P.!.X.=.=...J  . .f %.$.$.b 1 2 2 , , < , < < < w w w p p w p w w w h y h f t t w h w w w w K h p.w.- s 2 , , # - # # y.q.. # # % 9 # # # # # # # # o > # # # # # # o % # # # - 1 - , z 1 - - # - - , < , w r w q h e w w , - , - - - , , - 1 - - - 0.BX X# - , , - - - - - - , - - - - - # - - - - # : # # # # - - - # # # : 2 # # # # - : # # # # - - - # : - - 1 r.sXIXUXFX[.n 1 - # # # # # # # # # # # # % % > % # # # o # ; $ ; > # 8 8 o # o o % 9 > # # % : # % % # # # # : # # # : # : : # : x - # - - - # - , e , , , , e R r w i w U.$.w , , w , w e q w w w w q , , - , , , , , , , , , , - , , - , , - - - - - - - # - - , - - - z z - 2 - - - - # - - - - - - - - - - # - # hXGXr - , , < r w , - '.'.# , , , - , , , , , - - - 1 x - # - : - - - - , - 1 , : : o 7 HXPXc   . - z 1 - 1 - - - # # # % : # o o # # # # - # - 1 < s p $.O.s ].c : % # : > # : - # ",
"w , - , R h q q t t t y u q q , - - - - - e i q , q q ! v , , - - , 2 ; # s n - , - , 1 - # - - - 1 1 - , i h H P.v.*.>.,.=.=.l.l.v.v.:.<.I y q t , , v E w h h f y f J X.J Y 2.4.X.X.=...J J J L  .J w < ; ; ; - - , < w w p w h j h h p w w h h f L U h h w t w w h w < w f f h p.Q - f.0.- , 2 - # # 9 > o # # o o # # # # # # - x % # % % o # o # > # # - - k z - - - - - - 2 k , b h , r h w i h w q q , , - - - - - 1 - - - - - 2 z o e , - , k - - - - - - - - - - - - - - - - x # : 1 9 : - # # : - # : 9 # # # # - # # 2 : # # # # # # # - 1 r.hXUXUXHX Xn - - # # % # o # # o # # 7 % o # # o $ $ o o o # # $ # o % Z o o o o # % % % A '.& o # # o o # o o # # # # # # # 2 : : : # - : : z - - e , r e , e q q i $.- eX Xr , , , , , q , i q u w e , , 1 - , w , , , e , , , , , - , , , , - 2 - - - - - # - , - # - - - - - - - - - - # - , - - - - - - - - - - x ].Q - , , r < , , 2 # # 1 , - , - - , , , , 1 - - k r - - - - 1 Q r 2 , , , - # , # 7 mXBX9 ].[.# # , - - # - - - # # - - # : : > # # # # # # - r s j h s < # # : : % 2 & o # : - ",
"w , , , e e q q t q q i i q q e , 2 - , - ^ }.r q q t F t i , , - s 2 - - , 2 - - - - - - - : # 2 , - - , r h U U *.&.>.m.l.>.m.l.>.4.4.*.H t q t r , w y t h y K L f J J L L *.1.*.X...X.o.J w g g j < , < 2 ; - - r s w d p s h h h f w p h h f U y U h w < w < < d.b , h L y h < - , 2 1 - - - # # o o o > o o > # o # # # # # % c > o % # % # # o 7 % # # - - - # - # - - # 2 z , b r , e e w w , w q w , - - - - - 1 - - - n - 1 - - - # z r.- v r - - - - - - - - - - - # - - - a.s.0.% : z 6 # - c  X1 # # # # # # # > z : - # - - - - # - - r v , rXCXs.- r 2 - # # % # # # c 8 > o % # # # o o o % Z & o o o o o o . o . . . o o o # # A y.o # o o o o o # # o 0 9 o # # > : # # - - - # 1 Q z 2 - - , , , , q e v bXMXPXHX Xw.e , , , , q q q q q q , , , - , e , , , e , - - , , - , , - - - - - 1 : - - - - - - - - - - - # - - - - - - # - # - , - - - - - - 1 o n 0Xn , , , r , - - , < , w < - , - - - , - 1 - , r 2 - - - # - 1 1 2 - - # 1 1 - - , , - o 9X0X# - - , 1 - - - - # - - - - # : : # # # # # # - , s j p s s 1 - # # : ; o > : # ; ",
", , - - - , , e , , e q q q q , e v , , w ~ R i i i u y F F q , , 2 ; # < ; - - - - - - - - - - 1 , - - , < h K @.X.) >.B.c.x.v.>.:.:.*.U H y q i ^ t y y t y @.P.@.J f g J Y *.=.*.....=.g !.uX#.< p < < < < ; ; - o p h p d < w h w p.2.< h h f H H Y h < < < < < $.~.y H Y H , - - - # # - - # # # # % % # # # # 8 & q.9 # % # # # # # o # % # % # # # % : - - - - - - - - - # - r e , , e , , , , , , , , - - - - - 2 - # - 2 : : - - - - v d.- - , 1 - - - - - - - - - - - - - - % n x # # : - : : : n : # : : # # # # : : # - 2 : # , # o o 1 e i i i.9Xr x 2 - - # # # % o o > % % # o # # # # o o o Z & o o o o . . . . o o o + % # . Z 0 o 8 o o & # o o # % o V A # % # : # # : # # - # - - 1 n 2 , , , , , e r v U.rXPXDXU.w.e , , , - , q q q t i i , - , , , , - , , , - - , - - - , - - - # # 1 o . - - - , # - - - - - # - - - - - - - # # b z - # - - - - - - - r.2 1 , , - , - , < , , , < 1 - - - - - - # r.DXhXo - - - - - # - - - - - 2 < - < < $.2.w , - : # - s s , , # # : : - - 1 1 # # # % # # # o s mXhXp p h j 2 1 - # : 3 # - ; 1 ; ",
"1 - - - - - - , , , , r , , q , , e , q q ! t R R e W h F F i , - # # : 6 6 # - - # # - - - - - - , - , 1 w U Y H H &.l.x.>.m.v.:.:.Y Y P f t t y E U Y P H y Y 2.K H f f J J ..*.*.X...X.f |.HXP.< f p s s < ; # t.yXE w d d < w w , ~.}., < h f f f U y < < , < h h ~ U Y P y , - # - - # - - : - # # # > o > 9 o > 9 V >     o # # # # # % o # # % # : : : : # - - - - - - - # - r , , , 2 , , , , , , , - - - - - - # - - - 7 - 2 2 - - 2 - # z , - - - - - - - - - - - - - - - - - # # - : : # : : - # : : : : # # # # # : : % : # : # t.jX].# - e e i.}.2 2 , - - # # o # 8 > o # # # # # # # % o # o % % o o o o . . . o o + o o o o o & > # o o & c $ o o o # # o # > # # # # # : : - - - - # 1 - - , , r r e e e , - o 9X~.Q l , , , , e q q t q t y K , , , , , r ^ - , , , - , , , , , , v v fXhX- f.f.o : : - - - # - # - - - # # - - - ; - - 1 - - - - - - - - - - # - , - - , k z 2 w , w , , , # # : - - , # d.LXmX# - - - - - - - - # : - - - < p - eXeX< < # : # # 2 x - - n z # - - . o 2 9 # # : # # # o z JXNX< < p h r 1 , , - - - - # ; , ",
"- - - , , , , , e , , , , , r r , , , q q q i i w.lXFXlXu.T i u - - # # # - - - # # # # # - - 2 - # # : , w P ( Y X.>.l.m.V.M.*.) Y J H K L K 2.K h f H P P H H t y f H J Y X.*.X.*.*.I I X.@.X.J  .L L d p < p # ~.nXu.p p 4 w w f s h $.< - w w f f f f w < < p w K P U U H f w , # # # # # ; 1 - : > % % # o % # o # o & 0XqX> o # # # % % # # # # - - 2 : # 2 1 - , - - - - : , - , , - , 2 - - , , - , - , - - - # 1 x - - - - , r - - - - - - - - - - - - - - - - - 1 # - - # # - : : : - # - : : # : x : # # # # # # # # # # 2 n & o mXUXPX9 o - 1 n 0.- - - # - # # o 9 ].% o # # # # # # # # # # # % o o o . . o o o . o o . . . . o $ o o # . 3 0   o o o o o # # # o % # # - # - - - # - - - - - - - , w , , , e < , i.Q U.w.- e , , e q i K D D F ! q q , , , R |.v - , - - , , , , , - r v GXHX# }.9X# # # 1 2 - # - - # # # - - # - 6 z , - # # - , - # - - # - - - - - - - - - r.v , q q , , - n 1 - , , < , - w.2 - - # - - - - - - - - - - - - - ; j b p < # # - - - , 1 - x z - - o XX[.# ; % # # o # % - ; +.E p j p < r z 2 ; # - # - ; , r ",
", , , , , e r , , , , - r , e e , , , q q q i b lXUXUXUXmXR l e - - - # # - - # # # # # # - - - # # # - < w P ] <.X.:.B.V.m.>.) I P H f f K K ~ f f f H U H H J J U J I I Y ` 4.:.:.<.I J X.X.f J L L L j j p p f f w O.J f < p p f s < # , , , w y K U K f w O.$.f U U U L j p < - # # # # # # : 2 n 9 # o o o o # o # .  XUXUX{.  # # o % # o # # # : 1 1 > A 7 2 2 - - - - - 1 - - - - - - - - - , - - - - , 2 - - # z a.- - - - - - - - - - - - - - , 2 - - - - - - - - # - # : : # o r.].# - # : # # - : # # # # - # # # # : 2 : : # o qXLXlX# o # : > # : - 1 # # # # # # 8 9 3 % # # # # # # # # # o % o o . . . + O o o o o . o & o o o o o o . . o gX{.. o # o o o 9 0 # # # : - - - - # - - # - - - - , , , - , , , , , , , , , , , e r i K U U ! } } u q q , , , h r , , , - - , - - , - - - Q 0.- # : 1 # - - - - - - # - 1 - # - - - - - - , 2 - - - - - - - : : - - - - - - - - 2 2 , w , , , , a.z # , , , , - o # - - - - - # - - - - # - - - # # ; # # - - # - - - - # , 2 , - , # o lXhXo # # # # # # # # ; - , L L f w w s 2 ; - ; # o < 1 r ",
"< , , w , , , , , - i  XQ - , , , , , , q w e i.JXUXIXUXPXi.e e , - # 1 2 - # # # # # # - - # - - - - , < w H ) @. .4.N.N.j.&.I H H H H f f f f f H L H Y L L H <.<.Y <.4.*.:.v.:.:.3.I J Y Y J Y X...J J  .J f J L J J J f w f h w p < r s h < w f H f K H f L L f H Y J J h j s # # # # # # - 1 z : # # o # # # o o # . '.IXUX[.  # # # o # o o - - - 2 1 sXKXlXz - 2 - # z z # - - - , - - - - - - - - - - , , - - - - - # - - - - - - - - - - - - - - - - - - - - - - # x x # : : # # : - : : # # : ; - # # # # : : # # : # % : # # 2 : : A ; # # # - - # # 9 x - - # # # # o % x : # # # # # # # # o o # o o . o o o o O $ o o o o O o o . . @ O + . . gXXX. o o & 7 . q.BXn . : # x 9 - - - - - - - - 2 , # - , , - , , , , , , , - , - < i K K ! } u.! ! ! F u , , , #  XU.# , , , , - , , - 2 r # o - # # # # - - # - # - - 1 x - # - - , - - , 1 1 - - # z z - # - : : - , - - - - - 2 z , , , , , , - , - w , , - - - - - - # - - # - - , 1 - - # # # # # # % # # - - ; , - - , 2 , 1 , , - : # : # % > # # # # 1 z < h  .L j p < < < 2 ; ; n i.< w < ",
"- - - - , , , , , - r U.v , , , , , , e e , i ^ BXUXUXUXDXn e , , - - 1 x - # # % : # # # # e.2 # - , , , w f I g  .6.4.*.*.P S y S H P P P f f f L Y I Y Y @.P <.*.) v.M.v.>.*.Y Y Y H H P J Y J J J L J g X.#. .o.L 2.<.f f f f f w < s < < < f h L Y P H K J K L H H H f < b 2 # # # # - : # # # # o # o o o # o # # # o y.{.8 o : % # o o q.qX: # 1 , n LXUXUX].o - - - 0.r.# 2 v - , - - - - - - - 1 , - , - - - - - 1 - - - # - - - - - - - - - 2 r 2 , - - - - - - : 0.0.# # - - : # - ; : # # : : # # # # # # : # # # # # # : # # - # o # 2 % # # o # # # : # # # # # # # # # # # o # # # o # o o # o o o o o . o o o o o o . . o o o o O % . o o #   . o o o > Z > > ].x > % : 2 2 - - - - - - - - - 2 ).x # - , - , , e i , - ).NXrX- q F ! u.2.I.|.U.! ! T u r , - i.8.- , , , , - , , - , - , - - - - : : : - - - - - 2 1 - , - - # - 0.2 # - - - 1 - - - # - # - 1 , - - , - - - - - - , , , - , - - , e , w v - - - - - - # # - # o # - - - - - # # # # # # # # : : - - , , , , , , - ; # # : - : - - - - - 2 n < < d h w < , b s < < - |.lXw w w ",
"- - - e v , , , , , e - , q , q , , , , e e R ! _.DXIXGX].r n k , r - # % % - # - : # # # : [.z # - - , - , f H H Y L (.~.f f t t y H Y Y J f f H L Y :.*.@.Y I I U I &.l.:.*...U H H H y U K f g g J L L f J 1.X.X.X.1...J J L H H f f w , < w K h J Y H U f f f f L J H f , , # # # # # - - : # # o o o o > > o # # # # #     # - : > # # o A [.> : - 2 > cXUXFX0.- 2 - - - v Q 2 1 , z , , , - - , , r r , , w.^ , , - - - - : - - - - # - - - - , 2 k z - - - - - - - - - - - : : - - - - - 6 ; # # # # # # % # # # % o # # # % > # o 8 c # % : # # % # % % : : > # # # # # # # # # o # # o # # % o o o o o % % A 0 o o o o o o . o o o o o o o & % o o o o o o # o # # o   # 2 : # A PX0Xo - - - , - - - 1 f.z a.n # - - , i r , o xXUXIXW , F } } 5XDXLXPXhX} ! F t , , # # , , - , , , , , - - - - - - - # : 1 # - - - - - - - - - - - - # z - # - - - 1 1 - - - - - - - , , - - # - - - - - , , - - , , e r r , - , , - - - r z s # # # ].q.o # # # # - # - : # # # % # # # 2 2 - e e , - - # # # - , - - - - - - # - ; ; ; 1 < , < h $.h < < h $.w w w ",
"- , - Q w.# , , , , e e , , , , , , , , , , e l T w.).r.v x v z - - - % > % # # # # # # # : : - # - o - - , h f f , /.IXJX/.h q y f H Y Y I J P U ` *.:.X.2.Y X.L f J =.*.4.X.X.*.L Y K y f f f J J J  .J f ..*.X.X.I J J L @.X.L J f f w t w w h K H H P K f f f f L Y <.2.$., , # # - - # # : : : o o o o Z {.# o % # # # # # # # # # % # # % o : ; , 2 > c ].e.1 r 2 - - - - - r z - 1 , 2 , , - - - - , , - i.w.- , - - - - e.0.# - - - - - - - 1 - - - - - - - - - - - # - # - : # : : # # 9 : # # # # # % % # > ; # : # # o % c % # > 9 # % : # o o lXmX% # # : # # # # : # # # # % # # % # # # o o o o o % . `.y.. o o o o o o o o o o o . o & o o o o o o o o o o o % # # % > . : NX X# ; - - - - - 2 1 # - w.2 # - , , , , e # [.FXhX, u F ! U.GXUXUXUXUX9Xi F q , , , , - , - , , , , , - - - - - - - - - - # # # - - , - # - - - - - - # - - - - - - - - - - - # - - r U.r , Q 2 - - - - - , , - , , v R , e e , , - - - - - 1 - # # hX].o 2 : # # # # > 9 o o : # # % # ; - - r r , - - : : # - 1 , - - - , - # 1 , # # - ; < < , h h s s - # , < s ",
", r , r w.e , , , , , , , , , , , , , , , , , e v i r l r v , - - - % # o % # # # # # # # # : ; : : t.9 # < < w h 1 U.LXPXU.s < w h y H <.Y I J I *.3.v.*.*.*.X...Y *.v.l.J < f 2.<.f y y t /./.w J ....J J ..J ..4.....P.L @.Y ..Y J y t t w w w f K J L H f p f @.J X.U 2.2.s r # # - - - : : : % o o # o # Z # # > # # # % # # % # # # # o > 2 % # , , z 2 - , r e - - - # - - - 1 1 - # , , r r - - , , - - # r k - - - 1 - > 2 - # - - - - - - - - - - - - - - - - - # - - - - - - # # # # # : # # # # # # # # % % # % # # # # % % # # # # # # # # # qXgX# o # # # # % > : # o # # # # # 9 > # > o o o o o # o . # # o o o . o o o . . o o o o o > % o o o o o o # o # > # # # o  XXXo - 2 - - - - - - - 1 - - - - , - - , , , , , - - - e u F T 9XUXUXIXIXUXNXW i q , , - , - - - , , , , - - - - - , - 1 1 - - : # # # # ; 2 2 s - - # - 2 - - - - - - - - - - - - - - - 2 w.- Q hXz # - - , , , , - , , , , - v n w., r , # - - - - - ; o o # 9 2 % # # # : # n q.: # : : # - - - , < , - # # # # - 1 , - 2 1 - # - : - ; ; - , < < f w w h < , , , - < ",
"- , - w.kXQ - , , , w , , , , , , , , , - , , , l r i ! e , , - # : : # ; # # # # # # # : : : : 1 - a.9 # 1 - < j h w P.p.< < - w ~ K H U U I P I ` l.D.n.:.4...X.:.j.S.k.!.zXeXX.U H t t y 2.2.J L J J J I X.*.*.X.1.Y L X.2.L =.*.Y H f h w w w f L K f f H f @.P.Y J Y K t j < , , - , - - : # # o o o # & . o o # o o # > % # # # # # # o # # # # - - , 1 r , , , - - - # : : # - - 0.r.- , - - , 2 - - # 8._.2 , - - - - - # # 1 1 - - - - - 1 - # r 2 - - - - - - - - - - - - 2 : # # # # - : : # : 2 # # # # # # 2 8 # % # % o # # # % # # : # # # . . % # # # # # 8 > o # % > % # # % : # > > # # # o o o o o o o o o o . o o o o o o o o o . 8 > o o # o o # & % o % # # o . mXBX: z # 9XHXa.o - - - - 1 - - - - - - - , , , , - - 1 e u ! F  XUXUXIXIXUXmXR h q , , - - - - - , , , , - - - - - , - 1 1 # - - - # - # - , z z # - - - - - - - - - - - - - - - - - - , , - - e 0.r - - - - , , - - - - , - , - 0.wX1 : , - - - # - - - # # # # # : # : # % o ].lX: # - - # - , , - - , , # # # # - ; - , ; : # # # ; - # # # 1 r p h f w , w , , 1 , < ",
"- , , , v , , , , , w e , , , , , , - , , , # - e e q R R - v jX0X> # # - # # # # # # : n : # - # # # # - - 1 < s s h - # h < - , y y y U Y I I ) :.n.H.N.v.*.I Y 1.n.S.g.MXUXLX5.H P y f U t t X.X.L Y X.X...4.6.X.1.P.2.J f <.1.*.U K w , w w w h K h y f f X.X.Y J J Y L f w < < 1 1 1 - - # # # # o o o # # o % o o o o o > > % > # # % # o % # : - - - - - , , - , # # x 2 x DX[.. ].[.o - - - 2 e - - - k n - # - - - - - - - 2 2 - - - - - - , r Q r - - - , , - # - - - - - - - - # # # - : # # % % # # # # : o f.BXA o # : : # # % % # # # # % # # # # # > % # % # # # # % > % : % : 9 n > # # o # # o o o o o o o o o o o o o & % o . o o o o o o o o o o # # # o o o % % % > 6 - : # 0XPXs.o - - - - - - , - - - - # r r , , , , - , u t T u.NXUXUXUXIX XF h e , , , - - - - , , , , - - - - - - # - - - - # - # # : # # : - - - - - - , - - - - - - - - - - - , - - , - , - # - , # - , - - - - - , - , W u.mXUXyX0., - - - - - : - # # % : : : # # % # . qXPXx o ; 9 > # - - - , - # # # # # # # # # - # # : # z : # # - 2 s p w h w h h - < < < v ",
"- - , , , , , , , , , , - # , , , , - , - e 0.r - , , , , o f.UXPX7 # - # 1 : # # # # # # - # # # - - - - - - , , w r < w w w w w t S H H Y Y P I 4.l.j.D.H.j.:...#.1.Y.n.uXLXVX<.U Y Y H H P f f K K Y 1.1.=.X...I ..JXVX, L X.Y Y P f h E w < w w p w w h K J f f Y L f H H f p < , , ; , - # % # o o o . o o o # o o o o o % # > > # o > > # # : # - - 1 : - - r z - - - 1 # r mX[.o - - , - - - - - - 1 - # - # - - - - - - - - - - - - - # , v r v n k r , - , 2 r - - - # - - - - - # - - # # # # # # # # # # # # x [.> # : # # # # % 8 # % # : # % # % # # # o : > # # # # # # o # - # c n # : # o # # o o o # o # o o o o & 8 o % o o o o o o o o o o o o o o o o o # % > > : # # : - 1 - 1 - - - 1 - - # - , - - - - - - , , , , , r , q t T T d.lXFXDX5X! R i e , , , - - - - - - , - - - - - 1 - - - - - # # - - - - - # - - - - - - - - - - , - - - - - - - , 2 , - - - - - - - , i.Q - , , - - , - - Q w.0.hXJX9Xx , 2 r - - - - - - # # : # # # # # # o [.fX2 o - : # # - , - - # o # # # # # # - # : # # - # : - # - , , < w K f p O.h , w w - Q ",
", - - , e , - , , , R , d. X, , , , - - - , kX].# , - : # % 2 9X[.# # - - s 2 # : : # # # - - - - - - - - - , , e , R r , t i t y y S H S H U P I Y P.7XY.A.C.l.=.X.1.6./././.Y.<.<.Y Y Y H H H y t f U X.:.*.I J I X.eX7XK L J U J P , ~.kXh , < w < , < w K L L L L J L J L E h < 1 , , , # : > # o # y.Z o o o o o o o # % # o o o o o > 9 # # o c n # # # - o  X9X- - 2 k d.Q . # , , , - - - - - , , z z # 2 k - - - - - - - - - - 1 1 - - - r , - # - - , , - , 2 , - - - - - - # # - - # z 2 # # # : # # # # # : : . # # # : : # # # # % # o % # o # : > # # # # > : # # # # # # # : # - 2 : # # # # # o # o # # o o o o o o 9 o o o o o o o $ o 9 c o o o # # o # o % > # # # : # 9 0.9 # # - 1 1 2 - - - - - , - - # - - , , , , , e , , u u ! ! R u.~ i ! i e , , , , , - - - - - , , r - - - 1 - # - - # # - - , 1 - # - 2 : - - z , # - 1 1 - - - - - - - - - , - - - - v z - - , i.v - , , , - , - - 1 , o r }.# # , 2 , - - , - # - - : # : # # # # # 9 .   # - - # # : - 1 , o qXxX: # # # # # : : # q.c # # - # # - < s w h 2.L f w w f w q w , ",
"- , , , , , 2 e , , v - wXBX, , , , , , , - w.z - - # - # # 7   f.f.# - - - # # : - - # - 1 - # # - - - - , < , w < i w u y f y y U U U H U H J J *.CXUXkXk.C.j.l.n.:.~.GXLX[.f P.M.Y U Y H y H y h y P *.<.X.I I X.*.H J X.J H U y 2.|.E w.s b s , , , w s j L L J f f L L j f p s < , < 2 - $ # # # # Z 9 o o o o # o o # # # o % # # o # % # # # > 2 : > # # # n n - : e.d.U.w.# , , - , - - - - - , , , 2 - 1 2 - - - - - - - , - - - - - - - - - - - - - - - - - - - - - - - - - # # # # # 1 : # # # # # # # # > 9 : 2 : n 9 - # # # > # # % # % % # % # # # % q.8 # : > # # # # # # : . {.IX9X. # # # # # % % % # # # o # o o o o 8 9 # o o # o o 9 9 o # # o # # % # o > x : # # # # : : # - : 1 1 # # - - - - - - # # - - , , , , , - , e e u u F U K K R n k , , , , - , , , , - - - , r - - - # - 0.x # ].r.# - - - - - - 2 - # - 1 - - 1 - , , - - - - - - - - - - - - - Q z - , , # , i.e , , - - - , - , , r Q , , - - - - # - - - - - - 1 # f.s.o # # # # # # : : % # - - - - o qXxX% # # # # - # # # z : - , - - 2 , # s E y J J K h K h f i w , ",
"2 , r v , , e e - , , - e v , e e r , , , , - - , # - # # % : o r.A # , - - # - - - - - - , - - # , - - , < r e e i w t y f y y t U U Y H L U Y I &.CXUXkXj.l.*.*.D.l.3XUXUXhXJ M.5.*.P U y U y K K y H *.*.Y X.I X.Y P.5.J K y f K E $.w < < v r - - , < e.$.w L f f p h p w w p p < < 6 3 ; # % o o # o o # o o o o o o o o o # # o # # o # # # # # # % o # # 2 - # - x 1 # , , w 2 - , - - - - - - - - - - - - # - - - - - - - - - - - - - - - - - - - - - - - - , , , - - - - - - # - - - - # # # # # : # - # # 8 > # 8 a.LXhX. : # # 9 c o : # # # # # # # % # c > # # # # # # # : > # . [.PXXXo : # # # # > # % # # % o o o o o o 3 0 & o o o o o o o # o o # # o > 0 # # : % # : : : # # # # # # - - - - - 2 1 # # # - - , - , v v r , q r , e q t t t kXwXo 2 , , , , , , , , , - - - - - - - v a.- x 2 # [.a.# - - - - - - - - - - - # 2 v - - - - - - - - - - - - , , - , - - , - , , , Q , - , , , - - , - , , , 1 , , - - - - - - - - - - - - x c o # # # % o # # # # > : # - - - # o % : # - # - #   - # - 1 , - 1 x 1 - v E f f L L J h h t i w , ",
"r , , , , , , , , , 2 Q , - - - e i , , , , , , - - # - - 2 2 # # # - ; : - # - - - , , 1 1 , , - - - - , , e 2 , , , i K y q y y H y S U U J Y 3.:.Y.7XN.G.6.1.=.n.G.V.kXMXP.` ` ) ) H Y U y H t q w K Y Y I Y I H I X.<.L y t R K , , < < , - - , 1 - 1 r r f h w w w < < < w p < < s s ; # # o # % o % # o % # o o o # # o o o o o # # o # # % # # # : 9 > # : - - - - s.8., r - - z , - - - - - - - - , , - - , - - - - , - - - - - - - - - , - - - , , - - - - - - 2 - - - - - - - # - # # - : # # : x ; # - # o # : # c jX Xo # # % > x % # # : o % # # # # % o o % # # # > : o % : # # # 8 # # # : 2 > # o o > > o # # o $ # o # o o o o o o & # o # # & % # o o # & # # # # # # : : # # : # 2 2 - - - - - - - - : : - - , , , e r 1 - , , - , , , e , }.].# # , r , , e r - , , - - - - - - # n ].# # - - # # - - - , - - - - 2 - - - - , - - - - v 2 - - - - - - , , , - - - , , , , , , - , , , , , - - , - , , , , , - - 2 r - - - - # - - - - # # # - # # # 9 9 # # # % # # - - - # # : 1 # # # # x 0Xn - r , r , , , - , , y f y f f @.h w w w , , ",
"- , - , , , e , , , , v - v 9Xv - , , , , - - - - - - - , - - - - : : : : # - - - , , 2 2 < 1 , - - - , , - - , e e , w t p.~., t y H S S U U ) :.:.-.) n.v.v.N.m.l.G.N.Y.N.v.M.) *.I P Y H f t 2.d., y P U U P H f J H f K y t ^ W , < , - - - : # # - - , r i w w < < ; ; < p < ; - ; ; # o o o o # # # o o # o > > o # % # o o o # o # # # # > x # . A HX'.o 1 1 2 o XXIXFXx # x z z , r.Q - 2 - - - - - - , , - , , - - , - - - - - - - - , v , - - - , - - , - , , - - - - - - - # # : : 2 : # : : # : # # : x f.q.# : # o o - # : % # # # # > 8 # : > o % % # # % o # # # # # # # # # # o o # % % % : : # > o . # # % # # o # # o # o o o o o # # o o o # % > # # o # % # # # # # # # : # - # x c - - - - - - - : 1 - - - - e e - - - - - , , , , - - , # # q , , e , - , , , , - - - - - - - , - # - - - - : 1 , , , , # # - - - - - - - , - - - - r , - - - - - , , , , - - - , - , , , , , , , , , , - , - , - - - , , - , , 1 , - - - - - - , - - - - - : : # 8 > : c # % # # - - , - # # : : # # # n hXn - 2 , r , , < - < w y y f H H f p.O.< , - - ",
"- , , , - Q i., , , , - - v ].r - , , , , , - - - - - 1 v - , 2 - # - > # # # o - - , , , < , - - , , 2 , - - - v 2 r w , E P.y K H H H H U U I I ) l.n.N.N.N.H.H.N.N.N.z.D.K.v.*.) I 3.Y H y q h h w y y U P y y f f U U f t q , w r , , , , - : - # # # - , w y w < ; < ; , < - - - # # # o # o o o # o # > % o > % o # # # o # # # o # # # # # % # o 9 9X0.o n n , o rXUXPXn . r.r.# - v r 2 2 - , - - , - e s - - - - # o - - - - - - - - - , - - - - , 2 2 : - - - - 2 1 - - - 1 - : : # - # # # # # # # # : z A 9 # % - : : # # # # % ; # # # > 9 # % % # # # # # # o # # # # # # o o # # o # # # # # # # % 8 > o # # # # # o o o # % o o o o # # # # # o o # o # o # # % $ o # # # # # : : # : # # - # - - 1 2 : # - - - - , - , , - - , , - , e , - - , q q q , - , , , - - - - - - - - # - 1 - - z - # - 1 o o e e - r.r.- , - - - - - - - - - - - - - - - - - - , - - , , - , , - , , , , , , , , , , - , e - - , - # n a., - , - - - - - - , - - - : : % # 2 ; # n '.# o # - # # - 1 2 2 : 9 # - # - # - n v < - , , - , , w t t H y f t }.p.- , z 1 ",
", , , , , e v e , , , , , , - , , , , - - - , - - - - - - - 1 - - - - # - # # r.r - , r , , r , , q q e , - - - - 1 e , h P.Y [ ` P K U P P I J Y :.j.m.G.N.N.n.n.v.V.N.N.D.D.>.&.I I 5.Y y w q t t i K y w y y y K f f K t t , , w w w , , , - - # # o # - < s h w , - ; ; : : # # # # # o # c & # # # > # > # % # o o o # # > # # # # # # # # # # # # # o - - - - - 9XDXkXd.- , , - - , - , , - - , , - , , , , - - - # n a., v , , - - - 1 n 1 - - - - , lXXX. 1 , - # z v - , - - - x s # - , - # # # - # # # # # # # # # : 1 - # # # # % # # # : > # # # # # # o o o o o o o # o o # o # # # % # # # # # o c DXDX9 o > o o o # % # # # # > # # # # # # # o # o o o o o # ; $ o # % # # x 2 # - # - # # # # - - - - - - - - - - , , , - - , , - , e , , , - , , , , , , , - - , - - - - - - - - # : - # # # - - s.}.r # s.LXLXa.# e , - - # - - - - - - - - - - , - , - , v 2 - - , , , , e e , , e , - , , - - , , - - - # z e., , , 2 - - # # - - , - # # # # # - ; - # o # x : # # # # : 2 2 o # # # - - - # 1 x s , 2 1 - , , i i w i w h y , - , , r , ",
"# - , , e - , v , - , , , , , , , , - - - , - , , - , - - - - - - - 1 1 - % # s.s - , r w , h h w t t q , - - - - 1 e w h /.5.P [ Y U 2.Y ) :.) *.>.j.N.G.N.:.>.-.-.z.D.K.G.v.>.&.:.) P U y w q q t t K y w w , , y y y f w , w w , w q , , w , - # o o # - 1 s w < , 1 : : - : % # o # o o % > % % # o & # o # # # NXNXo o % % # # # % % # # # : : # # # - 1 - 1 - # hXUXf.o v , , , - , e - 2 e , - , - - , , , - - - # }.hX- 2 , - - - - - z n 2 - - - z }.e., i q e , - , , , - # - 2 2 - # - - # # - - # # # : # # # # # # # - - # # % # # : # # o # # # # # # # # o o o # > o o o o o # # # o o # # o # . q.UXPXc o > o o o & # # o o % 2 : # # : # # o o o o # o o o # # # ; ; # # # 2 : # - - # - - - - - - # - - - - - - - r v - - , - , r , , , , - , , - , , , , , , - - - , , - - - 1 1 # : 1 # # : - 2 HXUXi.  s.UXIXs.o , - - - # # 1 1 - - - - , - - 2 , , - , r , , - , - - , e , - , , , , - , , , , , , - - - - # - , , z - # , , u q w e , - - : # # # # # # # s.c # # # # # # # # > - # - - # : - : - - ; 1 - - w r w r w , w w e , - - r 2 ",
"W v , , , , e , , , e , , , , , , , , , - v e - - - - - k 2 - - 1 - - 1 - : - # , - - , w r r h y y y q i , , - - , , w y y H P J *.*.<.) &.>.:.:.>.-.l.N.>.&.*.&.j.z.z.N.N.M.Y.>.:.*.P H y w w e q F t y R , , , q t y y t q w r e , r r , < , - # # # # ; 1 < < < 1 - # % : # : 9 # # o # o o % o # # o # % o o o NXNX% o # # # # o # # # : : # # # # : : - - - : 1 r i.v , , , 2 - - - , - , r , - , , - - - - - - - - 2 z - - - - - - - - # - - - - - , # q U F t h i w , , - # # # # - - # - - - - - - # # # # # # : : - : : # # # # % # : 3 % # # # # # # # # # # o # # 7 q.> o o # % c > # o % # # # > # : '.y.o # o o > 8 o o o # # # - ; : # # ; % # # o o # o # # # # # # ; ; : - # # - - - , - - , , , - - - - - 1 - - - , , , , - , W r , , , , , h w , , , , , , , - , - , , - - - - - - - # # - : - 1 0XlXv - - ].].# : # . # - - - - - - - - - - - - , - - , - - w.n - - - , , , , , , , - , , , , e , , , , , - - - - , - 2 bX5X- K F t i R i e , , # # # # : # # 2 : # # # - - - # - 2 - - - # # # # 1 - - - - , , w , , < < , 2 - - , , - z 2 ",
"PXmX# - , - , , , , , , , , , - , , , - , 2 e - r z - , v z - - x 2 # 2 1 - - - - s r , , , w h y y y t R r , , - e r q y K K J P *.v.3.*.) ] g.z.>.>.l.l.l.-.) ) :.:.:.l.:.v.N.:.&.` Y U y t w , r i i R E , , , , w t q q q w Q e < w , , - - - - : # - # - < , < 2 - # c {.> # > & o % % o . o # # o # # o o % % # # # % o # # # # # # # : : # # - # 2 2 - - - - 2 r # - e , - - - - , - 2 , - , - , , - - - - - - - - - # - , , - - , - - - - - - - , , q U t q z , v R w , - # # - # - 1 - # - - - - - - # - # # : 1 : - - # # # # > % # # # # % % # 8 > % # # o % % 7 9 # # o # o o # > # # # o o # # > : # . o # # # # % > # % % # # - # - ; - - ; ; # o # # # o : 0 > # # # # - 1 - : : # - - 2 , , , w w , 2 : - 1 1 , - - - , , , - , i , , , , w q , , , , , , , , , , r , - - - - - - # # - : - - o - - # - - z - r.r.# : > qX[.# - - - - - - - - - - - - - - - - r w.n - , , , , - , , - , , , , - , , , , , , - , - - - - , z MXwX, ! F ^ +.e ! F q - # # # - c : # # # # # # # # - # # # - , - - - # # 1 - - , , , , , , , - z 2 - - , , - - - - ",
"rX X# , , , , - , , , , - , v , , , , i.e - - - v Q - - - - - - - # - - - - - - - h v , , , < e f H K y h r , , , r h t y U @.O.y H v.v.:.:.j.z.z.:.*.>.l.l.j.-.:.:.*.4.M.j.-.-.-.:.` P P y w q , , , r r , , , , , , i ~ u w - , - , , - , , , , - - # ; ; ; s b 1 ; : : > t.: c 9 o o # o o V 0 o o # o # o o o # o # # # % % o # # # # o # # # # # # - - - - - - , r - , , e , , - - , - e r - - , - , , , - - - - - - - 2 - , , , - - - - - - - - - - , i F 5XrXxXjXa.h v , - - - - - - - - - - - - - - - - - - - - - : - # # # # : 9 : # # # # % o # 9 % o # # o # # % & # # o o o # o o o o # o # o # # # # % # # % # # # # # # : : # - # - - , - # # # # > & # % : 2 : # - # , n s - - # # o - - , , q w y w , : - - - - , , r r , , , , - , , , , , q , q q , , , , , , - , , , , e - - - - - # : z : a.n % 1 : : 1 - v v : o f.UXPXv - - - - - - - - - - - - - 1 - - , # - , 2 , , , - - e 2 - , , , , , , , , - , , , , - 1 n , , - , R h 9XFXFXqXv ! i , # # # - - # # # # # # # # # # - # # - , - # # # # - - 1 , , , , - - - - n 2 # # - , , - - - ",
"# # , , - , , , , , , , , e w e i , v hXv - - - , - - - - 2 2 - - - - - - - - v r , , , , , , R P.U t t h i , , , , w K U ~ @.2.|.(.3.b.M.>.v.n.z.) I :.v.j.j.:.:.:.4.4.v.) ) &.-.:.*.I U y h w , , , , , , - - e , , i ^ , , , - 1 - i.0.- , , , - - - - - ; 1 6 ; # % # o o . jXcXo o o o o q.A > # o # o o # o o > A o o % # # # o # # : # # - - - - - # # - # - - - - , - - e e - - - , , r r - , - r Q , - - - - - - , 2 , - v i.- - - - - - - - - , e e r DXUXUXUXDXr.v e - - - 2 - - - - - - # # - - - # - 1 - # # - : - o o # # # # # # # # # A 9 o # % # # # # o o o # o o # # o o o # & & o # o % o % # # # # # # o : c : # : # - - - 4 < - ; - - ; : # # - : # # # # - - - v < < # # r.'.- , , w r w t w e , - - - - , 2 v r - , , , , q , , , q q q F q , , , , , - - - - - 2 r - - - - - # # : 2 ].n # - # # - , , - - # V fXXXv , - - - - - - - - - - - - z z , - - - - - - , , - , w.w., , , , , - , e , h r , , , - , z - - , i i ].IXUXUXUX Xw i , - # - - - # # # % # # # # # - # # # # - ; - # - - < < , 1 z 2 , , - - - 1 ; # # 2 z - , 1 - ",
"- - Q r , , , , , , , , r r , - e e , v , - , , , e , , - Q 2 - - - - - - - - 5Xw.- , , e h h L L U ~ L h q w < w , i K K ~ t wXUXPX/.:.v.m.m.l.j.&.:.v.v.:.*.*.:.v.b.3.3.I I &.&.) ` ) U y t q e , , q , , , , v r , , ^ U., - - - - e.Q - - 2 - - 2 , , 1 ; - ; - # o o o > : t.].% o o # 7 o o o o o o # o # o # o % # o # % # # % # : MXXX  # - - , # 2 x - - , - - - - - - - , , e , , , , , - - , e 2 , , - - - - - - - - - , , , , - - - - - - - , , r - jXUXIXUXUX Xe r , - - - - - - - # , # . # - - - - 1 # o - - : # c A # # # # # % : o #  Xr.. # 9 [.: : : % # o # o # # # # % # o > > o # # # # # # # # # # # # : 2 - : - : ; ; 1 < < < < < 1 - - - - ; - ; ; ; - - - , , < < # o hXHXv # e , w w t w r - - - - - , - w.i.- , , , , , , q e r , i u.i , , , , , , e , - - - - - - # - 1 # # - : # # - - - # - , , , - - # # # , , , - - - - - - - - - - - - r 1 # - - - , , - - - , , , 2 , , r , , , , , 5X].- , e , - - - , , h u rXUXIXIXUXhXq i , : # - - # # : # : # # - # # - # # # # - - 2 , , < p L  .< z 2 - - - : # - - # - 2 2 - - 1 - ",
", - , , , , , , , , , , R r - w , e , - , , , , , , - , v , - - - - - - - - r v e , e , r Q f y H Y nX3Xq ~ h w , q h h w K q rXUXUX|.) N.m.m.>.&.*.v.v.l.>.:.<.4.:.` 4.) X.*.I I &.) P S y w , q e q , , - 2 , - , w , Q U., - - - - # 1 n - - - , - , - 2 ; - ; # # # o o # : o . # o # % & o o o o o # # # # # o # # # o % > # > n o : 9Xs.o - - # - - r.r.# 1 - 1 - - - - - - - , v e - - , , , - , e , , - - - - - - - - - , , , - # 1 - - - - - - - , z 2 0XUXUXUXIX].r 2 , 2 - # , 1 - # - # s.lXb o - , , o s.].# - ; o ].9Xo # # # % # # # # # # # # > a.: # # > # . o # # # # o % % % # # # # # # # o # # # # # # : # # - # # : ; 2 1 < < p w < < r , , , , < j < ; , - 1 , r h , - - Q d.< 1 v , , w h i v r - - - , - , , - , , , , , , , , e e , q q t q , , , - , Q , - - - - - # z x : # # - : : - - # # : , , , , e n - - 1 , , , - 1 1 - - - - - - - - - - - - - - , n , , - 2 r - - - - , v , , , , , a.U.- w e v Q , - - , i i }.LXUXUXUX Xi i , - - , - # # # # # # # # # # - # # : # # - ; < < < < 7XbX< # # # # # # - n z - - - - - - - - ",
"e r - - - , , , , w e , , - - , , Q $., , , , , , , - - 2 - - - - - - - - - , - - , , e e w , t P U /.5.H <.y w q q t q w $.E E rX6X@.m.v.v.4.6.&.:.>.v.v.>.4.v.1.!.eXVXVX4.*.:.*.) *.Y S t y w , q t q , , , , - , e r , # - - 1 - - - - z - - n n # # ; 2 - < ; # o o o o # # : # % > # o o o o o o o % # o # o # # o # o # # o % > # #   . - - 2 - - 2 1 - - - - 8., - , - - - - - - - , , - - - , - , - - - - - - 1 - - - - , , - f.'.- - - - - - - - , e R 0.jXPXKX0Xv i e , , - # # - - - - o f.cXz # - - - # r.a.# # , - - : : : % # # # o : > : 9 : % # o : > # o 9 '.7 o o % > # o & > # o   # o # # % # # # # # # : % : - # # # ; , 2 < s p w w w R e q u q W b < < < , 1 r w f y < w , # w p E w , w w w , - - , - - , - , , , , , , , , , e i , , q , , q , , , r v - - - - - - - - 2 2 # - : # - : - - - - - - i.w.- < 2 - - - 2 8.- - - - - - - - - - - - - - , - - - - - - - - , , , - - , , 2 , , e i e U.}.- R q R w., , - , w v ! 5XDXDX0XQ ! r , - - - - - ; # # # # # # - # - - # # # - ; - < < p < P.3X< # # - # # - : - : - - , - # - 1 1 ",
", , - - , , , , , , e e , i.Q , , r r , , , , , , , - - - , - - - - - - - - , , - , , , , , t f H Y I Y I U H y y t i t t h R h y L <.<.:.&.4.m.4.:.:.M.M.>.l.>.) nXUXJXVXb.*.*.J *.` Y H q t w w t t q , , , - , , , , , , , , # - - - - # - - 2 2 - ; < 2 1 6 - > % o o # # # # : % 2 % # # o o o o # # o o o # # # # o o % > # # o % # 2 x - # - , - - - - - - - , - - , - - - - - - - - - - , - - , , , - - , , , - - - , - - - - PXUXx # 2 # - - # - - , v b v U.a.r v v , - # # # # # - - - - - # - - - - - # # # : - # - # # - : : : o '. X# . r. X> # # # : % # . q.lXc o # % % # o # # o > y.0 o # o 8 % o # # # # # # # # # - # - 0.b , < w w w K F R u t u u i s w , , r ].$.f f f w t h 2.y w w w w w w hX}.- 2 2 r , , , - , , , , , , , r ^ q # - e i , , , - e , - - - - - - - - - - 1 - # # - # # - - 1 - - k 1 z - - 8.i.# 1 5X# 1 2 : - - - - - # - - - - 2 x 7 - - - - - - - - 1 , - - - , , , i R R wXrX- R K t q , , - U.Q w R K u.i.r W Q r 1 # # - - : % # % # 9 2 # # # - : # : 2 - # - - - < p w w w - - - - - # # # # # - - - ; : - - ",
"- - , - , , , - , e , q q U.w.r Q e - , e , , , , - - - , - - , r r - - - - , , , , , - - w w y P *.3.&.) [ Y S S y y y K y q i t P.3XJ X.&.:.>.:.:.:.>.M.>.>.>.I 7XMXP.I 4.X.J Y Y { Y y t y E h t y U u , - , , - , , - < - - - # - - - ; - # - , 2 ; , < 2 < - 2 > o o # # # - : - : 8 # # o o o o # # # o . & o # o o o o # # # # # # 2 x # # - - - - - # 1 - - - - - - - , , - , - - , - , , - , - # , , - , , - - - - - - , - - 0XrX1 # # # # # # - - - : r v r e r 2 , - , # # # - - # # - - # - : - - - - : # # 1 1 - 2 - , - 2 : # o XXfX# # : : % # # : # # : : o > % # o # % o o o # o 0 hXy.  o o o # o o # # # # # # : : # # - z 0.s w w h L K F D F sXdX9.u q , < , e ^ U L Y P H H y y K K L f w w s lX X# , - v 2 - , r , E , , q , , , , , yX5X- b , , , , , e , , - - - - - - - - 2 # : - # # - - - - , - # # # - - r.d.c jXPXsX Xe.# - - - - - # # # : - # s.s.1 - 2 - - # - # # - - - - - R i.R u.$.9XmXlX].K R q e - - r.w.e r v i v h r r 1 - # - - - # # % n 2 % : : : - - - # 0.[.; - - # - - - p f w , , , 1 1 # # # # # # # : 2 1 - - ",
"- - , , , - , , , e , , , - - e r - , , , , , , , , - - - , - - , , - - - - - r , - , , , , t H P ) M.v.:.` ` U P S S K ~ K q w K { 5.p.X.*.:.&.) ) ` :.>.4.=.*.=.:.&.*.1.<.f eXHX/.H <.y H y ~ U y y y w , , w , , , , , , , - - - 1 - - , - : - 1 0.1 # , < - : # # o o o # : : # - : > % o o # # o o & o 0 Z o # o o # o o o o # # # # # # - - , - - - - - - - - , - - - - , , , , , - - - - , , - k i., - - - - - - - - - - , - - . . - - - # # - # - - : # - e e r : # - - - - 0 : - # # - - - - - - 1 ; - # : : - - # : - - # - - : # - o o # # # # : # : : > # > & # o o % % # # o o o o % o # o o 7 y.> o # o o # # # # # # # - - - # 1 s w w y ~ K F t b.KXKXL.q e , , , , q K Y <.*.Y Y P y U Y ~ K h t , # - 2 - , - - , , v e v E w , , , , , - rX|.- , , , - - e d.z - - - - - - - : - - - 1 - # # - - - - 1 : % > # # 1 , - 0.NXUXNXq.z 1 # - - - - # # # - - - - 1 2 - 1 o f.MXz x r., - - - - v u.w.u.5XBXLXPX X^ ! u e , - # - , , e e r e - : # # : 2 - - # # # 2 : # # # : # # - # 6 n - : # # # 1 - , < w w w , < 1 - : # # # # # - , - - - ",
"- - r r , , , , , , , , , , , , , r e - , , , , , , , - - , - - - - - - - - # 1 2 , , , , , q H P :.v.4.*.P _ ` U S S U U y q h ~ U t Y @.) Y J P P P [ <.*.4.4.>.>.>.M.4.*.y zXUXeXt <.Y I I U Y H f f w w w w h w w w w , , - - - 1 # - , , , , r 2 - : : # # % # # # # o o # # # ; ; # # o o o o o # # . Z y.o o o o o o # : > % > o # : # # # - - - - - - - - - - - - - - - - - , - - - - - - , - r $.< - - - - - - 1 - - 1 - w.d.: 2 z - - - # # # # - 6 > # - - - : % # - - , : - # ; 6 ; # # - - # # - - - ; - - - , - , - # - , 2 % # # # # # # - # # % # : # # # # # # : > # # # > # # # o . o # % 9 # % # # # # # # - : - n z , , - # ; w f H U f K 5.[ 4X2XD e , , , , t U Y ) *.) :.*.Y P P Y Y K y t q - 2 z - , , , , , - , , r w , , , , q q - - e , , , - o - r , - , - - - - - - - 1 +.- - - # - - - - # - # r.a.# : , - o n rXz # v z - - - - - # # - - - # - # # - - # 0.0X: x a.1 # - , e q u v [.PXUXUXLX9Xw.} u t , - - - - - - , - - - - - : 2 - - # : : # # # - # # # # - - # # # # - 2 - - - - - , , , h , , , - - . # : # : - , 1 : # ",
"- - , , - , , , , , , , , , , , , U.w.- , - , , , , , , , - - - - - - - - - - 1 2 , , , - i.u.y 3.:.4.&.) P ` Y H y { <.K y t h y f f f J L L L H f K U H *.3.v.:.I >X^.P.M.J p.|.1.L X.=.*.) Y U P H f w w w w h y w s h w < 1 - - s $.< w < < - 2 - - : . # # # # # # o o % # o > 9 ; # # # # o o # # o # o o o o & o o # o > 8 % # 9 : # # - # - - - - - - - - - - - - - - - # - r < - # - - - - , , - , , , - - - - 1 1 - - - 0.].r., - , - - : # # # - 1 : # # # # % : # # - - - - # n a.; # # # # [.0.# - z x - - - - - - # - , - 1 # # % # # # : : : 9 & # # # # # # # # # # # # % c > # o # # # o o o o # # # # # # # : : , e.Q r < s < 4 h P U L j $.2.` G t D q e e , q y H I *.4.*.*.X.P.*.H U L K y q e , , - - - r , - , , , , , , e , , q , , , , , , , - i.9Xr - , , , - - - - - - - 1 x , - - - - # - # - # o n n - - - x 0.1 r.- , , , , - - # # # - 9 : # # # : # # - , - o - - # # - - , w t U.rXDXUXUXIXUXFXlX5XD t , - - - - 1 2 - , - - # o  XrXo # # A 8 # : # # - - : # - - # # : - - - - - - - - - 2 v , , , , 1 2 f.0.% # # - - - - - ",
"r 2 - , - , , , , e , , , , , , e i e , , , , , , , - , , , , - - - - - - - - - , , , , - u.w.~ Y :.x.;.) ) 4.&.P H ~ K t y i t q t f H H f f f K f y y H <.<.*.>.>.4.4.4.*.Y L t @.<.1.4.4.&.) I U U y w y y y y w w w s < , , , # n 9X6X+., 1 1 - - # : f.9 o # # # # # o # % # 6 z - : ; # # 9 % o # # # o # o # & # % # o # # # o 8 ; # : # # - - - - - - - - - - # , - - # 9XyX# - - 2 s - - e , , - - , - - , - - - 1 - - - # - - # - - - - # # # - - # - - # - # # # # # 1 - - - # - 1 - - # # % [.r.# - 1 - - - - - , - - - - - # - : # # # # > x : > # # # # # # # # # o # # # o # % & # # # o o # o o % : - # # # # - - - - 2 v w h w h L Y Y @.@.$.E U { ! F q r r q w J U I I V.!.J U *.X.f f y w w q , , - , , , - , , , , , , , , , , q e , , , r e , , - U.lXv - , , , - - - - - , - - # - - - - # # - - # - 7 2 # - - o 8.].# , , - - - - , - - - # # : # # # # : - - - # , - 1 - - - - - - , i U.eXGXUXUXIXUXPXhXU.F q , - - - - z x - , - - - # t.f.# # # > : # # # 2 x # - - # - # # - - - # # - - - - - 2 n - - , 2 - x BX[.  # - - - : - # ",
"- , , , , r e , , , , , , , , , , - - , , , , , , , , 2 , - - - - - - - - , , , , , , , , , q K U :.;.E.1XN.&.:.I P y t t y t y t q q y K f y f K t , w w y P J I *.&...I Y Y H @.<.*.:.>.:.) I P Y U y t w y y h h w w s r , - - ; 1 b p.s . o - - - # : r.> o # # o # # o o o # - # - < ; # # 7 # # o # o o o # o o # o o # % # % : > % # # # - - - - - - - - - - - - - - - # a.].- - - s j - , W e , - - - - - 1 1 - - - - - - , # r.lXn # - - - # - - - - - # # - # # : # : n z - - - - - - - - - - o # - - 1 - - - - # # - - - - - - - # : 2 # o c q.# o 9 9 % # # # # # # % 9 : # # # # % # # o # # # # o % - : - # # # % - # , , , i H Y Y <.J J 5.5.` 2.2.{ { U U w , w f L X.X...*.4.Y I H f , , w < - , - # v [.r - , e , , , , , , , , v i e , , , r w - , , , - , , - - - - - - - - - - , 1 - - - - - - - - # # 1 z - # - - - - - # - , 2 - # - # - : : # # # # - # # - - # - z - 2 - - - - - - , r R v [.PXUXUXLX9XE R u e , - - - - - - # - - - - # ; : z 1 # # # # # # : 2 - # # - # - - - - 1 - - # - 1 2 - - - - - - 1 - , n 1 # : : # # - - # ",
"- , e - , Q e , , , r e # - r e , r e , , , i i , - , , e 2 - - - - - - - , , , , , , - , e w K P M.;.1XAX>XI :.I U t y y S F U K y q t t K u.K t t w , w f y 5.6.*.4.I 1./.H H *.Y 4.*.4.*.I I I U P f t y w t w s w s r w - - - - - # # 1 ~.e.# - - # # o # # # # # % o # > % # - 1 2 , - - # o o o o % % # # o # o & # o o # 9 % % q.> # # # - 1 - - - - 2 - - - 1 - - - - - # o - - - , , , q e e l 2 - - - - - - - - - : - - - o a.mX0.# - - - - , , - - - - ; : - # # # - : - # - - - - - , - - - - - - - - - - - # z x - - - 1 1 , , - - : o # 9 > o > > > # # # # # # # # : # # % : # o # % % x > # # # # # : - % # # # - 1 - , r w f L <.<.5.Y.2.P.4X/.5.5.5.<.H f h f f J Y *.X.J J I H f f }.$.- , , , < , z v , , - , , , , , , , , h W r , r v , , , , , , - - , - , - - 2 , - - - , - - 1 - - - - - - - - - : : # - # - - - # - - - - - - - # # # # # # # # # - # # ; - - 2 ; 1 : - - - - - - e i h w.a.5XDXHX9Xd.u.R u , - - x z - # - : - - # : # n c # : # : # : : # 1 ; : # # - # - - # - : - 1 - # - , , - : - - - , , - # : : # # - # # # % ",
"Q r - , e 2 , , , , e , w.R , , r r , , w i r , , , , - r r , , - - - - - - - - , - - - , , ! U Y M.^.>X1XN.j.` P t q q t U U ~ U K f t f U ~ y w w w , < h H <.1.*.>.I *.5.L J J P P I I I *.*.*.J H K t h w w w s < w , - - a.a.o - , # b UXcX. # # # % # % % # # > c # # > # ; < < r < , - # # # o o % # o # o o o o o # > % x > o # # # # # - - - - - - - - - - - - : - - - - - : - < e , u e , u , # - - - - - - - - # # - # - , # o # - , - - , - ; 2 2 1 1 n 1 - # # - - # ; , - - - - - - , , - - , , , - - - : % 0.t.# - - - - , , , # # # # o o # # # # # # # # # % > # # # # # # # # # % : x : # % c : # # : # # # % # # - , e < < h @.I kXJX6XMXIXHX6X2.3.I f J L f f H J Y Y J P P H f f bX~., , , - , e r , - - r , - , , , , , , , , , , , , , , , , , , , , , , , - - , - - - - - - - - - # - - - - # - # # - - # # : - # # # : - # # # - # # # # # : ; # # # : - : : z 2 # - - - - - - - # - i R R w.w.rXkXb u.! i e , - # x 2 , - # # - # : # # # # % # # # # # # # 1 - # - # # - - # - z - - # # - - - - - - - - - - , - : 9 : 2 : # # # # # ",
"2 2 , , , , , , e , - v GXkX# , , , , , , , , , , e , , , - - - - , - - - - - - - - - , , r F K b.M.4XB.N.j.j.) S t kXnXH S U U K f y q f K q q w w r < , y Y Y I :.&.*.*.t f f f H H Y Y H L L J L f w w w w , , Q e - , - - n n # , s , , [.a.# # # # # % % # # # % % # # # # 6 s s w , , , # % & # o o % o o o o # o o & c 7 # # # # : c : # # - - - 2 - - - - - - - - - - - - 1 1 - v v e e 9.9.e d.].; - , - 2 1 - # 1 : : 1 2 # # # : : # - , r n 2 : : s s 2 - # # # # - - - - - # # # 2 R t q r 1 r u r , - # z n - # - - # - 1 1 - - , # % # . o # # - : : # # # # # : : # # # # # # % # # # # # % % > # # - # # # # : # # # - , 1 < w @.<.uXMXNXUXIXUXFXp.{ U f f f K H H P U H H H P H y y t y w , , , , - - - , , v e , , , , q , , , , , , , , , , , e e , , - , , 2 - - - - - - - - - : - - s 2 - - - # 1 1 # # # # - # # : - # o # # # : : 2 : # # % % # : : # : : # - - # : - - - - - - - : 1 , i i R h wXyXr R ~ ! , - k 1 # - r - : : - # : # # % # - # : > # # # : # # : # - - - : - - - - - f.s.# - - - - # : 2 - - - - # # # c n o # # # # ",
", v , , , , , r h - , r 5X].- , , , , , , , , - i r - , , , - , , , , - - , - # ; - - , , q t U 5.P.eXY.M.b.` _ y t iXkXH K , P Y U H y y ~ y q t i t w w y Y <.*.3.*.Y *.H f f f f f J L J f j f L j f w w < < < 2 - - - - - n q.o ; : - - . . - - # # . q.].o # # # o # # > : # 1 < < w < , # 8 A o o > 8 o o o o . o o # % % % # # # # : : # - 1 # - - - - - - - - - - - , x 1 - - - , 1 - T SXmXu.HXUX9Xo - - z 2 # # s.'.o : 2 - : : : : # - , r n 0.[.].2 x 1 - - # # - # - - - - - # # , K t ! v - - i i , , - - 1 - - - - - , # 2 b - - - # # 0 > # # - - % # # # : # : # # # # # . [.rXo # # 2 : % # o # - - : # # # # # - - 2 , - , - Y 4.m.#.CXUXIXUXLXU.Y Y U h f K H y y t t y f y y h h t w e i w , e , - - - , , , , , , e t q , , e , , , , , , - r , , - - - - 2 , - - - - - - - - # # # 2 2 # # # # - - # - # # # # : : # o 2 x # # # 2  X9 # # : # ; : : # # # - # # # : : - - - - - - z v - , e r q ].}., i h R , # a.0.o 1 2 - : - : # # # - # : : % : # # : # # # - : : : : - # z 2 # : - 1 - o - - - - # : 1 - # - - # # # # # # # # # # ",
"2 2 , , v r - - , , , , - - , , < , , , , , , e , , - , , , - , - , z e , - - # 2 n # - , q F } P.~.kXU.5.5.3.` U y , q f <.7X5.t f H y y U y y y y t y y f Y Y I J I Y P U H t w w w w f p f < p g f h w w r < , - - - - - - 2 2 - # - # # # # # # : # o 9 q.# # % # # : # > : - , ; < w < , # : & # # # # o o & 8 0 7 o o # # # o # # : # # # 9 n # - - - - - - - - - - - 1 2 - - < 2 - , e u 8X8Xi.PXUX0Xo - - - - # : A 9 # # # # - # # # # , 2 r z lXUXIXrXk 2 : - # # - # - - - , - # # , q F K v  X5XE R r , e - - - - - - 1 - -  Xa.- - - # : [.c o - - # : : # 2 x # # # # - : # o y.].o # # 8 > # % : # - - - # % # # # # - 2 , # e.wXX.*.b.5.9XIXUXUXlX$.~ U K y y h y t q q t i y y y y y t , q W r , e - - , - - - , - , q R t q , , , , e , - , - , - - , - - , - - - - - 1 - # - - - - # - # # # # # # # # - # # # : # # # # % ]. X. % % : c : # # # # ; : # # # % % # # - # # : - - - - - - - - - , , , u.d.- r i v - - - - - - - # % > : # # % # # c > o # # # # # # - # # n r.> - # : : : k - ].[.- - - - # : # # 1 - - - # # : # # # # # # # ",
", - , , e , - , , , , , e , r R , , , , , , , , , , , , , e r - , , 2 2 , - - # - x n v e q ! w.p.eXGXkX5X2.} ` U K L K q 5.LX7XI.u.u S y y y f f y y y y y K H L U Y L Y Y y w w w , < p w < p p d a < r w , 1 - - - - # # # # - # # : # # # % # # # # # # o # # # # # c 9 # # - ; ; , < 1 , - : % # # # # # # o > y.9 o o o # # # % # % # ; : # - - - - - - - # , - - - - - - # - z 2 - e k 1 - - 1 ].5X< - 1 - # - : : : # % : % # # # o # # - , - }.UXUXUXPX0.# 2 : - 1 - - 1 - - , - # - , u ! h jXUXUXlXb i , e , - - - - - n - 9XHX].# , , , - > % : - - - # 1 - : 2 - - - - - - - # o . # : # # # # # # # - - # # # # # # # # - 1 - Q |.K ) Y.M.5.9XzXkXI.2.F t y w t y y q q q e w t y w q , w v i e , , , , - - - - - , , , , i ! i , , , , , , , , , - a.w.- - , - - - - - - - - 1 z ; - - - - - - - - - : # - : : : # # # : c ].2 > 9 # - > ; # : # # # # # # # # # # # # # # x q.: # - - - - - : - , - , - Q r.- - s v - - : - - - - # : : # : % % % % # # # # # # # : : # : # n ].# - - 9 : r - r.UXUX].. 1 - - - - - 2 - - # - : # # # # # # # # ",
", , , , , , , , , , h r , - r 5XW - , , , , , w e , , , , Q W - , v , - - , , r - - v i e u ! $.9XLXUXUXrXp.5.` U L h y y Y Y.<./.P.t y t y f K U H L H K Y h q }.JXnXK y K K , r E r < < h < p p d p.s.r < , 1 - - # # 9XfX1 # # - - # : # # # 2 9 # $ # % % # % # # # 2 ; # # # # : 1 < < ; - # % # # % # o # o o 9 > o # o # # # # # # # 9 9 # # 1 - - - # 0.s.# - - - - - - - - , , - 1 , 1 1 , e - # - - - - - # : # # > # % # # # # o # # - r , [.IXUXUXDXz : 1 - - - # , , v v q , # # , t q U.UXUXUXUXU.e e , , - - - - - k , XXUX0X# v , , - # # # - , - - 1 : # - - - 1 2 1 - : # # c f.% # 9 # : # # # , - # # # # # # : - - r , - - b 5.b.v.P.<.Y <.3.{ u q q w w h K y q e e 2 , , < e , r 5Xw.- , , , , , - - , , , - - }.u.u q , , , r , , , , , - i.w.- , - - - , , - - # # - 2 - # - - - : : # # : - # # # % # # # # > 8 x % o # # # c A o o # : # # # # # # # # # # # # x 0.: - # - - - - - - - - - - 1 2 - 1 - - - - : - - - - - # % # o 8 r.: # # # # # : % # : - # - # : : - # : [.n k - 0.HXKXa.# - - - - - - - - - - o # - # % % # # # # ",
"e - , , - r e - , , E , e , , r , , , , , , , r r , v v - , , , , , , - - - e r , , - , e i i.rXHXUXUXUXHXyX/.7X5.t K y y P t J H U P y y y H U U P H Y 4X2.y , ~.UXGXh q y ! r e r , , 2 s < < p - kXZXw , 2 ; # # # # vXHX9 o - # # # # # # # > > o # # o o # % % # # # # : # # o # < , ; 1 1 : # > # # o o o 7 % o # o o # # # # # o # # : - # - - # 1 n # 0.U.# - - - - - - - - - - , ; ; < , w - e f.z - - - 1 # # o # # > % # # # # # # # - < s z XXFXFX].7 2 : # - - : , # d.u., r - # , t q e.JXUXUXHX0.e e , - , - - - , , - 9XUXHXn , < - - # # - - - , 1 - # - # - - - - - 1 ; # # 2 q.9 A x # # : # # - # # # # # # # : - - - - ; # [.nX@.` v.{ { ~ h h i q , < w w f w , , , , - - , , , < r 1 - , - 1 v e - - , , - - , U.u.q u q , , v v , - , , , - , v e - - - - - - - - - - # # - , # # - # # # # # # # # # # # # % # # o # # # # # - : : x # # # o # > # # # # > : # : # # - : # - # - - - - # - - - 1 1 # - 2 - - , - - z - # # # # 2 > % 2 % % # # . r.{.: # # # - # # - # - : - : : z - # n 0.# - - - - # - - - - # z  Xx # # % > % % # # ",
"y w , , , , u l , , - , , , , , , , , , , , , , r r r , , , , , , r 2 , , - 2 , - - , , q i ^ i.yXUXUXUXlX/.I./.Y y t q t H P *.Y U K y t f H H H H P U P.<.Y f L (.P.w K f y t w < , , < < b < < < u.U.1 2 - # # # # : n 0.# # : # : : # # # # # # # # # # c : # # # # # # % # # # # - - , 1 - - : o # # o o # > & # o o # # o # % # % % : % # # - - - - 2 1 # o - - - - - - - - - , - - o - , - - - - 2 1 - - - - # : 8 # % > # % : # o % % : : , 2 9 > c 9 : c 1 - - - - 1 # o 9Xa.o , - - , w h e ].BXBX[.2 l r - 1 - - - - - , - [.UXDXz < , 2 - : # , < w , < < - # # # , ; - - # - # # # o 0.s.# # # # % # # # # # # # # # # - - - , 1 , b U.h U H S U h h r w q , w q w w q , - - - , , , h E w w w , - e , 2 , - - , - , , , - t K y w e e v - - , - , - , i r , - - - - - - - - - # - # 2 1 - # - - # # # # # # - # # # # % # # # # # : # # # # : c # # # > % % # # # # # : # # # - # # - - z : - - - # # - - , 1 - - : : o o : : ; - - : # # 8 8 o o % # o o o c q.# : : - # # - - # - 2 - - , # - , # # , , - , , 1 - - - - # x wXn o : # # # # o o ",
"f f < , , , T ^ , 1 , e q e , , , e r , , , , q q , , , , , , , , d.e.- , - - - v r , - ^ 8X~ i 2.hXPXhX5XI.b.S t P L f u.Y Y <.{ ! t K K f J I U S U } S 5.Y.<.<.w f ~ L y f f h f w w p h p.d w p , # 2 ; # # # # % : # o - - # o [.rXo # # # # # # : # # 9 > # # # # # # : # # # # - - - - - - # # # # o o o o % # # # # # # % # # : - % > # : # - - - # - - - - - - - - - - - - - - - s.n # # # # # 7 1 # # # # # # 8 # $ % o & # 7 > o # # : : - 1 z k 2 6 1 - , - - - x A [.PXcXr.w.s , , , r v r ! ^ t R , , - n 2 # - - 1 r e < f.n , e , 7 : : ; b f J (.6.w ; # # - - - < ; # # - : : # o 0.n o : # % # # # # # # # # # # : # - - - , , w r q t w w w r w w r w w i w , , , , - - - , , 5X3X, t t , , < , # - , , , , , , , , w K y v R r v - - - - - - , e - - - - - - - - # - 1 : - # - - - - # # # # # % # - - # # # # # : : : # # # : c : # # # # # . # # o : : # # # # - # 9 1 - - - - b - # - - 1 2 1 - - - - 6 : # '.'.% 7 # ; # # % % o o o o o # % t.> o o # # - - - - - - - - - - - - - - - - - - , , #  XsXo - - - - - # # - # # # # # # # ",
"Y H y , , e u i i i v u t q , e e , , , , , , , , , , , , , , , , r , - , , - # - r , , h ^ i ^ w.U.lX].yXI.<.P H h f j kX!.J ..I Y U 3X! y H U ! / / / ' b.Y.<.Y L h h w w p f h h h p h s < w < < < < - # # # # % # # : ; - - : o x 0.o # # # # # # : > > o # % # : # # # # # # # # 1 1 - - - 1 # # # # o # o o # o # # # # # % # # # # : ; # # # - , - - # - - - - - - - - - - - - o 8.UXjX. # - # - 2 1 - # # - : : # # # # # # o > > o o o : : # - 1 Q 2 - - - - - - - 0.[.xXUXIX0XU.Q - , , , r v e w u e , , - - # # - - - 2 2 , # - 1 , r - : # 6 p.s 3XAXpXp ; - # 7 2 # 3 $ o # - - # # # : o . # : % # # # # # # # # # # # - : - - - , b r , e q e , w w , h < < v , - - - , - - < < w ^ E y w t q , , , - , , , , , , , , , q f i e e , , , , - - , , - - - - - - - - - # - - - # - - - - # # # # # # o . # # # # # # # # # : # # # : : > : # # # # % 0Xt.o # % > % # # :  Xn z 2 - - # # , - # - x x x 2 - - , 1 1 # 9 UXUXA o # 2 ].9 # ; o # o # o o # y.> # - # - # # 1 - - - - - - - - - - - - - - - - - - +.i.# - - - - - - # - # # # # # # # ",
"U P S q q F F ! K K K ! D u q u q , , , , , , , , , , , , , , , , , , - , - - Q a.- , , q h i i E u.9XhXHX5X! U K y w h ~ U J ..J P K K S K U ! 9.dXSX@X/ [ P { K y < , - 1 s w f h h f w w s p < 2 < ; : # # # # > # : ; - , ; # x : o # # # # # # # # % : # # : # # # # > # # # # # - 1 - b s : # o > % o # # # # o # # % % # # # # # # % # # # # # - - - - - - - - # - - - - - - - # : rXf.o - - - - # - - 0.r.# 1 9 # # # o o o # o o # # # # # : # : # # # # : - - - 1 : o : mX9X- - - - , - , , e e v v , - - - - - - # # - - - 2 ; - - - - - : - # , 1 /.VXuX| B # # 2 ; # ; # o # # # # # # .  XjXx # # % # % # # # # # : # : # 2 : # # - , , , , , - , r , - , - - 1 , - , - - - ; r , , h 2.h t w , , - , - , , , - , , , , , , y w e q , v e - - - - - , , - - - - - - - # - - # # : # # # - # # > : : r.f.# - - # - # # # : # # % # # ; # # # # % o s.NXs.. # # # : : # : [.n # - - - - - - 2 - - : - , - - - - - - # : lXcX7 % # : r.> # # o # o o # # # o # # - # # # # - - # - - - - - - - - - - - - - - - - - - - - - 2 # . - : 9 2 # # % # # o ",
"S ` U F q ! ^ u.rXlX5X} ! F i q , q , e , , , , , , , , , , , , , , , , , , - e. X, , e , i h e u i.hXLXUXHX5X$.q w y y y P *.J I S y y y S U T L.KXIX8XD _ } <.y q , , , - < p h f w p p s s w d 1 < ; # # : : # # # # - - , ; # > 9 % # # # # # # # # # # : > : ; o 0.lXc . # # # : - - - 1 1 # : : # # # # % # # # # # # # # # # # # # o # # # # # # - - - - # - - - - # z 2 # - - - x   o - - - - - , , # f.5X- - - - # # # # o # o o # # o # % # # # # % # # # # - - # r.r.o '.q.: r , - , - - - , v v 2 - - - - - : - # # 7 2 - - : # - # # # # # 1 1 h , | M M d $ ; - < < < - - - # # - # # . hXLXn o # # # % # # # # # % # r.'.. : : # - - - 1 , r , - # - , - 1 - - , - 2 1 - - - - w.b w E t w w , , , - , - , R u.1 , , , , , q q q , , , - - - - - - , , - - - - - - - - - 1 z 2 - : : # : # : - : o kXBXo : : # # # # # : # : 8 > # # # # # . # # n : o # # # # # : : # . # , - # - # - - - - - 2 - - - - # - - 1 - - # # : : : # o # # o o o # # # o # # # # # - # - # # - - - - # - - - - - 2 - - - - - - - - - - - - o [.lX2 # 2 : # # # # # o ",
", ~.5Xe r w.].DXUXUXUXrXR ! u i u q i r , , , , , , , , , , , , , , , , - , - , , , , , , , , , w R t.rXPX Xv , , e w y P _ H K S K F S y y U } / _.8Xh.U D S t y t q e e w w h h y w f f w E 6X+.# ; # % : # : # # # ; - , < - % > # # : # # # # # # # # % # : A > o 8 s.B % % # : 2 : - # # # . 0XcXo o o # % # # # # # # # # # # # # : > # # # # # - - - - - - - - - - - z 2 # # - : n x - # - : - , 2 e - }.rX, 2 2 - # # # # o o o # o o o & & o # o # o o o # # 1 - # 2 2 # r.n # 1 1 - - 2 , - - n 2 - - - - # - # # # # : 1 # # # # # : # # # : - < h , - - - # # ; ; ; < , , , - - # # # % : : 9 : : : # # % # # # # # > % : 9 # o % 9 # - - 1 - - - # n a.- - 2 1 - - - 2 1 - - - - w.Q r w r E , , Q , , , , , l i.e , , - - , , , , e r , , - - - - - , , - , , - - - - - - - 1 2 x : : - # # - - , - x n # : # # # # # # # # : 8 : # # # # 9 t.: : o o # # # # # # - - : # 2 s # # # - # # - - - - : # - - - # - n 1 - 1 k : : # # # # # # # o > > # o # % # # # # - - o o # - - - - - - - - - 1 - - - - - - - - 2 - - 1 # [.lX1 - : # # # # # # # ",
"q h W i R W lXUXUXUXUXLX}.u u I.U.e q e , , , , , , , , , , e , , , , , , , - , - , - , , , , , e w - z  Xe - , - - , w i K t F t t 8Xu.t U H H ! T D q y K y y h h w w u t w t w w w h f h E e.s - < : > 7 : # # # - 2 ; 1 2 1 % 9 % % > % # # # # # # # # : # : # # o #  Xc o # : : # # : 2 : o s.[.o o % % # # # # # # # # # # # # # 2 x # # # # # - - - - # - - - # - - - # 2 z # # : 1 # - - # 2 2 e v , 0XlXr Q n - - - # # o o o o o o o o o o o o # # o o % o # - - # # - : ; - - - # # 2 2 # - : : : # - 2 2 # # # # : # # # # # # # # # # # - 1 - < , , - , - - - - , - , 2 - # : - - : # # # o o A c o # > % # # # # # : # # - > A ].: # - ; 1 - - # z 0.- - - , 1 - , , - , , - , - w w.w , i e e n , - , e , , , e 1 - , - , , , - r w., - - , - - - , - - - - - - # - - - - # n t.: # : # : 1 , # - - # - # # # # # # # : : # # # # # # . f.lX9 # # # % # : : # # # # # - s 1 - ; # # - - - - # # - - - # - # : - - - - 1 # - - # % # # # o o > & o o % % # - # # - # ].qXx # - # - - - , - # - - - - - 1 , - - 2 - - - - # o - - - # # # # # # # ",
"e , u } F } BXUXIXIXUXUXwXi u ! ! q e , q , , , , , E r , , , , , , , - , , - - , , e , , , - , e w , i ].R , , - - - , w < q t t t I.~ f H H H D u ! 3X! t f y , w q w w w w , w w w j h h E , < < 1 # # # # # # # # - 1 1 1 - # o # # o # # # # o # # # : : # % # # # # c : # : : # - # : 2 : : # . % % 2 > o # # # # # # # # # # # # % % # # # # - - - - z t.- , - 1 , - - - z n # - # # - # - z 1 z v e.0.rXNXr.r.n k 1 # # o o # o o o o o o o o o o o o % o o 8 q.> # # # # # # # # # # # # : - # # # # - o A XX: # # > 8 % : # # # # # # # # # : 1 , - - , , , , 1 - - - - : : % # - 2 # # # # # # # # > # # % # # # # # # # : % # 2 8 c : # - - 1 2 , , - # - - - - , - - , , < , r < , w v < , , , , - - - , , , , e l , 1 - - , , , , , - e , 2 , , - - , , , - - - - - - - - - # - : # # # : 9 # : x - 2 , - - # # # # # - 2 : # # # # # # # > 9 # # # # # : - 2 # # # # # # - # - , # # - - - - # - - # - # - # # : - n r.- - # # # o # # # o # # o # o # % % # - - : # HXUX9X. - - 1 - - - - - - - - - - , - - - - z - - , - , - ; - - # # # # # # ",
"< , w y ! } kXUXUXIXUXIX}.i R q , q , e e , , , , e R e , , , , , , , , , , , , 1 , 2 , , , , , , , q q u.i - - - - 1 < < < w t q y t H f P U h t t R 3X{ q y L u.E - # < p < w w w w j h p < < s s 1 - # # # # : : # # - , , # % % > # o # % # % % # o o # # # % # # # # # # # : - - - # - # # : 1 : o # : % # # # # # # # # # # # # # # # % # # # - , 1 - b f.# , n z : - - 1 # # - 1 - # # # : 0.k n r.d.{.BXHX0Xf.r.n z : % # o & % o o o # # o o o o o o # o o > c % # # # # - : # # # # # # c : # # # # # # 2 n % # # > > o # # # # # # o # : - - - ; : # ; ; , , < 2 , - - - # # # # - # - # # % # # # > % o # # # # # # # # # # # # # o : s.0.# 1 - , , - , 2 - , , - - - , - , e h w w , , , , , - - - r 2 - - , , , , - # - - , Q v , - , r v v , e , , - , , - , 2 , - - - - # - # # # # # # # : : z A cX[.# : : # # # # # # # # # # # # # : # o # # # # # # # - # - - - - # - - - 1 1 # - , - - - - - # - # # # # - - 8.r.- # # > > > 9 % % o o o o # # # # # % : : - # 9XlXr.# - - - - - - 2 - - - - - - - - - - - 2 - 2 2 # - - : - # # # # # # # ",
", , r F F ! U.DXUXUXIXhX! i ! u.q , , , q , q q , , e , , , , , , , , , , , , , , - - - - - - , , , , , , - - - - - , e w y y h p.@.y J L H K R e u q t Y.~ - 6XPXe.p.9X< < < < w w h h @.j p p s s < 1 # # # # : : # # # # - # & > # o % % # # # # o o % 9 o % % # : # # # # # - - - : 2 - 2 : - # - 1 # # # # # # : # # # # # # # # # # # % # : - - - r 2 1 n x - 2 - - - # : : # # - # # # - # # - - 8.[.FXUXUXLXrXq.9 # # o # o o o o o o & $ o o o o o o o o # o o % # # # # : 9 : # # # # # > : : # > # # # # # # # # # o # # o % : # # o # : - - # ].].o $ $ ; ; 4 d s , - - - , 2 # # # - # # : n 8 # # % % o # : > # # # # # # # # % # # [.a.o - - - - - , < , , , - - 2 r i.e , r w < , , , - - 2 - - b r - - - , , - z 0.: - 1 W r z e - - v e - 2 , - , , - - - , - - - - 1 - - # # > # # # # # # o n DX0X# - - # # # # # # # # # # # : : % % # # # # - - # - - - , - - # - # : , - - # 1 2 - - - - - # - - s x # - : # # # # # % % # > % # o o # # # # # # # - : - - : # # - 1 - - # - - - 1 - - - - - - - - - - , - - - - - - - - # # # # # # # % ",
", , v q t U } U.rXlX X^ } F u i , e , , , , q q , , , , , , , , , , , , , , , , , - , , - - - , , - - - - - - - , , , q y K K r p.h w f ~ $.u e , e - i U.E , U.iX, }.yXs < < r w , ~.p.L L p d < p s , # # - - : : # # # # : # o 9 & o # # o # % # o o > V o # % % % : z - - , # - , - n z # # 2 z # x - # # # # # > # # # # # o # # # # # o # o o 1 2 2 s - r z - - - - n z # - # # # # # # # : A f.9XrXBXUXUXUXUXJXjX9X'.q.8 o o o o o o o o o o o o o o o # # o # # o # # # # - : : # # # # # % % # # % - # % # # : # # # # # % o & 0 % o # # # : - - 0.q.& o # $ ; 4 p p i.v - , , r : : - : # # # c x # : % > o # 7 > # # # # # # # # # % 9 # o # - - , - # - - , - - - 1 2 v  Xr e s w , 2 2 - - - 1 k - - - - - , - # # d.rX- - k e - r 2 - , , - , 2 , , - , , , , - - - - - 2 1 # # # % o % : # : : # # z : : - # # # # # # # # # # # # : # # # - # # # # # # - # # - - - # - : # - # # - - - # - - - - - - - n e.o - % # # # # # # o # o % o # # o # # # # # # # - # # : : - - - # - - - - - - - - - - - - - - - - - - - - - - - - - # - - # # # # % ",
", , - x W q 2.} w i l ^ T i , i r v Q - , , , , , , , , , , , , , , , , , , , , , , , 1 r - - , - - , - 2 1 - - , , , t w q q q , q y i i K e , - , - e - , w - # , , , t K f e , < E j f L @.p w < r 1 - - , 1 - # # # # # # # o 7 % o > > # o o . s.t.o # > # 9 % o : 9 1 - - 0.r - 2 k x [.r., 2 - - - - # # # # % # # # # # # o o o # # # % {.'.- 2 2 v s.0.2 z - - - 1 : # - - # # # # # o 7 ].qXmXCXLXUXUXUXUXUXGXmXfX XB . o o o o o o o o o o o o o # # o # # > A % # # # # # # # # # # # o o a.r.o # % # # % # # # o # o % > # # # # # # - 2 2 - # # # # # - - , , , n k - : ; ; : - # - # : : o # # # # o # # o # # # # # # # # o # # 8 % # % # # - - : - - - - - - # # , - , w , < , , , - - # # - - - , 1 - - z  Xx > c - - - , 2 - - - - , r 2 , , , , , - , 2 , - - - - - - # - # # # # # # # # : : # # : # # # # # # # # # # # # # # : : : # - : : - - - - - - - 1 2 - # - - - - - - - # - , - - - - # - - - ; # # # # o # # o o # # # # o o o # % # # # # # # # # - # # - - - # - - - - - , , - - - - - - , - - 2 - # - # # - - # # # # # # # # ",
"k : -  Xi.- i i h r ^ T , e , e R e , , , , , , q e e q , , , , , - - , , , , , , - , , r - - - - , , , - - - , - , , , , - - e q w q t q , , , , , , - , z - < h i q y K H y , , - < p f j j w < , 1 - , ; 1 - - - # # % # # o # o # o % # o # # o 8 8 o # # % % # # # # - - - 2 - - 2 - qXUXDXr - - : : : # : # # # # # # # o # # # # # # o c UXHX- - r hXIXDX0.- 2 r - # # - # # # # # # # # - : 6 B a.rXUXUXUXUXcXs.q.3 > # o o o o o o o o o o # # o o o o o o o # > # # # # # # # o o # # % % o a.t.o # # # o o # # o & # o # # # # # : : # # z r., - - # - 1 - , , - - # # - # $ # # - # # o B r.# # : o . # # # # # # o # # # # # # # # o # o o % # # - : ; - - - 1 - - - - # - - - , , - - - 1 ].8.# - , , , - # b rX+.o # - - - , Q 1 # rX X# e , - - o mXBX# - - , - - - - # - - # # # > > # # # # 2 > o # # # # # # # # o # # # # # # # ; : - # # - - - - - - - - # , - , - # - - - , - - - , ; # - - # - # # # # : # # o # o o # % # o o 0 > o # # # # % % # # - # - - : # # - - - - - - , - , , - - - - , , r r , - r z - - , , - - # # - - # # # ",
"2 - , z - , , , e e , i.i., , , , , , e , q R w q , e q e e , e , , e , , , - - - , , , - - , , - - - - , 2 - - - - - , - 2 r , e , e , , , , , , , , - , , - q w i t y h h < # # - < w p d $.p < - # # ; 6 s - # # % 9 o # # # # # # o # # # % o o o > # # o # o o % # # - - - # - : : # XXUXBX2 - : 2 7 # # # # # - - # # # # # # # # : # # : qX9X: , v HXUXUX].# 2 , , # 2 n # # ; # # # # # : k s B r.).hXLXLXmX[.t.A 8 > # o o o o + o o . o $ o o $ $ o o o o o o o o # # # # # # # # : # o # # o o > > # # # % o # . 9 8 o . . # # # # # - # v r.- # - - - 2 # # - - - # - - - - - # # # # > c 2 # # o '.'.o # # # # o # o # # # o % % % # # # o # # # % # # # - - - - x 1 - - - # - - , - - - - [.0.# - - - - - - - # - - - 2 - - - , - - rX{.o - - - - # hXlX# , ; p w , - : % o # ; # # : > # o # # # # # # # > # # # o 9 A : # # # # x 9 o : : ; # # - # - - # # # # # - - - x 2 # - - - - 1 - - - 2 - # - - - 2 : # # # # # o o & & o o # 9 % o o # # % : % # - - - - - - - - - - - - - , , , , - - - 2 1 , e i ! w , e z - - , , - - # , 1 2 % % # ",
"- , , - - - , , , 1 - U.U.- , , , , , i q i u.i , r , u e , e , , Q w., r , - - , , , - - , e e , - - , - - - - - - - - - 2 z - , , , , , , , - , - - - - r r , w w h y < < , - # - - < p j j w < z # ; ; , < < ; # $ 0 # o # # o > % o # o # o > % o 7 % # % o 7 > # # : # - - # - - - - 1 s.n 1 - - - : # # - # - - : # o o o # - # - 7 : # % . . 2 z - 9XKXcXz , 2 - - - - 1 # - - # # # # # 1 z < a +.r.q.hXBXa.a.0.7 8 > o o o & o . o . o $ o o o o & $ o o o o # # # # # # # # # : % # # > > # % # # # # o # & # o % % o o Z q.# $ o # : - - - # 2 0.- - - # n n - - # # - - - - # # 1 2 % : : o # % o {.[.o # # # # # o # % > % o # # # # o o o # # # # # # : : # # # - - - - - - # - - - - - # . - s 1 # - - - - - - 1 1 - - - - - - - v - o , - - - - - # o - <  .g p < - 1 & 8 > # : : # o # # # # # o # # # # % # % % r.[.: # # : # 2 1 % # : : # # - - # - - # # - - - - : n 1 : - - - - - - - , ; - - - - - 9 : # # : % o o o o o o o 9 9 o # % o # : # # > 2 - - - - - - - - 2 - - - - - - # - - - r v R l u i v v , - - , e - # - # - - # % # o ",
"- , r , - , , , - , , , , , , , , , , , , q u q q , q i - # i e , e r , , , - , , , - , , - - - - , , - - - , - - - - - # - - - - - - , , , , - - - - - - n 8.- < w w < , < 1 - - , < w p p w < < d ; ; ; < , 1 ; ; $ # # # o # # 2 > % % o % % #   ].vXc o # % q.c # > # ; - - 1 - - , 1 - # - 1 1 - - - # - : - - # - z XXxXt.. : # - 2 : # # # 2 k 2 z , 8.2 , e e , - - # # # - - # # # # # # - ; 4 6 V c rXcXA n c > 7 7 o o . o & o o o % o o o o o # o o o o o o # # # % # # % % % % # o > > % o # 7 # o o o % % # # o % . s.].o $ # # : # : # % mXLX Xo - - 0.0.- # # - - - - - - # - 2 : # o : : o : # o # # # # # o o % o # 9 A 9 # % # XX0X# o # % # # : # # - - # # # - - # - - - - - - - - # - 1 - - # n x - - - - - 1 - - - # , 2 , , - 1 , - - , - - - - O.nXuXp , - # # > % # : : % # # # # o # o o # # # # # # 2 > : # # # # # # # - # : - # - 1 1 - - - - - - - - - - - # - - - 1 - # - - - # , 1 1 - # # % # # # # # o o o o o o > % o o # % # # : 1 # # - # # - - - - - k - - - # # # # 2 , , r W v d. X].n Q v , , 2 2 - # - # # : 9 # o # ",
"- , , , - Q Q , , - , , , , , , , , , , e , , u v q e , u.}.e , , , , e , , , - , - - - - - , , - - - - - - - - - , - 1 - - # : # - r 2 - 1 2 - - - - - - : - - , r E r , 1 ; - - , < w p p p w < 1 ; < 2 < , < ; ; > # # o o % : :   . : % # o c Z .XFXc o # # # % 2 # # 1 - 1 v r - - 2 , , - , 2 - - - # # # # - - # 9XUXUXDX> o - - : : # # # 2 1 - e 2 e , r e , , # - - # : # - $ # # # # # ; ; 2 2 7 : .XsX2 z 7 2 # o % 8 @ o & & % O % o o o o o o o o o o o o # > o # # > q.> o o o # o # # o # 2 > # o % % # o % # o # o # # # # o # # ; # > FXUXrX. - 2 - , : 1 - - - - - - # # # # # - # > > # # # # # # # # # o o # & o # t.c # # # cXNX# o % % # : : > : # - : - : z - # - - - - , , - - - # - - 1 - 0.n # # - - - - - - - z n , , - - 2 e , , - , , < ,  .iXuXp , , # # o > > # # # # # o o o # % # # # # # : % % o # # # # c 8 - # - # - # : - 1 ; - - - - - - - - # 2 1 2 - - - 1 - # - # - - - - # - # # : # % o . o # # o o o o o o % % # # # # # # # # - - - - - - - - 1 - - - - # # # 2 1 w K ^  XHXUXLXhXn }.w., - - # # # - - > 9 # # # ",
", , - - - z e , , , , , , , , , , , , , , , , u i , - K GXUX X- , , , , , - , - - - - - - - - - - - - , , - , - - - 1 - - # - 9 > # - - - - , - - - - - - - - - , < b 2 - 1 ; - - , , w w p h w s ; ; 2 < , < 2 s ; # % o o % % : 2 0X].o # # o 8 Z o # # # # # # : 2 # z 2 , , x n - , # - - - - - - - - # # - # - - o r.HXUXUXXX. - - - - # # # # # 1 - , r e e , , , # # # - , , ; $ $ o o # # 4 4 ; r 2 # ].9X: 1 : % # o o & & o . . o . . & & o o o o o o o o o o # # o # # # 8 # 9 c > # # # # # $ > # % > 9 # c 0 # o # # # # > 7 o # o # # # # 0. X3 # 1 , , 2 1 - - - - - - - # # - - # - # : # : : : 2 # # # # # # o # % # # o # % o : c c o # # # # # : 9 9 # : : # : : # # - # # # # # # - - - - # - - # # - - 1 - - - 2 2 # f.i.# , , - 2 z - , - , - 1 < p g a p w - # o o 9 7 o # # # o # o # o # # o # # # o o o : : : # # 9 2 # # # : # : # # # - - - - - - # - - - - - 1 - - - - - - - - - # - - - # # % ; # o ].{.o o o o o o % # o % : # # # # # # # - - - - - - # - 2 0.- # - - z n # # , i ! d.HXUXIXUXUX9XQ W e , - # # # - - o # # - - ",
"- , - - , - - , , - , , , , , , , , , , e w , q q , , r bXHXU.- , , , , , , , , - - - - - - - , , - , , - , v , - 2 f.2 # - : 9 : - - - - - - - , - - - - - # - - 2 - - , - ; - , < w w w f h w s < ; < ; < 1 < b 3 o # # # % : : 2 GXhX  o > > . . o o # # % # # # # - 2 - - , 2 2 - - - - - - - - - - - - - - - - # : # 0.0XjXt.o - - 1 - - # # - - - , , , q , , , , - % : - - - - $ O O # # - < 4 5 < 2 # s.9Xx : # o o o . . . o o o o o o $ o . O o o o o o o o o o o o # o o o o 8 8 & % o o # # # 8 > # 9 # 8 HXcX. % # # o o 8 Z o % # # # # ; o   # - - s z , - - - - - - # - # - 1 - # - - - # # : ; x # # # # # # # > % o o # # # # # . . # # # # # # # # # > x : # : # # : - # # # # # # # - # # - - - - - - - - - - : 2 2 - 2 2 1 2 , r - - - - r v - - < < < 4 < , 1 # # o # # # # # # # o o 8 & o # o # # o n jXqX> # n q.# # # # 1 0.2 2 : # - # # - , - - - - # 1 2 # - - - - - - - - - 2 1 - - - , # # # # #   hXBX: & & # # o > % # % # # # # # # # % - - , - - - - - - 1 - 2 2 , i Q 1 - , i i  XUXUXIXIXUXmXe u e , - # # # - - # # - - , ",
"- , - - , - , , , # , , , - , # o , , , w e , q e e q , q l , e r , , , , , , , , - - , - , , v 2 - , , , r 8., - - 1 - # # - - - - - - - - - , , , e , - - - - - 2 , , , ; ; z 2 1 r s p p w d < < < ; 2 ; ; 1 ; - # o o o % : : - 9 : > 0 # # 7 8 o o # ; . # - - - - - , , - - - - - - - - - - 1 - - - - - - - - : o # o o o # - - - - 1 - # - - # z NXlXe - - - - - : : - - - - # # $ O $ z - ; Q.uX(., < x c 8 : # # o o o o . o o o o + o . o o o o o o o o o o o o o o o o o # # o o # & # o o $ $ # > o # o > fXXXo # # # # o # # o o # # # > # ; : : # , 1 , , , - , 1 - - - - - : n 2 # ; 2 - - # # : : # % % : # # # 8 > # # # # o o # # o # o # # # # # # # # # # # # # # # - # # # : # # - - # - - - - - - - o o - 1 - - - - - 2 , - - - - - - - 1 1 - - k - ; 4 , 1 7 # % $ # # # # : > # o o # & % o o # #   XXUXUXn o : ; # # # # : x : 2 # # # , 1 1 - - - - - - - - - - - o . # - 1 - # - - - - - # # # # o # # 8 c % y.q.o # o # o 8 9 # # : : : - # : : - - - - - - - - - - 2 r , w - 1 , , i h ].IXUXIXIXUXjX2 v e - # # # # - - - # , v , ",
"- - - , - - , - , 9Xw.- e v - U.U., w , , , , e e i e q , , , r v , , , , , , , , , - - , , , - - - , , - a.9Xk # - - - - # # - - - - - - - , , , i R , - - , - - # - , < 1 ; < ; < , h h < s h < ; 1 ; ; # ; - # # o o # # o o : : # # 9 t.# o > > o o 8 9 t.x # - , - , < 1 - - # - : - # # : - - - : - - - - - # - a.A # - # - - , , - - - - - - > 8.LXJXx # - - - - # % : - - - # # # $ $ : k p uXAXuX- z ; o # : o # o o o o o . o o o o o o o o o o o o $ o o o o $ 0 # o $ & o o # % o & 7 o o # 3 # # > o # o . o % o o o # o o o # o o o % > # : - - - 2 n - < 2 , 2 2 , - - - - - - - : ; # # # # # : # # # # # : # # # # # : # # A c o # # # # % # # : # # # # ; % # # # # # # # # # : # # # # # - - - - 1 2 # r.f.: - - , - - - - - - - - - - # 7 s.- - # # # # 2 # # # # $ ; # # : > # o o o o o # o o # o > 8 c cXfX: # # # # # # - : # - # # # # - 1 2 # - - # - 1 - - - - - ].rXz # - - - , - - # # # # # # # > x : o o & & o o o # # # > # # : > : - # # - # - - - - - - , 1 , - Q - e - - , - t ~ W lXUXUXUXFXa.n R e , - # : : - - - 2 2 b b ",
", z - - , - - , , ].W , e r Q LXUXQ - , , , e , , q q q e , , , , , , , e e , , , , , e v , , - - - - , - r r.1 - 1 1 - # - - - - - , - , , e w , u w , - - # # : 2 r - 2 , 2 6 ; ; 2 < , w p s s ; ; ; ; # - ; # o > # # # y.A # % # % % o # o o o o # o ; r.3 : s 1 , r < < , - - # : # x r.# - - # # - - # - - - x s.0.o - : - - - - - - - - - - 1 - 0.t.# # - 2 - - # # # - - - # # # $ $ # l h 7.uXo., , # # # % o # # o o o O o # o o o o o o . o o . o o o o o o o & o o o # o o # o o # o o o o o . 0 y.% o # # % o o o o # o o o o # # # # # - - - - 1 , 2 1 , , , 2 , , - s r - - - - - # [.].; - : : : # # # : # # # # # # # # # A c o % # & # # # % # # % # # > % # % # : x # # # # # # # # # : - - - - - 1 o lXDX# - - - - - - - - - - - - - - 2 n - - - # # o # # # # # $ m ; # > : # % % o o o o o # % % : 8 o o . # # # # # # # - : # # # - # - - # - - - - - - # - - - 2 o FXUX9X. - - - - - - # # # # # # # # > % o o o # # o o # # # # % # # # # - - - 1 1 # 1 1 - - - z z - f.kX0.# : : - , w F ~ Q 0XcXgX'.A Q r , r - # : : - # 2 x v r z ",
"2 , , - - - - , , - , e , - r lXmXr , , , , , , r u q , , , , e , , , - w.d.- , , - , e , , : - x k - - - - # - - - - - # - - - - - - - , , , e R ^ w , - # : : o e.r.# 1 1 , ; # , 2 2 0.b s < ; < < # ; # # ; # o > o o o PXGXo o # # % o o # # # o # > % # # s z , < s < < , - 1 1 - - 2 A - - # 7 1 - 1 - - - , 9 - - - - - - - - - , , - - - - - , o . - - - , , - - # # - - - $ # # ; 4 - - , ; 4 < , ; # # # % o o o o o . O % o o o % O o o o o o . o o o o o o o o o o o o o # o % o o o o + o o o % & & % o o o o o o o o o o # o # # # # - - 1 sXwX- # - 1 - , - , , , z b s , - - - - -  XrXa., - - # : # r.t.o # # # % % # # # # # : o % '.9 # # # # : > # # # # # % . t.XX# # # # # # # # : : , - - - - - - r.a.- - - - r , , - , - - - - - - 2 - , - - # - # # # # # # ; q.> o # # # % # o o o o o o o % % % # o # # # # : : % # : : - # : 2 # # - 1 s # - - - - # - - - : 0.cXNXa.# - - - # - - # # # # # : # # o # # # o # # o # # # : # : - # # - - - - - - - z r - - - - 1 : mXUXrX> - # - , w i R R i R v 0.v 2 , , - - - 2 ; # # n r r v r.",
"v v , - - , - , , , , , , , , # - , , , , , e , , v e , , r v , , , , - Q i., , , - - - - - - - e.k - - - - # - - # # - - - - - - - - - , , , , b b , - # # 9 7 o # > - # : - # # ; # n ].b - 4 s ; ; # # ; z ; # o # & . o fXqXo > % o # o o o o o o # B 8 # ; , , 1 w s r w < , - - - - - - - # , f.n # 7 2 # : 2 # - 1 1 - - - - - - - - , , , , , 2 - - - , , , , - - - - - - - ; - # # % # # - - , - ; ; # # % # # o 9 8 . o o % o o o o o o o o o o o . # o o 8 9 o o o o o o o A x o > & # % . o o o o o o & & . o o o o o o o o # $ $ # # - 2 , 8.SXsX, , x - , - , - , , R b s , 1 - - ; - o d 6 - ; - - # % c n o : : # # : # # > > # # # # 9 # # # # # % : # # # # # # # ; : # # : % % # # # - - - - # # - - - # # , - - , , - , , , , , , , , , v w., 2 , < ; ; $ # # - # ; # # # # # o o > # o % o o o o o o # % % % # # # # : # # : n - - z 2 # - , - ; - - - - - z 1 - - o a.[.- # , - - - , - - # # # # # % # # # % o # o # # o % # # : # : : # - - - - , - - - - # - 2 - - - % r.rXn - 2 v - , , , e e T i i i r - - - - - - - # # > - - v z lX",
"r v , , , , , , , e , , , , - , e , , , , e e , , e e q , i i , , - , , - - , , , , - - , - - - - - - - - - - - # - - - - - - , 1 1 1 2 , , , , , , , - : : % # # % % % # # # # # - ; ; # - - z x # ; # $ > > $ # o $ % o o     o > & > o o o o o o o o # % # : ; s s r w s h < , - , , - - - - - r v - # - - # # - - - - - - , - - - - - - , , , - e 2 - 2 2 - , , , - - - : - # # - - # # # # # # # - ; $ # o # o # # o q.Z . o o & o 8 0 o o o o o o & & . # & & m Z . . o o o o # V 0 o 7 8 o o o . . o o o o & % o o o o o o o # o # # O 9 : - - r l 8.e , 1 : - - - , e , # hXrX, r - - - - - , - - - - - - # % # # : : # # # # # # # # % % # # o % # # # # # % % % % # # # # # # # # # # # # # # - # # - # # - - - - , - - , r , , , e r e , , , e r v U., - , p < 4 ; # # 2 B % # # o # # # # # o # 9 o # # o c s.: : : & # # # # # # # : : t.2 : # - : : # # - - - # - k - - 2 x # # 2 2 , - # 2 z # - # # # # # # # # # o # # o o % c # # # : : 2 - # # - - - - # - - - # # 1 1 - - - , +., , r e , - - 2 1 , e u q h r - - - - , - - # # - ; n z x DX",
", - , , , , , , , , v , w e , e , , , , , , , , e e q r , , , , , , e , , , , , , , , , - , o # - - - - - # - # # - - - - - , e l R q i i , k 1 , , , - # # # # # o o > : o o o # o > ; - # . # ; # % # $ ; # # ; # # o o o o o o o $ 8 o o # o o o o # : # , < < w d d h h s < < 2 - , - - - , , , # a.rX1 - - - - - - - Q v - , - , - , Q , - , , , - , , , , , , - - - - - - - # - - # - - # # # # % > $ # o % % # o o % & o o # o o > 8 o o # o % o o O o o . Z `.. 8 3 o o o o o o & o o o . & & o o o . o o o o o o o o o o # % o o # T.A # - - z 1 # , , - - - - - 1 r , # 0X9Xw w , 1 1 1 - - , - : - - # # - - : 1 # # # # # # # # # # : : : : % # # # # # # # # : # # # # # # # # # # o # > > - # : 1 - - - - - - # - - , , , e r r r r t t t u 1 ].NXXX0X9X1 , ; - - # : 2 o # o o o # o o o o o # o # o o c r.; # # o o o % : ; # # : : 6 : # # 2 : # # # - - - - - # # # x n - # - , - - - ; ; - - - - - : - # # # o o o # # # & 9 # # % > : : # A 0.- : # # - - r , - - - - - - - , n r , , - - - - , , , , , , , , , - - - - - - - # s #.+.b s 0X",
"2 , , , , , , e e - r , q e e i , v , , , , , , , e , , , , , - # mXlXo , - - , , , , , , e ].0.- - - - - 2 : # # # # # - - e l v r Q r v W l r , , , - : # # % : 7 % # # # o 8 8 . o ; ; 9 .Xa.$ $ o > > # # > > # % > # . . + o o o # o # # o o o # # ; 1 s s p p p d j p w w r o . - 1 - - , - 2 # ].lX2 # - - - - - - n n - - , - , , , , , - , , , , , , , , , - - - - - - 2 2 - # # # # # # # # # # # # : # : % # o o o % # o q.8 o o # & $ & o o o o o # . 9 '.o & & o & # o o o o o o . . 3 & o o o o o o o o o o o o o o o # o # o 9 % # : - - - 2 , - - - - - - # z v , , t h w , , , 1 , - - - - 2 : # - # - - : - # # # # # # # : # > f.6 : - # # # # # # # # # # # o # # # # # # # # # > % # # # - - - - - - - - - - , e r R h , 2 R ! F D e - DXUXUXUXLXb # - - # - # # # o o # o o o # 8 # o o # o o % 0 # # # # o o o # - 1 # o > : o # : # z x # # % : # - , - # - - # - - - - - - - - - # - - - < 4 - # # # # # # o . . o % # # # o # # : # 0.r.# # - # - - - - k - - - - - - - - - 1 2 - 1 , - - - , , , , - 1 r , - - - - - - o ~.uXd b z x ",
"- , , e q q e w , , , , , , , , ^ d., , , , , , , , , e , - - n z 5X X# - , - - - , , , - Q GXrXo - - - - x 2 # # o 9 ].n , r v t.jXDXcXs.v v i v - # : : # # # > 9 # # & o o 9 0 & 8 > o 0XUXPX0 # # o > o # > > > ; $ # o o o o o # # o o o o o # % ; 1 < d h p g j j f < < < - [.9X1 - n , - , z - - o - - - - - - 2 - # - 2 - , r , , , , , , - , , - , , , , , , - - - - - 2 z - # 1 - # # # # # # - - # - , - - - # # o % # o y.9 o # # > % o o o o o o o # o . o o o o 8 & o o o o o o o % . o o o o o . o o o o o o o o o o o # o o o # # : # - - - r - - - - - - - - , r r i r < - , - # - - - 1 - : - - - - - : - # - # # # # # # # # : x : # # # : : : # # # # # # : 9 : # o # % # # # # # # - ; , - - - - - - - - , , e t u.! u.5X}.W } U F i , sXLXjX0XXX1 - , - # # : # # # o # # # o # 9 o o o # # o o > % # - - # # # - , - # # > # # : : # 9 c o > : # - - - # - - # # - - - - - - # # - # # # # - ; , - # # # # # o y.y.o o # % # % # # # - # # # - : # # - - , z - - - - - - 1 - - - , - r , - , 1 - , 2 , - - - - - - 2 2 - - # s $.< 4 s z ",
"# , i q q q q , , , , - , , w , , r , , , , , , , , , w , , - }.U.    ].}., , - - , , , - , U.Q o # - , - - # # : # - a.e., n 0.NXUXUXUXFXu.u ^ v # # # # # # # # # # o > % o o . Z '.# . .XIXNXs.DXNX& . # & $ # $ $ % # # o o # # # # # $ o o o # ; < p p p p f j j h h h s # n UXUX].. v r , - 1 - - - - - - - - 1 2 - , - , , d.w.- , , , , , , , , , , - 2 , - , , - - - - - - : # 2 # - # # - - # - - - - , , , - - # # # # # o o o o # o o 8 & o o o o o o o $ . . . o $ o o o o o .   o o o o Z 0 o o o . o o o . o o o o o o o o # % # o t.r.# - # - - k - - - # - - , , e , r i.2 # - - - # - - 2 - - # - - - - 2 '.2 # # # : # # # # # o # # - - # : - # # # # # # 2 A 2 # # # % # # # # # # - - , - - - - - - - - , e r v w.U.CXUXLXcXe.^ F h r 1 r.1 o o - 1 - # : : # # # o o # # o o o o o o o o o # # o o # - , , - , , - - > # : : # : : % # # # # : : - - - 2 2 # # - - - - - - $ # # - - # # # - - - - # # # # o o BXvX. o # : % > : : # # : - # : 2 : # - - - - - - - - - - - - - - - - - z 0., 2 - , , - , 2 - - - - - - - - - - - < - 1 2 ",
"9Xi i t t t q q r , - , , w e , ^ r , , , , , , , , , , , , - r r 1 - 0.w., , , , , , , , - - - d.0.# - - - - : # - 1 # - r r  XUXUXIXIXUXwXi i e # # # # # : # # % # o o # # o . o & o o 3 y.> `.UXUXZ   o # $ > ; # > $ o o # # ; ; > & $ o o o # ; < d L L g f g j p p s r - s mXBXn # 2 - - - - - # # 2 2 # - - - - # , , , , b r , , , , , , , , - - - - e , - - - - - - - - - # # # # # # - - - - - - rXjX- < w , - # # # % % o # & # o o . 8 % o & o o o o o o Z '.& o o o # o o + & Z & % o o & & + o o . o o O o o o o o o o o > # # # # q.a.o : # # : 2 - 1 1 - - - - , , - < Q 1 # - - - - - - 2 : 1 : 1 z - # x {.9 # # # - : : # # # : # # # - - # - # # # # # # # : # # # # # # # # # # - - - - - # # - - - - - - 1 Q 1 1 cXUXUXUXUXmXU.t w r 2 # - < , , - - - - - : % > c 8 o o # # # o # o # % # # # o o # r , , 2 1 , , - > o # # % > 9 # # : x : # : - - # 2 2 # : 2 - - - - - 4 6 1 - - # : - : # # - # # # # # o s.y.o % # 2 & # # > : : # - - - - # # - - - - - - - - , - - - - - - - - Q ].- - , - - - 2 r - - - - 1 - - - - - - - - - 1 ",
"IXu.q K K y q , < , , - e w , $.PXrX# , , , , , , , , , , , - # d.d., - - , , - , , - - - 1 # [.LXGXn # 1 - # - o 0.rX2 # z r  XUXUXIXUXUXrX! u # # # # - # # # # # # # o o o o . o o o o o o % 3 oX{.. o $ $ # 8 > # # # # o # > > ; 3 $ o . + o # - < j  .L J J J L f w < - x 2 - r , 1 - : 1 - - - z : z z # 1 - - , e.e - - - - , , , e , , - - - - , e , e , - , - - - - - - - # - - - : # - - 1 , r 2 0XqX# z r e , - # # # o % & o o % # o o o o % $ o o $ o % hXPXs.o o o o o o . Z gX8 8 $ o o . o o . % o . 8 8 o o o o o % & % o # # o o > # # # - # # # - - - - - - - - , , # - - - - - - - - - - 2 z - - - - # # # # # # # # # # - : : : : # # , - - # # # - # # # # # # # # o # # # # # : : # , 2 - # , v , - - - - a.lXXXDXUXIXUXUXNXr i u e , , 2 r - - - - - # # : # % y.V o # o o % 8 o o % > # # # o o 1 2 r z 2 2 r r - c A # % o c '.: # : n ; : # # - - - # # # : - - - - , e , 1 , , - - - # # # # # # # # # # . o # . # c : o # # : - - - - : 1 # # 1 - - - - - - , - , - - - - - - - # - z , - - - - - , - - - - 1 , - - - - - - - - , ",
"BXE t S U H t , , , 1 , e , , h 9Xd.- , , , , , , , , , , - , - z z , , , - , , - , - - - - # rXUXLXi.# - 1 : # # 2 a.1 - z Q e.CXUXUXUXFXa., U.9X: % # : # # : # # # & & # o o . . . o o . o % o     + + & # o o # # # # & 3 # > ; # $ o . . o o o - z j g L  .J J f p w , # z x , - 1 - - ; - - # - v 2 - - - - - - 2 a.r - e.v - , , , e e , , v e - , r , - - - - - - - - - - - 1 - # : - - - , 2 , v z q.sXhXq.6 r 1 1 : # # # % & y.& # # # o o o o o o o o o o y.{.8 o o o o o o . o 0 o o o o o o o o o + o o & % o # o o o o o o # # # # # % % # % # # # - - - - , # - - - - 2 1 - 1 - - - - - - - 1 - - , - - - - - # - # # - - # # : - - : - - z - - - - - 2 ; - # o # : # # : t.: 2 : - - # # - - - - - - r 1 - - - # i.UXDXjXUXUXUXUX0X1 v q , , , e e , - - - : - - # # # # o # # o # & 9 # o o o o # > % # 1 x z c q.8 2 r < x c # # # : 2 # # # # # # : # 2 v # # # # - - - - - e 9._.9.e 1 1 - - ; 3 % # # # # # # # # o 8 [.> o # # # # : ; - - # - - - - : - - - - - - , 2 , - - - , - - - - , r - - - , - - - - - - - - - - - - - - - - - - ",
"E q U U H H q y , , , - , , , , # , , , , , e , - , , , - - - , # # , - - - , , - - , - 2 , # z qX[.- 1 - 1 : # # # o - - 2 v b a.mXHXNX9Xn -  XlX1 - # # # : # # # o % % o o o . . . . . . . o o . . + . . o o & $ o $ o > A o # $ # $ o o . . o o - z j j L  . .g f f < ; - 2 2 - - , - - - - # - - - - - - - 1 1 - - - - - 0.v - , , , , , - , i.Q - - - - , - - - - - r n # - , 1 - # - - - - - e k e i.FXUXUXcX0 z - - : # # o o > ].7 o % o # o o o o o o o o o . . o o o o o o o o o . o o $ o o o o o . . . o o o # o o # # . o # o # # o # % 2 o % % # : : # - - - 1 - # - - 1 2 - Q , - - - - - - - - - - - - - - # - - # # 1 2 # : - # - - # , 2 - - : # - - - , # : - 1 - # : 0.: 9 : - x - - # . . - 2 ; # - # - , , r 9X].a.NXIXIXjXA v r e , , , , # - - # # # - : : # # 2 > # # # o o # o o # . o 2 # # r.z z t.NXLXgXc b < # 0.f.o 2 # - # # - # # - # # - 6 : - # - : # 1 n , 1 dXKXdX, e , - # 5 5 o # # # # # # # # o 7 y.% # # # # # # - 2 - # - - - - - # - - - - - 2 n - r z a.r.# - - - - - - , 2 , - - - - - - - - - - # - - - - # - , ",
", y ~ <.S <.P.h w < , , , , , , r , e , , , , , , - , - - , - , - - - - - , - - - - - 2 0.1 - - o o - - - # # 2 > # : - : 2 1 R b Q Q i.kXq.2 1 # , - : # # % # o o o o o % o + o . . o o . . . + + . . . @ & 8 3 o # o # o . o o o o & o . . . o o # ; < s p p L d p p < 2 - - - - - - - - - - e.r.# - - - 2 1 - - - , - , - - , , , w , , , , , 2 - , , - - , - - - r v , v - - - - - - - - - - - , v q 9XUXUXUXUXf.: 1 - : # # # : # # # > & # o o o o . o o o o & o # o o o o o o o o O $ o o o o o o O . @ * o o o # > # o o o o # # o o . V 9 : 8 x 8 # # % # # - - - : - - 1 1 - - - - , , - - - 1 2 - - - - - - - - - z 1 - # : n : # # - # - - 1 1 - - - - - - - o n hXz o 2 2 # # - - # - z ; , n [.].- , 2 : # - - , u u , i ^ w.|.}.E E h w , 1 : # . o # # # # # : # # # # # # # # # % % # o o o q.s.& # % A z # jXUXUXUX X1 z , 0.s.o % # % 1 : - - - # - , - : : # # # - # : z 2 e dXKXdX, , , - - ; # # # # # # # # # # # # o # # # # > 1 # - x s 2 - - - - - - - - - # - - - - - # v x % - - - 1 1 - - , - , - - , - - - - - - 1 - - - # 1 k o ",
"q t K K H /.3Xy t w r e , - , , r e , , , - - , , , - - , - - # # 2 - - , - - - - , - 2 2 # - - - - - # - # # x : : : # n 0.2 1 v h v v Q k # % : - : > # # o # > & > # o + o + o . . o . o . + @ o . . . + + 8 8 o o o o + + . . o o o o . . . . o o # > ; ; 4 d p p < , < - # - 2 r - - - # ; c x - - - - - - - - - - , , , - , , , - - , , , , e , , , , , , , , - , r - , 2 - - - - - - - - - - , e r U.PXUXUXDX0.1 2 - - # # - 2 - - - # o # o o o o & 7 # & $ & o o o o & & o o o o O % % $ . o o o o o & O . o # % : : # # > # o o # > Z 9 8 # . s.t.# - # # : # 2 6 # - - - - - , , , - , < - - , 1 - - - - - - - - - : - - - - - # # - # : - - z z - - - - - - - 2 0.].2 # 1 : # # - - , , # # . }.UXUX0.# 1 - - - - - , t i F K ~ h r R R v e , - # o {.DXy.o # # - : # # # o o # % : # # # # # % . qXqX  # # # 2 - hXUXUXUX].- s 1 o o : : # # 1 : - # - # - - # - - - - # # - - - v 8.T _.T e < - - - # ; o o # # # # # # # q.9 # % # # # 9 x : - # # 2 - - - # - , - - r e.- - , - - - - - - - # - 2 1 - - , - z r - - - , - # - - 2 - # - # - :  X",
"q q y H H Y U f y h i q e e , r , r k e , - , - r e - , - - - 9X X% - - # 2 [.Q # - - - - - - 1 - # - - # # % % # # : : - - - - - e e , # - : # % # # # o # % . > # & % o . . . o . . . . . . . . . . . . . . . . o o . + . . @ . . . . o o . . . o o # > # # ; < p p d < - - # # - , - - # # - # # - - - - - , - - - , , - , , , e - w.w., - , , , , , , , , - , , , , - - e - - - - - - - - 1 - - , , v i {.BXBXU.2 z - - - - - 1 2 r z - a.y.o # # o o * = # 3 o o o o o o # & o o o . o o o o O o o o o o & 0 % o # % o # # o & o & & o 8 y.# o % # : : # - : 9 : # - 1 - - - - - - , , w $.h , - , , # - 1 - - - - - - - - - - - - 1 - # # 1 2 # - # # # - - - - - # k 2 . - - # - : - - - # z z # o 0.GXBXx - - - - - - - , , w w u i R i w e , , 2 1 # o  XcXq.# - # # # # # # # # # % > # # # o o # o 8 8 o # # % 2 r 0.cXKXxXx z n - % # # # # # # : z - # , - n 1 # - # # - - - - - , r - # , 2 1 - - - ; # t.r.# # # # # # # c > # # # # # % : # - , - - - - 1 1 - - - # 0.9Xx - - , - - - - - - - - - - 1 - - - , , - - - - - - - - - - - - 2 2 o CX",
"t u q t Y { H H f h y w i i r e , b R - - , - - , - - - , # - cXhX# # - - - n 2 - - - 1 - 2 - 1 : # - # # # > % o % # # - - # 1 k - - , - - # : # # # o # # # 0 & . o o o . . o o o o o . . = & . . @ . . . & % . o o o . . . @ .   . . o o . . . . o o o o o # - 4 s s ; # ; # - - - - # # # # - 1 - - - - - - - - - e z , , , , # U.LXDXe , v , , , , , , i e , , , , r e , r , - - - - - - 1 - - - , h Q w.v R r v e , - - 1 r x 2 , 2 r t.t.# # o o o o o o o 0 8 o o . . o o o o o o % o o o o o o o y.+ Z {.$ # > > V > # # o o # o o # # # # # : : # - - # > : - - - - - - - 1 1 , < w eXp.# r < v s , 2 # - - - - - - - - - - # 0.x a.x # - 2 1 rXhX9 % - - 1 1 - - - - - - - 1 o - - - - - 1 - , # z 2 # - - , - - # # - - - - - ; , w r , e - x n - # 1 +.z - # # # # # % # # % # # # # % # o o # % o o # # # o : z 2 2 A  X0.1 1 : o # % # % # : - 2 - - - - x 1 # # # - - - - - , - - ; 1 - - - 1 1 - - o 0X0Xo # # # # # # # # # # # # # # # - - - o o - - - - - : - - - 1 x , # - - - - - - - 1 - # - k - - - 2 r , - - - x i., # - - - - s 9 # c ",
"q q h y U Y U H y y t t i r q w , , , , , - - - , 2 2 1 - - - , - - - - - # # - - - - 2 - - 1 - # - - # # # # o : > # # # - # 7 n - - # : - # : % o # o o o o '.0 . . . o o . . . o O o . . & & . . + . . . + + . + + . . X .   @ = . . . . . . . . o o o o o o # ; ; - - - # # - - - # - # # - - - - - - , 1 - , - , , r e , r , # U.PXDXr r E , , , , , w W v , , , , r z , r , , n 1 - - - - - , - , , Q ].v e r v , , n 1 1 x z ].qX{.A x 1 : # o & % o o o o 0 8 % o 0XXX  o o o # # $ $ o o o o . o C & o o # & 8 : s.A o % % # o o o # % > # # - : : : , # # # - # 1 1 - , , - - , , w h , < h - , r - - - - - , < - - # # # - - , 1 a.x # - z k PXUXw.o , - - - - - - - - - - 0.[.2 # # - - - - - - # 1 - - , , - - - - # # - - - - - , e , - - # - - - - # - # # # - # # # % # # o % > % # o # # o # o # # # # # # ; 2 z 2 - 2 2 - # > # # : # - # - # - - - - # # - - - - - - - - - - - - - - - # k 2 - - , - # - # # : : # % : # : # # # % # % : - #  X Xo z - # - - - - - - # - 2 - - - 0.x # - 1 , 1 - 2 v - - - - - - 2 - z 8.- , - - - 2 - # # # ",
"y y y H K U Y H t t K y y i q , r i , , , , , 2 - z 2 - , , - - - - - - z n - - - - - z 2 - - - - - # : 0.x > 2 2 # # # # : - # - - : - # # # # # # # o o # o Z Z . o o . . . . . . + + + & . . . + . . . . . . . . . + . X     @ 8 X . . . . . . . o o o o o o # o % # - - - - - : % # : # # - - - - - # v Q - - , , - , , , w q q , u.! , e - , , , - , , e e , , , , - - - - , - 1 - - - - - - , - - - - - , , , v 2 - 9 2 9 2 9XLXUXIXfXc x > # # 8 & o o # o o o 9 % '.'.  o o o # # o # o o & o o o   . o . 8 8 o # ; % # o % % o o # # # # # : - - 2 - # z U.2 - : 2 r , , , - - - , , - , , - , - - - - - - - , r - - - # # - - - - o # - - - - d.]., , - , - - - - 1 - 1 0.o  XGXn # - - - - - 1 - - 1 - # 1 : - - - - , - # , 1 z - - - - - - - # - - - # # # # # - # # # % > # # # > # # # o # # # # # # # # # # # : ; 2 1 - , - - : : # # # # # - - - - - - - - - - - - - - - 1 - # - - - - - - - # - # - - # - - # 1 x # # # # # # # # # # 2 2 # #  X Xo 1 - - - - - - - - - 1 x 2 - - 2 2 - - - - 1 - - 2 - - , , - - , 1 - # - - - - - - - - - - ",
"U P y y H U H y y t y y w w R R , , e z v , , , , - # 1 x , - - - - - - Q a.- 1 - - - 2 1 # - - - - # # kX].o 2 : # # # # # - - - - : - # # # # # # o # o o & & 8 o . . o o . . . . . . + & + . . . . . . . . . . . . . .   . @ X   . . . . . . . . + o $ o o > 8 # # # : : # - : : # # # # - - - , - - - , , - , , , , , , , , , q q , , , r i , , e u., , q , e , , , - , , , # e.hX].# - , - - - - , - - - - , - 1 r - 7 z 1 a.HXUXUXUXIXt.# 9 % # # o # o o # o o o o . . o o o o o o # o o o o o % * O . o o & & o # # o > y.9 % # # & % o # # : - # - - - v $.i i v i e , - - , , , Q e , , , - - , - - - - - - , , , e , - - - - - - - - - , - , # o - , , - - - , , 1 o hXIX X: q.- - - - - - - : : - - - # - - - - - - - - a.n # , - - - - - - - - - - - 1 # # # # - : : # o > # # # # # # o o 9 7 o # o o # # # # # : # : 0.x - 1 # # # # - # # 2 - - - - - - # - - - x k 1 - : z 1 - - - - - - - - - - # 2 1 - : : : : c q.: # # # # # # # # % % - : # # - # - - 1 r.1 - - - - - - - - 1 - - , 2 - - - - - - - , , , , - - k 1 - - - - - - - - - - 1 ",
"P U U S t y f y w , w w , , E w., - r v , , , , e - # - r - - , , - - - # # - - - - - x 1 - - - # # - # x 2 # z 2 : # # # # # - - # # # # # # 2 # # > o # # o o o o . . . . . . . + . . . . . o . + . . . . @ @ & + . .   . . . .   . . . . . . . . o + & o o $ & $ # # # # # - # : ; # : : - - - - - - , - - - - , - , , , , , , q q , , e e w , - Q }.< , q , , # , , , - - , # [.UXlX# - - , , , - - - - - - - - - # - 2 2 2 f.LXUXUXUXUXBXy.> % # o o # o # o # > o o o # # & o o o o > o o o o o O & o o o o o o o # % # > '.0 o # o o # # # # # - - - - 1 i K r r w F R e - - , , , v , , , , e , - - - - - - - , , , w q q , , - - - 1 - - , - , - - , - - - - - , , - : rXPX X- k - - - # - - - - - - # x ].2 # - # - - - , a.n - - - - - - - - - n k - - : : # # # - : # 9 A # % # # # o # # o > & o o # % # o % : # # # # 2 z - # - - : # # # 1 a.1 - - - - - - - - # 1 - # - # - - # - - - - - - - - - - - - - o . - # 9 0.: : # : # # # # # # # # # : # - - - - - n 1 - - - - - - - - # # - - 2 - # - r - - - - - - - - - - - - - - - - - - 1 - - - ",
"P Y P H y y h w b d.b e , , , - , , - , 2 2 , , r , - , - - , - - 2 2 - - 1 - : 1 - : n - - - # : : # : # # : 1 9 : # # - : - - # - # # # : 2 > # # % # o o o . o . o o + + . . o . . . . . . . + = + . . . @ @ @ + @ + X .   .   .   X . . . . . . o o o o o . o # # o # # # - # : : # : : - - - x 1 - - - , - , v , , , , , , , , , i , , , q e , < - , , q , r wXe., e - , , - r [.e.# - - - e n 1 - , - - - - - - - - - z z n mXUXUXUXHXDX{.o % # o # # o % & > 9 o # o o o % o o o o # o # % # o o o o o o o o o o o # # o . o # o # o o # # : - # - - , e i v [.NXlXU.i h , - - - , - - , , , r , - - - - - - - , e i t y y q , , - - , - - - - , - - - , , - , 2 - - z }.n n - 2 r - - - - - # - z - - # 2 r.k - - - - - - - # , , - - - - - - - - n 2 # - # # # # # # # # 9 A # # : # o o # # # o o o o % > % # % # # # - 9 - # : : : # # # - # - s - - - - - - - - - - - - - - - - - - - - - - - - - - # - - # - 9X0X: # # o # o # # # % # # # : : - # # - - - - - - - - - - - - - - - - - n z # - - , - - - - - - - , , - - - - - - - 1 1 - - z 2 - - ",
"` Y P H f y w , v ].r , r e 2 - , , - U.i.- r ^ , , , e , - - - - - , - 2 z # - : - - # # # # # : : - - - # - # - # - # # - 1 1 # : # # # : 9 : # o o # # o o o o o o . @ & o . . . . . . . + . . @ . . . . . . .   . @ .   @   . .   . . @ . . . . . o o o . o o o o o # % % # # # # # - # - - r.0.2 - - 1 v z - , , , , , , , , , , r , w r , , , , , , , e - R DX[.- , , , - v r . # , , - - - r , - - - - - - - - n k - 2 2 k r.cXHXNX'.9 9 8 c > o o o o # % o o o 9 8 o o % o o o o o o o # o o o # % # o o o o # o o o o # o # o o # # # # ; 1 - 2 , 1 r i ].PXUXUXBX} y t , - , , - - , , , , , , , - , , - , , q ! U U K y q e , , , - - - - , - , - - , , - , - , , Q , # , , , - - - - - - 1 k - - - # # 8.r # - - - , , , , - - - - r - - - - - - - - - # # - # # # # # o # # > % o o o # % % # # o o % # # o # : % : 9 : - # f.0.o - . o - # # - - - - - - - - - - - - - - - - - - - - - - - - - - - - - o k JXLXx o : : % c : % : # # # # # # : : - - - - 1 - - - - - - - - , 1 - - - 2 - # - 1 - - n 1 - - - 2 - - - - - - 0.2 # 1 2 - - - - - - ",
"` ` U f y w w < , - , , 1 , , , - - - , r , r v , , 2 v - - - , - - - - - 1 - - - - - # # - 1 # : : # # - # - # # # : : # - - - - - # # # # : # # o # o o o o o . . o . . + + . . . . . . . . . . . . . . . . . . . . . . X =     . . . . . . . . @ 8 . . . o . o o o o # > : # # # # # # - : 1 0.- - - - - - - - - , , , , , , , , , , , h r - , , , , , q , e , r e , , , , , i.i.# - , - - # # - - , - - - - - - - - - - 1 2 z x n q.c 9 z 1 : > # o o o o o o o o o % > o # o o o o o o o o o c > o % $ $ # o # o # o o o o # o > % # % : : - , , - , , , e q rXUXIXUXUX}.t i , - - - - - - , , - , , , , , , , , , q ! U { } ! F u e , , - , , - , - , - - 2 r - - - - - # - , 2 - , , 2 - - - - - - 1 z - - - - - - - - , , , - , - - , 2 r - - - , : - - # - 2 # - - # # # # # o % # # # # # # # o # # 8 > # % # o # > % # : : # # x > # o s.{.: - - - - - - - - - - - - - - # - # - 1 - # - - - - - - - - # - - # ].[.# # # . c PX X. 0.x % # : % - # # - # - , - - - - - - - - 1 1 - # - - # - - # x k - x - x 1 0.i.- - 1 - # - 2 - - # - - - - - - # ",
"U { U t w < < 1 , , , e v , - - - - - , - , - d.U.- r v r e - - - - - - - - - - - - - - # - x - # # - # # : # # - # - : # - # - # % # # % o # # # # o o o o o o o + . . + . . . . . + . . . . . . . . . +   . @ .     . .             . .   . +   0 `.+ . . o . o o o # o # % # # # # # : - - - o - 1 , - - - - - - - , , , , , , , , , r r , , , , , , , , , , , , , , , , , , - - , - , - - n Q - - - - - - - - - - - # # 2 1 : 2 z 9 z z 2 1 : o o o o o o o o o o o o o # o % > o o o o o o # Z 3 % % ; ; # o o o o o o o o o o # # > > # - - - < e , , , r q [.IXUXUXHXu.D u , - - , - - - - - - , , , , , , e e q K { 2.2.p.^ R v q , , - , , , , , - - - - , - - - - - , 1 - - , - , 1 - - - - - - # - - 2 1 - - - - - - - , , - - , 2 , - - - - - - - 2 # z rXn # : - # # # # # # # # # # # # % : % o q.0.# c # o # # # # # - # # # # #   lXBX- - - - - - - - - - - - - - - - - 2 ].z # - - - - - - - - - - - - - . . # # # o 3 0Xr.. > : # # : # # # # : a.z # - - - - - - - - - - # , : - - - 2 - z 2 # - - 2 # 2 n , - - 2 v , # # ].a.# - - - - - . ",
"y f y t w , , - - - , r v , , - - - - - , , , v E , , - , , - - - - - - , - - - - - - - # # : # # # # - - # # - - : - # , - # - # z c # % : # # # # o o o o o o % m + + + . @ . @ + . . . . . . . . . . @ . . X X .   .   X . . .   . @ . . . + + O = o o o . o o o o o o # # : # % : # : # - - - 1 1 - - - - - - - , e , , , , , , , - w i , , , , , , , , , , , , , , , , , , - , , , , , # yXlX> Q , - - - - - - - # - - # - : - 1 1 1 , , - # # o o o o o o o . . o o % # o % 8 # o o o # # # # # ; # ; ; # # o o o o o > & o # o # # # - , , , , w w w w h ! v 9XHXBX].F ! e - - , , - - - - - , , , , , e e e q y { 2.P.kXGXmX}.E ! w , , , , , - - - - - - - , - - - - 2 Q 2 - - - - - - - - - - - - - - # - - - , , , , , , , , , , - - , - - 2 - - - - - 1 q.2 # : # : # % % # # % > 9 % : # # # # # : > : % # # # # # # # # # # # # # # x x # n x - - , - - - - - - - - - - - 1 n 2 - - - - - - - - - - - # - : : # # : 2 # #     : > o # # # # : # : - n 2 # - - - - - - # - - - # - : 1 - - - 2 - - - - - - a.z # , - - e v 2 , - Q z - - - r z - # ",
"K w h h < - - - - , - , , , , , - - - , , , , - w.U., e - , - , 2 - - - , - - # i.8.# - - - # - - # - - # # - - # - ; # - - - # # > : # > 2 % # # % # o o o o o o & +     . . . = @ . . . . . . . = & . & .     X =       = @ . X   . . . . . . + . . o o o o & > o o o # # % > % # # o : : # , - - - - - - - - - - , r , , , , , w , , - , , , , , , , , , , , , , , q , , , , , r 2 , e , - 0.Q s. X- , , , - - 2 z 2 # : - : : # - - - - - - # # o o o o o o o 8 7 o # > o o o o o o # # # % ; > ; ; 2 < < ; # # o o o o % % o # # # # # - , , w w q h h L f ~ K i ^ ~ F K w , - , , , - , - - - , , , , , i i q t U } <.bXUXUXUXDXw.} i , , , , , , - , , - - , - , - - - - , - - - - - - - - - - - # - - - - - - - , , , , , , - z i., , - - - - 2 - - , # - - # # : # # : # # % o o & & 2 : : # - - 1 lXxX> # : # # # # # # # # - # o # : : # o # 0.z 1 z - - - - - - - - - - - - - o 1 1 - - - - - - # - - - - - - : # # : 8 # o > c % : # % # # # # # : : # - 1 # - - - - - # - - 1 s.: # - - - # - 2 - 2 - # 1 [.e.# - - , , - , , , # - - - - 1 , - , ",
"h w w < - - , - - , - - , , , , , e , , , , , - u.U., , , e , # , , - , - - - 2 x 2 - - # - - - - - 2 s 2 2 1 - - # # # - # - - 2 % : : # % o o # & o o o o o o . . @ s.= . O . . . . . . . . . . @ @ .   0 oX=   X       X X     .   . . . . . + . + & o % # % > o o # # o # # # o 9 q.# : - # - - - - - - - - - - - , , , , , , - , , , , , , , , , , , , , , , , q q , , , , - - , , , , - - - , - , 1 - , - - - 1 : # : : # # # # # # # # # # o o o o o o o . 8 8 o & o o o # # o > ; # ; ; # - < < ; 4 4 - # # % o o o o # # # 2 - # - , , w f y y f f H K K K F K F F i , - - - , , - , , - - , , , , , q t q S _ b.P.JXUXIXUXUX|.S K e e , , , , , - - - - , - - - - - - - - - - - - - - - - 1 2 2 r # - - - - - - - - , - , , , r - , - , 2 , - - 1 - - - - - # - - : # # : o A 9 o % # : : 1 1 1 1 BXBX2 # : # # # # # - - - # # : % # - # - - - - x 1 - - - - - - - - - - - - 1 n 1 - - - - - - - - - - # - # - # # : # # # o c r.# # # o % # # # - - # : - - - - - - - - - # - 7 s.1 - - - # - - - # - - - - o # - , , , , - , , , - - - - - - - - , ",
"t , - - - , , - - - - , , , e , , e , , , , , e r w e , , , , i.r # , 2 - - - 2 # # - - - - - - # - - z z - # - - - - - 1 - # : 9 : : # # # o # # > > o o o o o . . = fXC   . . . + . . . . . . . . . .   C xX=       .   . @ @ . .   . . . . + + o . O o % & o o o # o # # # # : : 9 0.# - - - - - - - - - - - , 1 , - - , , , , , , , , , , , , , e e , , , , e , q e , , , , - - , , , - , - - - r r - , - - - # - - : # # # 2 > o o # o # # o o o o o # o o 0 0 . # o o # # o o o # 3 6 ; ; ; d < ; ; 4 < 1 # % : # o # o o # # - # - - , < h f y U L 5.<.K i i e r i , , , , , - - - - - - - , , , , , q q u F G ' b.<.CXUXUXUXLXU.U y q i e , , - , - - - - - , 1 v 2 1 - - - - : - - - - - - 2 z 2 1 # - - - - - - , , , , , , , - , , , , , , - , - - - - - # - - - # 2 : # # t.c # > : : 1 z 2 2 k v v - : - # # # # - - - - # # 2 : # - - - - - 2 z # , - - , - - - - - - - # 2 r.1 - - - - - - - t.n # - - 1 - # : # # # o # # o % % # # : # # ; : : # - 1 - - - - - - - # - 8.1 o : - - - - - - - - - - - - # - - , - e Q i , , - , - - - 1 - - - - ",
"i v - - - , , , - , , , , , e , , , , - , , , , e w , , , #  XUXlX, - 2 , , - - - - - - - - - # # # # - - - - - 1 z - - 1 - # # % # > % # # o # o y.'.. o o o . . . + & + . . & . @ & . . . . @ @ . . .   . . . .             @ 0 X   . . . . + . . . o 8 o # o # o & 9 # # # # > ; o # # # # - - - - - - - 1 - , , , - , , , , , , , e , - - , , , q , , , , , e q , , , , , , , , , , , - - - - - , , , , - - - - - - # # # 2 t.A o o # # o o o o o o o o # . Z y.o o o o o % > # % ; ; < B B 4 d s < ; 4 < ; # # % # o o # o # - , , 1 < , < h y H P H iX7Xt h e , , , , , , , , , 2 < - , , - - , r e , - - q F _ ` [ U }.HXUXLXsX^ } i , q , , , , , - - - - - , 2 a.z wXe.# - - - - - - - - - - - - - - - - - - - - , , e e , , , , , , r , - - 2 Q - - - - - - # # o a. X8 o # # # o > 2 1 n z A {.n - , 1 - , - z z o # , - # - # # - # - - # 2 r.- # - - - - r 2 - - z r - - - - - - - - - - - - - ].0.# - - z - # 9 : # # # # # # % o o # # : o A r.x # - - - - - - - - # - - 1 - 2 : # - - - - - - - - - - - - - - - , z w.r - - - - - - - - - - - - ",
", , - - - - , 2 , , , , r , , , , , , i , , , , , , , , , # 9XUXBXr 1 - , - , - - - - - - - : - qXsX; - - - - - : , - - - - : : - # o # # # o o o % > o o o & O . . + . . . . . . . . . . . . = @ . . @ = @   . . . = .     . . @ . .   . . . .     o o & # o o o o > 0 # o o # % # 3 # # # : # - - - - - - , - - - - , e , , , , , e r # # # - , q t , , , q t , , , , , , , e e , , , , r , , , , , , , - - - - # - - # # : A : % # # # : # # # # o o o o # o o o o o o # o o % # # ; 4 s b b < ; 4 4 4 ; - ; 2 ; % o o o % # - , < s h w < , f f K f H <.*.I f w q e , - - - 1 l - 2 w - , v , , - , , - v Q , S Y U } } U u.6X}.$.2.! t r e , , , , , - 2 1 - - - - - , r.k - - - - - - - - - - - - - - - - - - - , - # , , , , , , , , , , - - 1 1 z - - - - : - # # % r.A . # # # # # # ; z z {.FXIXqXz z 1 : - 2 x n a.z # - # - - - # - # # c 0.0.- # - - - - - - - 2 n z - - - - - - - - - - - - - # # - - # - # - # # # # c > o # # : ; # # # A 9 8 : # - # - # , - - - - - - - - - - - - - 9 1 - - - - n r - , - - 1 2 , z e - - - - - - - 1 - - - - ",
"- - , 1 , - - - - - , , - , - , , , e v , , , , , , , , e , , U.v - v Q , , , , , - - - - - # - lXNX2 # # - - # # - 1 2 - - 1 : # o s.n # # % % o # o o o o & 8 + @ . . . . . . . + . . . . . . . @ . @ = . . . . X @ X .   . X     .   . . .   .XoX. o o o o o o # # o o q.q.o # : 9 # # # : : # - : # - - - - - - - r , - , , , e , - - - - - , , , e , , q q , e r , , , , , w q , , , r r , , , , , , , - - - - - - - # # # # % # # : : : # # > % o o o o o o o o o o o o o % # # - s s 4 4 p d p s d 1 ; < 4 - # # o # # # - < s j f w w w t w L K U y I Y H y t w , , , - n w., - , - , e , , , w w # lXkX, t U S F ! } U D 2.} ! F u , r , , , , 2 , , 2 , , - , - , # - - - - - - - - - - - - - - - - - - - - # d.Q - , - - , , - , , - , - z 2 # - 1 - - - - : # : # o % # # # # # % 1 1 n HXUXUXIX].2 1 : - , o z GX].. - - # - - - # - : z 7 o - - - - - - - - - - # # - - # - - - - , - - # - - - - # - # # - # # # # # 8 & # o # % > % # o ].9 o # # - : 2 x # - - - - - - - - - - - # : r - - - - # e.n - - - 1 - k # , , - - 2 2 - # - x 2 - - - ",
"1 - - - 1 - - 2 2 - 1 , , 2 v 2 - , , , , , , , - , , , , e , o # 2 , 2 , , - - - - - - - - - : x z # - - - - - , # - z 1 - - x : # f.0.# # > > o 9 0 % o o o o + @ . . . . . . . . . . . . . . . + . . = . . = @ .     X = @     . X X . . o   {.oX. o o o o o o # # # # A Z # # # : : # # : n s.: - 1 z - , - 2 - , e - - - - - , , , , , , , , , , , r ^ u q , q i , , , , , , , , , , , , , , , , , , , - # - z 1 # - # - # # # # # # # % : # % # o o o o o # o o o o o o $ > # - < < w p d d j d d h < 2 4 < ; - # # # # ; ; s s h h f K f w t f L H I Y Y U H y t e h r - e e - , , , , , , q q u w w u.p.t y ~ U U U U D ! u.K ! bXCXU.# yX6X- , e e - - , - r , - , , - - - - - - - - - - - - 1 n - # - - - , - w.Q - , , , , , - , , - , - , - - - - : - #   o : # 8 > # % o # # % : ; 2 r.PXUXUXUX[., 2 : - - # : ].s.# - - # - - - - : : # # , - - - - - - - - - - - k - - - - - - - # - # # 2 k - : - # # - # # : # # % o # & o # o # .Xc o > % # % # - : 2 x # - - - - - - - - - - - - - 1 1 - - # - - - , , - - hXGX].# - - , , , - - - - - # - r ",
"- - # - 2 - # i.i.# , , - e }.Q - , - , , - - - 1 , , , , , , , , , , , e , - - - - - - - - - z 0.# # - , , - - # - - - - - - x # c 9 o # # # # # # 0 8 o o o o o . o . . @ + . . . . . + . . . . . 8 . @ .   @ .       . `.0   . . X 0 @ . . o . & o o % . o o o o # # % # # # # # 2 : : % # x 9Xz - - 2 # - 2 z - - - - - , - - # # - , , , r e , e q t F t q q q i e , e e , , , , , e , - , e , , , , , - 1 - 2 1 # ; - # # - : # # # # # # # 2 > o o o o # & # o o o o $ $ $ : ; < w p p p p f d p h < < < 6 4 ; - # # - , r b p w f K L H w y f U U J J Y Y U H y t i e , , , , , , , e , q q q q ! F y t S S G S F F t t t F , u.UXUXwXo 5X].- , , , , , e , - 2 , - - - - - : - - # - - - - - 2 z - - - - , , - # - v z - e r e , - - , - - - # - - : - # 0.9Xn # : % % # o # o # 9 > x n : rXLXUXjXv z 1 : # - - o n s.- - , , - - - - : 1 - # - - # - - - - - - - - - x - - - - - - - - # z 0.z n 1 - - o # - # # # # # o % # % o o # 3 t.> # # % : : # o o # - - - - - - - # - - - - - - - # - - 1 r.z - - , 2 - n LXUXlX# - - - - - - - - - - - r.x ",
"- - - - - - - 2 e - , , q , r r , , , , - - - - # # r , , , , , - , , , - , - - - - - - - - - 1 2 - - - # - - - - , - # - - - # : 2 2 # # # o % o o # 9 % o o o o . o . . + . . . . . . + . . . . . @ . . . . . . {.C   . @ X = . . . = . . . o o O o . 7 y.& & # # # # # % # # # : # # : 1 - # # - - - - 1 1 n - 1 - - 1 1 2 - 1 % % : , , , , , q i u t t u q u i e , , , b , , v r - , , , , , , , , , , - 2 - # - - - - - : # # # # # # # # : 9 > o o # o o # o o o o # > # # 2 ; s f f E d p j d d s w s < < ; , ; , - 2 s r b w p f J K f t y H H P H *.Y Y ` U y t q , , , e e , , , q q q q t D U U P P U S t t D t t t u u q e yXlX^ q # - , , , , , , - - 1 1 - - , - - - 1 1 - z 1 - 1 1 - - - , Q r , - , z r - 2 2 - , , , - , , - 2 v - - - - # : o fXUXrX  # : > o # o o # : # 9 z x x f.[.x x s 1 : % # - , # # - - , , - # - - - - # - 1 - - - - - - - - # - - # 2 z # - - : - - # 0.].o # - # : a.A # # % # # # % o o # % # o % o # # o > % o # {.cXr.o - - - - - - # - - - - - - - - - # 2  X2 # - , - i.0.XXcXd.# , - - - - - - - 1 - - n 2 ",
", - - - - , , , , q q q i w q , $.r , , - , , o 9XyX, e - , , - , , 2 - - , - - - - # o # - - - # - - - - # # - , - - - - # - # - 2 # # % # % # o # o & $ o # o o o . . . . . . . + . . . . . . . . . . @ = .   . jX{.  .   . @     .   . . . . o o o o o V + o # o o % % # # # # # - - # - , - - - - # 2 [.n 1 - - - - 1 - - - - : > : - , W u , h R i d.R q u t q , q , w e , , r w , , , - # - i r , , , 2 - - - - - - - - - # # # - - - - - : : # # # # o o o o o o o o o $ 3 ; ; d h p j d d j p O.b b b < 4 ; 2 6 2 1 < - 0XHXu.- J Y f f f K L f <.P.J Y *.<.Y H H t t t q e e - e i e q K q y S S P P P P D t t D t t t q t e e , , q r , , , , , , , , , - - - - - - - - - - , - Q 2 - 2 x - - - , r , , , , e , - - - , - , - , , , - v a.- - : 1 # - 7 s.qXq.o % % % # # # # # o # # : : 2 : # 2 s 1 - # # # - - : , - # - # # - , - - - - - 0.2 # - - - - - 1 - - , - - : - - # n 1 # - - - - - # : : n z # # # # 2 > % % # # # # # # # # % # o # # % BXUX9X. - - - - # # # - - - - - - # z 1 - # z  Xk - - , v - - r # - - - - - - - - , : - - # - ",
", - - , , , r w t K i y K i t q i e , , , r r 2 rXkX- # - , , , , - - - - - - - - - 1 9X0.- - - 1 - # # ; - - # 2 - # - - - - - - - # # # # : % o # # o o o o . o o . . . . . . . . + . . . . . . . . . @ . . . . . .     .         . . . . . . o o o o o . o o o o # # # # # # # # # - - : # - - # # - , 2 1 - - - - # # - - - - - , , - , b r e r r kXIXmXF q t u q q q e , , , , , , , , Q rXQ Q Q , , , , - - 2 - - - - , # 1 - - - , - - 1 1 - # # # # o > # % % o o o # # ; 1 < d p < w b w < , < d s +.s - < 1 < < < h , kXPXE , L @.<.@.f y H P 2.P.J I *.<.U U Y K K t t w w h , l e q t t t H U ` ` ( ` S S S y t D K t t q q q , i E e , , , , - , , , , - - 2 , - - - - 2 - - - - - - - - - - - - , , , e , - e - - , , o o , , , , 1 , - - - - - - : # o o % # # # % # % o o % : : # : 2 1 2 2 1 1 - # # % - # - , - # - - # - - - - 1 - # - : # - - - - , - : # # # - # # # # 1 : # - - # - - # - - # # # # : # c 2 o # # # # # # # # o # % % % % o ].hXn o # - # - : - - - # - - - - # n 2 - - , f.1 - , - - - 1 x - - - - - - - # - # - - - - - ",
", , , , , w q K K y S S S y i u q q , , , , , R - o 2 d.Q : , , , - - - - - , - , , x hXa.# # - 1 : : z z - # , - - 1 - # 6 1 # - # # # # # o # # # # # o o 8 0 o % o . . . . . . . . . . . . . . . . . . . . . @     .   X .     . X X . . . o o o o o o o o o o # # # # # # # # # # : : # # - # - - - , # # - - - - z - - : - - r q - - - - e i , w.LXUXUXU., t ^ ! , , , , , , , , , , - u.MXa.- , , - , - - , , - - - - - - - - , - - - , < , # - : # # > 2 # # # # # # # ; 1 ; < < 4 ; s < < < +.0.; 4 B z , 2 - , , 1 s j }.5Xw Y Y J P.P.y y t H I <.Y J P H P H y H K t t q q ~ , e e q q F ~ S U U [ b.3X{ t t S S F ! y q q u u q t i q , , , , - , , 2 , - - 2 , - - - - - - - - - # - r r - - - - , , - , , 2 r 2 , - -  X}.# - , , , - - - - - - - # # # % # # # # o # o # # # % o o hX{.o 1 - - - - # # # - - - - # - - 2 : - - - - - - 1 2 # - - - # - z : # : - : : # # # # - # - - # - # # # : : # : # # : # # # # # # % # % > o # % o # # % > : o . : '.x # 9 x x - - - - - , , - - 1 - - - # # , , - - - - , - - - - # o - 1 v - # - - - - - ",
"e e , w i , q K { y y U D y t i R i W v - e , , , , , r.v - , , - - - - - , 2 , - 2 n # # - - # - # n  X9 # - - , - - # # 1 - # - # # # # # c y.o o # o # o 8 Z o o . . . + . . @ + . . . . . . . . . . . . . . .     = @ .   .     . . . . o o o o o o o o # # o o # % # # # # % % # : # # # # 1 MXBXz # - - - - - 2 i.# - - - - v , - - # - e q u v 0XHXkXF u t t u t q q , , , , , , e i.r - , , , , , w 2 , , - - - - - - - # 1 2 - , , , , , - - , # - z - # # # # % # # # n r.< - 4 < ; 2 2 - [.9Xo < ; 4 s < - # , 1 < s w w X.Y X.*.X.U f y y <.Y P Y J H H U H t y t i y t t q q q , q q t S { U S P./.5.U D D S S y t t y t u u t t q q e , , - - , , r r , , - - - - 1 z - - - - - - - 2 2 - - , , , - - , , - , z , - # mXkX# - - - - - - - - - - # # # # # # # # # % # o > % o # % o y.A # - # # # - - : : - - - # - - - 2 1 - - - - - # 1 k - - - - - - : # # : # : # # # # # # # - - - # # - - : : # % : # o > : # # # % : # o . . % # # % 8 # % # # % : q.9 # 2 : - # : - - - - - - - - - - - - 1 1 - - , - - - 2 - - - ].f.# 2 z 2 Q - - - - - ",
"w , w i i h U y S S S S { U q t q , v Q , , , , , , , - , r , , , - - z n - , - , - - # - - - - - - - z - - - - - - - - - - , - # # # # # # c a.o o # o # o & 8 o . . . . . . + @ + . . . . . . . . . . . @ X   . .   = =   . @ .   . . . . o . o $ % o % % # # # o o # # # # # % # # # # % : # 2 GXHXz o , , - 2 k - - - 1 - 1 - - 1 - # : - , u F t w W q t i u t t t q q , , , , , , r i.v - , e e , , v e - - - - - - - , # - , , , , , e < , , , 2 - - - - , - # : % # ; - 2 b , - - s B 2 ; ; s s < p - e.p.- +.z # ; < p w f L X.*.X.Y I y y H <.<.I U P y f K t y h y t t y t , q q t q t t t S H q iXGX' S S S S H H H y t y F F t t t q r w , e - - , - , - , r - # - z [.2 - - - - - - - - , Q z - - , - - r , e r , , , 2 2 z - - - - - - - - - - - # # # : : # o o > c o # o o % r.8   . - , # % % - - : - - - - - , # # 1 x - # - 2 - - - - - # - - # # # # 2 # # : # # # # # # # - : # # # : # : # # : : # o : > # # % : : # o A A o o # # c : # # # # # o : : # o # - - - - - - - - - - - - - - - - - , - , 1 - - , 2  XUXLXr.# - - n , - - - , ",
"w , r w , E K t y t t S 2.F u e e , , - e , , , , , , , , r e , , , , e e , - , - 2 - - - # o 1 - - - # , - - # # - - - # # - - - - - # # % # # # # # o o o & 8 o o o o . . o . + + . . . . . . . . . . . X = 8 . .     .   @ @ .   . . o +   m Z . o # > % # # # # o # # o o o o % > % # # : > # 0.0.# - - - - z v # k bXs.o - - - - - - - , , e q u q t R i t t u t u q q , , , , , w , , , , , , , , , e , , 2 , - - - 1 o  XhX- , w h w , , , , , < , - - - z n ; # : # # ; 1 ; , < - s b , - o , , < p p s < # ].T.o # < w f f *.*.4.4.<.I J P P I I Y U y t w q q t q q y y t Y 2.y t t t t y S S S S P.>X5.U S y S U [ P H S y D F t y t u q , , r - - - - - , - , - r - - 1 - - - - 2 - - - - , z , r 2 - r U.2 , , , , - - - # , - , - - - - - - - - - # # # : # % 7 o # & o % & # # 2 # o % - - # o > 1 - : # - - # - - - , - - - - - 1 - - - - - 2 - # - - # # : o . # : 2 : # # # : c 2 # - - # # # # # # # # # # # # # # # # o c IXNXo o # # o # # % # # % # # # # : : # # - - - - - - - - - - - - - - - - , - - - - - # ].UXPX0.- 1 - - - - , , , ",
", , , e r , w y q q t y q q w q q , , , , - , , , , , , w q q , q i e , , , - , - < , , - v  X1 - - # - - : z ; # # - - - - - - - - - # # # % % # # # $ $ # o o # o o o o o . . @ @ . . . . . . . . .   .   @ 8 . .         = X X .   . . . 0 vXDXq.& o o # # # : # o # # o o o o % 8 # # # # % # o # - 1 - 2 z e , # 1 5X0.# - - - - , e , , e , , u 2.F F u F F t F u q q , , , , , , , , , , , , , , , , , , , e , - - , # d. X- , e r w w q , , , - , < , e r 2 r n # # - ; ; - 1 1 1 ; # # e.yXw., < s j s s ; s x - ; ; p f Y I *.X.1.:.*.Y Y <.5.Y Y P H t q q h h q q y y t { U.u.y t S U S S S S P P t U H S y S P I.{ H S S t t t y t i q r , - - i.2 # - - - - , n - - - - - - - , , - - , , - - 2 , - z }.e - - , - i.Q - - - - - - - - - - - - - - - - # # # : 9 o o o o % % # # o # . o - - # o % - - 1 - - z - - # - - - # 1 1 - # - - - - : n - # - # # : o '.9X: # : # # : # # 2 - # # # # - : # # # # : > # # - : # # # o 8 hX.X# 0 # 9 q.> > > 9 > % # # # 2 : # 9 0.# - - - - - - - - - - - - - , - - - 2 1 - - % # i.Q # - - 2 1 - , , , , ",
", , , w w < w , , , t i t t t q , , , - - - , , , , , , , w w , r r , , , , t w , < w b , w.5X, : : o # # ; < - - # # - - ; - - - - - - # # # # # # o # # o & % + o & o o o o . . + . . .   X . . . . . . .     @ &   . .   .   . . . . . . 8 vXDXq.> o o o o # # # # # # # # # # % % # $ $ # o # # # - , , < r , , , , o - 1 2 - - e e , e , < r , t u.} y y y t t u q , , e , , h v - , , e , , , , , , , , , , , , - - - - o . 2 1 - , , w w , w w < s r r h h w r s - # n 6 # ; < 2 b s - . [.UX].- 4 < 4 e.b p < , , < < w 2.5.y P.6X1.&.l.l.4.*.:./.3.H H t , w w w , , q t S S S U y t U F S { { y S H K t t t y S S S U H K S 2.U S S S U t ! b , r v , - - - - - - - - - - - - - - - , , - , - - , - - - - - - , - , - 0.n - - - - - - - - - - - # # - # - - # # # # o o o o o o o o % # o o # o % # # : - - - , - - - - - - - - - - - - - - - - , 2 - - - # # 2 # 0XDX2 o # # # : # # # # # : # # : 9 # # # # : : # # 1 1 - # # # # . o > q.> % 9 # # # > > # o # # : # # : x # - # : 1 # # - - - - - - - - - - - 2 1 - - 1 : 1 ].z # - z , , e e , e ",
", , , t t t q E hX5Xy t K K y y w , , , - , , , , - , , , , , , , , , r , , t t w y E w w h < , - # # # - - - - ; 1 % - - - - , - , - # # # # # # # # $ o o A 0 . 8 o o o o o . o o o o . . .   . . . . . . . . O & o . . .       . + . . + . Z Z o # o o o o o # # # # # # # : # o # % # # # o o # - , - , w w < < , < , r e l l e r w e , , b 5Xh q y K y t q t q q q , , , , , , 2 e , , , , , e , e , , , , - Q r - - - , , - - , - - , q i y w f h w E L < r h r , , - - 1 ; - , 1 1 - ; ; s a.d 4 p p , p.p.< p h < < w w @.<.q |.GXP.I l.m.v.*.) M.` H y w < , w , , , i F t H S y t S t t D { ! t t q i K t y S D ! 5.S y K t <.K y H Y $.K t i w , r r w.r - - - , , - , , - - - - - , z , - , - - , 2 2 - - , , - - - - # - - - - - - - - - - - # : : # : x % # # # # o % # o c 8 o 8 # # # o o & % # # 1 - 1 - , - - # # - - - - - - - - , - - - - # - - # - - - : - % # o . # : # : # # # % # # # # # : : # # - 1 - # : # # # # % o # # # o o o o % & o # o # # # # # # # # # # # : : # - - - - - - - - - - - # 0.0.# - 1 o [.HXr.# - 1 , w l r }.w.",
", , q y S S q kXUXIXu.q K y h K w i w , - , , , , , , , , , , , , , , , e R q w , , v r w , , < 2 - # - # - , < w < < < # - ; - # # - # : - # # # > > $ #   {.XX. o . o o o o o # o # o o . . X . . . . . . + . + 8 & o O . .   . . . . . + + 8 & o o 8 > # # # o # # # : : : # # # # % : : o # 7 2 - , < w < s w r w r h r i u R R e r r v r 2 $.w t y t t q q q q , , - - , - - , 2 , - r r - # , e , , , , , , k , - , - - , , - - , , , w y K y K L f f w $.~.w b r - - - # # : 1 - # 4 4 ; ; # 4 w p p p f f f h O.d w p f f H I 1.<.X.I :.*.&.:.` ) :.H t w w , w - U.lX! i K S H F y t t U ! t q t y t t , 3XiXt t b./.S t y H t S K U y y ~ h , w , , 2 8.1 - , - - , 2 , - - - , - - , , - - - - - - 2 2 - - , - , - - - - - - - - - - - - - - - # # - # # : # # % : % # % # # & & . `.jX& o # % # % # : : n z # - - - - # - # # - - # - - - - s ; # - : - - # # # n 2 : o t.'.# # # # # > : # # # # # # # # # # - - t.0.# # # # % % # # # # # % % o o # # # # # # # # # # # # # # # - : # - 1 1 - - - - - - - - # a.a.# - - - 2 0.1 - - 2 q u r 2 rXr.",
", , t S G S q 5XPXNXb , y t i K w R r , , e , , , , , q e e , , , , , , e h w w , , , w , , , , - - < ; # - - < p p ; | ZXrXo - z 2 # # # : : # # % # o #   {.XX  o 8 $ o $ > > > > : # # o . & @   . . o o @ o 8 3 > > 8 o = @   . . . . . . 8 & o o 0 > o o o o # # : : - # 2 % o # # - : # : 7 : # ; < s b w s p h h E $.u.d.R h R w h }.Q - - , w t K q , , q , , - - - - - , , - - , , v lXlXl , , r r , , , , i.Q - , , , , , , 2 2 , q y H H U P U t <.HXUX6Xb Q # - # # # : z : # # ; ; < < p p j J J f f L  .j f j J L L L X.J H *.X.2.X.I :.3.:.Y H f w , , , - w.5Xv q t t y y t t y R i t t t t q t , I.>XP P G S S S y y S K U y t q i i q , r - - - 2 e - , , , e , e , , - , e - , - - r r , - - - - n 2 , , - - - - r 1 # - - - - - # - - # # # # # : 2 % # ; % o o o # o # o s.sX9 o o o # % > # - 2 - - - - - - - - - 2 - - - , - - # - : : # # # # # s.a.> x : o q.y.# # # % # 9 : o # # # # # # # # # - : 0.9 o - # # # # # # % o c c % o # % o # o # # # # # # # # - - - - - # # - - - - - - , , - - - # - - - - - # o - , , , q I.u.0XLXcX",
"q q S F S S y t e.E w K K t q t t w , , , , , , , , q , , q , , , , - , , , r r r v , , , , , , - - 4 ; # - - < p (.uX7.CX9Xo ; b z # # # - % # # # # # # # o o . c s.o o > 8 # o > 8 : % o o . @ X . . o 0 8 Z '.3 8 & & . & @   = @ . . . . . . o o $ % o o # o # % # # - : : x 8 o : - # # # # # ; < - 2 b < - h L $.w  XHXIXcXw.~ i r h , s 2 , , e i , , , e , - - - - - - , , - - , - Q UXUXQ . e , e , , , , h e , , , , , , , , w q y Y U P Y Y Y 5.P.LXUXwX, r - - - - # - - : # # # ; < p p j J L L  .@.@. .g f L J J <.X.J Y ` P f @.@.I ) 3.*.U H f w , , , , ].Q , , q q t q q q q t , q t t t q q y t y U } U S S S y U H H K t t q q q , w , , - - z v , e e , , - , , 2 - - , , - - - z z - - - - - U.x 2 v - - - - 2 2 - - - - - - - - - - - # - - # 9 > o # # # # % o o # # o . > > > # # : o 9 9 # - - - - # - - # 2 x # - r x # - : # 9 n # # # o % A n o % > . . o % # o % # % # > : # o # # # # # # # - # 9 > # # # # # > % % # 7 > o o # & # # # # # # # # # # # # # - # # : : - - - - - - 1 1 - - - , - - - , - - , , , , , i I.wXDXUXGX",
"t y t t t y y y q q t ~ ! y y t t i q , w v , , , w q q , q q , , , , , , , h h e v , , , , , - - - ; - # # # < g pXJXiX# o 2 , - - # # # - # # # # # % o % o & 9 o # % c c 7 `.XXZ 7 8 : % o . + + . + $ 8 > `.oX9 c > o o . . X @ .   = @ {.vXy.. & 8 8 o o # o o # # : - , # A Z o # # # : : # # ; 2 # < 4 O.~.P Y <.E CXUXUXUXyXK b r e , , - , , , , , , , , , , - - - - - q , , , , , , 5X5Xu.i.- e , , , , , , , , , , , q q q t t y U Y ` I I I U <.P /.6XL w s s , 1 1 ; , 1 - - - s b , w h f O.L @.2.#. .g f J H H Y I J J Y ` <.@.f y P <.H , L Y y y , , , e U.8.- , w q q t q , q q e q q q q u t t t S U D U S S y y } K y y t q q q w e , , - - - - - , e , , , e , , , - - , - , 2 - - - - - - - - - - - 1 - - - # - - - - # o # - - - - # # : : : # x > # # o # # # o o % > # # o & > o # # > A z # - # - - - - - # - - - # : z : # - ; > : # - o o o # # # # o q.0 . o & # # ].c . > > # # o o o # # # # # : lX9X  # # o # > # # % o o # # o # o o # # # - n # # # # # # # 2 2 # - - # # - - - - - - - - - , , , - - - e , - , , u i Q 8.GXMX",
"y i t , r h t y S H S t t y y i K i w , e r , , e u w , , q q e R r , , , h , , - # - - - , r i.r - - # # # # < a Q.tX(.p # : ; - # # # # - - 2 # # # o o o # % % o o > y.8 0XIXUXDXy.8 > o # o . . . % 8 Z 8 XXjXm Z 8 % o + . .   . . @ X fXUX{.  O + + o o o o o # # - - - r : o # % ; B 6 $ # o # : ; ; < %.7XY Y 5.%.HXUXUXUXhXy ! w < v , - - , , , , , , , w , , Q , Q w.- , , , , , e o . MXmX, , , q q , , , , , , , q q t K H H H P [ ` [ Y Y Y P Y , - f y f h w , e r < w , s w r h w p j j E j p H L L @.L J H U Y J J J Y ` U <.L H U y U.eXd.Y S , , , , e - - , q , e q q , e , , e q q u t u F t t y S S D F y t t t i y K K R E w w , - , - - - - - - - - - , v 2 - - # # r - - 1 - - - 2 - - - - - - - - # , - - - - - # n  X2 # - - - - # # # # # # # > : # o # # # # 9 > o # # # o # # # : # # - - - - - - - - - - # - - # 2 : # # : : # > # XXlX# # # # o # q.0 o o c 8 o A > o o o # # o % & # # o % > # s.0.o # % o # # o # # # # # o o # o # # # # : 2 # # # # - : # : 1 # - z f.1 - - - - - - - - , , - - , 2 , , , , - , , ! W e kXbX",
"q , , q w , q t S { U S U U t q i h q , , - - , , w i w , e e , R r , , , r , - , - 1 # - - l U.k # - # # o # ; 4 p w , < # # - - # # # : : : % # # : # # # o o o % # > > x HXUXUXUXfX> # o 7 & . o o 8 8 8 Z DXJX{.8 & % + .   .   . + .   8 y.& . o . . o o o o o # # : - - , - # # # ; s.4 # $ # o : : s p J y P./.5.2.wXPXUXFXd.K E w , e < r - - , , , , , , e , e d.r , Q R R , , q , , e q U.U., q q q q , , , , , , q q q ! { P P ` [ v.` I H H H y K P.@.f y y t i u.$.w w t w h w w w f h h L d p |.6X@.L L U U Y Y H *.Y U Y Y H f H P S U GXUXnXP U <.w q q , q e , , , q q e , , , e e , # , t t i u q q D F S D t t w q q q t t t t q q , , , , , - - - # i. X2 - , , - - z n , , - - - - - 1 , 1 - - , 1 - - - - - - - - ; o f.BXn # - - - # 2 x # # # # # : : # # # # # # o % % # # # # o # # # # # - - - - # - - - - - - - - - # # # # # # # : o 0XmX# o # # # # o o o # # # o . o # # # # % > # # # # o > 9 % . . # % > % # o o # o o % o o o o % # o # # # # # # # # - : 1 : # - - 2 8.- - - - 2 1 - - - , r , - - e , , , , , , , e i } I.K ",
"u.i., w q ! F t y Y U P ` U t t q i r h , , , , , , e e , , , , r , , , , , , , , k - : , # , - - - 1 # # # # - < < , - - 6 - - - - # - - : % # # # # # # # > 8 % & # > > 9 DXUXUXUXqX+ y.q.o o o o % y..XqXNXUXUXHXsX.Xy.* & = .   . @ . . .   o o . . . o o o o o # # ; 1 , , 1 # - - , < 1 - - # # # - s h y f 2.<.Y p.2.}.wXp.$.E h h , - , v - , - , , , r i e , - , , # w.~.^ q q , w e q q , , u q q q q , , , , , , q t i t U P P [ [ [ P S H H y , y 5Xu.t K y f y h $.~ w f L h w f f K L h h - ~.IXUXwXq L ~ I P Y./.) <.*.Y H @.5.P S y K mXUXiX, 7XPXyX, w q q q q , , , , e l u , e e r }.W e t t q t q t D y t t q , , , q q q u q w r w , , , , - , - - Q a., - - - - o rXBX- w.2 - - - - - - - 1 , - 1 - - 1 - - , - - # # - k - 1 : - : # 0.s.# - # # # # # # # # # # % : : > % % % # # # # # # # - - - - - : - - - - # # - # # # # # # # # : : o o # # # # # # # o # o o # o # o o # % # o % o # # # # # # o # o # o o # o # # # # o o # o o % 8 7 % # # # # # # # : # : : # : : - - - - - # - - - - - - , 2 - , , , , , , , , , r l R ! D y ",
"wXMX, , q 2.! t y y K _ P H y t q i b e - - - , , , , - , , , r v , , , , , , - - - : NXBXz # , - 1 1 # # # # # , , - - z : : # - - # # - # 9 q.: # # # o o > A > & # % > 9 '.DXKXgXV @ y.Z . . + % o Z {.0XNXUXUXHXqX Xy.& 0 C   . . . . . . . . . . . + o o o o o # # - - , 1 1 1 - , e , , v k - # ; < w h y w w y E 2.2.Y S Y ! E h w w e - , - - - - , , e r , , , - , - , r e q q , , q q u q q q q , q , , , , , , e q q i y S S P ` _ ` P S S S y t h f y K y ~ y t , t f f H L E @.L f L L f h , t.JXPX]., L U Y I /.>XI <.*.J H H ` P { <.t ~ /.~ h 3XDX7Xt h y t i q , q w , e W u q , o }.UX5X- u t q q y y y y S t q q , q q t t q q q v r , , , , - , 2 , - - , , , r 2 - e.s., z 1 - # # # 1 : , - - - ; - # # # - - # : 2 : # # - - - - # : # : - # : # : : # # # # # # # x > # o > 2 # % # # # - - - - - - - - - - - - - # - - - # # # # # # # # # # % # # # # # # # o > > # % # o o # # # o # # o o # % # # # # o # % # % # > % # # # > # o o # & & # # # # # # # # # # - # # : # - - - - - z : - - - - - - - , - , , , , - , , , , i i y S t ",
"@.2.q t t u u y y S S y U U y t y i r , i.v - - - , - , , - n Q - , , , , , , - - # 9 PXIXe.# , - - - # - - - - : # # 2 ].2 # - - , - - : # c x # # # # # # # # # > > o : x > c t.7 > 7 o . o + o o o & > 8 Z vXHX'.8 & & o . . . . . . . . . . + . + + & o . o o # # : - - - - 1 < , e u L.W i.i.- , p d w w w < w p h K @.K ~ K t h w s E r - , , - - - , , , , , , , - - - , - , w , w e , w l , q , , e q , , , , , , R u q t S S H H U P P P S S H y y y w t y t f y q t y y y f w nXkX, L @.f w p p - +.e.< s f U *.m.v.:.:.I *.J H U Y S P.u.Y H t *.*.H Y H U y t F ! t t q r , , t , q e - 8.9Xw.U.u.q R K K F U S t t q q q q q q t q q q e e , , , - , , i r i e e , , r , , # o , - , 2 rXrX0.- - - , - 1 : o # # # : # # : 2 2 ; - - - - - : : - # : - - # : % # # # # : # # : # # : n > # # # # # : - # # - - - - - - , - 1 : x : # - : : - # # % # : # # # # # # # > > o & > # : # # # o o # # o # > > # o # o # # o o % & > # % # > % # > # o o o o o # # # # # # # # # # # 2 n # # - - - - # n 2 - - , , - - - - - , , , - - , , - , w E i t t ",
"y t t q w e q y t S y y h y S y q e , v lXU.# r - - - 2 z 2 - , , , , , , , , - , - # a.s.# - , - - , - , - - - z % # : n , - - , 1 - - - - : # : # # # # : # o # o # > > > 2 : # 2 9 > o o o + + o o % 7 V 8 .XfX8 Z 9 & o o . . . . . . . . . + o . . + . o o o o o : - , , , , e e u 9.dXdX9.e T w.d d r r v w < s h p s s , e w w w w w , , , 2 , - 1 - , , , , - - : - - - - , , Q v , , , , , , e , , , , , , , , , w , q t y S U H H H H S S H U H y t w w w t t y w w f f H f p.uX~.f J f f w , w < # < d d L 1.*.4.>.&.>.&.*.I U ` P Y U y ~ [ 3.[ Y g f U U y t F F u u q q q q q q , q q e - q ^ F q y y F S U F t q q q q t q F i t q q e , r r , , , e h i h u r w e , , , , , , , - # jXUXPX0.o - - - o x [.2 # # # : # # : 0.1 - : - - - # # : : : : # # # : % # # # # : # # - . s.lX9 o # # # # # # # - - - - # - - : o  X0Xo - - - - : - # # : # # # # # # # # # # # o . % % # # # # # o # # # > rXy.o % $ # .   # # o # > # # # # # # > > o o o # o # # # # # # # # # : # 2 t.: # - - - - . o - - - , e - - - v 2 , , , , , - - , , q q w h w ",
"y t q E R t y t S H U Y H y U 2.h , w r v , , , , , , - , , , , , , , , , , , , e - , # # , - - - - ; , < , , - - # # # - - - - - - - # - : # : : # # : # # o # # # : 9 # # % : V > # o o o o o o o o # & 9 > '.XX7 9 8 & o o . . . . . . . + @ . . + . o . o & o o # o # - , < E h t , 2XKXKX2X- r +.j 4 2 , z v w h p < w 2 ; - , , , w < , , 2 , e , 1 , e Q e , - - - - - - - - - $.^ , , , , e , e , , , , , , , , , , , t t K y H y H U S S y y H H S i , , u i t K 3X2.f H Y <.!.P.w X.L L p w , < p +.b p j J X.*.*.1.*.I X.X.Y I U P Y K K y U { U U H H H H t y t i $.t q q t y q t q , , i q q , q q q u t y D t t t q t t u t t u q e , , , r r , , e i F e , e ! y q q , e - - - - - # 1 DXGX0.# - - - # x ].1 # - # # - # : : # - - - # - # - - - - # # # # : % # # : # # - : # # A q.# o # % # # # # # - - # - - - - - # r.f.# , # # # # # # # # # # # # # # # 2 3 # o n [.% # % o # # # # # # # > t.9 o # o . s.XX# o o o # # # o # o > 9 % # # o o o o # # # # # # # - # # # # # - - - # o 9X X# - - - r r - - v , - , - , , v e - - , w , w y ",
", e e h h t K S y P U ` [ Y L @.K w w r - , , , , , - - , , , , , , , - - , - - , - , , , , - - - # # # , , - - - # - - - - - o . # - - z 1 - # # - # : : # : # . . # % > # o # s.0 o % # o o o o o o o $ & % V y.& & @ + % o o . . . . . . + . + + . O o o o . . rXFX'.o ; , < h p f t L.SXSXL.- , < < [.DXlXe.2 - , p p s p < ; w t w < < < , - , - , - , e b - , , - - - - - - , w , w.r , , - - e , q q , , , , , , e , , t q t y y S U S H H t t y K H t q , q w w f P.<.H H ` <.J J 1.<.L f p p p w p E h  .J J X.X.X.P.L f L L Y I P H K f f U U U P P P H H S y y t y ~ t t S H S y u , ! v , t q q , i U.u t y y t q q q u q u t q w e , w.- - , w q q t K ! hXDX9X! } t e , , - , , , - , - r v # - - - - - 1 # # - # # - - - - - - - - - - - - - - - - - # 0.n o # # - # n a.- : - : o . % # # 2 9 - # # - - - # - - - - - - o o , - # # # : : # # % : # # # # # o : ; - # b f.# # # # # # # > : # # # . o # # o .  XcXo o o o o o o o o # # # # # o # # # # o > 1 # # - - - - 1 : # - # : : # . lXkX# # - - - , - , - - , - , , - r e , , v Q w t y ",
", , q , , w y S ~ U S U ` Y S y y q s 5Xv v r , , e e , , , - - - - , - - , - - , , , , , , - - # # # - - - - - # # # - - - - r.{.2 # - 2 - - # # - : : # - # 2 {.t.o # > o # o # o o o o o o o o o o o o & # # : o o & o o o o . . . . @ . . . & o . + o o o   + DXUXqXo ; < 2 , r K ! D 9.9.e e 2 < l GXUXUXXX2 ].Q w f y f f f w h E h w < < < - - - - , , , , , , - - - - - - 1 r , e , - , v r e , , - e , , , , e , r u q u t t t ~ <.t S y t q q S H t q q t t y H H H I I J U Y X.<.<.L f y f f h L h E @.g J ....J K f f w f f H H f y y y K U H S H ` U H H y t q ~ f t t U { S u q , v i , q q q q e R q q t u i t t q u q q t q w - 9XPXrX# , i e q F t wXUXUXIX}.y i , - , , , , r , - , # # - 1 - - - - 1 - - - 6 - - # - : - # - - - - - - - - - - # # s.0.# , # - # z ].z - - # # # # 2 z - - - - - - - - - - # , - # - - : - - : # # # # # # ; : # # # # o # # - ; , # # # o o # # # # > : # # # # # % # 9 8 o # % # o o o o o # # # o o . o # o # # # # : ; # # - # - - ; - - : # - : : : : : : # - - - - - , - , - - , - , , , , , r i q y H ",
", , , e q q i y H H y S Y P U H y q r e.r }.0.- - , , - - - - - - - - - - - 2 , - , , , , , - - - - - - - # # # # # - - - - o cXUX[.. - - - 1 - - - # # : : . 9XUXPX8 . % % # # # & o o o o o o o o o o o o # o o # 3 8 $ . . o . . . . @ . . . . . + @ + + + .   y.0X0 # ; - ; r e r K R u e r , < r e lXUXIXs.x JX5X- y y f K L w y E L w , s e.- 1 - - < e , , , < , , , , , , , - , - , - z yXw., , e 8.e , , , , , e h e q u u t q U ~ t t q q q t q q q q w t t f P I J I U I H U *.Y Y L f f L f f K Y J f J J J J f L j w $.7.f y f f K y q w f H H H Y Y P P H U ~ p.U q t S U y q q e , , , q q - # , , q t t u u S y q u q q u u q # yXUXmX- - e , e i q hXUXUXUX5Xt F , - - r , , - , - - - , d.n # - - - - - # : [.0.o # - 1 , - 1 1 , - - - 1 ; - # - - # - - - - , # # hX].# - - # # - 2 z # - - - - - - - - - # - # a.+.# - - - # # - # : : # # # # # # # # # # > ; # # # o o o # # : # # # # # # # # : > > > o o > # # # # # # # # # o % '.c . o # % # # # # # # - - - - - ; ; - - - - - - # # # - - - - , , , - , - , , r e , , , , , , q t t ",
", , , , , w w t y y y U U S U K y h w - , 2 2 - - - - , 2 , , - - - - , - - 0.z - , , , , , - - - - - - # # # # # - - - - - # ].fXn # - - - 1 - - - # - % : . [.LXCXx # % # # % # 8 > o o o o o o o o o . + 7 o o > 8 O o . o o . . . + . . = @ . . . o o o + 8 8     o # ; 4 < v l e r i p p < < < r e v oX'.; s p.b w h h w w p y w y h s < , r , , , ; < r w , , w < , , , , , , - - , - - 2 w.e , r i.}.e , , , , , , q E R q y q t q t t q q q t y q q q q t y H U Y Y Y J H Y L P ` U H L f y K f f J L L L J J J f w w s , U.u.y y y h w w $.f y H H H Y :.:.*.P H Y H U t t S H y w , , , , , , - }.yXW - e u q t t y y t } ~ q u q e , r 5XQ - , , , q u u u.NXIXxXW F t , - - , e v - - r - - , n 1 - - 1 - - - - - n 2 - 2 # , # - - - # - - - - - # # - - - : , - - - - - 0.6 # - # # : 2 - # - - , - , - - - # - - # # r.n - 1 - # r.0.o - # : : # # : # - - s : # - # % > # Z 9 o # # - # # # # # # # # # % # # # % # : # # # # # # # o 9 8 A 9 o o # % # o : : # # - - ; , 2 # # ; 2 , - - - - - - - - k x - , - - - - , - v , , , , v r , e i q ",
", , , , , , , q t @.~ y S K H U K w < , < # - - 2 2 - , , - - , - , , , , - 2 - - , - - , - , r - - - - # # # - , , , , - - - # # # - - - - - - - - - : : # - # r.c % : # # # & o o o # # o o o o o o . . o 8 # o o o o . . O o . = + @ & C & . o . & % o o o % & % o o # - < < 4 s e , - ; < 4 4 < r R r o # z < # , s s r < , < p w w w < < , < w < < < r w - , w w w < < < , , - - 1 2 - , - # - - u.d.1 , , , , e e - ^ GXDXF , t t q q u y y y y y t q q q y H P Y ) I H I Y X.L H y y K h w w y h f L X.Y L J J J p < < 1 s h f K w w i , w u.y t f L Y Y >.>.*.Y P H H 2.U S S y y q , , , , , - e CXUX5X# , r u.i y S D t } } q q , , w - # - , , , , e q K F W U.Q t F t , , , - , 2 - 2 n - - , # - - , 1 - - - - - # # 2 x # # # - - # - 1 ; - # z 1 - - - ; ; # # - # # - o # , - - - - - - - , - - - - # # +.a.# , # - # # 1 1 : # x x # # : # # 1 2 2 9 # - 6 ; # # # # # # r.9 # # - # # # # # # # # # o # % # : > # # # # o # # # # # 9 >   o # # # : # # : - # - , - - 2 - 0.[.d ; , , - # - : - - # z e.- - v , - , - - , - , , - r , , , t t ",
", , , 2 , , , q q ! ~ i t t t t i w , , , , - - w.v # - - - - - - - - - - - - - - , - , , , w r , , , 1 1 - r r q t t e - - - - - - - - - - - - , - 1 1 # - : 2 o o > # % # # # # o # # # o o o o o o . o o o # o o o o . o O o + = O . & C o o o . 8 % . o o # o o o % - ; < < 4 4 , - - 2 4 ; < , , s p r r e < s r , ; ; - # ; s < < < < < w p s h w w s < $.h w h E E w < , , - - - - 1 - - , , , e e , , , , , , w r ! GXCXF , t t u q t y S S D t t q q q H U U Y ` ) I I *.X.J f y h w p w < h $.p f 2.Y @.L f L d < - 1 r y y H h w w h w , w y J Y Y Y >.:.>.*.*.U P H y U H y t , , , e , - , e 5XlX^ - - w.LXyX- S U F t q q e , , , , , - , - , , , e y U y F ^ i t q , , , # # - , , - - - - - 1 - - - - # # - - - - 2 2 - # - # # # - : - - - x 6 - - - # : : # - - : # # - - # - # - # # : 1 - # # # - - n r.- - - # # # - - - : # : - # # # # f.r.# - # - # # # # # : : - - - 2 - - - # # # % # o o # % # # # # # # # # # # # # # # : # o # # o o # % # # # # # - - - < ; z CXUXhX< , , , - - - - - : - - - - n 1 s b , - - - - - - , , , , , u ",
", , , , , , , w q , i h q , , , w , , , , - , , , - - - - - - - - - 1 z 1 - - - - , , , , < , , < r , 1 , , i F U F U i e - , - - , - , - - - - - - - - # # - 1 # # # # % # # o % o 0 8 o o # # o o o o . % # o # o o o . o . % 8 . o . . . . o . + O o o o # o o # : ; ; s p < j d # : # z B 1 1 , e < < , , < , 1 < 2 < ; - # - ; ; ; - ; b b < h f w L , t.LXyX# p w b < , , - - - # 1 r - Q , - e e , , , e i , , , i t ! ! t F t t t t K F S P G t t t q t t H H P Y P ) I H H J , ~.5X# < < , < p p j j f @.f f p j < - 1 w h L f f f y y y w y J Y L J J V.tX4.:.) ` H y H H H y q , , - , - - e e - # - e , W rXU.q S U S t q q , , , , , , - , - , , , , q t y y q q , q , , - - , - - - , , - - - - - - - - - - - - # - 1 - # - : # : # # 2 : : : - # # # - - # # # # - # - - # # - # # % : # # : # # : 3 # o # # - : 2 # : 2 # # - # # # - : # # 2 x - q.].: # # # # # - # z z z 7 2 x : : : % : # # % # # % # # # # # # # # # # # # # # # # # # o # # o # # # # # : : # - ; - b HXUXzX: < , - - - - # - - - - , - # # 1 1 - - , r r - - - , , e e w ",
", - - 0.}.- , , , , , i , # # - - , - - , , h i , , - - - - - - - - , r 2 1 - , - , - < < , w w w , e e r i F ~ F y K T i e , , - , , - - - - - , - - - - # : - # # # : # % # o % > % o o o o & # o o o . o # % # # % o . . . o O o o % C & o o . o + o o # > o o % 2 2 < s s < +.x # # : - 4 4 r 1 r 1 - # - - - - ; 2 2 1 , - ; # # # # ; 2 b s w f f f < +.zX6X, w w < s < < - - - - - - - v e , , , e e , e i e q u t q , t F F t t q t t S _ _ G G D F t t t y H H { /.Y H y L H f E $.s b b - < < < , p w w @.O.d w < , r < E @.f f K K f f f J Y Y J J I >.Y.>.&.I Y H S S y H H t , , , 2 , - - , e e r r , , # , t y y t u , e W , - , - - , - , e , , e , , , , , , , q - # - , e e r - 2 , - - - - - - - - - - - - - z 6 - 2 - - - : - : 0.x # 9 2 # 2 : : : : : : % : : : : : . # : : : : 9 : % % # 2 > c s.: 2 # # : : 1 : > : - : : : : : : # : . 0XPXrX# & ; : : : : - a.lXr.- 2 x 9 2 : : > % % # > & o % % % % % % # % # % 9 : % % # # # o o % & & > % % > : # # 1 : : ; ; t.XXB ; 2 1 , 1 1 - : > : : # - 1 - - - - - - , n b 1 - - 1 , , w s ",
", , , v Q , - , , , , , , r.0.- - - , , , e , w , , - - - - - - - - - - - - , - , , , , , < w y y t , r i ! ~ ~ }. Xi.v R u , , , - , - - - - - - - - - - - 1 - # # : % # % % 9 % % o # % # # $ # o o o % # # # - : > % o o o o o o . 8 `.8 o o . o o o o # $ o # : 2 6 1 < < p 4 6 # o # # ; 4 r e - # - # # ; - # # - - 1 1 , , # # # 2 z < w h w w w t h < < h h p , w d , < , - - - - - e , e q q q q q q q q q q u F t y y t D t t t t t S 3.( [ [ U y i y q t y t ~ /.y t H H f u.h , h $.b , - < < $.j w h ~.O.p < , - r h h f J J Y Y J P L Y Y X.Y I ..*.I :.*.I J P H S S U H q , , , , - r ^ , , , , , e , q q i t q q q , r 8., - , - - - - - , , , , - 1 - # # - , , 0.n # , q , 1 2 - - 2 2 - - - # - - - - - - - s r 2 n - # # # > : : : > # 0.{.: : : n x # % : : : 9 # 2 t.c & : 2 # 9 2 o % % : > 9 f.: # : ; % : 2 x : % : : 9 : : : : > > . rXHX'.o > > : : : 7 0.r.9Xs.0XrXy.9 c > > & # 8 c # # % % % : > % % % 8 2 > c > % # % # '.jXy.o & 8 9 % # % : 7 7 % : : > 6 - # $ c n ; : : : : : : # 2 s.c # : - - ; : 2 1 ; 1 1 1 - 7 1 s s , ",
", , , , , , , r r - - , - U.t.- r - - , , , e , , , , - - , e 2 - - - - - - 2 , , , , , , w y y f h e , i ! $.kXPXUXFX[.l T ! e , , - 1 l - - - - , - - - - # # # # : # - # # 8 # # o & > # #   o {.0 o > $ ; # - # o o o o o . o o o o . o o o + O . . o o o $ > > % : 6 ; < s # - > % : ; # < w , - # # - # : : # # # # : 1 - - # # # - 1 < < w r w w w d.E < w w f f h w h < < < - - , , , r u i i t t q q q y R K q t t t D t S t F u q q S 3.j.Y.( Y $.t t t t t y y , y y H H f U ~ w s - - r s 1 - ~.5XCXlXs d p < , e , h J L ..I X.*.X.I Y Y I X.*.X.I *.*.:.) P ) Y H H U Y H q , , - - # w.U., , q , , ^ i , q i t , , , , , , - - , - , , , - - - , , , 2 , - - - - , ].).o - q , - - - , r v - # - - , - - - - - - # # # - - - 2 c % > # & % % q.{.% # % 9 > : > : % > 2 % 8 lX'.o 1 2 2 - 1 a.c : : > > # > > % : % % 2 > : % % 8 n # : > # > ; 2 8 A > : % > : : : 2 n 7 A vXLXJXDX'.8 8 & & # > 9 % & # % % & & % % # > > & > # > % # o lXUXfX  o % & # % & # Z q.# ; # : : > 9 > c B # 2 : ; % : % > > t.c % : - : : - x z : - ; - : 2 1 k r.i.",
", q e e e , , , , , , 1 - # # - e , - , , - r , - - , - - , 2 1 - - , - - - , , 2 , , , w y y y H U ^ w i h 0XUXUXUXUXHXu.F I.v , , , , , - - - - , - - # # - - # # c : # # # # # # # o o . q.fXZ Z # o # ; 4 d 4 ; # o o o . o % o o o % 8 o o o . O = + . + * > # o % > ; - s  Xs.% 8 : # o - w < - # # - , , - - # # o o o o # # # # - - - < < < 1 , 1 b h < w h p L J w h w < , - - , e r u u u t F i i i K q }.u.q y F F U D S t t t q ^ Y [ j.[ ( P.3Xy t t q q w w w w y K U U f L K w 5X}.- s 2 < # |.UXHXj p p w w h r w f ..X...I *.:.*.*.*.I I X.*.X.X.:.*.) I P U U U Y U f t q , , - , , , q q q , , q q , , , , , w , , , e , - r r r , - , - # , , , , t t q v - , , - : - , , # 0.bXQ o - - - - - - - - - - - - - - # # - - 2 9 & % & 8 # % o o > % > > # > > % > : > > > c c 2 n 2 z 1 r lX[.# : # > # > % % > > > % > % % % % # > > : : # > 8 % o % : % > : : - 1 7 > qXPXFXFXPXfX9 8 > # # & 9 > % # % # & % % # % % % & # % % # % o '.jXy.o % # # & 7 7 # > 7 : # 9 0 # : > % # > 8 > # > % % > % > o % : : % % : : : : : 2 > ; : # 2 - b d.",
", w w q , , r , , - - d.e.- , , - , - - , , - e.rXv # , - - - - - - , , , , , Q ].w r w y h y t y K ! t i Q NXUXIXIXUXUX5XD F - e , - , - - - - - - - # e.s.# - - # 2 > o & 8 # # > % # # . '.HXq.. jX].. # T.nX.X; 4 o o o o O o o o . Z XXO o o . + & + . . o # # # $ # ; . T.UXDX# o # 0 qXr.# 1 - ; 2 w < , , - o o o o o o # # # - - # - - , < s 1 1 , < < w h L K h h , w s , - - - i R r }.kXrX! K U U S F K F t S D U U U D t i u q /.5.S ( ( b.5.K y y t w q , , i h $.Y H Y ~ t f w bXrXo , s h < d  X~.< w w f f w f f L J =.4.*.:.*.*.I Y I I I I <.1.*.*.I P Y U P U U y y t , r r , - , , , , , q e q , q e , , e < - , , , , - r v v , - - w.U., - , , t t q r - , , - - - , , , v ].v # - - - 1 2 - - - - - # - # 0.].- # - # # > > > > > % % > % & % > > # : : > : : : : # 2 r n 6 : : z e.n : 9 c : : % : % : % > > % c c % % : > % % % : > ; : : : : % % # - 1 1 9 > sXLXFXFXHXjX9 8 > # & > > % % % % # % & # % > & # > % > > % % % o o o % # % % & % # # % % % # c A # 0 > > 9 > '.9 # > % # % % : : % % % > : : : % > % 2 2 - 2 : : s 1 1 ",
", q q w t q w e , , : e.0.< r - - - - , , , - U.bXv # , - - - - , , < v w r w y E t t y f h h t q w t t i v cXUXIXIXUXIX}.T i l e , - l v - , v z - , - r.].- 1 , , # # o o 0 % # 0 > o # - ; 4 - s mX[.. # p.nX|.o 4 % o o # o $ $ o o o 8 o . . . . . . . o o o o # # $ > # 9 lXXX# # . 0.HX[.o < , < h O.w v s : # # # o # o o # # # # # - # # , 2 < < 2 : , < w h h w s < < , , - - , ! i ].LXUXUXeXP j.( ( P y t t S S S U t U ~ q q t y S S U U G H S S t q q w q i v h U H P P <.f w w w b s , , b s w , - j u.h f f f H J J X.=.=.6.M.*.:.Y Y X.H <.2.Y 4.:.Y J J X.Y U U y f s < , 1 , , e v - - , , , q t F u q q , - - , , , , , , 2 v v , - o  XhX- - , , , , , , , , , - , , , , l , e k - , - - z 1 - , - - - - - # r.wX- # : # : : 2 : > % > : % > > : : : % > % # % : : : 1 2 v 2 y.fXfXq.2 z % c a.- - : : : : : : # # 0.0.# % : ; ; : : : % : : : > > % % x 1 1 2 2 2 '.DXKXHXHX[.9 9 > & % % % % % # c '.% # % > % : % > % > > & % # % # # % % % % % % % > > > o # : # : : ; 2 s.9 > : : % : : : ; : : # : > > > > : : > : : > > - , - 1 2 2 ",
", q q q w q q e e e , # - - , - - - - - - - , , - - , , - - - - , , q w h h f t y t y t y i i w , , q q h r ].PXUXUXUXxX^ F q Q Q , r l z - - z z - - - # o - - 1 , - - : : > # # : # % # , , , < < o - r 4 4 4 a m $ % o % $ o # o o o . . o . . . o o o o o $ o o o # o $ ; $ . . # $ # ; d 2 , ; 4 p j O.s s s 1 # % > # o o o o # # # # # - - , < < s x % - h s p p < < ; , - - > # r U.i hXUXIXUXZX<.n.b.' U S y y t D D S t ! u., t t t S S U S S H y ~ U.! q q q w u y y H U H L 3X@.t w h , w < w s w w p h $.K K J H X.X.X.4.=.&.m.6.*.*.X.X.X.J X.4.Y <.<.X.H f Y U U U t w s , , , , , w r , r , , q q u ! i q w w Q 2 - , , , , , , - - - - , , - , - z v - , , , , - - , , - , - l a.l , , , - - - - - 1 - # # # % - - o : : o > 9 : > : > : : > % : : 8 : > : % : > % % - - ; r h i.NXLXLXcXn r z : # > % : : > > % 2 x % > : % % : ; : : % : ; % : : ; 2 % % A 2 - 1 1 x c '.jXjX{.c c > > > & % % % % % 8 A % > > % % > % # > % % % > % % % % % % % % % % % > % # ].c % : % : : : : > % % > : : > : : : % > > : # > % % > : : 2 > ; - 1 - : 1 1 ",
", q i i h e q , , - r i.- - - - - - - - 1 z r e w e r , - - - , , , , q U U y f H y K K t t e , , , e e u R b }.mXDXhXr.l ^ u.e , , e W - 2 , # - , - - - # # - - - - , , - , # # % # ; 4 < s r < 2 # 9 z ; ; ; zXLX'.  o % # o o . o & + o + o . o o o o . o o o o & # o % # > $ > & o % > # ; < s s b j #.h < ; ; ; : # o o o # # # # # # # : - < < < s 2 ; , s h w p < ; - - , 1 2 # - v r  XUXUXUXkXM.P.3.[ U y S t F I.S y K q q t t y t t U F S U y t K ! u t R w , q t U Y H Y U u.K f h < , w h w w w , p p f h K J J X.4.m.*.:.:.m.;.;.:.*.*.*.I X.X.*.U Y L f f L U H K y , , , , w w q , - z w.e e w q q q t y t i ^ , - , , , , - - , , , , - - - - - , , - , - - - , e - , , - , e r.e - 1 - , r - - - - - : : # : : # # 1 : # : > : : % ; % % > % : : : > % ; > : 2 : % : 2 : r , }.KXFXFXGXs., r 2 % # & % : : : 8 > 9 % % # > > % % % % % : : # > > # > & & # > : ; 2 2 c 7 0 9 0 c > > 8 % % # % > > % o o > > % > # % % % % % % % > % % % % % # % > > > % % % % q.8 % 2 : : # > % > > % > > % > % ; % % > : % ; : > > % : : 9 > > : 2 > : : : ",
", , Q h w r E , , , r Q , - - - - - - - - , r u.w , 2 , - - , , r q i F y K K K K f U ~ t q , , , - - , e F ! K ! ^ v n , U.GXw.# , , , - , - r , - , - - - - 2 - - - , - - - > : % - 2 s h h p < 1 ; % # # ; 5 GXUX{.  + o o + o o . . o o o o . o o o o . o o o o 8 $ # # # # # 3 8 # # $ > 2 < s p < j O.d w < < ; - > 8 % o # # # # # # # ; < s s w w s < r < < < b s # - , - r , - - r R R 9XNXiX/.Y.3.` S P u.3.S S I.U y R q i F t t F F t F } ! t /.F q q u q , t y t S P I *.*.I Y H L f - w h y f w w p f j j f L H I :.>.^.V.>.,.>.x.m.>.=.>.=.*.:.4.Y U f f K E f y ~ i , r , w t y t q , , , , r , q q q t H K t w b e - , , - - , , - , , - , , - - - - , - - , , e r , , , - , , - - , - - - , - - - - - 1 - - 2 2 , , , , - - : > > : % % : > > # : # : % > c % ; > : : 2 2 2 r 0.NXLXPXcX+.s r - # o & % > > > > > # % & 7 & 7 > : % % % % % : > # > q.> # 8 > % > ; 3 : 2 c z 9 9 : > % % > % # % % % % % % & > # > # > > % % % % % > 8 : > % % : > : : # % % & o > % & % > > # % > 7 % & % % & % > % # > > : : > > > # ; : ; > : > & % % % > ",
"u., h e , e i , , , - - , , - , , , , , , , , r , , , , - , , r v i K t t f f f h h y w w e , - , - - , , i D F ! K R i , l U.i , , , , , , - 1 , , , h , , , , - 1 1 # # 1 # % > : - # w j h h s < ; # : # ; # q.].# . o . o o o o 8 + . o . o o o o o o o o o o o o $ o # # # # o o o o ; 6 ; 1 < d h L j j p p < < - 9 9 # % # - - ; ; # - ; < s h h p s r w < , w , # - 1 : - - , , r h K ! K U U b.b.` P P S 4XP.S P t U y q , F F t D t I.U.t ! u ^ p.t t t t t q t y f <.<.I &.4.*.U Y t $.5XR y L w f f f J f J f H P I :.&.>X/.>.>.m.m.m.&.M.V.:.<.4.Y U H y f h K t K h q e 2 , y t t y y q , , - , , , , h y S H y y i w - - - - - , - - - - , - - , - , , - - , , - - - , , - , , - , , - v 2 - - - - - 1 , , r k - - r w , , , - % > % & % % % % > > % 7 : x : > > ; : : : : 1 2 z 9 q.jXfXa.z r 2 : & & # : % 7 8 : % > # > c % % > > > : % # : : % > > x > # > > > > > > : 2 2 s 1 > : % & > > 8 % % % % > # # % > > # % # & c > % : : > 9 > % % > % % % # > % > % : > % > % % > % % : 8 > % > > % > & % % % > : > % # : : : > % # # & % % % % # ",
"j w e w < , - , , , , , , , , w , , e , , , q , q w q , , , r b r r ^ , i w f E w , , , , , - - - - - - , q t t u i q e e , # , e , , , , e w , , w r ! u u w , - # # # # % - # # o ].MXE w w E ].2 o # # # # ; .   o # o o # o o o 8 + . . . o o o o o o o . o o o & % o o # o o $ o o # # # # ; 4 h h p f g a p < # < < ; # # - - ; < < , , < < p h h p s p.w , s , - - - # - , - , w w y y K Y ` { b.3.[ P P ` ` _ ( _ ( U S u q t D t D ! I.U.t i ^ R - q q t i F t f y H P Y 4.v.>.4.Y U t E 3XE t y f L L H J H J J L L <.4.I &.V.V.m.M.>.=.I *.6.*.X.U H L H H H K K L f t , h r w K y y H K w , , , , , , , t y S H P t , , - - - - - - - - - - , , - - - , , - - - - - - - - , - - , - , - - 2 , , - # - n 2 , # # n 5X[.r r e , - : & % % 9 > % % % # > 7 '.x % > > % % > > : # 3 x > 9 8 : z z z 2 : > & % # B {.# > n # > : > > % > > % % % : ; : % > > % o % : % > & # % % : - - - 1 > > % > % & > % > & % % % % % % > o r.[.: % % 2 2 : % > # % % % : > : : : : > > : % > % > : : > : > 9 : : > % # % % % > : > % % q.c : > 9 > # y.c # % % % % % "
};
